;  Created by Sandify
;  https://sandify.org
;  Version: 0.2.4
;
;  Machine type: Rectangular
;    Min X (mm): 0
;    Max X (mm): 380
;    Min Y (mm): 0
;    Max Y (mm): 280
;  Content type: shape
;  Layer:
;    Shape: FileImport
;    Name: BinarySupport.thr
;    From file:: BinarySupport.thr
;    Aspect Ratio: true
;    Comments: 
;    Visible: true
;    Initial width: 10
;    Initial height: 10
;    X offset: 0
;    Y offset: 0
;    Rotate (degrees): 0
;    Reverse path: false
;    Fine tuning:
;      Connect to next layer: line
;      Draw portion of path (%): 100
;      Backtrack at end (%): 0
;      Rotate starting point (%): 0
;  Reverse export path: false
;
; File name: 'BinarySupport'
;

G01 X190.000 Y140.000
G01 X190.018 Y140.364
G01 X190.071 Y140.726
G01 X190.160 Y141.082
G01 X190.285 Y141.430
G01 X190.443 Y141.768
G01 X190.635 Y142.093
G01 X190.860 Y142.403
G01 X191.116 Y142.695
G01 X191.403 Y142.966
G01 X191.719 Y143.215
G01 X192.062 Y143.440
G01 X192.431 Y143.638
G01 X192.823 Y143.807
G01 X193.238 Y143.946
G01 X193.673 Y144.052
G01 X194.125 Y144.125
G01 X194.592 Y144.162
G01 X195.073 Y144.163
G01 X195.564 Y144.126
G01 X196.063 Y144.051
G01 X196.567 Y143.936
G01 X197.074 Y143.781
G01 X197.580 Y143.585
G01 X198.084 Y143.348
G01 X198.582 Y143.071
G01 X199.071 Y142.752
G01 X199.549 Y142.392
G01 X200.012 Y141.992
G01 X200.458 Y141.551
G01 X200.885 Y141.072
G01 X201.288 Y140.555
G01 X201.667 Y140.000
G01 X202.017 Y139.410
G01 X202.336 Y138.785
G01 X202.622 Y138.128
G01 X202.873 Y137.439
G01 X203.085 Y136.722
G01 X203.258 Y135.978
G01 X203.388 Y135.210
G01 X203.473 Y134.419
G01 X203.513 Y133.609
G01 X203.504 Y132.782
G01 X203.447 Y131.940
G01 X203.338 Y131.088
G01 X203.178 Y130.227
G01 X202.964 Y129.361
G01 X202.697 Y128.493
G01 X202.374 Y127.626
G01 X201.997 Y126.763
G01 X201.564 Y125.909
G01 X201.076 Y125.065
G01 X200.533 Y124.237
G01 X199.934 Y123.426
G01 X199.281 Y122.637
G01 X198.573 Y121.873
G01 X197.813 Y121.137
G01 X197.001 Y120.434
G01 X196.138 Y119.765
G01 X195.227 Y119.134
G01 X194.268 Y118.545
G01 X193.263 Y118.001
G01 X192.216 Y117.505
G01 X191.127 Y117.059
G01 X190.000 Y116.667
G01 X188.837 Y116.331
G01 X187.641 Y116.053
G01 X186.416 Y115.837
G01 X185.163 Y115.685
G01 X183.888 Y115.598
G01 X182.592 Y115.578
G01 X181.279 Y115.628
G01 X179.955 Y115.748
G01 X178.621 Y115.941
G01 X177.282 Y116.206
G01 X175.943 Y116.546
G01 X174.606 Y116.961
G01 X173.277 Y117.452
G01 X171.959 Y118.018
G01 X170.658 Y118.659
G01 X169.376 Y119.376
G01 X168.119 Y120.168
G01 X166.890 Y121.034
G01 X165.695 Y121.974
G01 X164.536 Y122.986
G01 X163.419 Y124.068
G01 X162.348 Y125.220
G01 X161.327 Y126.438
G01 X160.359 Y127.722
G01 X159.449 Y129.069
G01 X158.600 Y130.475
G01 X157.817 Y131.939
G01 X157.103 Y133.456
G01 X156.461 Y135.025
G01 X155.894 Y136.641
G01 X155.406 Y138.301
G01 X155.000 Y140.000
G01 X154.678 Y141.735
G01 X154.443 Y143.502
G01 X154.297 Y145.296
G01 X154.242 Y147.113
G01 X154.281 Y148.947
G01 X154.414 Y150.795
G01 X154.643 Y152.651
G01 X154.970 Y154.510
G01 X155.394 Y156.367
G01 X155.917 Y158.218
G01 X156.540 Y160.055
G01 X157.261 Y161.876
G01 X158.081 Y163.673
G01 X158.999 Y165.442
G01 X160.015 Y167.177
G01 X161.126 Y168.874
G01 X162.333 Y170.526
G01 X163.633 Y172.128
G01 X165.024 Y173.676
G01 X166.504 Y175.164
G01 X168.070 Y176.587
G01 X169.720 Y177.941
G01 X171.450 Y179.220
G01 X173.258 Y180.420
G01 X175.138 Y181.536
G01 X177.088 Y182.564
G01 X179.104 Y183.500
G01 X181.180 Y184.340
G01 X183.313 Y185.080
G01 X185.497 Y185.716
G01 X187.728 Y186.246
G01 X190.000 Y186.667
G01 X192.308 Y186.975
G01 X194.646 Y187.168
G01 X197.008 Y187.243
G01 X199.389 Y187.200
G01 X201.782 Y187.036
G01 X204.182 Y186.751
G01 X206.581 Y186.342
G01 X208.975 Y185.809
G01 X211.355 Y185.152
G01 X213.717 Y184.372
G01 X216.053 Y183.467
G01 X218.357 Y182.440
G01 X220.623 Y181.290
G01 X222.843 Y180.019
G01 X225.012 Y178.630
G01 X227.123 Y177.123
G01 X229.170 Y175.502
G01 X231.147 Y173.768
G01 X233.047 Y171.926
G01 X234.865 Y169.978
G01 X236.594 Y167.928
G01 X238.230 Y165.780
G01 X239.766 Y163.538
G01 X241.198 Y161.207
G01 X242.521 Y158.792
G01 X243.728 Y156.298
G01 X244.817 Y153.731
G01 X245.782 Y151.096
G01 X246.620 Y148.399
G01 X247.327 Y145.646
G01 X247.899 Y142.844
G01 X248.333 Y140.000
G01 X248.627 Y137.120
G01 X248.778 Y134.211
G01 X248.784 Y131.280
G01 X248.643 Y128.335
G01 X248.353 Y125.383
G01 X247.915 Y122.432
G01 X247.326 Y119.488
G01 X246.588 Y116.561
G01 X245.699 Y113.656
G01 X244.661 Y110.783
G01 X243.474 Y107.949
G01 X242.140 Y105.161
G01 X240.661 Y102.428
G01 X239.038 Y99.756
G01 X237.274 Y97.153
G01 X235.373 Y94.627
G01 X233.337 Y92.185
G01 X231.169 Y89.835
G01 X228.876 Y87.582
G01 X226.459 Y85.435
G01 X223.925 Y83.399
G01 X221.279 Y81.481
G01 X218.526 Y79.687
G01 X215.672 Y78.023
G01 X212.723 Y76.495
G01 X209.685 Y75.107
G01 X206.566 Y73.866
G01 X203.372 Y72.775
G01 X200.111 Y71.840
G01 X196.790 Y71.063
G01 X193.417 Y70.448
G01 X190.000 Y70.000
G01 X186.547 Y69.720
G01 X183.067 Y69.611
G01 X179.568 Y69.676
G01 X176.059 Y69.915
G01 X172.548 Y70.330
G01 X169.045 Y70.921
G01 X165.558 Y71.689
G01 X162.096 Y72.634
G01 X158.668 Y73.755
G01 X155.284 Y75.050
G01 X151.951 Y76.519
G01 X148.679 Y78.159
G01 X145.478 Y79.969
G01 X142.354 Y81.944
G01 X139.318 Y84.081
G01 X136.378 Y86.378
G01 X133.541 Y88.829
G01 X130.816 Y91.429
G01 X128.212 Y94.175
G01 X125.734 Y97.059
G01 X123.392 Y100.077
G01 X121.192 Y103.221
G01 X119.140 Y106.486
G01 X117.244 Y109.864
G01 X115.510 Y113.347
G01 X113.943 Y116.928
G01 X112.549 Y120.600
G01 X111.333 Y124.352
G01 X110.299 Y128.177
G01 X109.452 Y132.067
G01 X108.796 Y136.011
G01 X108.333 Y140.000
G01 X108.068 Y144.025
G01 X108.001 Y148.076
G01 X108.135 Y152.143
G01 X108.472 Y156.217
G01 X109.012 Y160.286
G01 X109.757 Y164.342
G01 X110.704 Y168.372
G01 X111.855 Y172.369
G01 X113.208 Y176.320
G01 X114.761 Y180.216
G01 X116.512 Y184.047
G01 X118.459 Y187.802
G01 X120.598 Y191.472
G01 X122.925 Y195.047
G01 X125.437 Y198.517
G01 X128.128 Y201.872
G01 X130.994 Y205.103
G01 X134.028 Y208.202
G01 X137.225 Y211.159
G01 X140.577 Y213.966
G01 X144.079 Y216.615
G01 X147.722 Y219.097
G01 X151.498 Y221.406
G01 X155.399 Y223.534
G01 X159.417 Y225.475
G01 X163.542 Y227.221
G01 X167.765 Y228.768
G01 X172.076 Y230.110
G01 X176.466 Y231.241
G01 X180.923 Y232.158
G01 X185.438 Y232.857
G01 X190.000 Y233.333
G01 X194.598 Y233.585
G01 X199.220 Y233.610
G01 X203.855 Y233.405
G01 X208.493 Y232.970
G01 X213.121 Y232.305
G01 X217.728 Y231.408
G01 X222.303 Y230.280
G01 X226.833 Y228.923
G01 X231.308 Y227.339
G01 X235.716 Y225.528
G01 X240.045 Y223.495
G01 X244.284 Y221.242
G01 X248.422 Y218.773
G01 X252.448 Y216.093
G01 X256.351 Y213.208
G01 X260.121 Y210.121
G01 X263.748 Y206.841
G01 X267.221 Y203.373
G01 X270.530 Y199.725
G01 X273.667 Y195.904
G01 X276.622 Y191.919
G01 X279.386 Y187.778
G01 X281.953 Y183.490
G01 X284.313 Y179.066
G01 X286.459 Y174.514
G01 X288.385 Y169.845
G01 X290.085 Y165.070
G01 X291.552 Y160.200
G01 X292.782 Y155.246
G01 X293.769 Y150.220
G01 X294.509 Y145.134
G01 X295.000 Y140.000
G01 X295.238 Y134.830
G01 X295.220 Y129.637
G01 X294.945 Y124.433
G01 X294.413 Y119.231
G01 X293.622 Y114.044
G01 X292.572 Y108.885
G01 X291.265 Y103.767
G01 X289.702 Y98.702
G01 X287.885 Y93.704
G01 X285.817 Y88.785
G01 X283.501 Y83.957
G01 X280.942 Y79.235
G01 X278.144 Y74.628
G01 X275.112 Y70.151
G01 X271.852 Y65.814
G01 X268.371 Y61.629
G01 X264.676 Y57.608
G01 X260.775 Y53.761
G01 X256.675 Y50.099
G01 X252.386 Y46.633
G01 X247.917 Y43.372
G01 X243.278 Y40.325
G01 X238.479 Y37.501
G01 X233.530 Y34.909
G01 X228.444 Y32.556
G01 X223.232 Y30.450
G01 X217.905 Y28.598
G01 X212.476 Y27.005
G01 X206.958 Y25.678
G01 X201.364 Y24.621
G01 X195.707 Y23.838
G01 X190.000 Y23.333
G01 X184.258 Y23.110
G01 X178.493 Y23.169
G01 X172.721 Y23.514
G01 X166.955 Y24.145
G01 X161.209 Y25.061
G01 X155.498 Y26.264
G01 X149.836 Y27.750
G01 X144.237 Y29.519
G01 X138.716 Y31.568
G01 X133.285 Y33.894
G01 X127.960 Y36.492
G01 X122.753 Y39.358
G01 X117.678 Y42.486
G01 X112.749 Y45.870
G01 X107.979 Y49.504
G01 X103.379 Y53.379
G01 X98.963 Y57.489
G01 X94.743 Y61.824
G01 X90.729 Y66.375
G01 X86.932 Y71.132
G01 X83.365 Y76.085
G01 X80.035 Y81.223
G01 X76.954 Y86.533
G01 X74.130 Y92.005
G01 X71.571 Y97.626
G01 X69.286 Y103.382
G01 X67.281 Y109.260
G01 X65.563 Y115.248
G01 X64.138 Y121.330
G01 X63.010 Y127.493
G01 X62.185 Y133.721
G01 X61.667 Y140.000
G01 X61.457 Y146.315
G01 X61.559 Y152.650
G01 X61.974 Y158.991
G01 X62.702 Y165.321
G01 X63.744 Y171.625
G01 X65.099 Y177.888
G01 X66.766 Y184.094
G01 X68.741 Y190.227
G01 X71.022 Y196.272
G01 X73.605 Y202.215
G01 X76.485 Y208.038
G01 X79.657 Y213.729
G01 X83.115 Y219.271
G01 X86.851 Y224.652
G01 X90.859 Y229.856
G01 X95.130 Y234.870
G01 X99.654 Y239.681
G01 X104.423 Y244.276
G01 X109.425 Y248.642
G01 X114.651 Y252.768
G01 X120.087 Y256.642
G01 X125.723 Y260.254
G01 X131.545 Y263.592
G01 X137.540 Y266.648
G01 X143.695 Y269.413
G01 X149.995 Y271.878
G01 X156.426 Y274.036
G01 X162.972 Y275.880
G01 X169.618 Y277.403
G01 X176.349 Y278.600
G01 X183.148 Y279.467
G01 X190.000 Y280.000
G01 X196.869 Y279.820
G01 X203.720 Y279.304
G01 X210.537 Y278.452
G01 X217.304 Y277.267
G01 X224.004 Y275.751
G01 X230.621 Y273.908
G01 X237.139 Y271.743
G01 X243.542 Y269.261
G01 X249.815 Y266.469
G01 X255.943 Y263.372
G01 X261.912 Y259.978
G01 X267.706 Y256.296
G01 X273.312 Y252.334
G01 X278.717 Y248.102
G01 X283.907 Y243.610
G01 X288.870 Y238.870
G01 X293.594 Y233.892
G01 X298.068 Y228.689
G01 X302.280 Y223.273
G01 X306.222 Y217.657
G01 X309.883 Y211.855
G01 X313.255 Y205.881
G01 X316.329 Y199.749
G01 X319.098 Y193.474
G01 X321.556 Y187.072
G01 X323.697 Y180.556
G01 X325.515 Y173.945
G01 X327.007 Y167.252
G01 X328.168 Y160.495
G01 X328.996 Y153.690
G01 X329.489 Y146.853
G01 X329.646 Y140.000
G01 X329.467 Y133.148
G01 X328.952 Y126.314
G01 X328.102 Y119.514
G01 X326.920 Y112.765
G01 X325.408 Y106.082
G01 X323.570 Y99.482
G01 X321.410 Y92.981
G01 X318.935 Y86.593
G01 X316.149 Y80.336
G01 X313.060 Y74.223
G01 X309.675 Y68.270
G01 X306.002 Y62.490
G01 X302.050 Y56.898
G01 X297.829 Y51.507
G01 X293.348 Y46.330
G01 X288.620 Y41.380
G01 X283.655 Y36.668
G01 X278.465 Y32.206
G01 X273.062 Y28.004
G01 X267.461 Y24.072
G01 X261.673 Y20.420
G01 X255.714 Y17.057
G01 X249.598 Y13.991
G01 X243.339 Y11.228
G01 X236.952 Y8.777
G01 X230.454 Y6.642
G01 X223.859 Y4.828
G01 X217.183 Y3.340
G01 X210.443 Y2.182
G01 X203.655 Y1.356
G01 X196.835 Y0.864
G01 X190.000 Y0.707
G01 X183.166 Y0.886
G01 X176.349 Y1.400
G01 X169.566 Y2.247
G01 X162.834 Y3.427
G01 X156.168 Y4.935
G01 X149.585 Y6.768
G01 X143.100 Y8.922
G01 X136.729 Y11.392
G01 X130.487 Y14.171
G01 X124.390 Y17.252
G01 X118.452 Y20.629
G01 X112.687 Y24.292
G01 X107.109 Y28.234
G01 X101.732 Y32.445
G01 X96.568 Y36.914
G01 X91.630 Y41.630
G01 X86.930 Y46.583
G01 X82.479 Y51.760
G01 X78.287 Y57.148
G01 X74.366 Y62.736
G01 X70.723 Y68.508
G01 X67.369 Y74.452
G01 X64.310 Y80.553
G01 X61.555 Y86.796
G01 X59.110 Y93.167
G01 X56.980 Y99.649
G01 X55.171 Y106.227
G01 X53.687 Y112.886
G01 X52.532 Y119.608
G01 X51.708 Y126.379
G01 X51.217 Y133.182
G01 X51.061 Y140.000
G01 X51.239 Y146.817
G01 X51.752 Y153.616
G01 X52.597 Y160.382
G01 X53.774 Y167.097
G01 X55.278 Y173.746
G01 X57.107 Y180.313
G01 X59.255 Y186.781
G01 X61.718 Y193.136
G01 X64.490 Y199.362
G01 X67.564 Y205.443
G01 X70.932 Y211.367
G01 X74.586 Y217.117
G01 X78.518 Y222.681
G01 X82.718 Y228.044
G01 X87.175 Y233.195
G01 X91.880 Y238.120
G01 X96.820 Y242.808
G01 X101.984 Y247.248
G01 X107.359 Y251.429
G01 X112.932 Y255.340
G01 X118.690 Y258.973
G01 X124.619 Y262.319
G01 X130.704 Y265.370
G01 X136.932 Y268.118
G01 X143.286 Y270.558
G01 X149.751 Y272.682
G01 X156.313 Y274.486
G01 X162.955 Y275.966
G01 X169.660 Y277.119
G01 X176.414 Y277.941
G01 X183.199 Y278.430
G01 X190.000 Y278.586
G01 X196.800 Y278.408
G01 X203.582 Y277.897
G01 X210.330 Y277.053
G01 X217.028 Y275.880
G01 X223.660 Y274.379
G01 X230.210 Y272.555
G01 X236.662 Y270.412
G01 X243.001 Y267.955
G01 X249.211 Y265.190
G01 X255.277 Y262.124
G01 X261.185 Y258.765
G01 X266.921 Y255.120
G01 X272.470 Y251.198
G01 X277.820 Y247.009
G01 X282.957 Y242.563
G01 X287.870 Y237.870
G01 X292.546 Y232.942
G01 X296.975 Y227.792
G01 X301.145 Y222.430
G01 X305.046 Y216.871
G01 X308.670 Y211.128
G01 X312.007 Y205.214
G01 X315.050 Y199.144
G01 X317.792 Y192.933
G01 X320.225 Y186.595
G01 X322.344 Y180.146
G01 X324.143 Y173.601
G01 X325.620 Y166.976
G01 X326.769 Y160.288
G01 X327.589 Y153.551
G01 X328.077 Y146.783
G01 X328.232 Y140.000
G01 X328.055 Y133.218
G01 X327.545 Y126.453
G01 X326.703 Y119.722
G01 X325.533 Y113.041
G01 X324.036 Y106.426
G01 X322.217 Y99.893
G01 X320.079 Y93.457
G01 X317.628 Y87.135
G01 X314.871 Y80.941
G01 X311.813 Y74.890
G01 X308.462 Y68.997
G01 X304.826 Y63.276
G01 X300.914 Y57.741
G01 X296.735 Y52.404
G01 X292.301 Y47.280
G01 X287.620 Y42.380
G01 X282.705 Y37.716
G01 X277.567 Y33.299
G01 X272.220 Y29.139
G01 X266.675 Y25.248
G01 X260.946 Y21.633
G01 X255.048 Y18.304
G01 X248.993 Y15.269
G01 X242.798 Y12.535
G01 X236.476 Y10.108
G01 X230.043 Y7.995
G01 X223.515 Y6.200
G01 X216.907 Y4.727
G01 X210.236 Y3.581
G01 X203.517 Y2.763
G01 X196.766 Y2.276
G01 X190.000 Y2.121
G01 X183.235 Y2.298
G01 X176.488 Y2.807
G01 X169.774 Y3.646
G01 X163.110 Y4.814
G01 X156.512 Y6.307
G01 X149.995 Y8.122
G01 X143.576 Y10.254
G01 X137.270 Y12.698
G01 X131.092 Y15.449
G01 X125.056 Y18.499
G01 X119.179 Y21.842
G01 X113.472 Y25.468
G01 X107.951 Y29.370
G01 X102.629 Y33.538
G01 X97.518 Y37.961
G01 X92.630 Y42.630
G01 X87.978 Y47.532
G01 X83.572 Y52.657
G01 X79.423 Y57.991
G01 X75.542 Y63.521
G01 X71.936 Y69.235
G01 X68.616 Y75.119
G01 X65.589 Y81.158
G01 X62.862 Y87.338
G01 X60.441 Y93.643
G01 X58.333 Y100.059
G01 X56.543 Y106.571
G01 X55.074 Y113.162
G01 X53.930 Y119.816
G01 X53.115 Y126.518
G01 X52.629 Y133.251
G01 X52.475 Y140.000
G01 X52.651 Y146.748
G01 X53.159 Y153.478
G01 X53.996 Y160.174
G01 X55.161 Y166.821
G01 X56.650 Y173.402
G01 X58.460 Y179.902
G01 X60.587 Y186.305
G01 X63.025 Y192.595
G01 X65.769 Y198.757
G01 X68.811 Y204.777
G01 X72.145 Y210.640
G01 X75.762 Y216.331
G01 X79.654 Y221.838
G01 X83.811 Y227.147
G01 X88.223 Y232.245
G01 X92.880 Y237.120
G01 X97.770 Y241.760
G01 X102.881 Y246.155
G01 X108.201 Y250.293
G01 X113.718 Y254.164
G01 X119.417 Y257.760
G01 X125.286 Y261.072
G01 X131.309 Y264.092
G01 X137.473 Y266.812
G01 X143.762 Y269.226
G01 X150.162 Y271.329
G01 X156.657 Y273.114
G01 X163.231 Y274.579
G01 X169.868 Y275.720
G01 X176.553 Y276.533
G01 X183.269 Y277.018
G01 X190.000 Y277.172
G01 X196.730 Y276.995
G01 X203.443 Y276.489
G01 X210.122 Y275.654
G01 X216.752 Y274.493
G01 X223.317 Y273.007
G01 X229.800 Y271.202
G01 X236.186 Y269.080
G01 X242.460 Y266.648
G01 X248.606 Y263.912
G01 X254.610 Y260.877
G01 X260.458 Y257.552
G01 X266.135 Y253.944
G01 X271.628 Y250.062
G01 X276.923 Y245.916
G01 X282.008 Y241.515
G01 X286.870 Y236.870
G01 X291.498 Y231.993
G01 X295.881 Y226.895
G01 X300.009 Y221.588
G01 X303.870 Y216.086
G01 X307.457 Y210.401
G01 X310.760 Y204.548
G01 X313.772 Y198.540
G01 X316.485 Y192.392
G01 X318.893 Y186.119
G01 X320.990 Y179.735
G01 X322.771 Y173.258
G01 X324.233 Y166.701
G01 X325.370 Y160.080
G01 X326.181 Y153.413
G01 X326.664 Y146.714
G01 X326.818 Y140.000
G01 X326.642 Y133.287
G01 X326.137 Y126.592
G01 X325.305 Y119.929
G01 X324.146 Y113.317
G01 X322.664 Y106.769
G01 X320.863 Y100.303
G01 X318.748 Y93.933
G01 X316.322 Y87.676
G01 X313.592 Y81.545
G01 X310.565 Y75.556
G01 X307.249 Y69.724
G01 X303.650 Y64.062
G01 X299.778 Y58.583
G01 X295.642 Y53.302
G01 X291.253 Y48.230
G01 X286.620 Y43.380
G01 X281.755 Y38.764
G01 X276.670 Y34.392
G01 X271.377 Y30.275
G01 X265.889 Y26.424
G01 X260.219 Y22.846
G01 X254.381 Y19.551
G01 X248.389 Y16.548
G01 X242.257 Y13.841
G01 X236.000 Y11.440
G01 X229.633 Y9.348
G01 X223.172 Y7.571
G01 X216.632 Y6.114
G01 X210.028 Y4.980
G01 X203.378 Y4.170
G01 X196.697 Y3.689
G01 X190.000 Y3.535
G01 X183.305 Y3.711
G01 X176.626 Y4.214
G01 X169.981 Y5.045
G01 X163.386 Y6.201
G01 X156.855 Y7.679
G01 X150.406 Y9.475
G01 X144.052 Y11.585
G01 X137.811 Y14.005
G01 X131.696 Y16.727
G01 X125.723 Y19.746
G01 X119.906 Y23.055
G01 X114.258 Y26.644
G01 X108.794 Y30.506
G01 X103.526 Y34.631
G01 X98.467 Y39.009
G01 X93.630 Y43.630
G01 X89.026 Y48.482
G01 X84.665 Y53.554
G01 X80.559 Y58.833
G01 X76.718 Y64.307
G01 X73.149 Y69.962
G01 X69.863 Y75.786
G01 X66.867 Y81.762
G01 X64.168 Y87.879
G01 X61.773 Y94.119
G01 X59.686 Y100.470
G01 X57.914 Y106.914
G01 X56.461 Y113.437
G01 X55.329 Y120.023
G01 X54.522 Y126.657
G01 X54.042 Y133.321
G01 X53.889 Y140.000
G01 X54.064 Y146.678
G01 X54.566 Y153.339
G01 X55.395 Y159.967
G01 X56.548 Y166.545
G01 X58.022 Y173.059
G01 X59.813 Y179.492
G01 X61.918 Y185.828
G01 X64.331 Y192.054
G01 X67.047 Y198.152
G01 X70.058 Y204.110
G01 X73.358 Y209.913
G01 X76.938 Y215.546
G01 X80.790 Y220.996
G01 X84.904 Y226.250
G01 X89.271 Y231.295
G01 X93.880 Y236.120
G01 X98.719 Y240.713
G01 X103.778 Y245.062
G01 X109.044 Y249.157
G01 X114.503 Y252.989
G01 X120.144 Y256.547
G01 X125.952 Y259.825
G01 X131.914 Y262.813
G01 X138.014 Y265.505
G01 X144.239 Y267.895
G01 X150.572 Y269.975
G01 X157.000 Y271.743
G01 X163.506 Y273.192
G01 X170.075 Y274.321
G01 X176.691 Y275.126
G01 X183.338 Y275.605
G01 X190.000 Y275.758
G01 X196.661 Y275.583
G01 X203.304 Y275.082
G01 X209.915 Y274.255
G01 X216.476 Y273.106
G01 X222.973 Y271.636
G01 X229.389 Y269.848
G01 X235.709 Y267.749
G01 X241.918 Y265.342
G01 X248.001 Y262.634
G01 X253.944 Y259.630
G01 X259.731 Y256.339
G01 X265.349 Y252.768
G01 X270.785 Y248.926
G01 X276.026 Y244.822
G01 X281.058 Y240.467
G01 X285.870 Y235.870
G01 X290.451 Y231.043
G01 X294.788 Y225.998
G01 X298.873 Y220.746
G01 X302.695 Y215.300
G01 X306.244 Y209.674
G01 X309.513 Y203.881
G01 X312.494 Y197.935
G01 X315.179 Y191.851
G01 X317.562 Y185.642
G01 X319.637 Y179.325
G01 X321.400 Y172.914
G01 X322.846 Y166.425
G01 X323.971 Y159.873
G01 X324.774 Y153.274
G01 X325.252 Y146.645
G01 X325.404 Y140.000
G01 X325.230 Y133.357
G01 X324.730 Y126.730
G01 X323.906 Y120.137
G01 X322.759 Y113.593
G01 X321.293 Y107.113
G01 X319.510 Y100.714
G01 X317.416 Y94.410
G01 X315.015 Y88.217
G01 X312.314 Y82.150
G01 X309.318 Y76.223
G01 X306.036 Y70.451
G01 X302.474 Y64.847
G01 X298.642 Y59.425
G01 X294.549 Y54.199
G01 X290.205 Y49.179
G01 X285.620 Y44.380
G01 X280.806 Y39.811
G01 X275.773 Y35.485
G01 X270.535 Y31.411
G01 X265.104 Y27.599
G01 X259.492 Y24.059
G01 X253.714 Y20.799
G01 X247.784 Y17.826
G01 X241.715 Y15.148
G01 X235.523 Y12.771
G01 X229.222 Y10.701
G01 X222.828 Y8.943
G01 X216.356 Y7.501
G01 X209.821 Y6.378
G01 X203.239 Y5.578
G01 X196.627 Y5.101
G01 X190.000 Y4.949
G01 X183.374 Y5.123
G01 X176.765 Y5.622
G01 X170.189 Y6.444
G01 X163.662 Y7.588
G01 X157.199 Y9.050
G01 X150.816 Y10.828
G01 X144.529 Y12.917
G01 X138.352 Y15.311
G01 X132.301 Y18.006
G01 X126.390 Y20.994
G01 X120.633 Y24.268
G01 X115.044 Y27.820
G01 X109.636 Y31.642
G01 X104.423 Y35.724
G01 X99.417 Y40.057
G01 X94.630 Y44.630
G01 X90.073 Y49.432
G01 X85.758 Y54.451
G01 X81.695 Y59.676
G01 X77.893 Y65.093
G01 X74.362 Y70.689
G01 X71.110 Y76.452
G01 X68.145 Y82.367
G01 X65.475 Y88.420
G01 X63.104 Y94.596
G01 X61.040 Y100.880
G01 X59.286 Y107.258
G01 X57.848 Y113.713
G01 X56.728 Y120.231
G01 X55.930 Y126.795
G01 X55.454 Y133.390
G01 X55.303 Y140.000
G01 X55.476 Y146.609
G01 X55.974 Y153.200
G01 X56.794 Y159.759
G01 X57.935 Y166.269
G01 X59.393 Y172.715
G01 X61.166 Y179.081
G01 X63.250 Y185.352
G01 X65.638 Y191.512
G01 X68.325 Y197.548
G01 X71.305 Y203.444
G01 X74.571 Y209.186
G01 X78.114 Y214.760
G01 X81.926 Y220.153
G01 X85.997 Y225.353
G01 X90.319 Y230.346
G01 X94.880 Y235.120
G01 X99.669 Y239.665
G01 X104.675 Y243.968
G01 X109.886 Y248.021
G01 X115.289 Y251.813
G01 X120.871 Y255.334
G01 X126.619 Y258.578
G01 X132.518 Y261.535
G01 X138.555 Y264.199
G01 X144.715 Y266.563
G01 X150.983 Y268.622
G01 X157.344 Y270.371
G01 X163.782 Y271.805
G01 X170.283 Y272.922
G01 X176.830 Y273.719
G01 X183.408 Y274.193
G01 X190.000 Y274.343
G01 X196.591 Y274.171
G01 X203.166 Y273.675
G01 X209.707 Y272.857
G01 X216.200 Y271.719
G01 X222.629 Y270.264
G01 X228.979 Y268.495
G01 X235.233 Y266.417
G01 X241.377 Y264.035
G01 X247.397 Y261.355
G01 X253.277 Y258.383
G01 X259.004 Y255.126
G01 X264.564 Y251.592
G01 X269.943 Y247.790
G01 X275.128 Y243.729
G01 X280.108 Y239.419
G01 X284.870 Y234.870
G01 X289.403 Y230.093
G01 X293.695 Y225.100
G01 X297.737 Y219.903
G01 X301.519 Y214.514
G01 X305.031 Y208.947
G01 X308.266 Y203.214
G01 X311.215 Y197.331
G01 X313.872 Y191.310
G01 X316.230 Y185.166
G01 X318.284 Y178.914
G01 X320.028 Y172.570
G01 X321.459 Y166.149
G01 X322.572 Y159.665
G01 X323.367 Y153.135
G01 X323.840 Y146.575
G01 X323.990 Y140.000
G01 X323.817 Y133.426
G01 X323.323 Y126.869
G01 X322.507 Y120.344
G01 X321.372 Y113.868
G01 X319.921 Y107.457
G01 X318.157 Y101.124
G01 X316.085 Y94.886
G01 X313.709 Y88.758
G01 X311.036 Y82.754
G01 X308.071 Y76.890
G01 X304.823 Y71.178
G01 X301.298 Y65.633
G01 X297.506 Y60.268
G01 X293.456 Y55.096
G01 X289.157 Y50.129
G01 X284.620 Y45.380
G01 X279.856 Y40.859
G01 X274.876 Y36.578
G01 X269.693 Y32.547
G01 X264.318 Y28.775
G01 X258.765 Y25.272
G01 X253.048 Y22.046
G01 X247.179 Y19.104
G01 X241.174 Y16.454
G01 X235.047 Y14.103
G01 X228.812 Y12.055
G01 X222.484 Y10.315
G01 X216.080 Y8.888
G01 X209.613 Y7.777
G01 X203.101 Y6.985
G01 X196.558 Y6.514
G01 X190.000 Y6.364
G01 X183.443 Y6.536
G01 X176.904 Y7.029
G01 X170.396 Y7.843
G01 X163.937 Y8.975
G01 X157.542 Y10.422
G01 X151.227 Y12.181
G01 X145.005 Y14.248
G01 X138.893 Y16.618
G01 X132.906 Y19.284
G01 X127.056 Y22.241
G01 X121.360 Y25.481
G01 X115.829 Y28.996
G01 X110.478 Y32.778
G01 X105.320 Y36.817
G01 X100.367 Y41.105
G01 X95.630 Y45.630
G01 X91.121 Y50.381
G01 X86.851 Y55.348
G01 X82.831 Y60.518
G01 X79.069 Y65.878
G01 X75.575 Y71.416
G01 X72.358 Y77.119
G01 X69.424 Y82.972
G01 X66.781 Y88.961
G01 X64.436 Y95.072
G01 X62.393 Y101.291
G01 X60.658 Y107.601
G01 X59.235 Y113.989
G01 X58.127 Y120.438
G01 X57.337 Y126.934
G01 X56.867 Y133.460
G01 X56.717 Y140.000
G01 X56.889 Y146.539
G01 X57.381 Y153.062
G01 X58.193 Y159.552
G01 X59.322 Y165.994
G01 X60.765 Y172.372
G01 X62.520 Y178.671
G01 X64.581 Y184.876
G01 X66.944 Y190.971
G01 X69.604 Y196.943
G01 X72.552 Y202.777
G01 X75.784 Y208.459
G01 X79.290 Y213.974
G01 X83.062 Y219.311
G01 X87.091 Y224.456
G01 X91.367 Y229.396
G01 X95.880 Y234.120
G01 X100.619 Y238.617
G01 X105.572 Y242.875
G01 X110.729 Y246.885
G01 X116.075 Y250.637
G01 X121.598 Y254.121
G01 X127.285 Y257.331
G01 X133.123 Y260.257
G01 X139.096 Y262.892
G01 X145.191 Y265.232
G01 X151.393 Y267.269
G01 X157.687 Y268.999
G01 X164.058 Y270.418
G01 X170.490 Y271.523
G01 X176.968 Y272.311
G01 X183.477 Y272.780
G01 X190.000 Y272.929
G01 X196.522 Y272.758
G01 X203.027 Y272.267
G01 X209.500 Y271.458
G01 X215.925 Y270.332
G01 X222.286 Y268.892
G01 X228.568 Y267.142
G01 X234.756 Y265.086
G01 X240.836 Y262.729
G01 X246.792 Y260.077
G01 X252.610 Y257.136
G01 X258.277 Y253.913
G01 X263.778 Y250.416
G01 X269.100 Y246.654
G01 X274.231 Y242.636
G01 X279.159 Y238.371
G01 X283.870 Y233.870
G01 X288.355 Y229.144
G01 X292.602 Y224.203
G01 X296.601 Y219.061
G01 X300.343 Y213.729
G01 X303.818 Y208.220
G01 X307.019 Y202.548
G01 X309.937 Y196.726
G01 X312.566 Y190.768
G01 X314.899 Y184.689
G01 X316.931 Y178.504
G01 X318.656 Y172.227
G01 X320.072 Y165.873
G01 X321.174 Y159.458
G01 X321.959 Y152.997
G01 X322.427 Y146.506
G01 X322.576 Y140.000
G01 X322.405 Y133.495
G01 X321.915 Y127.007
G01 X321.108 Y120.552
G01 X319.985 Y114.144
G01 X318.549 Y107.800
G01 X316.804 Y101.535
G01 X314.753 Y95.363
G01 X312.402 Y89.299
G01 X309.757 Y83.359
G01 X306.824 Y77.556
G01 X303.610 Y71.905
G01 X300.122 Y66.419
G01 X296.370 Y61.110
G01 X292.363 Y55.993
G01 X288.109 Y51.079
G01 X283.620 Y46.380
G01 X278.906 Y41.907
G01 X273.979 Y37.671
G01 X268.850 Y33.683
G01 X263.532 Y29.951
G01 X258.038 Y26.485
G01 X252.381 Y23.293
G01 X246.575 Y20.383
G01 X240.633 Y17.761
G01 X234.570 Y15.434
G01 X228.401 Y13.408
G01 X222.141 Y11.687
G01 X215.804 Y10.275
G01 X209.406 Y9.176
G01 X202.962 Y8.392
G01 X196.488 Y7.926
G01 X190.000 Y7.778
G01 X183.513 Y7.948
G01 X177.042 Y8.436
G01 X170.604 Y9.242
G01 X164.213 Y10.362
G01 X157.886 Y11.794
G01 X151.637 Y13.535
G01 X145.482 Y15.580
G01 X139.435 Y17.924
G01 X133.510 Y20.562
G01 X127.723 Y23.488
G01 X122.087 Y26.693
G01 X116.615 Y30.171
G01 X111.321 Y33.913
G01 X106.217 Y37.910
G01 X101.316 Y42.153
G01 X96.630 Y46.630
G01 X92.169 Y51.331
G01 X87.945 Y56.245
G01 X83.967 Y61.360
G01 X80.245 Y66.664
G01 X76.788 Y72.143
G01 X73.605 Y77.785
G01 X70.702 Y83.576
G01 X68.088 Y89.502
G01 X65.767 Y95.549
G01 X63.746 Y101.701
G01 X62.030 Y107.945
G01 X60.622 Y114.265
G01 X59.526 Y120.646
G01 X58.744 Y127.072
G01 X58.279 Y133.529
G01 X58.131 Y140.000
G01 X58.301 Y146.470
G01 X58.788 Y152.923
G01 X59.591 Y159.344
G01 X60.708 Y165.718
G01 X62.137 Y172.028
G01 X63.873 Y178.260
G01 X65.913 Y184.399
G01 X68.251 Y190.430
G01 X70.882 Y196.339
G01 X73.800 Y202.110
G01 X76.997 Y207.732
G01 X80.465 Y213.189
G01 X84.197 Y218.469
G01 X88.184 Y223.558
G01 X92.415 Y228.446
G01 X96.880 Y233.120
G01 X101.569 Y237.569
G01 X106.470 Y241.782
G01 X111.571 Y245.749
G01 X116.860 Y249.461
G01 X122.325 Y252.909
G01 X127.952 Y256.083
G01 X133.728 Y258.978
G01 X139.638 Y261.586
G01 X145.668 Y263.900
G01 X151.804 Y265.916
G01 X158.031 Y267.627
G01 X164.334 Y269.031
G01 X170.698 Y270.124
G01 X177.107 Y270.904
G01 X183.546 Y271.368
G01 X190.000 Y271.515
G01 X196.453 Y271.346
G01 X202.889 Y270.860
G01 X209.292 Y270.059
G01 X215.649 Y268.945
G01 X221.942 Y267.520
G01 X228.158 Y265.789
G01 X234.280 Y263.754
G01 X240.295 Y261.423
G01 X246.187 Y258.798
G01 X251.944 Y255.889
G01 X257.550 Y252.700
G01 X262.992 Y249.241
G01 X268.258 Y245.519
G01 X273.334 Y241.543
G01 X278.209 Y237.324
G01 X282.870 Y232.870
G01 X287.307 Y228.194
G01 X291.509 Y223.306
G01 X295.465 Y218.218
G01 X299.167 Y212.943
G01 X302.605 Y207.493
G01 X305.772 Y201.881
G01 X308.659 Y196.121
G01 X311.259 Y190.227
G01 X313.567 Y184.213
G01 X315.577 Y178.093
G01 X317.284 Y171.883
G01 X318.685 Y165.597
G01 X319.775 Y159.250
G01 X320.552 Y152.858
G01 X321.015 Y146.436
G01 X321.162 Y140.000
G01 X320.993 Y133.565
G01 X320.508 Y127.146
G01 X319.709 Y120.759
G01 X318.598 Y114.420
G01 X317.177 Y108.144
G01 X315.450 Y101.945
G01 X313.422 Y95.839
G01 X311.096 Y89.840
G01 X308.479 Y83.964
G01 X305.577 Y78.223
G01 X302.397 Y72.632
G01 X298.947 Y67.204
G01 X295.235 Y61.953
G01 X291.270 Y56.890
G01 X287.062 Y52.029
G01 X282.620 Y47.380
G01 X277.957 Y42.955
G01 X273.082 Y38.764
G01 X268.008 Y34.819
G01 X262.747 Y31.127
G01 X257.311 Y27.698
G01 X251.715 Y24.540
G01 X245.970 Y21.661
G01 X240.092 Y19.067
G01 X234.094 Y16.766
G01 X227.991 Y14.761
G01 X221.797 Y13.058
G01 X215.528 Y11.662
G01 X209.198 Y10.575
G01 X202.824 Y9.800
G01 X196.419 Y9.338
G01 X190.000 Y9.192
G01 X183.582 Y9.361
G01 X177.181 Y9.844
G01 X170.811 Y10.641
G01 X164.489 Y11.749
G01 X158.230 Y13.166
G01 X152.048 Y14.888
G01 X145.958 Y16.911
G01 X139.976 Y19.231
G01 X134.115 Y21.841
G01 X128.390 Y24.735
G01 X122.814 Y27.906
G01 X117.401 Y31.347
G01 X112.163 Y35.049
G01 X107.114 Y39.004
G01 X102.266 Y43.200
G01 X97.630 Y47.630
G01 X93.217 Y52.281
G01 X89.038 Y57.142
G01 X85.103 Y62.203
G01 X81.421 Y67.450
G01 X78.001 Y72.870
G01 X74.852 Y78.452
G01 X71.981 Y84.181
G01 X69.394 Y90.043
G01 X67.098 Y96.025
G01 X65.099 Y102.112
G01 X63.401 Y108.289
G01 X62.009 Y114.541
G01 X60.925 Y120.853
G01 X60.152 Y127.211
G01 X59.692 Y133.598
G01 X59.545 Y140.000
G01 X59.714 Y146.401
G01 X60.196 Y152.785
G01 X60.990 Y159.137
G01 X62.095 Y165.442
G01 X63.509 Y171.684
G01 X65.226 Y177.850
G01 X67.244 Y183.923
G01 X69.557 Y189.889
G01 X72.160 Y195.734
G01 X75.047 Y201.444
G01 X78.210 Y207.005
G01 X81.641 Y212.403
G01 X85.333 Y217.626
G01 X89.277 Y222.661
G01 X93.462 Y227.497
G01 X97.880 Y232.120
G01 X102.518 Y236.521
G01 X107.367 Y240.689
G01 X112.413 Y244.613
G01 X117.646 Y248.285
G01 X123.052 Y251.696
G01 X128.619 Y254.836
G01 X134.332 Y257.700
G01 X140.179 Y260.279
G01 X146.144 Y262.569
G01 X152.214 Y264.562
G01 X158.375 Y266.256
G01 X164.610 Y267.644
G01 X170.905 Y268.726
G01 X177.246 Y269.497
G01 X183.616 Y269.955
G01 X190.000 Y270.101
G01 X196.383 Y269.933
G01 X202.750 Y269.453
G01 X209.085 Y268.660
G01 X215.373 Y267.558
G01 X221.599 Y266.148
G01 X227.747 Y264.435
G01 X233.804 Y262.423
G01 X239.754 Y260.116
G01 X245.583 Y257.520
G01 X251.277 Y254.641
G01 X256.823 Y251.487
G01 X262.207 Y248.065
G01 X267.416 Y244.383
G01 X272.437 Y240.450
G01 X277.259 Y236.276
G01 X281.870 Y231.870
G01 X286.259 Y227.244
G01 X290.416 Y222.409
G01 X294.330 Y217.376
G01 X297.991 Y212.157
G01 X301.392 Y206.766
G01 X304.524 Y201.215
G01 X307.380 Y195.517
G01 X309.953 Y189.686
G01 X312.236 Y183.737
G01 X314.224 Y177.683
G01 X315.913 Y171.539
G01 X317.298 Y165.321
G01 X318.376 Y159.043
G01 X319.145 Y152.720
G01 X319.602 Y146.367
G01 X319.747 Y140.000
G01 X319.580 Y133.634
G01 X319.101 Y127.285
G01 X318.310 Y120.967
G01 X317.211 Y114.696
G01 X315.806 Y108.487
G01 X314.097 Y102.356
G01 X312.090 Y96.315
G01 X309.789 Y90.382
G01 X307.200 Y84.568
G01 X304.330 Y78.890
G01 X301.184 Y73.359
G01 X297.771 Y67.990
G01 X294.099 Y62.795
G01 X290.177 Y57.787
G01 X286.014 Y52.978
G01 X281.620 Y48.380
G01 X277.007 Y44.003
G01 X272.185 Y39.858
G01 X267.165 Y35.954
G01 X261.961 Y32.303
G01 X256.584 Y28.911
G01 X251.048 Y25.787
G01 X245.366 Y22.939
G01 X239.551 Y20.374
G01 X233.618 Y18.097
G01 X227.580 Y16.114
G01 X221.454 Y14.430
G01 X215.252 Y13.049
G01 X208.991 Y11.974
G01 X202.685 Y11.207
G01 X196.350 Y10.751
G01 X190.000 Y10.606
G01 X183.651 Y10.773
G01 X177.319 Y11.251
G01 X171.019 Y12.039
G01 X164.765 Y13.136
G01 X158.573 Y14.537
G01 X152.458 Y16.241
G01 X146.435 Y18.243
G01 X140.517 Y20.537
G01 X134.719 Y23.119
G01 X129.056 Y25.982
G01 X123.541 Y29.119
G01 X118.186 Y32.523
G01 X113.006 Y36.185
G01 X108.011 Y40.097
G01 X103.216 Y44.248
G01 X98.630 Y48.630
G01 X94.265 Y53.230
G01 X90.131 Y58.040
G01 X86.238 Y63.045
G01 X82.597 Y68.235
G01 X79.214 Y73.597
G01 X76.099 Y79.119
G01 X73.259 Y84.786
G01 X70.701 Y90.585
G01 X68.430 Y96.502
G01 X66.453 Y102.522
G01 X64.773 Y108.632
G01 X63.396 Y114.817
G01 X62.323 Y121.061
G01 X61.559 Y127.350
G01 X61.104 Y133.668
G01 X60.960 Y140.000
G01 X61.126 Y146.331
G01 X61.603 Y152.646
G01 X62.389 Y158.929
G01 X63.482 Y165.166
G01 X64.880 Y171.341
G01 X66.579 Y177.439
G01 X68.576 Y183.446
G01 X70.864 Y189.348
G01 X73.439 Y195.129
G01 X76.294 Y200.777
G01 X79.423 Y206.278
G01 X82.817 Y211.617
G01 X86.469 Y216.784
G01 X90.370 Y221.764
G01 X94.510 Y226.547
G01 X98.880 Y231.120
G01 X103.468 Y235.473
G01 X108.264 Y239.596
G01 X113.256 Y243.478
G01 X118.432 Y247.109
G01 X123.779 Y250.483
G01 X129.285 Y253.589
G01 X134.937 Y256.421
G01 X140.720 Y258.973
G01 X146.621 Y261.237
G01 X152.625 Y263.209
G01 X158.718 Y264.884
G01 X164.886 Y266.258
G01 X171.113 Y267.327
G01 X177.384 Y268.089
G01 X183.685 Y268.543
G01 X190.000 Y268.687
G01 X196.314 Y268.521
G01 X202.611 Y268.045
G01 X208.877 Y267.261
G01 X215.097 Y266.171
G01 X221.255 Y264.777
G01 X227.337 Y263.082
G01 X233.327 Y261.092
G01 X239.213 Y258.810
G01 X244.978 Y256.242
G01 X250.610 Y253.394
G01 X256.096 Y250.274
G01 X261.421 Y246.889
G01 X266.573 Y243.247
G01 X271.540 Y239.357
G01 X276.310 Y235.228
G01 X280.870 Y230.870
G01 X285.212 Y226.295
G01 X289.323 Y221.512
G01 X293.194 Y216.534
G01 X296.815 Y211.372
G01 X300.179 Y206.039
G01 X303.277 Y200.548
G01 X306.102 Y194.912
G01 X308.646 Y189.145
G01 X310.904 Y183.260
G01 X312.871 Y177.272
G01 X314.541 Y171.196
G01 X315.911 Y165.045
G01 X316.977 Y158.835
G01 X317.737 Y152.581
G01 X318.190 Y146.298
G01 X318.333 Y140.000
G01 X318.168 Y133.704
G01 X317.693 Y127.423
G01 X316.912 Y121.174
G01 X315.824 Y114.972
G01 X314.434 Y108.831
G01 X312.744 Y102.766
G01 X310.759 Y96.792
G01 X308.483 Y90.923
G01 X305.922 Y85.173
G01 X303.082 Y79.556
G01 X299.971 Y74.086
G01 X296.595 Y68.775
G01 X292.963 Y63.637
G01 X289.083 Y58.684
G01 X284.966 Y53.928
G01 X280.620 Y49.380
G01 X276.057 Y45.050
G01 X271.288 Y40.951
G01 X266.323 Y37.090
G01 X261.175 Y33.478
G01 X255.857 Y30.124
G01 X250.381 Y27.034
G01 X244.761 Y24.218
G01 X239.010 Y21.680
G01 X233.141 Y19.429
G01 X227.170 Y17.468
G01 X221.110 Y15.802
G01 X214.976 Y14.436
G01 X208.783 Y13.373
G01 X202.546 Y12.614
G01 X196.280 Y12.163
G01 X190.000 Y12.020
G01 X183.721 Y12.185
G01 X177.458 Y12.658
G01 X171.226 Y13.438
G01 X165.041 Y14.523
G01 X158.917 Y15.909
G01 X152.869 Y17.594
G01 X146.911 Y19.574
G01 X141.058 Y21.844
G01 X135.324 Y24.398
G01 X129.723 Y27.229
G01 X124.268 Y30.332
G01 X118.972 Y33.699
G01 X113.848 Y37.321
G01 X108.909 Y41.190
G01 X104.165 Y45.296
G01 X99.630 Y49.630
G01 X95.312 Y54.180
G01 X91.224 Y58.937
G01 X87.374 Y63.888
G01 X83.772 Y69.021
G01 X80.427 Y74.325
G01 X77.346 Y79.785
G01 X74.537 Y85.390
G01 X72.007 Y91.126
G01 X69.761 Y96.978
G01 X67.806 Y102.933
G01 X66.145 Y108.976
G01 X64.783 Y115.093
G01 X63.722 Y121.268
G01 X62.966 Y127.488
G01 X62.516 Y133.737
G01 X62.374 Y140.000
G01 X62.539 Y146.262
G01 X63.010 Y152.507
G01 X63.788 Y158.722
G01 X64.869 Y164.890
G01 X66.252 Y170.997
G01 X67.933 Y177.029
G01 X69.907 Y182.970
G01 X72.170 Y188.807
G01 X74.717 Y194.525
G01 X77.541 Y200.111
G01 X80.636 Y205.551
G01 X83.993 Y210.832
G01 X87.605 Y215.941
G01 X91.463 Y220.867
G01 X95.558 Y225.597
G01 X99.880 Y230.120
G01 X104.418 Y234.426
G01 X109.161 Y238.503
G01 X114.098 Y242.342
G01 X119.217 Y245.934
G01 X124.506 Y249.270
G01 X129.952 Y252.342
G01 X135.541 Y255.143
G01 X141.261 Y257.666
G01 X147.097 Y259.906
G01 X153.035 Y261.856
G01 X159.062 Y263.512
G01 X165.162 Y264.871
G01 X171.320 Y265.928
G01 X177.523 Y266.682
G01 X183.754 Y267.130
G01 X190.000 Y267.273
G01 X196.244 Y267.108
G01 X202.473 Y266.638
G01 X208.670 Y265.862
G01 X214.821 Y264.784
G01 X220.911 Y263.405
G01 X226.926 Y261.729
G01 X232.851 Y259.760
G01 X238.671 Y257.503
G01 X244.374 Y254.963
G01 X249.944 Y252.147
G01 X255.369 Y249.061
G01 X260.635 Y245.713
G01 X265.731 Y242.111
G01 X270.643 Y238.264
G01 X275.360 Y234.180
G01 X279.870 Y229.870
G01 X284.164 Y225.345
G01 X288.229 Y220.615
G01 X292.058 Y215.691
G01 X295.640 Y210.586
G01 X298.966 Y205.312
G01 X302.030 Y199.881
G01 X304.823 Y194.307
G01 X307.340 Y188.604
G01 X309.573 Y182.784
G01 X311.518 Y176.862
G01 X313.169 Y170.852
G01 X314.524 Y164.769
G01 X315.578 Y158.628
G01 X316.330 Y152.442
G01 X316.777 Y146.228
G01 X316.919 Y140.000
G01 X316.755 Y133.773
G01 X316.286 Y127.562
G01 X315.513 Y121.382
G01 X314.437 Y115.248
G01 X313.062 Y109.175
G01 X311.391 Y103.177
G01 X309.427 Y97.268
G01 X307.176 Y91.464
G01 X304.644 Y85.778
G01 X301.835 Y80.223
G01 X298.758 Y74.813
G01 X295.419 Y69.561
G01 X291.827 Y64.480
G01 X287.990 Y59.581
G01 X283.918 Y54.878
G01 X279.620 Y50.380
G01 X275.108 Y46.098
G01 X270.391 Y42.044
G01 X265.481 Y38.226
G01 X260.390 Y34.654
G01 X255.130 Y31.337
G01 X249.715 Y28.282
G01 X244.156 Y25.496
G01 X238.468 Y22.987
G01 X232.665 Y20.760
G01 X226.759 Y18.821
G01 X220.766 Y17.174
G01 X214.700 Y15.823
G01 X208.576 Y14.771
G01 X202.408 Y14.022
G01 X196.211 Y13.576
G01 X190.000 Y13.434
G01 X183.790 Y13.598
G01 X177.597 Y14.066
G01 X171.434 Y14.837
G01 X165.317 Y15.910
G01 X159.260 Y17.281
G01 X153.279 Y18.948
G01 X147.387 Y20.906
G01 X141.599 Y23.150
G01 X135.929 Y25.676
G01 X130.389 Y28.476
G01 X124.995 Y31.545
G01 X119.758 Y34.875
G01 X114.690 Y38.457
G01 X109.806 Y42.283
G01 X105.115 Y46.344
G01 X100.630 Y50.630
G01 X96.360 Y55.130
G01 X92.317 Y59.834
G01 X88.510 Y64.730
G01 X84.948 Y69.807
G01 X81.640 Y75.052
G01 X78.593 Y80.452
G01 X75.816 Y85.995
G01 X73.314 Y91.667
G01 X71.093 Y97.454
G01 X69.159 Y103.343
G01 X67.517 Y109.320
G01 X66.170 Y115.369
G01 X65.121 Y121.476
G01 X64.374 Y127.627
G01 X63.929 Y133.807
G01 X63.788 Y140.000
G01 X63.951 Y146.192
G01 X64.418 Y152.369
G01 X65.187 Y158.514
G01 X66.256 Y164.614
G01 X67.624 Y170.654
G01 X69.286 Y176.618
G01 X71.239 Y182.494
G01 X73.477 Y188.265
G01 X75.995 Y193.920
G01 X78.788 Y199.444
G01 X81.848 Y204.824
G01 X85.169 Y210.046
G01 X88.741 Y215.099
G01 X92.556 Y219.970
G01 X96.606 Y224.648
G01 X100.880 Y229.120
G01 X105.367 Y233.378
G01 X110.058 Y237.410
G01 X114.941 Y241.206
G01 X120.003 Y244.758
G01 X125.233 Y248.057
G01 X130.619 Y251.095
G01 X136.146 Y253.865
G01 X141.802 Y256.360
G01 X147.573 Y258.574
G01 X153.446 Y260.503
G01 X159.405 Y262.140
G01 X165.438 Y263.484
G01 X171.528 Y264.529
G01 X177.662 Y265.275
G01 X183.824 Y265.718
G01 X190.000 Y265.859
G01 X196.175 Y265.696
G01 X202.334 Y265.231
G01 X208.462 Y264.464
G01 X214.545 Y263.397
G01 X220.568 Y262.033
G01 X226.516 Y260.376
G01 X232.374 Y258.429
G01 X238.130 Y256.197
G01 X243.769 Y253.685
G01 X249.277 Y250.900
G01 X254.642 Y247.848
G01 X259.850 Y244.537
G01 X264.888 Y240.975
G01 X269.746 Y237.170
G01 X274.410 Y233.132
G01 X278.870 Y228.870
G01 X283.116 Y224.395
G01 X287.136 Y219.718
G01 X290.922 Y214.849
G01 X294.464 Y209.801
G01 X297.754 Y204.585
G01 X300.783 Y199.215
G01 X303.545 Y193.703
G01 X306.033 Y188.063
G01 X308.241 Y182.307
G01 X310.164 Y176.451
G01 X311.797 Y170.509
G01 X313.137 Y164.493
G01 X314.179 Y158.420
G01 X314.923 Y152.304
G01 X315.365 Y146.159
G01 X315.505 Y140.000
G01 X315.343 Y133.842
G01 X314.879 Y127.701
G01 X314.114 Y121.589
G01 X313.050 Y115.524
G01 X311.690 Y109.518
G01 X310.037 Y103.587
G01 X308.096 Y97.745
G01 X305.870 Y92.005
G01 X303.365 Y86.382
G01 X300.588 Y80.889
G01 X297.545 Y75.540
G01 X294.243 Y70.347
G01 X290.691 Y65.322
G01 X286.897 Y60.479
G01 X282.870 Y55.827
G01 X278.620 Y51.380
G01 X274.158 Y47.146
G01 X269.493 Y43.137
G01 X264.638 Y39.362
G01 X259.604 Y35.830
G01 X254.403 Y32.550
G01 X249.048 Y29.529
G01 X243.552 Y26.774
G01 X237.927 Y24.293
G01 X232.188 Y22.092
G01 X226.349 Y20.174
G01 X220.423 Y18.546
G01 X214.424 Y17.210
G01 X208.368 Y16.170
G01 X202.269 Y15.429
G01 X196.141 Y14.988
G01 X190.000 Y14.848
G01 X183.860 Y15.010
G01 X177.735 Y15.473
G01 X171.641 Y16.236
G01 X165.593 Y17.297
G01 X159.604 Y18.653
G01 X153.690 Y20.301
G01 X147.864 Y22.237
G01 X142.140 Y24.457
G01 X136.533 Y26.954
G01 X131.056 Y29.724
G01 X125.722 Y32.758
G01 X120.543 Y36.051
G01 X115.533 Y39.593
G01 X110.703 Y43.376
G01 X106.065 Y47.392
G01 X101.630 Y51.630
G01 X97.408 Y56.080
G01 X93.410 Y60.731
G01 X89.646 Y65.572
G01 X86.124 Y70.592
G01 X82.853 Y75.779
G01 X79.841 Y81.119
G01 X77.094 Y86.599
G01 X74.620 Y92.208
G01 X72.424 Y97.931
G01 X70.512 Y103.754
G01 X68.888 Y109.663
G01 X67.557 Y115.645
G01 X66.520 Y121.683
G01 X65.781 Y127.765
G01 X65.341 Y133.876
G01 X65.202 Y140.000
G01 X65.363 Y146.123
G01 X65.825 Y152.230
G01 X66.586 Y158.307
G01 X67.643 Y164.338
G01 X68.996 Y170.310
G01 X70.639 Y176.208
G01 X72.570 Y182.017
G01 X74.783 Y187.724
G01 X77.274 Y193.315
G01 X80.035 Y198.777
G01 X83.061 Y204.097
G01 X86.345 Y209.260
G01 X89.877 Y214.257
G01 X93.649 Y219.073
G01 X97.654 Y223.698
G01 X101.879 Y228.121
G01 X106.317 Y232.330
G01 X110.955 Y236.316
G01 X115.783 Y240.070
G01 X120.789 Y243.582
G01 X125.960 Y246.844
G01 X131.285 Y249.848
G01 X136.751 Y252.586
G01 X142.343 Y255.053
G01 X148.050 Y257.243
G01 X153.856 Y259.149
G01 X159.749 Y260.769
G01 X165.713 Y262.097
G01 X171.735 Y263.130
G01 X177.800 Y263.867
G01 X183.893 Y264.306
G01 X190.000 Y264.444
G01 X196.106 Y264.284
G01 X202.196 Y263.823
G01 X208.255 Y263.065
G01 X214.269 Y262.010
G01 X220.224 Y260.661
G01 X226.105 Y259.022
G01 X231.898 Y257.097
G01 X237.589 Y254.890
G01 X243.164 Y252.407
G01 X248.611 Y249.653
G01 X253.915 Y246.635
G01 X259.064 Y243.362
G01 X264.046 Y239.839
G01 X268.849 Y236.077
G01 X273.460 Y232.084
G01 X277.871 Y227.871
G01 X282.068 Y223.446
G01 X286.043 Y218.821
G01 X289.786 Y214.006
G01 X293.288 Y209.015
G01 X296.541 Y203.858
G01 X299.536 Y198.548
G01 X302.267 Y193.098
G01 X304.727 Y187.521
G01 X306.910 Y181.831
G01 X308.811 Y176.041
G01 X310.426 Y170.165
G01 X311.750 Y164.218
G01 X312.781 Y158.213
G01 X313.515 Y152.165
G01 X313.952 Y146.089
G01 X314.091 Y140.000
G01 X313.930 Y133.912
G01 X313.471 Y127.839
G01 X312.715 Y121.797
G01 X311.663 Y115.800
G01 X310.318 Y109.862
G01 X308.684 Y103.998
G01 X306.764 Y98.221
G01 X304.563 Y92.546
G01 X302.087 Y86.987
G01 X299.341 Y81.556
G01 X296.332 Y76.267
G01 X293.068 Y71.132
G01 X289.555 Y66.165
G01 X285.804 Y61.376
G01 X281.823 Y56.777
G01 X277.621 Y52.379
G01 X273.208 Y48.194
G01 X268.596 Y44.230
G01 X263.796 Y40.498
G01 X258.818 Y37.006
G01 X253.676 Y33.763
G01 X248.381 Y30.776
G01 X242.947 Y28.053
G01 X237.386 Y25.600
G01 X231.712 Y23.423
G01 X225.938 Y21.527
G01 X220.079 Y19.917
G01 X214.149 Y18.597
G01 X208.161 Y17.569
G01 X202.131 Y16.836
G01 X196.072 Y16.401
G01 X190.000 Y16.263
G01 X183.929 Y16.423
G01 X177.874 Y16.880
G01 X171.849 Y17.635
G01 X165.869 Y18.684
G01 X159.948 Y20.024
G01 X154.100 Y21.654
G01 X148.340 Y23.569
G01 X142.682 Y25.763
G01 X137.138 Y28.233
G01 X131.723 Y30.971
G01 X126.449 Y33.971
G01 X121.329 Y37.226
G01 X116.375 Y40.729
G01 X111.600 Y44.469
G01 X107.014 Y48.439
G01 X102.629 Y52.629
G01 X98.456 Y57.029
G01 X94.503 Y61.628
G01 X90.782 Y66.415
G01 X87.300 Y71.378
G01 X84.066 Y76.506
G01 X81.088 Y81.785
G01 X78.372 Y87.204
G01 X75.927 Y92.749
G01 X73.756 Y98.407
G01 X71.866 Y104.164
G01 X70.260 Y110.007
G01 X68.944 Y115.920
G01 X67.919 Y121.891
G01 X67.188 Y127.904
G01 X66.754 Y133.945
G01 X66.616 Y140.000
G01 X66.776 Y146.054
G01 X67.232 Y152.092
G01 X67.984 Y158.099
G01 X69.030 Y164.062
G01 X70.367 Y169.966
G01 X71.992 Y175.797
G01 X73.901 Y181.541
G01 X76.090 Y187.183
G01 X78.552 Y192.711
G01 X81.283 Y198.111
G01 X84.274 Y203.369
G01 X87.520 Y208.475
G01 X91.013 Y213.414
G01 X94.743 Y218.176
G01 X98.701 Y222.748
G01 X102.879 Y227.121
G01 X107.267 Y231.282
G01 X111.852 Y235.223
G01 X116.625 Y238.934
G01 X121.574 Y242.406
G01 X126.687 Y245.631
G01 X131.952 Y248.600
G01 X137.355 Y251.308
G01 X142.885 Y253.747
G01 X148.526 Y255.911
G01 X154.267 Y257.796
G01 X160.093 Y259.397
G01 X165.989 Y260.710
G01 X171.943 Y261.731
G01 X177.939 Y262.460
G01 X183.963 Y262.893
G01 X190.000 Y263.030
G01 X196.036 Y262.871
G01 X202.057 Y262.416
G01 X208.047 Y261.666
G01 X213.993 Y260.623
G01 X219.881 Y259.290
G01 X225.695 Y257.669
G01 X231.422 Y255.766
G01 X237.048 Y253.584
G01 X242.560 Y251.128
G01 X247.944 Y248.406
G01 X253.188 Y245.422
G01 X258.278 Y242.186
G01 X263.204 Y238.704
G01 X267.951 Y234.984
G01 X272.511 Y231.037
G01 X276.871 Y226.871
G01 X281.020 Y222.496
G01 X284.950 Y217.923
G01 X288.650 Y213.164
G01 X292.112 Y208.229
G01 X295.328 Y203.131
G01 X298.289 Y197.882
G01 X300.988 Y192.494
G01 X303.420 Y186.980
G01 X305.578 Y181.355
G01 X307.458 Y175.630
G01 X309.054 Y169.821
G01 X310.363 Y163.942
G01 X311.382 Y158.005
G01 X312.108 Y152.027
G01 X312.540 Y146.020
G01 X312.677 Y140.000
G01 X312.518 Y133.981
G01 X312.064 Y127.978
G01 X311.316 Y122.004
G01 X310.276 Y116.076
G01 X308.947 Y110.205
G01 X307.331 Y104.408
G01 X305.433 Y98.697
G01 X303.257 Y93.087
G01 X300.809 Y87.591
G01 X298.094 Y82.223
G01 X295.119 Y76.994
G01 X291.892 Y71.918
G01 X288.420 Y67.007
G01 X284.711 Y62.273
G01 X280.775 Y57.727
G01 X276.621 Y53.379
G01 X272.259 Y49.242
G01 X267.699 Y45.323
G01 X262.953 Y41.634
G01 X258.033 Y38.182
G01 X252.949 Y34.976
G01 X247.715 Y32.023
G01 X242.342 Y29.331
G01 X236.845 Y26.906
G01 X231.236 Y24.754
G01 X225.528 Y22.881
G01 X219.736 Y21.289
G01 X213.873 Y19.984
G01 X207.953 Y18.968
G01 X201.992 Y18.244
G01 X196.003 Y17.813
G01 X190.000 Y17.677
G01 X183.998 Y17.835
G01 X178.012 Y18.288
G01 X172.056 Y19.034
G01 X166.145 Y20.071
G01 X160.291 Y21.396
G01 X154.511 Y23.007
G01 X148.817 Y24.900
G01 X143.223 Y27.070
G01 X137.743 Y29.511
G01 X132.389 Y32.218
G01 X127.176 Y35.184
G01 X122.115 Y38.402
G01 X117.218 Y41.864
G01 X112.497 Y45.562
G01 X107.964 Y49.487
G01 X103.629 Y53.629
G01 X99.504 Y57.979
G01 X95.597 Y62.525
G01 X91.918 Y67.257
G01 X88.476 Y72.164
G01 X85.279 Y77.233
G01 X82.335 Y82.452
G01 X79.651 Y87.809
G01 X77.233 Y93.290
G01 X75.087 Y98.884
G01 X73.219 Y104.575
G01 X71.632 Y110.350
G01 X70.331 Y116.196
G01 X69.318 Y122.098
G01 X68.596 Y128.043
G01 X68.166 Y134.015
G01 X68.030 Y140.000
G01 X68.188 Y145.984
G01 X68.640 Y151.953
G01 X69.383 Y157.892
G01 X70.417 Y163.786
G01 X71.739 Y169.623
G01 X73.346 Y175.387
G01 X75.233 Y181.064
G01 X77.396 Y186.642
G01 X79.831 Y192.106
G01 X82.530 Y197.444
G01 X85.487 Y202.642
G01 X88.696 Y207.689
G01 X92.148 Y212.572
G01 X95.836 Y217.279
G01 X99.749 Y221.799
G01 X103.879 Y226.121
G01 X108.216 Y230.234
G01 X112.749 Y234.130
G01 X117.468 Y237.798
G01 X122.360 Y241.230
G01 X127.414 Y244.418
G01 X132.618 Y247.353
G01 X137.960 Y250.030
G01 X143.426 Y252.440
G01 X149.003 Y254.580
G01 X154.677 Y256.443
G01 X160.436 Y258.025
G01 X166.265 Y259.323
G01 X172.150 Y260.333
G01 X178.077 Y261.053
G01 X184.032 Y261.481
G01 X190.000 Y261.616
G01 X195.967 Y261.459
G01 X201.918 Y261.009
G01 X207.840 Y260.267
G01 X213.718 Y259.236
G01 X219.537 Y257.918
G01 X225.284 Y256.316
G01 X230.945 Y254.434
G01 X236.507 Y252.277
G01 X241.955 Y249.850
G01 X247.277 Y247.158
G01 X252.461 Y244.209
G01 X257.493 Y241.010
G01 X262.361 Y237.568
G01 X267.054 Y233.891
G01 X271.561 Y229.989
G01 X275.871 Y225.871
G01 X279.972 Y221.546
G01 X283.857 Y217.026
G01 X287.514 Y212.322
G01 X290.936 Y207.444
G01 X294.115 Y202.404
G01 X297.042 Y197.215
G01 X299.710 Y191.889
G01 X302.114 Y186.439
G01 X304.247 Y180.878
G01 X306.105 Y175.220
G01 X307.682 Y169.478
G01 X308.976 Y163.666
G01 X309.983 Y157.798
G01 X310.701 Y151.888
G01 X311.128 Y145.951
G01 X311.263 Y140.000
G01 X311.106 Y134.050
G01 X310.657 Y128.116
G01 X309.917 Y122.212
G01 X308.889 Y116.351
G01 X307.575 Y110.549
G01 X305.978 Y104.819
G01 X304.101 Y99.174
G01 X301.950 Y93.629
G01 X299.530 Y88.196
G01 X296.847 Y82.889
G01 X293.906 Y77.721
G01 X290.716 Y72.704
G01 X287.284 Y67.849
G01 X283.618 Y63.170
G01 X279.727 Y58.676
G01 X275.621 Y54.379
G01 X271.309 Y50.289
G01 X266.802 Y46.416
G01 X262.111 Y42.770
G01 X257.247 Y39.358
G01 X252.222 Y36.189
G01 X247.048 Y33.270
G01 X241.738 Y30.610
G01 X236.304 Y28.213
G01 X230.759 Y26.086
G01 X225.117 Y24.234
G01 X219.392 Y22.661
G01 X213.597 Y21.371
G01 X207.746 Y20.367
G01 X201.853 Y19.651
G01 X195.933 Y19.226
G01 X190.000 Y19.091
G01 X184.068 Y19.248
G01 X178.151 Y19.695
G01 X172.264 Y20.432
G01 X166.420 Y21.457
G01 X160.635 Y22.768
G01 X154.921 Y24.361
G01 X149.293 Y26.232
G01 X143.764 Y28.376
G01 X138.347 Y30.789
G01 X133.056 Y33.465
G01 X127.903 Y36.397
G01 X122.900 Y39.578
G01 X118.060 Y43.000
G01 X113.394 Y46.656
G01 X108.914 Y50.535
G01 X104.629 Y54.629
G01 X100.551 Y58.929
G01 X96.690 Y63.422
G01 X93.054 Y68.100
G01 X89.651 Y72.949
G01 X86.492 Y77.960
G01 X83.582 Y83.118
G01 X80.929 Y88.413
G01 X78.540 Y93.832
G01 X76.419 Y99.360
G01 X74.572 Y104.985
G01 X73.004 Y110.694
G01 X71.718 Y116.472
G01 X70.716 Y122.306
G01 X70.003 Y128.181
G01 X69.579 Y134.084
G01 X69.444 Y140.000
G01 X69.601 Y145.915
G01 X70.047 Y151.814
G01 X70.782 Y157.684
G01 X71.804 Y163.511
G01 X73.111 Y169.279
G01 X74.699 Y174.976
G01 X76.564 Y180.588
G01 X78.703 Y186.101
G01 X81.109 Y191.502
G01 X83.777 Y196.777
G01 X86.700 Y201.915
G01 X89.872 Y206.903
G01 X93.284 Y211.729
G01 X96.929 Y216.382
G01 X100.797 Y220.849
G01 X104.879 Y225.121
G01 X109.166 Y229.187
G01 X113.647 Y233.037
G01 X118.310 Y236.663
G01 X123.146 Y240.055
G01 X128.141 Y243.205
G01 X133.285 Y246.106
G01 X138.565 Y248.751
G01 X143.967 Y251.134
G01 X149.479 Y253.248
G01 X155.088 Y255.090
G01 X160.780 Y256.653
G01 X166.541 Y257.936
G01 X172.358 Y258.934
G01 X178.216 Y259.645
G01 X184.101 Y260.068
G01 X190.000 Y260.202
G01 X195.897 Y260.046
G01 X201.780 Y259.601
G01 X207.632 Y258.868
G01 X213.442 Y257.849
G01 X219.193 Y256.546
G01 X224.874 Y254.963
G01 X230.469 Y253.103
G01 X235.965 Y250.971
G01 X241.350 Y248.571
G01 X246.611 Y245.911
G01 X251.734 Y242.996
G01 X256.707 Y239.834
G01 X261.519 Y236.432
G01 X266.157 Y232.798
G01 X270.611 Y228.941
G01 X274.871 Y224.871
G01 X278.925 Y220.597
G01 X282.764 Y216.129
G01 X286.379 Y211.479
G01 X289.761 Y206.658
G01 X292.902 Y201.677
G01 X295.794 Y196.548
G01 X298.432 Y191.284
G01 X300.807 Y185.898
G01 X302.915 Y180.402
G01 X304.751 Y174.809
G01 X306.310 Y169.134
G01 X307.589 Y163.390
G01 X308.584 Y157.590
G01 X309.293 Y151.749
G01 X309.715 Y145.881
G01 X309.848 Y140.000
G01 X309.693 Y134.120
G01 X309.249 Y128.255
G01 X308.519 Y122.419
G01 X307.502 Y116.627
G01 X306.203 Y110.893
G01 X304.624 Y105.229
G01 X302.770 Y99.650
G01 X300.644 Y94.170
G01 X298.252 Y88.801
G01 X295.599 Y83.556
G01 X292.693 Y78.448
G01 X289.540 Y73.489
G01 X286.148 Y68.692
G01 X282.525 Y64.067
G01 X278.679 Y59.626
G01 X274.621 Y55.379
G01 X270.359 Y51.337
G01 X265.905 Y47.510
G01 X261.269 Y43.905
G01 X256.461 Y40.533
G01 X251.495 Y37.402
G01 X246.382 Y34.517
G01 X241.133 Y31.888
G01 X235.763 Y29.519
G01 X230.283 Y27.417
G01 X224.707 Y25.587
G01 X219.048 Y24.033
G01 X213.321 Y22.758
G01 X207.538 Y21.766
G01 X201.715 Y21.058
G01 X195.864 Y20.638
G01 X190.000 Y20.505
G01 X184.137 Y20.660
G01 X178.290 Y21.102
G01 X172.471 Y21.831
G01 X166.696 Y22.844
G01 X160.979 Y24.140
G01 X155.332 Y25.714
G01 X149.769 Y27.563
G01 X144.305 Y29.683
G01 X138.952 Y32.068
G01 X133.723 Y34.712
G01 X128.630 Y37.610
G01 X123.686 Y40.754
G01 X118.902 Y44.136
G01 X114.291 Y47.749
G01 X109.863 Y51.583
G01 X105.629 Y55.629
G01 X101.599 Y59.878
G01 X97.783 Y64.319
G01 X94.189 Y68.942
G01 X90.827 Y73.735
G01 X87.705 Y78.687
G01 X84.829 Y83.785
G01 X82.208 Y89.018
G01 X79.846 Y94.373
G01 X77.750 Y99.836
G01 X75.925 Y105.396
G01 X74.376 Y111.038
G01 X73.105 Y116.748
G01 X72.115 Y122.513
G01 X71.410 Y128.320
G01 X70.991 Y134.153
G01 X70.859 Y140.000
G01 X71.013 Y145.845
G01 X71.454 Y151.676
G01 X72.181 Y157.477
G01 X73.191 Y163.235
G01 X74.483 Y168.936
G01 X76.052 Y174.566
G01 X77.896 Y180.111
G01 X80.009 Y185.560
G01 X82.387 Y190.897
G01 X85.024 Y196.111
G01 X87.913 Y201.188
G01 X91.048 Y206.118
G01 X94.420 Y210.887
G01 X98.022 Y215.484
G01 X101.845 Y219.899
G01 X105.879 Y224.121
G01 X110.116 Y228.139
G01 X114.544 Y231.944
G01 X119.153 Y235.527
G01 X123.931 Y238.879
G01 X128.868 Y241.992
G01 X133.952 Y244.859
G01 X139.169 Y247.473
G01 X144.508 Y249.827
G01 X149.956 Y251.917
G01 X155.498 Y253.736
G01 X161.123 Y255.282
G01 X166.817 Y256.549
G01 X172.565 Y257.535
G01 X178.355 Y258.238
G01 X184.171 Y258.656
G01 X190.000 Y258.788
G01 X195.828 Y258.634
G01 X201.641 Y258.194
G01 X207.425 Y257.469
G01 X213.166 Y256.462
G01 X218.850 Y255.174
G01 X224.463 Y253.609
G01 X229.992 Y251.771
G01 X235.424 Y249.664
G01 X240.746 Y247.293
G01 X245.944 Y244.664
G01 X251.007 Y241.784
G01 X255.921 Y238.658
G01 X260.676 Y235.296
G01 X265.260 Y231.705
G01 X269.662 Y227.893
G01 X273.871 Y223.871
G01 X277.877 Y219.647
G01 X281.671 Y215.232
G01 X285.243 Y210.637
G01 X288.585 Y205.872
G01 X291.689 Y200.950
G01 X294.547 Y195.882
G01 X297.153 Y190.680
G01 X299.501 Y185.357
G01 X301.584 Y179.925
G01 X303.398 Y174.399
G01 X304.939 Y168.791
G01 X306.202 Y163.114
G01 X307.185 Y157.383
G01 X307.886 Y151.611
G01 X308.303 Y145.812
G01 X308.434 Y140.000
G01 X308.281 Y134.189
G01 X307.842 Y128.394
G01 X307.120 Y122.627
G01 X306.115 Y116.903
G01 X304.831 Y111.236
G01 X303.271 Y105.640
G01 X301.438 Y100.127
G01 X299.337 Y94.711
G01 X296.973 Y89.405
G01 X294.352 Y84.223
G01 X291.480 Y79.175
G01 X288.364 Y74.275
G01 X285.012 Y69.534
G01 X281.431 Y64.964
G01 X277.631 Y60.576
G01 X273.621 Y56.379
G01 X269.410 Y52.385
G01 X265.008 Y48.603
G01 X260.426 Y45.041
G01 X255.676 Y41.709
G01 X250.768 Y38.614
G01 X245.715 Y35.765
G01 X240.529 Y33.166
G01 X235.221 Y30.826
G01 X229.806 Y28.749
G01 X224.296 Y26.940
G01 X218.705 Y25.404
G01 X213.045 Y24.145
G01 X207.331 Y23.164
G01 X201.576 Y22.466
G01 X195.794 Y22.050
G01 X190.000 Y21.919
G01 X184.207 Y22.072
G01 X178.428 Y22.510
G01 X172.679 Y23.230
G01 X166.972 Y24.231
G01 X161.322 Y25.512
G01 X155.742 Y27.067
G01 X150.246 Y28.895
G01 X144.846 Y30.989
G01 X139.556 Y33.346
G01 X134.389 Y35.959
G01 X129.357 Y38.823
G01 X124.471 Y41.930
G01 X119.745 Y45.272
G01 X115.188 Y48.842
G01 X110.813 Y52.631
G01 X106.629 Y56.629
G01 X102.647 Y60.828
G01 X98.876 Y65.216
G01 X95.325 Y69.784
G01 X92.003 Y74.521
G01 X88.918 Y79.414
G01 X86.076 Y84.452
G01 X83.486 Y89.623
G01 X81.153 Y94.914
G01 X79.082 Y100.313
G01 X77.279 Y105.806
G01 X75.747 Y111.381
G01 X74.491 Y117.024
G01 X73.514 Y122.721
G01 X72.818 Y128.459
G01 X72.404 Y134.223
G01 X72.273 Y140.000
G01 X72.426 Y145.776
G01 X72.862 Y151.537
G01 X73.580 Y157.269
G01 X74.578 Y162.959
G01 X75.854 Y168.592
G01 X77.405 Y174.155
G01 X79.227 Y179.635
G01 X81.316 Y185.018
G01 X83.666 Y190.292
G01 X86.271 Y195.444
G01 X89.126 Y200.461
G01 X92.224 Y205.332
G01 X95.556 Y210.044
G01 X99.115 Y214.587
G01 X102.893 Y218.950
G01 X106.879 Y223.121
G01 X111.065 Y227.091
G01 X115.441 Y230.851
G01 X119.995 Y234.391
G01 X124.717 Y237.703
G01 X129.595 Y240.779
G01 X134.618 Y243.612
G01 X139.774 Y246.194
G01 X145.049 Y248.521
G01 X150.432 Y250.585
G01 X155.909 Y252.383
G01 X161.467 Y253.910
G01 X167.093 Y255.162
G01 X172.773 Y256.136
G01 X178.493 Y256.831
G01 X184.240 Y257.243
G01 X190.000 Y257.374
G01 X195.759 Y257.221
G01 X201.502 Y256.787
G01 X207.217 Y256.071
G01 X212.890 Y255.075
G01 X218.506 Y253.803
G01 X224.053 Y252.256
G01 X229.516 Y250.440
G01 X234.883 Y248.358
G01 X240.141 Y246.015
G01 X245.278 Y243.417
G01 X250.280 Y240.571
G01 X255.136 Y237.482
G01 X259.834 Y234.160
G01 X264.363 Y230.612
G01 X268.712 Y226.845
G01 X272.871 Y222.871
G01 X276.829 Y218.697
G01 X280.577 Y214.335
G01 X284.107 Y209.794
G01 X287.409 Y205.087
G01 X290.476 Y200.223
G01 X293.300 Y195.215
G01 X295.875 Y190.075
G01 X298.194 Y184.816
G01 X300.252 Y179.449
G01 X302.045 Y173.988
G01 X303.567 Y168.447
G01 X304.815 Y162.838
G01 X305.786 Y157.175
G01 X306.479 Y151.472
G01 X306.890 Y145.742
G01 X307.020 Y140.000
G01 X306.868 Y134.259
G01 X306.435 Y128.532
G01 X305.721 Y122.834
G01 X304.728 Y117.179
G01 X303.460 Y111.580
G01 X301.918 Y106.050
G01 X300.107 Y100.603
G01 X298.031 Y95.252
G01 X295.695 Y90.010
G01 X293.105 Y84.889
G01 X290.267 Y79.902
G01 X287.189 Y75.061
G01 X283.876 Y70.377
G01 X280.338 Y65.861
G01 X276.583 Y61.525
G01 X272.621 Y57.379
G01 X268.460 Y53.433
G01 X264.111 Y49.696
G01 X259.584 Y46.177
G01 X254.890 Y42.885
G01 X250.041 Y39.827
G01 X245.048 Y37.012
G01 X239.924 Y34.445
G01 X234.680 Y32.132
G01 X229.330 Y30.080
G01 X223.886 Y28.294
G01 X218.361 Y26.776
G01 X212.769 Y25.532
G01 X207.123 Y24.563
G01 X201.437 Y23.873
G01 X195.725 Y23.463
G01 X190.000 Y23.333
G01 X184.276 Y23.485
G01 X178.567 Y23.917
G01 X172.886 Y24.629
G01 X167.248 Y25.618
G01 X161.666 Y26.883
G01 X156.153 Y28.420
G01 X150.722 Y30.226
G01 X145.387 Y32.296
G01 X140.161 Y34.624
G01 X135.056 Y37.207
G01 X130.084 Y40.036
G01 X125.257 Y43.105
G01 X120.587 Y46.408
G01 X116.086 Y49.935
G01 X111.763 Y53.678
G01 X107.629 Y57.629
G01 X103.695 Y61.778
G01 X99.969 Y66.114
G01 X96.461 Y70.627
G01 X93.179 Y75.306
G01 X90.131 Y80.141
G01 X87.324 Y85.118
G01 X84.764 Y90.227
G01 X82.459 Y95.455
G01 X80.413 Y100.789
G01 X78.632 Y106.217
G01 X77.119 Y111.725
G01 X75.878 Y117.300
G01 X74.913 Y122.928
G01 X74.225 Y128.597
G01 X73.816 Y134.292
G01 X73.687 Y140.000
G01 X73.838 Y145.707
G01 X74.269 Y151.399
G01 X74.979 Y157.062
G01 X75.965 Y162.683
G01 X77.226 Y168.248
G01 X78.759 Y173.745
G01 X80.559 Y179.159
G01 X82.622 Y184.477
G01 X84.944 Y189.688
G01 X87.518 Y194.778
G01 X90.339 Y199.734
G01 X93.399 Y204.546
G01 X96.692 Y209.202
G01 X100.208 Y213.690
G01 X103.940 Y218.000
G01 X107.879 Y222.121
G01 X112.015 Y226.043
G01 X116.338 Y229.758
G01 X120.837 Y233.255
G01 X125.503 Y236.527
G01 X130.322 Y239.566
G01 X135.285 Y242.365
G01 X140.378 Y244.916
G01 X145.590 Y247.214
G01 X150.908 Y249.254
G01 X156.319 Y251.030
G01 X161.811 Y252.538
G01 X167.369 Y253.775
G01 X172.980 Y254.737
G01 X178.632 Y255.423
G01 X184.310 Y255.831
G01 X190.000 Y255.960
G01 X195.689 Y255.809
G01 X201.364 Y255.379
G01 X207.010 Y254.672
G01 X212.614 Y253.688
G01 X218.162 Y252.431
G01 X223.642 Y250.903
G01 X229.040 Y249.108
G01 X234.342 Y247.051
G01 X239.537 Y244.736
G01 X244.611 Y242.170
G01 X249.553 Y239.358
G01 X254.350 Y236.307
G01 X258.991 Y233.024
G01 X263.466 Y229.518
G01 X267.762 Y225.798
G01 X271.871 Y221.871
G01 X275.781 Y217.748
G01 X279.484 Y213.438
G01 X282.971 Y208.952
G01 X286.233 Y204.301
G01 X289.263 Y199.496
G01 X292.053 Y194.548
G01 X294.597 Y189.470
G01 X296.888 Y184.274
G01 X298.921 Y178.973
G01 X300.692 Y173.578
G01 X302.195 Y168.103
G01 X303.428 Y162.562
G01 X304.388 Y156.968
G01 X305.071 Y151.334
G01 X305.478 Y145.673
G01 X305.606 Y140.000
G01 X305.456 Y134.328
G01 X305.027 Y128.671
G01 X304.322 Y123.042
G01 X303.341 Y117.455
G01 X302.088 Y111.923
G01 X300.565 Y106.461
G01 X298.775 Y101.080
G01 X296.724 Y95.793
G01 X294.417 Y90.615
G01 X291.858 Y85.556
G01 X289.054 Y80.629
G01 X286.013 Y75.846
G01 X282.740 Y71.219
G01 X279.245 Y66.758
G01 X275.536 Y62.475
G01 X271.621 Y58.379
G01 X267.510 Y54.481
G01 X263.214 Y50.789
G01 X258.741 Y47.313
G01 X254.105 Y44.061
G01 X249.314 Y41.040
G01 X244.382 Y38.259
G01 X239.319 Y35.723
G01 X234.139 Y33.439
G01 X228.853 Y31.412
G01 X223.475 Y29.647
G01 X218.018 Y28.148
G01 X212.493 Y26.919
G01 X206.916 Y25.962
G01 X201.299 Y25.280
G01 X195.656 Y24.875
G01 X190.000 Y24.747
G01 X184.345 Y24.897
G01 X178.705 Y25.324
G01 X173.094 Y26.028
G01 X167.524 Y27.005
G01 X162.009 Y28.255
G01 X156.563 Y29.774
G01 X151.199 Y31.557
G01 X145.929 Y33.602
G01 X140.766 Y35.903
G01 X135.722 Y38.454
G01 X130.811 Y41.249
G01 X126.043 Y44.281
G01 X121.430 Y47.544
G01 X116.983 Y51.028
G01 X112.712 Y54.726
G01 X108.629 Y58.629
G01 X104.743 Y62.727
G01 X101.062 Y67.011
G01 X97.597 Y71.469
G01 X94.355 Y76.092
G01 X91.344 Y80.868
G01 X88.571 Y85.785
G01 X86.043 Y90.832
G01 X83.766 Y95.996
G01 X81.745 Y101.266
G01 X79.985 Y106.627
G01 X78.491 Y112.068
G01 X77.265 Y117.576
G01 X76.312 Y123.136
G01 X75.632 Y128.736
G01 X75.228 Y134.362
G01 X75.101 Y140.000
G01 X75.250 Y145.637
G01 X75.676 Y151.260
G01 X76.377 Y156.854
G01 X77.352 Y162.407
G01 X78.598 Y167.905
G01 X80.112 Y173.334
G01 X81.890 Y178.682
G01 X83.929 Y183.936
G01 X86.222 Y189.083
G01 X88.766 Y194.111
G01 X91.552 Y199.007
G01 X94.575 Y203.761
G01 X97.828 Y208.360
G01 X101.301 Y212.793
G01 X104.988 Y217.050
G01 X108.879 Y221.121
G01 X112.965 Y224.995
G01 X117.235 Y228.664
G01 X121.680 Y232.119
G01 X126.288 Y235.351
G01 X131.049 Y238.353
G01 X135.952 Y241.118
G01 X140.983 Y243.638
G01 X146.132 Y245.908
G01 X151.385 Y247.922
G01 X156.730 Y249.677
G01 X162.154 Y251.166
G01 X167.645 Y252.388
G01 X173.188 Y253.338
G01 X178.770 Y254.016
G01 X184.379 Y254.419
G01 X190.000 Y254.545
G01 X195.620 Y254.396
G01 X201.225 Y253.972
G01 X206.802 Y253.273
G01 X212.338 Y252.301
G01 X217.819 Y251.059
G01 X223.232 Y249.550
G01 X228.563 Y247.777
G01 X233.801 Y245.745
G01 X238.932 Y243.458
G01 X243.944 Y240.923
G01 X248.826 Y238.145
G01 X253.564 Y235.131
G01 X258.149 Y231.888
G01 X262.569 Y228.425
G01 X266.813 Y224.750
G01 X270.871 Y220.871
G01 X274.733 Y216.798
G01 X278.391 Y212.541
G01 X281.835 Y208.110
G01 X285.057 Y203.515
G01 X288.050 Y198.769
G01 X290.806 Y193.882
G01 X293.318 Y188.866
G01 X295.581 Y183.733
G01 X297.590 Y178.496
G01 X299.338 Y173.167
G01 X300.823 Y167.760
G01 X302.041 Y162.286
G01 X302.989 Y156.760
G01 X303.664 Y151.195
G01 X304.065 Y145.604
G01 X304.192 Y140.000
G01 X304.043 Y134.397
G01 X303.620 Y128.809
G01 X302.923 Y123.249
G01 X301.954 Y117.731
G01 X300.716 Y112.267
G01 X299.211 Y106.871
G01 X297.444 Y101.556
G01 X295.418 Y96.334
G01 X293.138 Y91.219
G01 X290.611 Y86.222
G01 X287.841 Y81.356
G01 X284.837 Y76.632
G01 X281.604 Y72.062
G01 X278.152 Y67.656
G01 X274.488 Y63.425
G01 X270.621 Y59.379
G01 X266.560 Y55.529
G01 X262.316 Y51.882
G01 X257.899 Y48.449
G01 X253.319 Y45.237
G01 X248.587 Y42.253
G01 X243.715 Y39.506
G01 X238.715 Y37.001
G01 X233.598 Y34.745
G01 X228.377 Y32.743
G01 X223.065 Y31.000
G01 X217.674 Y29.520
G01 X212.217 Y28.306
G01 X206.708 Y27.361
G01 X201.160 Y26.688
G01 X195.586 Y26.288
G01 X190.000 Y26.162
G01 X184.415 Y26.310
G01 X178.844 Y26.732
G01 X173.301 Y27.427
G01 X167.800 Y28.392
G01 X162.353 Y29.627
G01 X156.974 Y31.127
G01 X151.675 Y32.889
G01 X146.470 Y34.909
G01 X141.370 Y37.181
G01 X136.389 Y39.701
G01 X131.538 Y42.462
G01 X126.828 Y45.457
G01 X122.272 Y48.680
G01 X117.880 Y52.121
G01 X113.662 Y55.774
G01 X109.629 Y59.629
G01 X105.790 Y63.677
G01 X102.155 Y67.908
G01 X98.733 Y72.312
G01 X95.531 Y76.878
G01 X92.557 Y81.595
G01 X89.818 Y86.452
G01 X87.321 Y91.436
G01 X85.072 Y96.537
G01 X83.076 Y101.742
G01 X81.338 Y107.038
G01 X79.863 Y112.412
G01 X78.652 Y117.852
G01 X77.711 Y123.343
G01 X77.040 Y128.874
G01 X76.641 Y134.431
G01 X76.515 Y140.000
G01 X76.663 Y145.568
G01 X77.084 Y151.121
G01 X77.776 Y156.647
G01 X78.739 Y162.131
G01 X79.970 Y167.561
G01 X81.465 Y172.924
G01 X83.222 Y178.206
G01 X85.235 Y183.395
G01 X87.501 Y188.479
G01 X90.013 Y193.444
G01 X92.765 Y198.280
G01 X95.751 Y202.975
G01 X98.963 Y207.517
G01 X102.395 Y211.896
G01 X106.036 Y216.100
G01 X109.879 Y220.121
G01 X113.914 Y223.948
G01 X118.132 Y227.571
G01 X122.522 Y230.983
G01 X127.074 Y234.175
G01 X131.776 Y237.140
G01 X136.618 Y239.870
G01 X141.588 Y242.359
G01 X146.673 Y244.601
G01 X151.861 Y246.591
G01 X157.140 Y248.323
G01 X162.498 Y249.794
G01 X167.921 Y251.001
G01 X173.395 Y251.940
G01 X178.909 Y252.609
G01 X184.448 Y253.006
G01 X190.000 Y253.131
G01 X195.551 Y252.984
G01 X201.087 Y252.565
G01 X206.595 Y251.874
G01 X212.062 Y250.914
G01 X217.475 Y249.687
G01 X222.821 Y248.196
G01 X228.087 Y246.445
G01 X233.260 Y244.438
G01 X238.327 Y242.180
G01 X243.278 Y239.675
G01 X248.099 Y236.932
G01 X252.779 Y233.955
G01 X257.307 Y230.753
G01 X261.672 Y227.332
G01 X265.863 Y223.702
G01 X269.871 Y219.871
G01 X273.686 Y215.848
G01 X277.298 Y211.644
G01 X280.699 Y207.267
G01 X283.882 Y202.730
G01 X286.837 Y198.042
G01 X289.559 Y193.215
G01 X292.040 Y188.261
G01 X294.275 Y183.192
G01 X296.258 Y178.020
G01 X297.985 Y172.757
G01 X299.452 Y167.416
G01 X300.654 Y162.010
G01 X301.590 Y156.553
G01 X302.257 Y151.056
G01 X302.653 Y145.534
G01 X302.778 Y140.000
G01 X302.631 Y134.467
G01 X302.213 Y128.948
G01 X301.524 Y123.457
G01 X300.567 Y118.007
G01 X299.344 Y112.611
G01 X297.858 Y107.282
G01 X296.112 Y102.032
G01 X294.111 Y96.876
G01 X291.860 Y91.824
G01 X289.364 Y86.889
G01 X286.628 Y82.083
G01 X283.661 Y77.418
G01 X280.469 Y72.904
G01 X277.059 Y68.553
G01 X273.440 Y64.374
G01 X269.621 Y60.379
G01 X265.611 Y56.576
G01 X261.419 Y52.975
G01 X257.057 Y49.585
G01 X252.533 Y46.412
G01 X247.860 Y43.466
G01 X243.049 Y40.753
G01 X238.110 Y38.280
G01 X233.057 Y36.052
G01 X227.901 Y34.075
G01 X222.654 Y32.353
G01 X217.330 Y30.891
G01 X211.942 Y29.693
G01 X206.501 Y28.760
G01 X201.022 Y28.095
G01 X195.517 Y27.700
G01 X190.000 Y27.576
G01 X184.484 Y27.722
G01 X178.983 Y28.139
G01 X173.509 Y28.825
G01 X168.076 Y29.779
G01 X162.697 Y30.999
G01 X157.384 Y32.480
G01 X152.151 Y34.220
G01 X147.011 Y36.215
G01 X141.975 Y38.460
G01 X137.056 Y40.948
G01 X132.265 Y43.675
G01 X127.614 Y46.633
G01 X123.115 Y49.815
G01 X118.777 Y53.214
G01 X114.612 Y56.822
G01 X110.629 Y60.629
G01 X106.838 Y64.627
G01 X103.249 Y68.805
G01 X99.869 Y73.154
G01 X96.706 Y77.663
G01 X93.770 Y82.322
G01 X91.065 Y87.118
G01 X88.599 Y92.041
G01 X86.379 Y97.079
G01 X84.408 Y102.218
G01 X82.692 Y107.448
G01 X81.234 Y112.756
G01 X80.039 Y118.127
G01 X79.110 Y123.551
G01 X78.447 Y129.013
G01 X78.053 Y134.500
G01 X77.929 Y140.000
G01 X78.075 Y145.499
G01 X78.491 Y150.983
G01 X79.175 Y156.439
G01 X80.126 Y161.855
G01 X81.341 Y167.218
G01 X82.818 Y172.513
G01 X84.553 Y177.729
G01 X86.542 Y182.854
G01 X88.779 Y187.874
G01 X91.260 Y192.778
G01 X93.978 Y197.553
G01 X96.927 Y202.189
G01 X100.099 Y206.675
G01 X103.488 Y210.999
G01 X107.084 Y215.151
G01 X110.879 Y219.121
G01 X114.864 Y222.900
G01 X119.029 Y226.478
G01 X123.365 Y229.847
G01 X127.860 Y233.000
G01 X132.503 Y235.927
G01 X137.285 Y238.623
G01 X142.192 Y241.081
G01 X147.214 Y243.295
G01 X152.338 Y245.259
G01 X157.551 Y246.970
G01 X162.842 Y248.423
G01 X168.196 Y249.614
G01 X173.603 Y250.541
G01 X179.048 Y251.201
G01 X184.518 Y251.594
G01 X190.000 Y251.717
G01 X195.481 Y251.572
G01 X200.948 Y251.157
G01 X206.387 Y250.475
G01 X211.786 Y249.527
G01 X217.132 Y248.316
G01 X222.411 Y246.843
G01 X227.610 Y245.114
G01 X232.718 Y243.132
G01 X237.723 Y240.901
G01 X242.611 Y238.428
G01 X247.372 Y235.719
G01 X251.993 Y232.779
G01 X256.464 Y229.617
G01 X260.775 Y226.239
G01 X264.913 Y222.654
G01 X268.871 Y218.871
G01 X272.638 Y214.899
G01 X276.205 Y210.746
G01 X279.563 Y206.425
G01 X282.706 Y201.944
G01 X285.624 Y197.315
G01 X288.311 Y192.549
G01 X290.761 Y187.657
G01 X292.968 Y182.651
G01 X294.927 Y177.543
G01 X296.632 Y172.346
G01 X298.080 Y167.073
G01 X299.267 Y161.735
G01 X300.191 Y156.345
G01 X300.849 Y150.918
G01 X301.241 Y145.465
G01 X301.364 Y140.000
G01 X301.218 Y134.536
G01 X300.805 Y129.087
G01 X300.126 Y123.664
G01 X299.180 Y118.283
G01 X297.973 Y112.954
G01 X296.505 Y107.692
G01 X294.781 Y102.509
G01 X292.805 Y97.417
G01 X290.582 Y92.428
G01 X288.117 Y87.556
G01 X285.416 Y82.810
G01 X282.485 Y78.203
G01 X279.333 Y73.746
G01 X275.966 Y69.450
G01 X272.392 Y65.324
G01 X268.621 Y61.379
G01 X264.661 Y57.624
G01 X260.522 Y54.068
G01 X256.214 Y50.720
G01 X251.748 Y47.588
G01 X247.133 Y44.679
G01 X242.382 Y42.000
G01 X237.505 Y39.558
G01 X232.516 Y37.358
G01 X227.424 Y35.406
G01 X222.244 Y33.707
G01 X216.987 Y32.263
G01 X211.666 Y31.080
G01 X206.293 Y30.159
G01 X200.883 Y29.502
G01 X195.448 Y29.113
G01 X190.000 Y28.990
G01 X184.554 Y29.135
G01 X179.121 Y29.546
G01 X173.716 Y30.224
G01 X168.352 Y31.166
G01 X163.040 Y32.370
G01 X157.795 Y33.833
G01 X152.628 Y35.552
G01 X147.552 Y37.522
G01 X142.580 Y39.738
G01 X137.722 Y42.195
G01 X132.992 Y44.888
G01 X128.400 Y47.809
G01 X123.957 Y50.951
G01 X119.674 Y54.308
G01 X115.561 Y57.870
G01 X111.629 Y61.629
G01 X107.886 Y65.576
G01 X104.342 Y69.702
G01 X101.004 Y73.996
G01 X97.882 Y78.449
G01 X94.982 Y83.049
G01 X92.312 Y87.785
G01 X89.878 Y92.646
G01 X87.685 Y97.620
G01 X85.739 Y102.695
G01 X84.045 Y107.859
G01 X82.606 Y113.099
G01 X81.426 Y118.403
G01 X80.508 Y123.758
G01 X79.854 Y129.152
G01 X79.466 Y134.570
G01 X79.343 Y140.000
G01 X79.488 Y145.429
G01 X79.898 Y150.844
G01 X80.574 Y156.232
G01 X81.513 Y161.579
G01 X82.713 Y166.874
G01 X84.172 Y172.103
G01 X85.885 Y177.253
G01 X87.848 Y182.313
G01 X90.058 Y187.269
G01 X92.507 Y192.111
G01 X95.191 Y196.826
G01 X98.103 Y201.404
G01 X101.235 Y205.832
G01 X104.581 Y210.102
G01 X108.132 Y214.201
G01 X111.879 Y218.121
G01 X115.814 Y221.852
G01 X119.926 Y225.385
G01 X124.207 Y228.712
G01 X128.645 Y231.824
G01 X133.230 Y234.714
G01 X137.951 Y237.376
G01 X142.797 Y239.803
G01 X147.755 Y241.988
G01 X152.814 Y243.928
G01 X157.961 Y245.617
G01 X163.185 Y247.051
G01 X168.472 Y248.227
G01 X173.810 Y249.142
G01 X179.186 Y249.794
G01 X184.587 Y250.181
G01 X190.000 Y250.303
G01 X195.412 Y250.159
G01 X200.809 Y249.750
G01 X206.180 Y249.076
G01 X211.510 Y248.140
G01 X216.788 Y246.944
G01 X222.000 Y245.490
G01 X227.134 Y243.782
G01 X232.177 Y241.825
G01 X237.118 Y239.623
G01 X241.944 Y237.181
G01 X246.645 Y234.506
G01 X251.207 Y231.603
G01 X255.622 Y228.481
G01 X259.877 Y225.146
G01 X263.964 Y221.606
G01 X267.871 Y217.871
G01 X271.590 Y213.949
G01 X275.112 Y209.849
G01 X278.428 Y205.582
G01 X281.530 Y201.158
G01 X284.411 Y196.588
G01 X287.064 Y191.882
G01 X289.483 Y187.052
G01 X291.662 Y182.110
G01 X293.595 Y177.067
G01 X295.279 Y171.936
G01 X296.708 Y166.729
G01 X297.880 Y161.459
G01 X298.792 Y156.138
G01 X299.442 Y150.779
G01 X299.828 Y145.396
G01 X299.949 Y140.000
G01 X299.806 Y134.606
G01 X299.398 Y129.225
G01 X298.727 Y123.872
G01 X297.794 Y118.559
G01 X296.601 Y113.298
G01 X295.152 Y108.103
G01 X293.449 Y102.985
G01 X291.498 Y97.958
G01 X289.303 Y93.033
G01 X286.869 Y88.222
G01 X284.203 Y83.537
G01 X281.309 Y78.989
G01 X278.197 Y74.589
G01 X274.873 Y70.347
G01 X271.344 Y66.274
G01 X267.621 Y62.379
G01 X263.711 Y58.672
G01 X259.625 Y55.162
G01 X255.372 Y51.856
G01 X250.962 Y48.764
G01 X246.406 Y45.892
G01 X241.715 Y43.248
G01 X236.901 Y40.837
G01 X231.974 Y38.665
G01 X226.948 Y36.738
G01 X221.833 Y35.060
G01 X216.643 Y33.635
G01 X211.390 Y32.467
G01 X206.086 Y31.557
G01 X200.744 Y30.910
G01 X195.378 Y30.525
G01 X190.000 Y30.404
G01 X184.623 Y30.547
G01 X179.260 Y30.954
G01 X173.924 Y31.623
G01 X168.628 Y32.553
G01 X163.384 Y33.742
G01 X158.205 Y35.187
G01 X153.104 Y36.883
G01 X148.093 Y38.828
G01 X143.184 Y41.016
G01 X138.389 Y43.442
G01 X133.719 Y46.101
G01 X129.185 Y48.985
G01 X124.799 Y52.087
G01 X120.571 Y55.401
G01 X116.511 Y58.918
G01 X112.629 Y62.629
G01 X108.934 Y66.526
G01 X105.435 Y70.599
G01 X102.140 Y74.839
G01 X99.058 Y79.235
G01 X96.195 Y83.776
G01 X93.559 Y88.451
G01 X91.156 Y93.250
G01 X88.992 Y98.161
G01 X87.071 Y103.171
G01 X85.398 Y108.269
G01 X83.978 Y113.443
G01 X82.813 Y118.679
G01 X81.907 Y123.966
G01 X81.262 Y129.290
G01 X80.878 Y134.639
G01 X80.758 Y140.000
G01 X80.900 Y145.360
G01 X81.306 Y150.705
G01 X81.973 Y156.024
G01 X82.900 Y161.304
G01 X84.085 Y166.530
G01 X85.525 Y171.692
G01 X87.216 Y176.777
G01 X89.155 Y181.771
G01 X91.336 Y186.665
G01 X93.754 Y191.444
G01 X96.404 Y196.099
G01 X99.278 Y200.618
G01 X102.371 Y204.990
G01 X105.674 Y209.205
G01 X109.179 Y213.251
G01 X112.879 Y217.121
G01 X116.763 Y220.804
G01 X120.823 Y224.292
G01 X125.049 Y227.576
G01 X129.431 Y230.648
G01 X133.957 Y233.501
G01 X138.618 Y236.129
G01 X143.401 Y238.524
G01 X148.296 Y240.682
G01 X153.290 Y242.597
G01 X158.372 Y244.264
G01 X163.529 Y245.679
G01 X168.748 Y246.840
G01 X174.018 Y247.743
G01 X179.325 Y248.387
G01 X184.657 Y248.769
G01 X190.000 Y248.889
G01 X195.342 Y248.747
G01 X200.671 Y248.343
G01 X205.972 Y247.678
G01 X211.235 Y246.753
G01 X216.444 Y245.572
G01 X221.590 Y244.137
G01 X226.658 Y242.451
G01 X231.636 Y240.519
G01 X236.513 Y238.345
G01 X241.278 Y235.934
G01 X245.918 Y233.293
G01 X250.422 Y230.428
G01 X254.779 Y227.345
G01 X258.980 Y224.053
G01 X263.014 Y220.559
G01 X266.871 Y216.871
G01 X270.542 Y212.999
G01 X274.019 Y208.952
G01 X277.292 Y204.740
G01 X280.354 Y200.373
G01 X283.198 Y195.861
G01 X285.817 Y191.215
G01 X288.205 Y186.447
G01 X290.355 Y181.569
G01 X292.264 Y176.591
G01 X293.925 Y171.525
G01 X295.336 Y166.385
G01 X296.493 Y161.183
G01 X297.393 Y155.930
G01 X298.035 Y150.640
G01 X298.416 Y145.326
G01 X298.535 Y140.000
G01 X298.394 Y134.675
G01 X297.991 Y129.364
G01 X297.328 Y124.079
G01 X296.407 Y118.834
G01 X295.229 Y113.641
G01 X293.798 Y108.513
G01 X292.118 Y103.462
G01 X290.192 Y98.499
G01 X288.025 Y93.638
G01 X285.622 Y88.889
G01 X282.990 Y84.264
G01 X280.134 Y79.775
G01 X277.061 Y75.431
G01 X273.779 Y71.244
G01 X270.297 Y67.223
G01 X266.621 Y63.379
G01 X262.762 Y59.720
G01 X258.728 Y56.255
G01 X254.529 Y52.992
G01 X250.176 Y49.940
G01 X245.679 Y47.105
G01 X241.049 Y44.495
G01 X236.296 Y42.115
G01 X231.433 Y39.971
G01 X226.471 Y38.069
G01 X221.423 Y36.413
G01 X216.299 Y35.007
G01 X211.114 Y33.854
G01 X205.878 Y32.956
G01 X200.606 Y32.317
G01 X195.309 Y31.937
G01 X190.000 Y31.818
G01 X184.692 Y31.960
G01 X179.398 Y32.361
G01 X174.131 Y33.022
G01 X168.903 Y33.940
G01 X163.727 Y35.114
G01 X158.616 Y36.540
G01 X153.581 Y38.215
G01 X148.634 Y40.135
G01 X143.789 Y42.295
G01 X139.056 Y44.690
G01 X134.446 Y47.314
G01 X129.971 Y50.160
G01 X125.642 Y53.223
G01 X121.468 Y56.494
G01 X117.461 Y59.965
G01 X113.629 Y63.629
G01 X109.982 Y67.476
G01 X106.528 Y71.496
G01 X103.276 Y75.681
G01 X100.234 Y80.020
G01 X97.408 Y84.503
G01 X94.807 Y89.118
G01 X92.435 Y93.855
G01 X90.298 Y98.702
G01 X88.402 Y103.648
G01 X86.751 Y108.680
G01 X85.350 Y113.786
G01 X84.200 Y118.955
G01 X83.306 Y124.173
G01 X82.669 Y129.429
G01 X82.291 Y134.709
G01 X82.172 Y140.000
G01 X82.313 Y145.290
G01 X82.713 Y150.567
G01 X83.372 Y155.817
G01 X84.287 Y161.028
G01 X85.457 Y166.187
G01 X86.878 Y171.282
G01 X88.548 Y176.300
G01 X90.461 Y181.230
G01 X92.614 Y186.060
G01 X95.001 Y190.778
G01 X97.617 Y195.372
G01 X100.454 Y199.833
G01 X103.507 Y204.148
G01 X106.767 Y208.307
G01 X110.227 Y212.302
G01 X113.879 Y216.121
G01 X117.713 Y219.756
G01 X121.721 Y223.199
G01 X125.892 Y226.440
G01 X130.217 Y229.472
G01 X134.684 Y232.288
G01 X139.285 Y234.882
G01 X144.006 Y237.246
G01 X148.837 Y239.375
G01 X153.767 Y241.265
G01 X158.782 Y242.910
G01 X163.872 Y244.307
G01 X169.024 Y245.453
G01 X174.225 Y246.344
G01 X179.463 Y246.979
G01 X184.726 Y247.356
G01 X190.000 Y247.475
G01 X195.273 Y247.334
G01 X200.532 Y246.935
G01 X205.765 Y246.279
G01 X210.959 Y245.366
G01 X216.101 Y244.200
G01 X221.179 Y242.783
G01 X226.181 Y241.119
G01 X231.095 Y239.212
G01 X235.909 Y237.066
G01 X240.611 Y234.687
G01 X245.191 Y232.080
G01 X249.636 Y229.252
G01 X253.937 Y226.209
G01 X258.083 Y222.960
G01 X262.064 Y219.511
G01 X265.871 Y215.871
G01 X269.494 Y212.049
G01 X272.925 Y208.055
G01 X276.156 Y203.898
G01 X279.178 Y199.587
G01 X281.985 Y195.134
G01 X284.570 Y190.549
G01 X286.926 Y185.843
G01 X289.049 Y181.027
G01 X290.932 Y176.114
G01 X292.572 Y171.115
G01 X293.965 Y166.042
G01 X295.106 Y160.907
G01 X295.995 Y155.723
G01 X296.627 Y150.502
G01 X297.003 Y145.257
G01 X297.121 Y140.000
G01 X296.981 Y134.744
G01 X296.583 Y129.502
G01 X295.929 Y124.287
G01 X295.020 Y119.110
G01 X293.857 Y113.985
G01 X292.445 Y108.924
G01 X290.787 Y103.938
G01 X288.885 Y99.040
G01 X286.747 Y94.242
G01 X284.375 Y89.555
G01 X281.777 Y84.991
G01 X278.958 Y80.560
G01 X275.925 Y76.274
G01 X272.686 Y72.141
G01 X269.249 Y68.173
G01 X265.621 Y64.379
G01 X261.812 Y60.768
G01 X257.831 Y57.348
G01 X253.687 Y54.128
G01 X249.391 Y51.116
G01 X244.952 Y48.318
G01 X240.382 Y45.742
G01 X235.692 Y43.393
G01 X230.892 Y41.278
G01 X225.995 Y39.401
G01 X221.012 Y37.766
G01 X215.956 Y36.378
G01 X210.838 Y35.240
G01 X205.671 Y34.355
G01 X200.467 Y33.724
G01 X195.239 Y33.350
G01 X190.000 Y33.232
G01 X184.762 Y33.372
G01 X179.537 Y33.768
G01 X174.339 Y34.421
G01 X169.179 Y35.327
G01 X164.071 Y36.486
G01 X159.026 Y37.893
G01 X154.057 Y39.546
G01 X149.176 Y41.441
G01 X144.393 Y43.573
G01 X139.722 Y45.937
G01 X135.173 Y48.527
G01 X130.757 Y51.336
G01 X126.484 Y54.359
G01 X122.365 Y57.587
G01 X118.411 Y61.013
G01 X114.629 Y64.629
G01 X111.030 Y68.425
G01 X107.621 Y72.393
G01 X104.412 Y76.524
G01 X101.410 Y80.806
G01 X98.621 Y85.230
G01 X96.054 Y89.785
G01 X93.713 Y94.460
G01 X91.604 Y99.243
G01 X89.734 Y104.124
G01 X88.105 Y109.090
G01 X86.721 Y114.130
G01 X85.587 Y119.231
G01 X84.705 Y124.381
G01 X84.076 Y129.567
G01 X83.703 Y134.778
G01 X83.586 Y140.000
G01 X83.725 Y145.221
G01 X84.120 Y150.428
G01 X84.770 Y155.609
G01 X85.674 Y160.752
G01 X86.829 Y165.843
G01 X88.231 Y170.871
G01 X89.879 Y175.824
G01 X91.768 Y180.689
G01 X93.893 Y185.455
G01 X96.249 Y190.111
G01 X98.830 Y194.645
G01 X101.630 Y199.047
G01 X104.643 Y203.305
G01 X107.860 Y207.410
G01 X111.275 Y211.352
G01 X114.879 Y215.121
G01 X118.663 Y218.709
G01 X122.618 Y222.106
G01 X126.734 Y225.304
G01 X131.002 Y228.296
G01 X135.411 Y231.075
G01 X139.951 Y233.635
G01 X144.611 Y235.968
G01 X149.379 Y238.069
G01 X154.243 Y239.934
G01 X159.193 Y241.557
G01 X164.216 Y242.936
G01 X169.300 Y244.066
G01 X174.433 Y244.945
G01 X179.602 Y245.572
G01 X184.795 Y245.944
G01 X190.000 Y246.061
G01 X195.204 Y245.922
G01 X200.394 Y245.528
G01 X205.557 Y244.880
G01 X210.683 Y243.979
G01 X215.757 Y242.829
G01 X220.769 Y241.430
G01 X225.705 Y239.788
G01 X230.554 Y237.906
G01 X235.304 Y235.788
G01 X239.945 Y233.440
G01 X244.464 Y230.867
G01 X248.850 Y228.076
G01 X253.095 Y225.073
G01 X257.186 Y221.866
G01 X261.115 Y218.463
G01 X264.871 Y214.871
G01 X268.447 Y211.100
G01 X271.832 Y207.158
G01 X275.020 Y203.055
G01 X278.002 Y198.801
G01 X280.772 Y194.407
G01 X283.323 Y189.882
G01 X285.648 Y185.238
G01 X287.742 Y180.486
G01 X289.601 Y175.638
G01 X291.219 Y170.704
G01 X292.593 Y165.698
G01 X293.719 Y160.631
G01 X294.596 Y155.515
G01 X295.220 Y150.363
G01 X295.591 Y145.187
G01 X295.707 Y140.000
G01 X295.569 Y134.814
G01 X295.176 Y129.641
G01 X294.530 Y124.494
G01 X293.633 Y119.386
G01 X292.486 Y114.329
G01 X291.092 Y109.334
G01 X289.455 Y104.414
G01 X287.579 Y99.581
G01 X285.468 Y94.847
G01 X283.128 Y90.222
G01 X280.564 Y85.718
G01 X277.782 Y81.346
G01 X274.789 Y77.116
G01 X271.593 Y73.038
G01 X268.201 Y69.123
G01 X264.621 Y65.379
G01 X260.862 Y61.815
G01 X256.934 Y58.441
G01 X252.845 Y55.264
G01 X248.605 Y52.292
G01 X244.225 Y49.531
G01 X239.715 Y46.989
G01 X235.087 Y44.672
G01 X230.351 Y42.584
G01 X225.519 Y40.732
G01 X220.602 Y39.120
G01 X215.612 Y37.750
G01 X210.562 Y36.627
G01 X205.463 Y35.754
G01 X200.329 Y35.132
G01 X195.170 Y34.762
G01 X190.000 Y34.646
G01 X184.831 Y34.784
G01 X179.676 Y35.176
G01 X174.546 Y35.820
G01 X169.455 Y36.714
G01 X164.415 Y37.857
G01 X159.437 Y39.246
G01 X154.534 Y40.878
G01 X149.717 Y42.748
G01 X144.998 Y44.851
G01 X140.389 Y47.184
G01 X135.900 Y49.739
G01 X131.542 Y52.512
G01 X127.327 Y55.495
G01 X123.263 Y58.680
G01 X119.360 Y62.061
G01 X115.629 Y65.629
G01 X112.077 Y69.375
G01 X108.714 Y73.291
G01 X105.548 Y77.366
G01 X102.585 Y81.591
G01 X99.834 Y85.957
G01 X97.301 Y90.451
G01 X94.991 Y95.064
G01 X92.911 Y99.784
G01 X91.065 Y104.601
G01 X89.458 Y109.501
G01 X88.093 Y114.474
G01 X86.974 Y119.507
G01 X86.104 Y124.588
G01 X85.484 Y129.706
G01 X85.115 Y134.847
G01 X85.000 Y140.000
G01 X85.138 Y145.152
G01 X85.528 Y150.290
G01 X86.169 Y155.402
G01 X87.061 Y160.476
G01 X88.200 Y165.499
G01 X89.585 Y170.461
G01 X91.211 Y175.347
G01 X93.074 Y180.148
G01 X95.171 Y184.851
G01 X97.496 Y189.445
G01 X100.043 Y193.918
G01 X102.806 Y198.261
G01 X105.779 Y202.463
G01 X108.953 Y206.513
G01 X112.323 Y210.402
G01 X115.879 Y214.121
G01 X119.612 Y217.661
G01 X123.515 Y221.012
G01 X127.577 Y224.168
G01 X131.788 Y227.121
G01 X136.138 Y229.863
G01 X140.618 Y232.387
G01 X145.215 Y234.689
G01 X149.920 Y236.762
G01 X154.720 Y238.602
G01 X159.603 Y240.204
G01 X164.560 Y241.564
G01 X169.576 Y242.679
G01 X174.640 Y243.547
G01 X179.741 Y244.165
G01 X184.865 Y244.531
G01 X190.000 Y244.646
G01 X195.134 Y244.509
G01 X200.255 Y244.121
G01 X205.350 Y243.481
G01 X210.407 Y242.592
G01 X215.414 Y241.457
G01 X220.358 Y240.077
G01 X225.228 Y238.456
G01 X230.013 Y236.599
G01 X234.700 Y234.509
G01 X239.278 Y232.193
G01 X243.737 Y229.654
G01 X248.065 Y226.900
G01 X252.252 Y223.937
G01 X256.289 Y220.773
G01 X260.165 Y217.415
G01 X263.871 Y213.871
G01 X267.399 Y210.150
G01 X270.739 Y206.261
G01 X273.884 Y202.213
G01 X276.827 Y198.016
G01 X279.559 Y193.680
G01 X282.076 Y189.215
G01 X284.370 Y184.633
G01 X286.436 Y179.945
G01 X288.269 Y175.161
G01 X289.866 Y170.294
G01 X291.221 Y165.355
G01 X292.332 Y160.355
G01 X293.197 Y155.308
G01 X293.813 Y150.225
G01 X294.178 Y145.118
G01 X294.293 Y140.000
G01 X294.156 Y134.883
G01 X293.769 Y129.780
G01 X293.131 Y124.702
G01 X292.246 Y119.662
G01 X291.114 Y114.672
G01 X289.739 Y109.745
G01 X288.124 Y104.891
G01 X286.272 Y100.123
G01 X284.190 Y95.452
G01 X281.881 Y90.889
G01 X279.351 Y86.445
G01 X276.606 Y82.132
G01 X273.654 Y77.958
G01 X270.500 Y73.935
G01 X267.153 Y70.072
G01 X263.621 Y66.379
G01 X259.913 Y62.863
G01 X256.037 Y59.534
G01 X252.002 Y56.400
G01 X247.819 Y53.467
G01 X243.498 Y50.744
G01 X239.049 Y48.236
G01 X234.482 Y45.950
G01 X229.810 Y43.891
G01 X225.042 Y42.064
G01 X220.191 Y40.473
G01 X215.269 Y39.122
G01 X210.286 Y38.014
G01 X205.256 Y37.153
G01 X200.190 Y36.539
G01 X195.101 Y36.175
G01 X190.000 Y36.061
G01 X184.900 Y36.197
G01 X179.814 Y36.583
G01 X174.754 Y37.218
G01 X169.731 Y38.101
G01 X164.758 Y39.229
G01 X159.847 Y40.600
G01 X155.010 Y42.209
G01 X150.258 Y44.054
G01 X145.603 Y46.130
G01 X141.055 Y48.431
G01 X136.627 Y50.952
G01 X132.328 Y53.688
G01 X128.169 Y56.630
G01 X124.160 Y59.773
G01 X120.310 Y63.109
G01 X116.629 Y66.629
G01 X113.125 Y70.325
G01 X109.807 Y74.188
G01 X106.684 Y78.208
G01 X103.761 Y82.377
G01 X101.047 Y86.684
G01 X98.548 Y91.118
G01 X96.270 Y95.669
G01 X94.217 Y100.326
G01 X92.397 Y105.077
G01 X90.811 Y109.911
G01 X89.465 Y114.817
G01 X88.361 Y119.783
G01 X87.503 Y124.796
G01 X86.891 Y129.845
G01 X86.528 Y134.917
G01 X86.414 Y140.000
G01 X86.550 Y145.082
G01 X86.935 Y150.151
G01 X87.568 Y155.194
G01 X88.448 Y160.200
G01 X89.572 Y165.156
G01 X90.938 Y170.050
G01 X92.542 Y174.871
G01 X94.381 Y179.607
G01 X96.449 Y184.246
G01 X98.743 Y188.778
G01 X101.256 Y193.191
G01 X103.982 Y197.476
G01 X106.914 Y201.620
G01 X110.047 Y205.616
G01 X113.371 Y209.453
G01 X116.879 Y213.121
G01 X120.562 Y216.613
G01 X124.412 Y219.919
G01 X128.419 Y223.032
G01 X132.574 Y225.945
G01 X136.866 Y228.650
G01 X141.285 Y231.140
G01 X145.820 Y233.411
G01 X150.461 Y235.456
G01 X155.196 Y237.271
G01 X160.014 Y238.851
G01 X164.903 Y240.192
G01 X169.852 Y241.292
G01 X174.848 Y242.148
G01 X179.879 Y242.757
G01 X184.934 Y243.119
G01 X190.000 Y243.232
G01 X195.065 Y243.097
G01 X200.116 Y242.713
G01 X205.142 Y242.082
G01 X210.131 Y241.205
G01 X215.070 Y240.085
G01 X219.948 Y238.724
G01 X224.752 Y237.125
G01 X229.471 Y235.293
G01 X234.095 Y233.231
G01 X238.611 Y230.945
G01 X243.010 Y228.441
G01 X247.279 Y225.724
G01 X251.410 Y222.802
G01 X255.392 Y219.680
G01 X259.215 Y216.367
G01 X262.871 Y212.871
G01 X266.351 Y209.200
G01 X269.646 Y205.364
G01 X272.748 Y201.370
G01 X275.651 Y197.230
G01 X278.346 Y192.953
G01 X280.828 Y188.549
G01 X283.091 Y184.029
G01 X285.129 Y179.404
G01 X286.938 Y174.685
G01 X288.512 Y169.883
G01 X289.849 Y165.011
G01 X290.945 Y160.079
G01 X291.798 Y155.100
G01 X292.405 Y150.086
G01 X292.766 Y145.049
G01 X292.879 Y140.000
G01 X292.744 Y134.953
G01 X292.361 Y129.918
G01 X291.732 Y124.909
G01 X290.859 Y119.938
G01 X289.742 Y115.016
G01 X288.385 Y110.155
G01 X286.792 Y105.367
G01 X284.966 Y100.664
G01 X282.911 Y96.056
G01 X280.634 Y91.555
G01 X278.138 Y87.172
G01 X275.430 Y82.917
G01 X272.518 Y78.801
G01 X269.407 Y74.833
G01 X266.105 Y71.022
G01 X262.621 Y67.379
G01 X258.963 Y63.911
G01 X255.139 Y60.627
G01 X251.160 Y57.536
G01 X247.034 Y54.643
G01 X242.771 Y51.957
G01 X238.382 Y49.483
G01 X233.878 Y47.228
G01 X229.269 Y45.197
G01 X224.566 Y43.395
G01 X219.781 Y41.826
G01 X214.925 Y40.494
G01 X210.010 Y39.401
G01 X205.048 Y38.552
G01 X200.051 Y37.946
G01 X195.031 Y37.587
G01 X190.000 Y37.475
G01 X184.970 Y37.609
G01 X179.953 Y37.990
G01 X174.961 Y38.617
G01 X170.007 Y39.488
G01 X165.102 Y40.601
G01 X160.258 Y41.953
G01 X155.486 Y43.541
G01 X150.799 Y45.361
G01 X146.207 Y47.408
G01 X141.722 Y49.678
G01 X137.354 Y52.165
G01 X133.114 Y54.864
G01 X129.011 Y57.766
G01 X125.057 Y60.866
G01 X121.260 Y64.157
G01 X117.629 Y67.629
G01 X114.173 Y71.274
G01 X110.901 Y75.085
G01 X107.820 Y79.051
G01 X104.937 Y83.163
G01 X102.260 Y87.411
G01 X99.795 Y91.785
G01 X97.548 Y96.273
G01 X95.524 Y100.867
G01 X93.728 Y105.553
G01 X92.164 Y110.322
G01 X90.837 Y115.161
G01 X89.748 Y120.059
G01 X88.901 Y125.003
G01 X88.298 Y129.983
G01 X87.940 Y134.986
G01 X87.828 Y140.000
G01 X87.962 Y145.013
G01 X88.342 Y150.012
G01 X88.967 Y154.987
G01 X89.835 Y159.924
G01 X90.944 Y164.812
G01 X92.291 Y169.640
G01 X93.874 Y174.395
G01 X95.687 Y179.066
G01 X97.728 Y183.642
G01 X99.990 Y188.111
G01 X102.469 Y192.464
G01 X105.158 Y196.690
G01 X108.050 Y200.778
G01 X111.140 Y204.719
G01 X114.419 Y208.503
G01 X117.879 Y212.121
G01 X121.512 Y215.565
G01 X125.309 Y218.826
G01 X129.261 Y221.896
G01 X133.359 Y224.769
G01 X137.593 Y227.437
G01 X141.951 Y229.893
G01 X146.425 Y232.132
G01 X151.002 Y234.149
G01 X155.672 Y235.939
G01 X160.424 Y237.497
G01 X165.247 Y238.820
G01 X170.128 Y239.905
G01 X175.055 Y240.749
G01 X180.018 Y241.350
G01 X185.003 Y241.707
G01 X190.000 Y241.818
G01 X194.995 Y241.685
G01 X199.978 Y241.306
G01 X204.935 Y240.683
G01 X209.855 Y239.818
G01 X214.726 Y238.713
G01 X219.537 Y237.370
G01 X224.275 Y235.793
G01 X228.930 Y233.986
G01 X233.490 Y231.953
G01 X237.945 Y229.698
G01 X242.283 Y227.228
G01 X246.493 Y224.548
G01 X250.567 Y221.666
G01 X254.495 Y218.587
G01 X258.266 Y215.320
G01 X261.871 Y211.871
G01 X265.303 Y208.251
G01 X268.553 Y204.467
G01 X271.613 Y200.528
G01 X274.475 Y196.444
G01 X277.133 Y192.226
G01 X279.581 Y187.882
G01 X281.813 Y183.424
G01 X283.823 Y178.863
G01 X285.606 Y174.208
G01 X287.159 Y169.473
G01 X288.477 Y164.667
G01 X289.558 Y159.803
G01 X290.399 Y154.893
G01 X290.998 Y149.947
G01 X291.353 Y144.979
G01 X291.465 Y140.000
G01 X291.331 Y135.022
G01 X290.954 Y130.057
G01 X290.334 Y125.117
G01 X289.472 Y120.214
G01 X288.370 Y115.360
G01 X287.032 Y110.566
G01 X285.461 Y105.844
G01 X283.659 Y101.205
G01 X281.633 Y96.661
G01 X279.386 Y92.222
G01 X276.925 Y87.899
G01 X274.255 Y83.703
G01 X271.382 Y79.643
G01 X268.314 Y75.730
G01 X265.058 Y71.972
G01 X261.621 Y68.379
G01 X258.013 Y64.959
G01 X254.242 Y61.720
G01 X250.317 Y58.671
G01 X246.248 Y55.819
G01 X242.044 Y53.170
G01 X237.716 Y50.731
G01 X233.273 Y48.507
G01 X228.727 Y46.504
G01 X224.089 Y44.727
G01 X219.370 Y43.179
G01 X214.581 Y41.865
G01 X209.734 Y40.788
G01 X204.841 Y39.950
G01 X199.913 Y39.354
G01 X194.962 Y39.000
G01 X190.000 Y38.889
G01 X185.039 Y39.022
G01 X180.092 Y39.398
G01 X175.169 Y40.016
G01 X170.283 Y40.875
G01 X165.445 Y41.973
G01 X160.668 Y43.306
G01 X155.963 Y44.872
G01 X151.340 Y46.667
G01 X146.812 Y48.687
G01 X142.389 Y50.925
G01 X138.081 Y53.378
G01 X133.899 Y56.039
G01 X129.854 Y58.902
G01 X125.954 Y61.960
G01 X122.209 Y65.204
G01 X118.629 Y68.629
G01 X115.221 Y72.224
G01 X111.994 Y75.982
G01 X108.955 Y79.893
G01 X106.113 Y83.948
G01 X103.473 Y88.138
G01 X101.042 Y92.451
G01 X98.826 Y96.878
G01 X96.830 Y101.408
G01 X95.059 Y106.030
G01 X93.518 Y110.732
G01 X92.208 Y115.504
G01 X91.135 Y120.335
G01 X90.300 Y125.211
G01 X89.706 Y130.122
G01 X89.353 Y135.056
G01 X89.242 Y140.000
G01 X89.375 Y144.943
G01 X89.750 Y149.874
G01 X90.366 Y154.779
G01 X91.222 Y159.648
G01 X92.316 Y164.469
G01 X93.644 Y169.229
G01 X95.205 Y173.918
G01 X96.994 Y178.524
G01 X99.006 Y183.037
G01 X101.237 Y187.445
G01 X103.682 Y191.737
G01 X106.333 Y195.904
G01 X109.186 Y199.936
G01 X112.233 Y203.822
G01 X115.466 Y207.553
G01 X118.879 Y211.121
G01 X122.461 Y214.517
G01 X126.206 Y217.733
G01 X130.104 Y220.761
G01 X134.145 Y223.593
G01 X138.320 Y226.224
G01 X142.618 Y228.646
G01 X147.029 Y230.854
G01 X151.543 Y232.843
G01 X156.149 Y234.608
G01 X160.835 Y236.144
G01 X165.590 Y237.449
G01 X170.404 Y238.518
G01 X175.263 Y239.350
G01 X180.157 Y239.943
G01 X185.073 Y240.294
G01 X190.000 Y240.404
G01 X194.926 Y240.272
G01 X199.839 Y239.899
G01 X204.727 Y239.285
G01 X209.579 Y238.431
G01 X214.383 Y237.341
G01 X219.127 Y236.017
G01 X223.799 Y234.462
G01 X228.389 Y232.680
G01 X232.886 Y230.674
G01 X237.278 Y228.451
G01 X241.556 Y226.015
G01 X245.708 Y223.373
G01 X249.725 Y220.530
G01 X253.598 Y217.494
G01 X257.316 Y214.272
G01 X260.871 Y210.871
G01 X264.255 Y207.301
G01 X267.460 Y203.569
G01 X270.477 Y199.686
G01 X273.299 Y195.659
G01 X275.920 Y191.499
G01 X278.334 Y187.216
G01 X280.534 Y182.820
G01 X282.516 Y178.321
G01 X284.275 Y173.732
G01 X285.806 Y169.062
G01 X287.106 Y164.324
G01 X288.171 Y159.528
G01 X289.000 Y154.685
G01 X289.591 Y149.809
G01 X289.941 Y144.910
G01 X290.051 Y140.000
G01 X289.919 Y135.091
G01 X289.547 Y130.196
G01 X288.935 Y125.324
G01 X288.085 Y120.490
G01 X286.999 Y115.703
G01 X285.679 Y110.976
G01 X284.129 Y106.320
G01 X282.353 Y101.746
G01 X280.355 Y97.265
G01 X278.139 Y92.889
G01 X275.712 Y88.626
G01 X273.079 Y84.489
G01 X270.246 Y80.486
G01 X267.221 Y76.627
G01 X264.010 Y72.921
G01 X260.621 Y69.379
G01 X257.064 Y66.007
G01 X253.345 Y62.814
G01 X249.475 Y59.807
G01 X245.462 Y56.995
G01 X241.317 Y54.383
G01 X237.049 Y51.978
G01 X232.668 Y49.785
G01 X228.186 Y47.810
G01 X223.613 Y46.058
G01 X218.960 Y44.533
G01 X214.238 Y43.237
G01 X209.459 Y42.175
G01 X204.633 Y41.349
G01 X199.774 Y40.761
G01 X194.892 Y40.412
G01 X190.000 Y40.303
G01 X185.109 Y40.434
G01 X180.230 Y40.805
G01 X175.376 Y41.415
G01 X170.559 Y42.262
G01 X165.789 Y43.344
G01 X161.079 Y44.659
G01 X156.439 Y46.204
G01 X151.881 Y47.974
G01 X147.417 Y49.965
G01 X143.055 Y52.173
G01 X138.808 Y54.591
G01 X134.685 Y57.215
G01 X130.696 Y60.038
G01 X126.851 Y63.053
G01 X123.159 Y66.252
G01 X119.629 Y69.629
G01 X116.269 Y73.174
G01 X113.087 Y76.879
G01 X110.091 Y80.736
G01 X107.289 Y84.734
G01 X104.686 Y88.865
G01 X102.289 Y93.118
G01 X100.105 Y97.483
G01 X98.137 Y101.949
G01 X96.391 Y106.506
G01 X94.871 Y111.143
G01 X93.580 Y115.848
G01 X92.522 Y120.610
G01 X91.699 Y125.418
G01 X91.113 Y130.260
G01 X90.765 Y135.125
G01 X90.657 Y140.000
G01 X90.787 Y144.874
G01 X91.157 Y149.735
G01 X91.765 Y154.572
G01 X92.609 Y159.372
G01 X93.687 Y164.125
G01 X94.998 Y168.819
G01 X96.537 Y173.442
G01 X98.300 Y177.983
G01 X100.284 Y182.432
G01 X102.484 Y186.778
G01 X104.895 Y191.010
G01 X107.509 Y195.119
G01 X110.322 Y199.093
G01 X113.326 Y202.925
G01 X116.514 Y206.604
G01 X119.879 Y210.121
G01 X123.411 Y213.469
G01 X127.103 Y216.640
G01 X130.946 Y219.625
G01 X134.931 Y222.417
G01 X139.047 Y225.011
G01 X143.284 Y227.399
G01 X147.634 Y229.576
G01 X152.084 Y231.536
G01 X156.625 Y233.276
G01 X161.246 Y234.791
G01 X165.934 Y236.077
G01 X170.679 Y237.131
G01 X175.470 Y237.951
G01 X180.295 Y238.535
G01 X185.142 Y238.882
G01 X190.000 Y238.990
G01 X194.857 Y238.860
G01 X199.701 Y238.491
G01 X204.520 Y237.886
G01 X209.303 Y237.044
G01 X214.039 Y235.970
G01 X218.716 Y234.664
G01 X223.323 Y233.131
G01 X227.848 Y231.373
G01 X232.281 Y229.396
G01 X236.611 Y227.204
G01 X240.829 Y224.802
G01 X244.922 Y222.197
G01 X248.883 Y219.394
G01 X252.700 Y216.401
G01 X256.366 Y213.224
G01 X259.871 Y209.871
G01 X263.208 Y206.351
G01 X266.367 Y202.672
G01 X269.341 Y198.843
G01 X272.123 Y194.873
G01 X274.707 Y190.772
G01 X277.087 Y186.549
G01 X279.256 Y182.215
G01 X281.210 Y177.780
G01 X282.943 Y173.256
G01 X284.453 Y168.652
G01 X285.734 Y163.980
G01 X286.784 Y159.252
G01 X287.602 Y154.478
G01 X288.183 Y149.670
G01 X288.529 Y144.840
G01 X288.636 Y140.000
G01 X288.507 Y135.161
G01 X288.139 Y130.334
G01 X287.536 Y125.532
G01 X286.698 Y120.766
G01 X285.627 Y116.047
G01 X284.326 Y111.387
G01 X282.798 Y106.796
G01 X281.046 Y102.287
G01 X279.076 Y97.870
G01 X276.892 Y93.555
G01 X274.499 Y89.353
G01 X271.903 Y85.274
G01 X269.110 Y81.328
G01 X266.127 Y77.524
G01 X262.962 Y73.871
G01 X259.621 Y70.379
G01 X256.114 Y67.054
G01 X252.448 Y63.907
G01 X248.633 Y60.943
G01 X244.677 Y58.171
G01 X240.590 Y55.596
G01 X236.382 Y53.225
G01 X232.064 Y51.063
G01 X227.645 Y49.117
G01 X223.137 Y47.390
G01 X218.549 Y45.886
G01 X213.894 Y44.609
G01 X209.183 Y43.562
G01 X204.426 Y42.748
G01 X199.636 Y42.168
G01 X194.823 Y41.825
G01 X190.000 Y41.717
G01 X185.178 Y41.847
G01 X180.369 Y42.212
G01 X175.584 Y42.814
G01 X170.835 Y43.649
G01 X166.133 Y44.716
G01 X161.489 Y46.013
G01 X156.916 Y47.535
G01 X152.423 Y49.280
G01 X148.021 Y51.243
G01 X143.722 Y53.420
G01 X139.535 Y55.804
G01 X135.471 Y58.391
G01 X131.539 Y61.174
G01 X127.748 Y64.146
G01 X124.109 Y67.300
G01 X120.629 Y70.629
G01 X117.316 Y74.123
G01 X114.180 Y77.776
G01 X111.227 Y81.578
G01 X108.465 Y85.520
G01 X105.899 Y89.592
G01 X103.537 Y93.784
G01 X101.383 Y98.087
G01 X99.443 Y102.490
G01 X97.722 Y106.983
G01 X96.224 Y111.553
G01 X94.952 Y116.192
G01 X93.909 Y120.886
G01 X93.098 Y125.626
G01 X92.520 Y130.399
G01 X92.178 Y135.194
G01 X92.071 Y140.000
G01 X92.200 Y144.805
G01 X92.564 Y149.597
G01 X93.163 Y154.364
G01 X93.996 Y159.096
G01 X95.059 Y163.781
G01 X96.351 Y168.408
G01 X97.868 Y172.965
G01 X99.607 Y177.442
G01 X101.563 Y181.828
G01 X103.732 Y186.111
G01 X106.107 Y190.283
G01 X108.685 Y194.333
G01 X111.458 Y198.251
G01 X114.419 Y202.028
G01 X117.562 Y205.654
G01 X120.879 Y209.121
G01 X124.361 Y212.422
G01 X128.000 Y215.547
G01 X131.789 Y218.489
G01 X135.716 Y221.242
G01 X139.774 Y223.798
G01 X143.951 Y226.152
G01 X148.238 Y228.297
G01 X152.626 Y230.230
G01 X157.102 Y231.945
G01 X161.656 Y233.438
G01 X166.278 Y234.705
G01 X170.955 Y235.744
G01 X175.678 Y236.552
G01 X180.434 Y237.128
G01 X185.212 Y237.469
G01 X190.000 Y237.576
G01 X194.787 Y237.447
G01 X199.562 Y237.084
G01 X204.312 Y236.487
G01 X209.027 Y235.658
G01 X213.696 Y234.598
G01 X218.306 Y233.311
G01 X222.846 Y231.799
G01 X227.307 Y230.067
G01 X231.676 Y228.118
G01 X235.945 Y225.957
G01 X240.101 Y223.589
G01 X244.137 Y221.021
G01 X248.040 Y218.258
G01 X251.803 Y215.308
G01 X255.417 Y212.176
G01 X258.871 Y208.871
G01 X262.160 Y205.402
G01 X265.273 Y201.775
G01 X268.205 Y198.001
G01 X270.948 Y194.087
G01 X273.495 Y190.045
G01 X275.840 Y185.882
G01 X277.978 Y181.610
G01 X279.903 Y177.239
G01 X281.612 Y172.779
G01 X283.099 Y168.241
G01 X284.362 Y163.636
G01 X285.397 Y158.976
G01 X286.203 Y154.270
G01 X286.776 Y149.532
G01 X287.116 Y144.771
G01 X287.222 Y140.000
G01 X287.094 Y135.230
G01 X286.732 Y130.473
G01 X286.137 Y125.739
G01 X285.311 Y121.042
G01 X284.255 Y116.390
G01 X282.972 Y111.797
G01 X281.466 Y107.273
G01 X279.740 Y102.828
G01 X277.798 Y98.475
G01 X275.645 Y94.222
G01 X273.286 Y90.080
G01 X270.727 Y86.060
G01 X267.974 Y82.170
G01 X265.034 Y78.421
G01 X261.914 Y74.821
G01 X258.621 Y71.379
G01 X255.164 Y68.102
G01 X251.551 Y65.000
G01 X247.790 Y62.079
G01 X243.891 Y59.346
G01 X239.863 Y56.809
G01 X235.716 Y54.472
G01 X231.459 Y52.342
G01 X227.104 Y50.423
G01 X222.660 Y48.721
G01 X218.139 Y47.239
G01 X213.551 Y45.981
G01 X208.907 Y44.949
G01 X204.218 Y44.147
G01 X199.497 Y43.576
G01 X194.754 Y43.237
G01 X190.000 Y43.131
G01 X185.247 Y43.259
G01 X180.507 Y43.620
G01 X175.791 Y44.213
G01 X171.110 Y45.036
G01 X166.476 Y46.088
G01 X161.900 Y47.366
G01 X157.392 Y48.867
G01 X152.964 Y50.587
G01 X148.626 Y52.522
G01 X144.388 Y54.667
G01 X140.262 Y57.017
G01 X136.256 Y59.567
G01 X132.381 Y62.310
G01 X128.645 Y65.239
G01 X125.058 Y68.348
G01 X121.628 Y71.628
G01 X118.364 Y75.073
G01 X115.273 Y78.673
G01 X112.363 Y82.420
G01 X109.640 Y86.305
G01 X107.112 Y90.319
G01 X104.784 Y94.451
G01 X102.661 Y98.692
G01 X100.750 Y103.031
G01 X99.054 Y107.459
G01 X97.577 Y111.964
G01 X96.324 Y116.535
G01 X95.296 Y121.162
G01 X94.497 Y125.833
G01 X93.928 Y130.538
G01 X93.590 Y135.264
G01 X93.485 Y140.000
G01 X93.612 Y144.735
G01 X93.972 Y149.458
G01 X94.562 Y154.157
G01 X95.383 Y158.821
G01 X96.431 Y163.438
G01 X97.704 Y167.998
G01 X99.200 Y172.489
G01 X100.913 Y176.901
G01 X102.841 Y181.223
G01 X104.979 Y185.445
G01 X107.320 Y189.556
G01 X109.861 Y193.547
G01 X112.594 Y197.408
G01 X115.512 Y201.130
G01 X118.610 Y204.704
G01 X121.878 Y208.122
G01 X125.311 Y211.374
G01 X128.898 Y214.453
G01 X132.631 Y217.353
G01 X136.502 Y220.066
G01 X140.501 Y222.585
G01 X144.618 Y224.904
G01 X148.843 Y227.019
G01 X153.167 Y228.923
G01 X157.578 Y230.613
G01 X162.067 Y232.084
G01 X166.621 Y233.333
G01 X171.231 Y234.357
G01 X175.885 Y235.154
G01 X180.572 Y235.721
G01 X185.281 Y236.057
G01 X190.000 Y236.162
G01 X194.718 Y236.035
G01 X199.423 Y235.677
G01 X204.105 Y235.088
G01 X208.752 Y234.271
G01 X213.352 Y233.226
G01 X217.895 Y231.957
G01 X222.370 Y230.468
G01 X226.766 Y228.760
G01 X231.072 Y226.839
G01 X235.278 Y224.710
G01 X239.374 Y222.376
G01 X243.351 Y219.845
G01 X247.198 Y217.122
G01 X250.906 Y214.214
G01 X254.467 Y211.128
G01 X257.872 Y207.872
G01 X261.112 Y204.452
G01 X264.180 Y200.878
G01 X267.069 Y197.158
G01 X269.772 Y193.302
G01 X272.282 Y189.318
G01 X274.593 Y185.216
G01 X276.699 Y181.006
G01 X278.597 Y176.698
G01 X280.280 Y172.303
G01 X281.746 Y167.831
G01 X282.990 Y163.293
G01 X284.010 Y158.700
G01 X284.804 Y154.063
G01 X285.369 Y149.393
G01 X285.704 Y144.702
G01 X285.808 Y140.000
G01 X285.682 Y135.299
G01 X285.325 Y130.611
G01 X284.738 Y125.947
G01 X283.924 Y121.317
G01 X282.883 Y116.734
G01 X281.619 Y112.208
G01 X280.135 Y107.749
G01 X278.433 Y103.370
G01 X276.520 Y99.079
G01 X274.398 Y94.888
G01 X272.073 Y90.807
G01 X269.551 Y86.846
G01 X266.838 Y83.013
G01 X263.941 Y79.318
G01 X260.866 Y75.771
G01 X257.622 Y72.378
G01 X254.215 Y69.150
G01 X250.654 Y66.093
G01 X246.948 Y63.215
G01 X243.105 Y60.522
G01 X239.136 Y58.022
G01 X235.049 Y55.719
G01 X230.855 Y53.620
G01 X226.563 Y51.730
G01 X222.184 Y50.053
G01 X217.728 Y48.592
G01 X213.207 Y47.353
G01 X208.631 Y46.336
G01 X204.011 Y45.546
G01 X199.358 Y44.983
G01 X194.684 Y44.649
G01 X190.000 Y44.545
G01 X185.317 Y44.671
G01 X180.646 Y45.027
G01 X175.999 Y45.611
G01 X171.386 Y46.423
G01 X166.820 Y47.460
G01 X162.310 Y48.719
G01 X157.868 Y50.198
G01 X153.505 Y51.893
G01 X149.230 Y53.800
G01 X145.055 Y55.914
G01 X140.989 Y58.230
G01 X137.042 Y60.743
G01 X133.223 Y63.446
G01 X129.542 Y66.332
G01 X126.008 Y69.396
G01 X122.628 Y72.628
G01 X119.412 Y76.023
G01 X116.366 Y79.570
G01 X113.499 Y83.263
G01 X110.816 Y87.091
G01 X108.325 Y91.046
G01 X106.031 Y95.118
G01 X103.940 Y99.297
G01 X102.056 Y103.573
G01 X100.385 Y107.935
G01 X98.931 Y112.374
G01 X97.695 Y116.879
G01 X96.683 Y121.438
G01 X95.896 Y126.041
G01 X95.335 Y130.676
G01 X95.003 Y135.333
G01 X94.899 Y140.000
G01 X95.025 Y144.666
G01 X95.379 Y149.319
G01 X95.961 Y153.949
G01 X96.770 Y158.545
G01 X97.803 Y163.094
G01 X99.057 Y167.587
G01 X100.531 Y172.013
G01 X102.220 Y176.360
G01 X104.120 Y180.618
G01 X106.226 Y184.778
G01 X108.533 Y188.829
G01 X111.037 Y192.762
G01 X113.730 Y196.566
G01 X116.605 Y200.233
G01 X119.658 Y203.755
G01 X122.878 Y207.122
G01 X126.260 Y210.326
G01 X129.795 Y213.360
G01 X133.473 Y216.217
G01 X137.287 Y218.890
G01 X141.228 Y221.372
G01 X145.284 Y223.657
G01 X149.448 Y225.741
G01 X153.708 Y227.617
G01 X158.054 Y229.282
G01 X162.477 Y230.731
G01 X166.965 Y231.962
G01 X171.507 Y232.970
G01 X176.093 Y233.755
G01 X180.711 Y234.313
G01 X185.350 Y234.644
G01 X190.000 Y234.747
G01 X194.648 Y234.622
G01 X199.285 Y234.269
G01 X203.897 Y233.689
G01 X208.476 Y232.884
G01 X213.008 Y231.854
G01 X217.484 Y230.604
G01 X221.893 Y229.136
G01 X226.224 Y227.454
G01 X230.467 Y225.561
G01 X234.612 Y223.462
G01 X238.647 Y221.163
G01 X242.565 Y218.669
G01 X246.355 Y215.987
G01 X250.009 Y213.121
G01 X253.517 Y210.080
G01 X256.872 Y206.872
G01 X260.064 Y203.502
G01 X263.087 Y199.981
G01 X265.933 Y196.316
G01 X268.596 Y192.516
G01 X271.069 Y188.591
G01 X273.345 Y184.549
G01 X275.421 Y180.401
G01 X277.290 Y176.157
G01 X278.949 Y171.826
G01 X280.393 Y167.420
G01 X281.619 Y162.949
G01 X282.624 Y158.424
G01 X283.405 Y153.855
G01 X283.961 Y149.254
G01 X284.291 Y144.632
G01 X284.394 Y140.000
G01 X284.269 Y135.369
G01 X283.917 Y130.750
G01 X283.339 Y126.154
G01 X282.537 Y121.593
G01 X281.511 Y117.078
G01 X280.266 Y112.618
G01 X278.803 Y108.226
G01 X277.127 Y103.911
G01 X275.241 Y99.684
G01 X273.151 Y95.555
G01 X270.860 Y91.534
G01 X268.375 Y87.631
G01 X265.703 Y83.855
G01 X262.848 Y80.215
G01 X259.819 Y76.720
G01 X256.622 Y73.378
G01 X253.265 Y70.198
G01 X249.757 Y67.186
G01 X246.105 Y64.351
G01 X242.320 Y61.698
G01 X238.409 Y59.235
G01 X234.382 Y56.966
G01 X230.250 Y54.899
G01 X226.022 Y53.036
G01 X221.707 Y51.384
G01 X217.318 Y49.946
G01 X212.863 Y48.724
G01 X208.355 Y47.723
G01 X203.803 Y46.945
G01 X199.220 Y46.390
G01 X194.615 Y46.062
G01 X190.000 Y45.960
G01 X185.386 Y46.084
G01 X180.785 Y46.434
G01 X176.206 Y47.010
G01 X171.662 Y47.810
G01 X167.163 Y48.831
G01 X162.721 Y50.072
G01 X158.345 Y51.530
G01 X154.046 Y53.200
G01 X149.835 Y55.078
G01 X145.722 Y57.161
G01 X141.716 Y59.443
G01 X137.828 Y61.918
G01 X134.066 Y64.581
G01 X130.440 Y67.425
G01 X126.958 Y70.443
G01 X123.628 Y73.628
G01 X120.460 Y76.972
G01 X117.460 Y80.468
G01 X114.635 Y84.105
G01 X111.992 Y87.877
G01 X109.538 Y91.773
G01 X107.278 Y95.784
G01 X105.218 Y99.901
G01 X103.363 Y104.114
G01 X101.717 Y108.412
G01 X100.284 Y112.785
G01 X99.067 Y117.223
G01 X98.070 Y121.714
G01 X97.294 Y126.248
G01 X96.742 Y130.815
G01 X96.415 Y135.402
G01 X96.313 Y140.000
G01 X96.437 Y144.596
G01 X96.786 Y149.181
G01 X97.360 Y153.742
G01 X98.157 Y158.269
G01 X99.174 Y162.751
G01 X100.411 Y167.177
G01 X101.862 Y171.536
G01 X103.526 Y175.819
G01 X105.398 Y180.014
G01 X107.473 Y184.112
G01 X109.746 Y188.102
G01 X112.212 Y191.976
G01 X114.865 Y195.724
G01 X117.699 Y199.336
G01 X120.705 Y202.805
G01 X123.878 Y206.122
G01 X127.210 Y209.278
G01 X130.692 Y212.267
G01 X134.316 Y215.081
G01 X138.073 Y217.714
G01 X141.955 Y220.159
G01 X145.951 Y222.410
G01 X150.052 Y224.462
G01 X154.249 Y226.310
G01 X158.531 Y227.950
G01 X162.888 Y229.378
G01 X167.308 Y230.590
G01 X171.783 Y231.583
G01 X176.300 Y232.356
G01 X180.850 Y232.906
G01 X185.420 Y233.232
G01 X190.000 Y233.333
G01 X194.579 Y233.210
G01 X199.146 Y232.862
G01 X203.690 Y232.290
G01 X208.200 Y231.497
G01 X212.665 Y230.483
G01 X217.074 Y229.251
G01 X221.417 Y227.805
G01 X225.683 Y226.147
G01 X229.863 Y224.282
G01 X233.945 Y222.215
G01 X237.920 Y219.950
G01 X241.780 Y217.494
G01 X245.513 Y214.851
G01 X249.112 Y212.028
G01 X252.568 Y209.033
G01 X255.872 Y205.872
G01 X259.016 Y202.553
G01 X261.994 Y199.084
G01 X264.797 Y195.474
G01 X267.420 Y191.730
G01 X269.856 Y187.864
G01 X272.098 Y183.882
G01 X274.143 Y179.796
G01 X275.984 Y175.616
G01 X277.617 Y171.350
G01 X279.040 Y167.010
G01 X280.247 Y162.606
