;  Created by Sandify
;  https://sandify.org
;  Version: 0.2.4
;
;  Machine type: Rectangular
;    Min X (mm): 0
;    Max X (mm): 400
;    Min Y (mm): 0
;    Max Y (mm): 280
;  Content type: shape
;  Layer:
;    Shape: Clover
;    Name: polygon
;    Large circle radius: 4
;    Small circle radius: 1
;    Visible: true
;    Initial width: 10
;    Initial height: 10
;    X offset: 0
;    Y offset: 0
;    Rotate (degrees): 202
;    Reverse path: false
;    Number of loops: 13
;    When transforming shape: smear
;    Scale: true
;      Scale (+/-): 100
;      Scale by: constant
;    Spin: true
;      Spin (+/-): 7.1
;      Spin by: constant
;        Switchbacks: 0
;    Track: false
;    Fine tuning:
;      Connect to next layer: line
;      Draw portion of path (%): 100
;      Backtrack at end (%): 0
;      Rotate starting point (%): 0
;  Reverse export path: false
;
; File name: 'clover_v1'
;

G01 X193.819 Y142.497
G01 X193.729 Y142.522
G01 X193.557 Y142.554
G01 X193.301 Y142.570
G01 X192.966 Y142.543
G01 X192.562 Y142.453
G01 X192.104 Y142.280
G01 X191.613 Y142.007
G01 X191.114 Y141.625
G01 X190.632 Y141.130
G01 X190.195 Y140.523
G01 X189.828 Y139.815
G01 X189.556 Y139.020
G01 X189.396 Y138.159
G01 X189.364 Y137.257
G01 X189.466 Y136.340
G01 X189.705 Y135.439
G01 X190.074 Y134.581
G01 X190.562 Y133.794
G01 X191.149 Y133.099
G01 X191.812 Y132.515
G01 X192.524 Y132.053
G01 X193.257 Y131.719
G01 X193.981 Y131.510
G01 X194.668 Y131.417
G01 X195.294 Y131.424
G01 X195.840 Y131.510
G01 X196.290 Y131.649
G01 X196.637 Y131.814
G01 X196.883 Y131.975
G01 X197.034 Y132.103
G01 X197.105 Y132.175
G01 X197.116 Y132.167
G01 X197.093 Y132.066
G01 X197.065 Y131.863
G01 X197.060 Y131.557
G01 X197.110 Y131.153
G01 X197.242 Y130.668
G01 X197.479 Y130.120
G01 X197.839 Y129.538
G01 X198.334 Y128.950
G01 X198.967 Y128.390
G01 X199.732 Y127.890
G01 X200.619 Y127.483
G01 X201.606 Y127.195
G01 X202.667 Y127.049
G01 X203.771 Y127.061
G01 X204.885 Y127.239
G01 X205.972 Y127.582
G01 X206.998 Y128.081
G01 X207.932 Y128.721
G01 X208.746 Y129.476
G01 X209.421 Y130.319
G01 X209.944 Y131.214
G01 X210.310 Y132.127
G01 X210.524 Y133.022
G01 X210.599 Y133.866
G01 X210.554 Y134.631
G01 X210.418 Y135.292
G01 X210.221 Y135.836
G01 X209.998 Y136.253
G01 X209.784 Y136.548
G01 X209.613 Y136.728
G01 X209.514 Y136.814
G01 X209.512 Y136.832
G01 X209.624 Y136.811
G01 X209.859 Y136.787
G01 X210.216 Y136.797
G01 X210.686 Y136.875
G01 X211.251 Y137.053
G01 X211.884 Y137.360
G01 X212.554 Y137.814
G01 X213.223 Y138.427
G01 X213.853 Y139.202
G01 X214.405 Y140.131
G01 X214.843 Y141.199
G01 X215.134 Y142.380
G01 X215.254 Y143.641
G01 X215.185 Y144.946
G01 X214.920 Y146.252
G01 X214.461 Y147.519
G01 X213.820 Y148.706
G01 X213.019 Y149.777
G01 X212.087 Y150.701
G01 X211.060 Y151.456
G01 X209.977 Y152.029
G01 X208.882 Y152.416
G01 X207.815 Y152.625
G01 X206.814 Y152.671
G01 X205.913 Y152.581
G01 X205.138 Y152.386
G01 X204.504 Y152.126
G01 X204.020 Y151.840
G01 X203.681 Y151.570
G01 X203.473 Y151.355
G01 X203.373 Y151.228
G01 X203.351 Y151.216
G01 X203.368 Y151.339
G01 X203.385 Y151.605
G01 X203.358 Y152.012
G01 X203.248 Y152.547
G01 X203.017 Y153.188
G01 X202.637 Y153.903
G01 X202.083 Y154.655
G01 X201.346 Y155.399
G01 X200.424 Y156.091
G01 X199.326 Y156.686
G01 X198.075 Y157.143
G01 X196.700 Y157.425
G01 X195.239 Y157.507
G01 X193.737 Y157.368
G01 X192.242 Y157.004
G01 X190.801 Y156.418
G01 X189.461 Y155.625
G01 X188.263 Y154.653
G01 X187.239 Y153.537
G01 X186.415 Y152.319
G01 X185.803 Y151.046
G01 X185.406 Y149.765
G01 X185.214 Y148.526
G01 X185.206 Y147.370
G01 X185.351 Y146.335
G01 X185.610 Y145.449
G01 X185.940 Y144.729
G01 X186.292 Y144.181
G01 X186.622 Y143.800
G01 X186.884 Y143.568
G01 X187.115 Y143.428
G01 X186.981 Y143.442
G01 X186.685 Y143.450
G01 X186.231 Y143.404
G01 X185.634 Y143.259
G01 X184.922 Y142.973
G01 X184.131 Y142.515
G01 X183.306 Y141.860
G01 X182.496 Y140.998
G01 X181.753 Y139.928
G01 X181.126 Y138.665
G01 X180.661 Y137.234
G01 X180.398 Y135.669
G01 X180.366 Y134.017
G01 X180.583 Y132.327
G01 X181.055 Y130.654
G01 X181.776 Y129.052
G01 X182.724 Y127.572
G01 X183.870 Y126.259
G01 X185.171 Y125.149
G01 X186.579 Y124.269
G01 X188.041 Y123.630
G01 X189.501 Y123.235
G01 X190.908 Y123.068
G01 X192.212 Y123.106
G01 X193.375 Y123.311
G01 X194.365 Y123.641
G01 X195.165 Y124.043
G01 X195.770 Y124.464
G01 X196.189 Y124.854
G01 X196.442 Y125.162
G01 X196.563 Y125.347
G01 X196.594 Y125.378
G01 X196.585 Y125.234
G01 X196.588 Y124.907
G01 X196.657 Y124.405
G01 X196.843 Y123.746
G01 X197.190 Y122.963
G01 X197.734 Y122.099
G01 X198.498 Y121.203
G01 X199.494 Y120.333
G01 X200.719 Y119.545
G01 X202.156 Y118.895
G01 X203.775 Y118.433
G01 X205.535 Y118.202
G01 X207.383 Y118.232
G01 X209.263 Y118.543
G01 X211.114 Y119.138
G01 X212.876 Y120.008
G01 X214.492 Y121.128
G01 X215.913 Y122.460
G01 X217.101 Y123.959
G01 X218.028 Y125.567
G01 X218.682 Y127.226
G01 X219.066 Y128.874
G01 X219.195 Y130.452
G01 X219.101 Y131.908
G01 X218.824 Y133.199
G01 X218.416 Y134.293
G01 X217.934 Y135.172
G01 X217.437 Y135.832
G01 X216.983 Y136.286
G01 X216.625 Y136.558
G01 X216.409 Y136.688
G01 X216.368 Y136.723
G01 X216.523 Y136.719
G01 X216.880 Y136.735
G01 X217.430 Y136.830
G01 X218.148 Y137.060
G01 X218.999 Y137.473
G01 X219.932 Y138.107
G01 X220.891 Y138.986
G01 X221.814 Y140.120
G01 X222.638 Y141.505
G01 X223.301 Y143.118
G01 X223.748 Y144.926
G01 X223.936 Y146.880
G01 X223.830 Y148.922
G01 X223.414 Y150.988
G01 X222.684 Y153.010
G01 X221.655 Y154.923
G01 X220.355 Y156.666
G01 X218.827 Y158.185
G01 X217.126 Y159.439
G01 X215.313 Y160.401
G01 X213.455 Y161.060
G01 X211.619 Y161.420
G01 X209.870 Y161.502
G01 X208.265 Y161.341
G01 X206.849 Y160.985
G01 X205.655 Y160.492
G01 X204.702 Y159.924
G01 X203.990 Y159.348
G01 X203.505 Y158.827
G01 X203.217 Y158.418
G01 X203.081 Y158.171
G01 X203.043 Y158.119
G01 X203.041 Y158.284
G01 X203.011 Y158.671
G01 X202.886 Y159.267
G01 X202.608 Y160.043
G01 X202.124 Y160.958
G01 X201.396 Y161.955
G01 X200.397 Y162.972
G01 X199.120 Y163.940
G01 X197.573 Y164.789
G01 X195.781 Y165.455
G01 X193.784 Y165.877
G01 X191.637 Y166.008
G01 X189.405 Y165.816
G01 X187.158 Y165.282
G01 X184.970 Y164.407
G01 X182.914 Y163.208
G01 X181.055 Y161.719
G01 X179.449 Y159.989
G01 X178.140 Y158.078
G01 X177.155 Y156.057
G01 X176.504 Y153.998
G01 X176.179 Y151.975
G01 X176.155 Y150.057
G01 X176.392 Y148.305
G01 X176.835 Y146.768
G01 X177.420 Y145.479
G01 X178.078 Y144.456
G01 X178.737 Y143.697
G01 X179.327 Y143.185
G01 X179.788 Y142.883
G01 X180.185 Y142.714
G01 X180.010 Y142.707
G01 X179.595 Y142.660
G01 X178.956 Y142.504
G01 X178.126 Y142.176
G01 X177.153 Y141.619
G01 X176.098 Y140.795
G01 X175.032 Y139.677
G01 X174.028 Y138.258
G01 X173.162 Y136.550
G01 X172.505 Y134.583
G01 X172.118 Y132.403
G01 X172.052 Y130.071
G01 X172.340 Y127.658
G01 X172.999 Y125.241
G01 X174.025 Y122.900
G01 X175.399 Y120.714
G01 X177.079 Y118.752
G01 X179.011 Y117.073
G01 X181.128 Y115.722
G01 X183.354 Y114.726
G01 X185.609 Y114.093
G01 X187.813 Y113.813
G01 X189.893 Y113.856
G01 X191.784 Y114.174
G01 X193.434 Y114.709
G01 X194.811 Y115.390
G01 X195.897 Y116.140
G01 X196.697 Y116.882
G01 X197.233 Y117.542
G01 X197.545 Y118.055
G01 X197.688 Y118.366
G01 X197.730 Y118.439
G01 X197.745 Y118.254
G01 X197.810 Y117.811
G01 X198.000 Y117.129
G01 X198.384 Y116.246
G01 X199.020 Y115.216
G01 X199.948 Y114.108
G01 X201.194 Y112.997
G01 X202.762 Y111.964
G01 X204.638 Y111.091
G01 X206.786 Y110.452
G01 X209.154 Y110.113
G01 X211.676 Y110.126
G01 X214.272 Y110.525
G01 X216.858 Y111.324
G01 X219.349 Y112.517
G01 X221.660 Y114.079
G01 X223.719 Y115.965
G01 X225.462 Y118.112
G01 X226.844 Y120.447
G01 X227.839 Y122.887
G01 X228.440 Y125.344
G01 X228.663 Y127.735
G01 X228.542 Y129.979
G01 X228.129 Y132.009
G01 X227.492 Y133.772
G01 X226.706 Y135.234
G01 X225.857 Y136.381
G01 X225.025 Y137.219
G01 X224.292 Y137.774
G01 X223.725 Y138.093
G01 X223.380 Y138.237
G01 X223.296 Y138.280
G01 X223.491 Y138.303
G01 X223.962 Y138.388
G01 X224.686 Y138.616
G01 X225.619 Y139.060
G01 X226.701 Y139.778
G01 X227.858 Y140.814
G01 X229.007 Y142.191
G01 X230.060 Y143.912
G01 X230.931 Y145.958
G01 X231.540 Y148.288
G01 X231.819 Y150.844
G01 X231.716 Y153.551
G01 X231.195 Y156.326
G01 X230.245 Y159.075
G01 X228.874 Y161.707
G01 X227.114 Y164.134
G01 X225.016 Y166.277
G01 X222.647 Y168.073
G01 X220.091 Y169.474
G01 X217.436 Y170.455
G01 X214.775 Y171.014
G01 X212.201 Y171.168
G01 X209.795 Y170.958
G01 X207.630 Y170.442
G01 X205.759 Y169.694
G01 X204.216 Y168.799
G01 X203.014 Y167.845
G01 X202.144 Y166.921
G01 X201.573 Y166.112
G01 X201.250 Y165.490
G01 X201.106 Y165.112
G01 X201.063 Y165.017
G01 X201.032 Y165.221
G01 X200.925 Y165.719
G01 X200.656 Y166.483
G01 X200.150 Y167.463
G01 X199.345 Y168.593
G01 X198.197 Y169.793
G01 X196.685 Y170.972
G01 X194.809 Y172.037
G01 X192.592 Y172.895
G01 X190.080 Y173.465
G01 X187.338 Y173.673
G01 X184.447 Y173.467
G01 X181.500 Y172.813
G01 X178.595 Y171.700
G01 X175.830 Y170.143
G01 X173.298 Y168.176
G01 X171.081 Y165.858
G01 X169.246 Y163.264
G01 X167.838 Y160.482
G01 X166.883 Y157.610
G01 X166.380 Y154.747
G01 X166.306 Y151.991
G01 X166.615 Y149.427
G01 X167.242 Y147.131
G01 X168.107 Y145.158
G01 X169.119 Y143.540
G01 X170.181 Y142.289
G01 X171.200 Y141.391
G01 X172.086 Y140.808
G01 X172.764 Y140.484
G01 X173.335 Y140.326
G01 X173.122 Y140.286
G01 X172.599 Y140.156
G01 X171.799 Y139.846
G01 X170.776 Y139.276
G01 X169.603 Y138.383
G01 X168.367 Y137.124
G01 X167.166 Y135.478
G01 X166.098 Y133.449
G01 X165.261 Y131.065
G01 X164.740 Y128.377
G01 X164.611 Y125.457
G01 X164.928 Y122.393
G01 X165.722 Y119.284
G01 X167.002 Y116.235
G01 X168.750 Y113.350
G01 X170.924 Y110.726
G01 X173.461 Y108.449
G01 X176.279 Y106.587
G01 X179.281 Y105.186
G01 X182.364 Y104.268
G01 X185.422 Y103.830
G01 X188.353 Y103.844
G01 X191.065 Y104.258
G01 X193.483 Y105.002
G01 X195.551 Y105.988
G01 X197.235 Y107.117
G01 X198.529 Y108.288
G01 X199.449 Y109.401
G01 X200.039 Y110.364
G01 X200.361 Y111.097
G01 X200.497 Y111.541
G01 X200.539 Y111.659
G01 X200.588 Y111.437
G01 X200.743 Y110.889
G01 X201.100 Y110.053
G01 X201.739 Y108.988
G01 X202.725 Y107.776
G01 X204.103 Y106.510
G01 X205.890 Y105.293
G01 X208.078 Y104.231
G01 X210.636 Y103.425
G01 X213.504 Y102.966
G01 X216.605 Y102.930
G01 X219.844 Y103.371
G01 X223.114 Y104.321
G01 X226.303 Y105.783
G01 X229.303 Y107.737
G01 X232.010 Y110.133
G01 X234.336 Y112.902
G01 X236.214 Y115.954
G01 X237.596 Y119.186
G01 X238.464 Y122.487
G01 X238.822 Y125.745
G01 X238.706 Y128.852
G01 X238.173 Y131.714
G01 X237.301 Y134.253
G01 X236.184 Y136.411
G01 X234.928 Y138.159
G01 X233.641 Y139.491
G01 X232.428 Y140.429
G01 X231.386 Y141.022
G01 X230.595 Y141.338
G01 X230.117 Y141.467
G01 X229.988 Y141.508
G01 X230.218 Y141.566
G01 X230.790 Y141.749
G01 X231.660 Y142.154
G01 X232.762 Y142.865
G01 X234.009 Y143.949
G01 X235.300 Y145.448
G01 X236.525 Y147.378
G01 X237.573 Y149.728
G01 X238.337 Y152.458
G01 X238.724 Y155.506
G01 X238.656 Y158.786
G01 X238.078 Y162.194
G01 X236.962 Y165.618
G01 X235.307 Y168.939
G01 X233.139 Y172.042
G01 X230.514 Y174.822
G01 X227.507 Y177.186
G01 X224.217 Y179.066
G01 X220.753 Y180.416
G01 X217.235 Y181.220
G01 X213.780 Y181.487
G01 X210.500 Y181.258
G01 X207.493 Y180.596
G01 X204.840 Y179.587
G01 X202.597 Y178.333
G01 X200.792 Y176.945
G01 X199.428 Y175.539
G01 X198.478 Y174.224
G01 X197.887 Y173.101
G01 X197.579 Y172.253
G01 X197.459 Y171.741
G01 X197.420 Y171.601
G01 X197.351 Y171.839
G01 X197.139 Y172.433
G01 X196.684 Y173.335
G01 X195.897 Y174.471
G01 X194.713 Y175.748
G01 X193.090 Y177.057
G01 X191.015 Y178.282
G01 X188.503 Y179.306
G01 X185.599 Y180.019
G01 X182.374 Y180.322
G01 X178.920 Y180.139
G01 X175.347 Y179.414
G01 X171.777 Y178.122
G01 X168.333 Y176.264
G01 X165.136 Y173.874
G01 X162.297 Y171.012
G01 X159.907 Y167.763
G01 X158.038 Y164.232
G01 X156.733 Y160.536
G01 X156.006 Y156.801
G01 X155.842 Y153.151
G01 X156.195 Y149.702
G01 X156.995 Y146.557
G01 X158.148 Y143.795
G01 X159.546 Y141.474
G01 X161.071 Y139.619
G01 X162.600 Y138.229
G01 X164.018 Y137.272
G01 X165.223 Y136.687
G01 X166.128 Y136.391
G01 X166.874 Y136.284
G01 X166.629 Y136.204
G01 X166.014 Y135.963
G01 X165.084 Y135.457
G01 X163.918 Y134.595
G01 X162.618 Y133.311
G01 X161.297 Y131.565
G01 X160.080 Y129.347
G01 X159.087 Y126.677
G01 X158.434 Y123.606
G01 X158.221 Y120.211
G01 X158.527 Y116.592
G01 X159.404 Y112.867
G01 X160.878 Y109.162
G01 X162.940 Y105.608
G01 X165.553 Y102.331
G01 X168.649 Y99.445
G01 X172.137 Y97.044
G01 X175.904 Y95.198
G01 X179.825 Y93.949
G01 X183.769 Y93.309
G01 X187.605 Y93.255
G01 X191.212 Y93.739
G01 X194.487 Y94.681
G01 X197.348 Y95.982
G01 X199.738 Y97.525
G01 X201.635 Y99.186
G01 X203.043 Y100.836
G01 X204.002 Y102.357
G01 X204.577 Y103.642
G01 X204.859 Y104.603
G01 X204.955 Y105.181
G01 X204.987 Y105.344
G01 X205.079 Y105.092
G01 X205.352 Y104.457
G01 X205.914 Y103.499
G01 X206.856 Y102.307
G01 X208.246 Y100.987
G01 X210.121 Y99.662
G01 X212.487 Y98.460
G01 X215.320 Y97.509
G01 X218.562 Y96.928
G01 X222.129 Y96.818
G01 X225.914 Y97.261
G01 X229.791 Y98.306
G01 X233.627 Y99.976
G01 X237.284 Y102.258
G01 X240.632 Y105.109
G01 X243.555 Y108.453
G01 X245.955 Y112.191
G01 X247.764 Y116.203
G01 X248.941 Y120.356
G01 X249.480 Y124.513
G01 X249.407 Y128.537
G01 X248.778 Y132.303
G01 X247.680 Y135.706
G01 X246.220 Y138.661
G01 X244.521 Y141.116
G01 X242.716 Y143.049
G01 X240.937 Y144.471
G01 X239.309 Y145.425
G01 X237.942 Y145.985
G01 X236.923 Y146.248
G01 X236.312 Y146.330
G01 X236.138 Y146.358
G01 X236.396 Y146.462
G01 X237.050 Y146.767
G01 X238.032 Y147.387
G01 X239.247 Y148.412
G01 X240.581 Y149.910
G01 X241.905 Y151.916
G01 X243.083 Y154.432
G01 X243.983 Y157.428
G01 X244.482 Y160.839
G01 X244.477 Y164.576
G01 X243.888 Y168.521
G01 X242.664 Y172.543
G01 X240.788 Y176.500
G01 X238.277 Y180.251
G01 X235.183 Y183.658
G01 X231.586 Y186.604
G01 X227.594 Y188.990
G01 X223.336 Y190.748
G01 X218.951 Y191.841
G01 X214.584 Y192.266
G01 X210.376 Y192.054
G01 X206.457 Y191.270
G01 X202.934 Y190.007
G01 X199.891 Y188.380
G01 X197.379 Y186.521
G01 X195.417 Y184.567
G01 X193.989 Y182.658
G01 X193.044 Y180.922
G01 X192.504 Y179.472
G01 X192.263 Y178.396
G01 X192.197 Y177.752
G01 X192.175 Y177.566
G01 X192.058 Y177.831
G01 X191.718 Y178.502
G01 X191.039 Y179.505
G01 X189.928 Y180.739
G01 X188.320 Y182.082
G01 X186.182 Y183.397
G01 X183.515 Y184.543
G01 X180.357 Y185.383
G01 X176.778 Y185.790
G01 X172.876 Y185.660
G01 X168.776 Y184.913
G01 X164.617 Y183.500
G01 X160.547 Y181.409
G01 X156.715 Y178.663
G01 X153.260 Y175.318
G01 X150.304 Y171.463
G01 X147.945 Y167.216
G01 X146.251 Y162.710
G01 X145.257 Y158.095
G01 X144.959 Y153.521
G01 X145.321 Y149.135
G01 X146.270 Y145.068
G01 X147.706 Y141.432
G01 X149.507 Y138.309
G01 X151.532 Y135.748
G01 X153.638 Y133.764
G01 X155.680 Y132.336
G01 X157.524 Y131.408
G01 X159.057 Y130.892
G01 X160.191 Y130.676
G01 X161.105 Y130.662
G01 X160.836 Y130.533
G01 X160.150 Y130.158
G01 X159.128 Y129.419
G01 X157.879 Y128.224
G01 X156.534 Y126.507
G01 X155.234 Y124.239
G01 X154.127 Y121.427
G01 X153.354 Y118.113
G01 X153.045 Y114.373
G01 X153.306 Y110.316
G01 X154.216 Y106.071
G01 X155.820 Y101.787
G01 X158.128 Y97.617
G01 X161.111 Y93.717
G01 X164.704 Y90.227
G01 X168.811 Y87.274
G01 X173.309 Y84.955
G01 X178.053 Y83.337
G01 X182.890 Y82.450
G01 X187.660 Y82.288
G01 X192.215 Y82.805
G01 X196.417 Y83.924
G01 X200.156 Y85.536
G01 X203.350 Y87.511
G01 X205.950 Y89.702
G01 X207.948 Y91.958
G01 X209.369 Y94.129
G01 X210.276 Y96.080
G01 X210.764 Y97.694
G01 X210.953 Y98.881
G01 X210.979 Y99.588
G01 X210.990 Y99.795
G01 X211.133 Y99.521
G01 X211.546 Y98.821
G01 X212.347 Y97.783
G01 X213.632 Y96.524
G01 X215.462 Y95.181
G01 X217.865 Y93.904
G01 X220.828 Y92.845
G01 X224.303 Y92.151
G01 X228.204 Y91.953
G01 X232.418 Y92.359
G01 X236.804 Y93.447
G01 X241.210 Y95.258
G01 X245.472 Y97.798
G01 X249.433 Y101.031
G01 X252.945 Y104.886
G01 X255.882 Y109.258
G01 X258.145 Y114.015
G01 X259.672 Y119.005
G01 X260.434 Y124.067
G01 X260.446 Y129.037
G01 X259.757 Y133.759
G01 X258.453 Y138.095
G01 X256.652 Y141.932
G01 X254.491 Y145.190
G01 X252.124 Y147.823
G01 X249.711 Y149.827
G01 X247.403 Y151.234
G01 X245.343 Y152.114
G01 X243.647 Y152.568
G01 X242.403 Y152.725
G01 X241.665 Y152.729
G01 X241.448 Y152.734
G01 X241.726 Y152.890
G01 X242.439 Y153.341
G01 X243.490 Y154.208
G01 X244.754 Y155.583
G01 X246.089 Y157.529
G01 X247.336 Y160.067
G01 X248.338 Y163.181
G01 X248.945 Y166.813
G01 X249.022 Y170.874
G01 X248.460 Y175.238
G01 X247.185 Y179.760
G01 X245.158 Y184.277
G01 X242.378 Y188.622
G01 X238.888 Y192.630
G01 X234.767 Y196.152
G01 X230.128 Y199.059
G01 X225.110 Y201.253
G01 X219.875 Y202.674
G01 X214.591 Y203.300
G01 X209.427 Y203.147
G01 X204.544 Y202.275
G01 X200.083 Y200.778
G01 X196.155 Y198.779
G01 X192.842 Y196.427
G01 X190.184 Y193.881
G01 X188.182 Y191.307
G01 X186.796 Y188.863
G01 X185.950 Y186.692
G01 X185.534 Y184.914
G01 X185.412 Y183.616
G01 X185.432 Y182.847
G01 X185.436 Y182.620
G01 X185.264 Y182.902
G01 X184.774 Y183.625
G01 X183.841 Y184.686
G01 X182.373 Y185.952
G01 X180.311 Y187.272
G01 X177.637 Y188.482
G01 X174.374 Y189.419
G01 X170.585 Y189.929
G01 X166.370 Y189.875
G01 X161.860 Y189.149
G01 X157.211 Y187.677
G01 X152.591 Y185.424
G01 X148.175 Y182.397
G01 X144.131 Y178.644
G01 X140.614 Y174.253
G01 X137.751 Y169.344
G01 X135.639 Y164.066
G01 X134.337 Y158.588
G01 X133.863 Y153.085
G01 X134.191 Y147.733
G01 X135.256 Y142.696
G01 X136.957 Y138.117
G01 X139.160 Y134.108
G01 X141.709 Y130.748
G01 X144.438 Y128.075
G01 X147.175 Y126.082
G01 X149.757 Y124.725
G01 X152.037 Y123.918
G01 X153.896 Y123.545
G01 X155.248 Y123.461
G01 X156.317 Y123.581
G01 X156.032 Y123.395
G01 X155.300 Y122.865
G01 X154.233 Y121.867
G01 X152.969 Y120.307
G01 X151.669 Y118.132
G01 X150.502 Y115.326
G01 X149.636 Y111.919
G01 X149.229 Y107.982
G01 X149.419 Y103.621
G01 X150.314 Y98.977
G01 X151.985 Y94.211
G01 X154.464 Y89.501
G01 X157.737 Y85.027
G01 X161.750 Y80.961
G01 X166.407 Y77.460
G01 X171.579 Y74.653
G01 X177.108 Y72.635
G01 X182.819 Y71.462
G01 X188.530 Y71.146
G01 X194.058 Y71.656
G01 X199.237 Y72.919
G01 X203.923 Y74.825
G01 X208.001 Y77.232
G01 X211.397 Y79.978
G01 X214.078 Y82.887
G01 X216.053 Y85.783
G01 X217.376 Y88.499
G01 X218.138 Y90.885
G01 X218.466 Y92.822
G01 X218.509 Y94.225
G01 X218.435 Y95.050
G01 X218.415 Y95.298
G01 X218.615 Y95.011
G01 X219.187 Y94.272
G01 X220.255 Y93.201
G01 X221.909 Y91.945
G01 X224.203 Y90.671
G01 X227.144 Y89.555
G01 X230.698 Y88.770
G01 X234.786 Y88.479
G01 X239.292 Y88.818
G01 X244.069 Y89.897
G01 X248.946 Y91.782
G01 X253.739 Y94.502
G01 X258.262 Y98.036
G01 X262.338 Y102.322
G01 X265.808 Y107.256
G01 X268.543 Y112.700
G01 X270.450 Y118.488
G01 X271.476 Y124.437
G01 X271.616 Y130.356
G01 X270.907 Y136.061
G01 X269.430 Y141.379
G01 X267.305 Y146.165
G01 X264.680 Y150.306
G01 X261.727 Y153.731
G01 X258.629 Y156.409
G01 X255.567 Y158.358
G01 X252.713 Y159.638
G01 X250.218 Y160.349
G01 X248.203 Y160.624
G01 X246.748 Y160.623
G01 X245.895 Y160.519
G01 X245.638 Y160.489
G01 X245.927 Y160.705
G01 X246.671 Y161.320
G01 X247.742 Y162.457
G01 X248.986 Y164.208
G01 X250.227 Y166.620
G01 X251.284 Y169.697
G01 X251.979 Y173.396
G01 X252.147 Y177.630
G01 X251.648 Y182.277
G01 X250.377 Y187.180
G01 X248.268 Y192.159
G01 X245.301 Y197.024
G01 X241.499 Y201.583
G01 X236.936 Y205.656
G01 X231.722 Y209.082
G01 X226.005 Y211.731
G01 X219.960 Y213.512
G01 X213.778 Y214.379
G01 X207.655 Y214.329
G01 X201.783 Y213.410
G01 X196.334 Y211.709
G01 X191.457 Y209.356
G01 X187.262 Y206.507
G01 X183.819 Y203.343
G01 X181.152 Y200.053
G01 X179.238 Y196.824
G01 X178.008 Y193.832
G01 X177.355 Y191.230
G01 X177.136 Y189.136
G01 X177.185 Y187.632
G01 X177.321 Y186.752
G01 X177.360 Y186.486
G01 X177.129 Y186.776
G01 X176.471 Y187.523
G01 X175.262 Y188.592
G01 X173.414 Y189.818
G01 X170.883 Y191.021
G01 X167.673 Y192.012
G01 X163.831 Y192.608
G01 X159.453 Y192.643
G01 X154.672 Y191.976
G01 X149.652 Y190.504
G01 X144.579 Y188.164
G01 X139.653 Y184.941
G01 X135.069 Y180.867
G01 X131.013 Y176.022
G01 X127.646 Y170.527
G01 X125.098 Y164.538
G01 X123.456 Y158.238
G01 X122.763 Y151.827
G01 X123.014 Y145.506
G01 X124.155 Y139.473
G01 X126.089 Y133.903
G01 X128.678 Y128.945
G01 X131.756 Y124.707
G01 X135.136 Y121.255
G01 X138.620 Y118.609
G01 X142.017 Y116.737
G01 X145.146 Y115.566
G01 X147.855 Y114.976
G01 X150.024 Y114.819
G01 X151.577 Y114.918
G01 X152.779 Y115.208
G01 X152.489 Y114.961
G01 X151.740 Y114.261
G01 X150.678 Y112.982
G01 X149.473 Y111.039
G01 X148.314 Y108.394
G01 X147.394 Y105.054
G01 X146.901 Y101.077
G01 X147.003 Y96.565
G01 X147.841 Y91.659
G01 X149.517 Y86.532
G01 X152.088 Y81.379
G01 X155.565 Y76.403
G01 X159.908 Y71.808
G01 X165.028 Y67.782
G01 X170.798 Y64.486
G01 X177.049 Y62.049
G01 X183.593 Y60.555
G01 X190.222 Y60.044
G01 X196.726 Y60.502
G01 X202.907 Y61.868
G01 X208.586 Y64.036
G01 X213.614 Y66.861
G01 X217.884 Y70.166
G01 X221.334 Y73.758
G01 X223.951 Y77.432
G01 X225.772 Y80.991
G01 X226.881 Y84.253
G01 X227.403 Y87.064
G01 X227.497 Y89.305
G01 X227.345 Y90.902
G01 X227.141 Y91.831
G01 X227.081 Y92.114
G01 X227.344 Y91.824
G01 X228.090 Y91.076
G01 X229.441 Y90.024
G01 X231.481 Y88.846
G01 X234.245 Y87.737
G01 X237.716 Y86.898
G01 X241.830 Y86.520
G01 X246.477 Y86.772
G01 X251.506 Y87.795
G01 X256.734 Y89.689
G01 X261.961 Y92.506
G01 X266.975 Y96.251
G01 X271.569 Y100.876
G01 X275.551 Y106.284
G01 X278.760 Y112.336
G01 X281.068 Y118.858
G01 X282.394 Y125.650
G01 X282.705 Y132.497
G01 X282.022 Y139.185
G01 X280.412 Y145.510
G01 X277.993 Y151.291
G01 X274.919 Y156.380
G01 X271.374 Y160.673
G01 X267.561 Y164.111
G01 X263.689 Y166.689
G01 X259.962 Y168.449
G01 X256.564 Y169.486
G01 X253.651 Y169.933
G01 X251.338 Y169.956
G01 X249.695 Y169.747
G01 X248.744 Y169.507
G01 X248.453 Y169.434
G01 X248.742 Y169.714
G01 X249.486 Y170.505
G01 X250.526 Y171.931
G01 X251.672 Y174.069
G01 X252.723 Y176.949
G01 X253.474 Y180.550
G01 X253.730 Y184.798
G01 X253.320 Y189.574
G01 X252.103 Y194.718
G01 X249.983 Y200.040
G01 X246.912 Y205.330
G01 X242.893 Y210.370
G01 X237.983 Y214.949
G01 X232.285 Y218.874
G01 X225.950 Y221.981
G01 X219.160 Y224.145
G01 X212.125 Y225.290
G01 X205.065 Y225.388
G01 X198.201 Y224.466
G01 X191.742 Y222.604
G01 X185.869 Y219.926
G01 X180.729 Y216.595
G01 X176.425 Y212.806
G01 X173.009 Y208.768
G01 X170.481 Y204.698
G01 X168.789 Y200.804
G01 X167.833 Y197.272
G01 X167.468 Y194.257
G01 X167.518 Y191.874
G01 X167.787 Y190.189
G01 X168.066 Y189.217
G01 X168.151 Y188.918
G01 X167.854 Y189.205
G01 X167.017 Y189.945
G01 X165.518 Y190.967
G01 X163.282 Y192.076
G01 X160.285 Y193.064
G01 X156.557 Y193.720
G01 X152.179 Y193.845
G01 X147.279 Y193.268
G01 X142.027 Y191.849
G01 X136.621 Y189.496
G01 X131.280 Y186.165
G01 X126.225 Y181.868
G01 X121.673 Y176.667
G01 X117.821 Y170.679
G01 X114.830 Y164.061
G01 X112.824 Y157.006
G01 X111.876 Y149.732
G01 X112.004 Y142.467
G01 X113.174 Y135.436
G01 X115.299 Y128.852
G01 X118.245 Y122.898
G01 X121.838 Y117.719
G01 X125.876 Y113.414
G01 X130.140 Y110.031
G01 X134.409 Y107.563
G01 X138.470 Y105.949
G01 X142.135 Y105.079
G01 X145.248 Y104.802
G01 X147.698 Y104.931
G01 X149.424 Y105.262
G01 X150.731 Y105.757
G01 X150.447 Y105.445
G01 X149.714 Y104.562
G01 X148.712 Y102.991
G01 X147.643 Y100.660
G01 X146.723 Y97.552
G01 X146.166 Y93.703
G01 X146.175 Y89.203
G01 X146.921 Y84.189
G01 X148.543 Y78.840
G01 X151.129 Y73.362
G01 X154.718 Y67.980
G01 X159.290 Y62.924
G01 X164.773 Y58.412
G01 X171.044 Y54.644
G01 X177.935 Y51.780
G01 X185.243 Y49.941
G01 X192.744 Y49.195
G01 X200.201 Y49.555
G01 X207.385 Y50.977
G01 X214.080 Y53.366
G01 X220.102 Y56.578
G01 X225.309 Y60.430
G01 X229.603 Y64.712
G01 X232.943 Y69.197
G01 X235.344 Y73.659
G01 X236.874 Y77.881
G01 X237.652 Y81.672
G01 X237.840 Y84.879
G01 X237.630 Y87.391
G01 X237.235 Y89.153
G01 X236.876 Y90.164
G01 X236.765 Y90.475
G01 X237.095 Y90.194
G01 X238.024 Y89.471
G01 X239.669 Y88.493
G01 X242.098 Y87.471
G01 X245.319 Y86.626
G01 X249.291 Y86.180
G01 X253.912 Y86.334
G01 X259.038 Y87.263
G01 X264.479 Y89.102
G01 X270.022 Y91.936
G01 X275.434 Y95.795
G01 X280.479 Y100.655
G01 X284.935 Y106.434
G01 X288.603 Y112.997
G01 X291.322 Y120.167
G01 X292.974 Y127.732
G01 X293.497 Y135.460
G01 X292.887 Y143.108
G01 X291.193 Y150.440
G01 X288.523 Y157.239
G01 X285.029 Y163.321
G01 X280.904 Y168.543
G01 X276.367 Y172.815
G01 X271.652 Y176.101
G01 X266.992 Y178.422
G01 X262.606 Y179.857
G01 X258.686 Y180.534
G01 X255.387 Y180.623
G01 X252.812 Y180.326
G01 X251.014 Y179.863
G01 X249.987 Y179.461
G01 X249.670 Y179.337
G01 X249.946 Y179.683
G01 X250.658 Y180.659
G01 X251.608 Y182.379
G01 X252.579 Y184.903
G01 X253.341 Y188.237
G01 X253.671 Y192.327
G01 X253.364 Y197.066
G01 X252.244 Y202.296
G01 X250.181 Y207.822
G01 X247.093 Y213.419
G01 X242.957 Y218.849
G01 X237.805 Y223.870
G01 X231.731 Y228.257
G01 X224.876 Y231.809
G01 X217.429 Y234.367
G01 X209.611 Y235.818
G01 X201.662 Y236.106
G01 X193.833 Y235.232
G01 X186.362 Y233.257
G01 X179.470 Y230.296
G01 X173.341 Y226.514
G01 X168.115 Y222.111
G01 X163.877 Y217.317
G01 X160.657 Y212.371
G01 X158.425 Y207.513
G01 X157.094 Y202.965
G01 X156.526 Y198.920
G01 X156.542 Y195.530
G01 X156.930 Y192.897
G01 X157.463 Y191.066
G01 X157.910 Y190.024
G01 X158.049 Y189.701
G01 X157.685 Y189.973
G01 X156.662 Y190.670
G01 X154.868 Y191.589
G01 X152.248 Y192.503
G01 X148.804 Y193.177
G01 X144.599 Y193.384
G01 X139.749 Y192.915
G01 X134.421 Y191.598
G01 X128.820 Y189.303
G01 X123.178 Y185.956
G01 X117.743 Y181.538
G01 X112.759 Y176.092
G01 X108.456 Y169.720
G01 X105.033 Y162.574
G01 X102.650 Y154.854
G01 X101.414 Y146.788
G01 X101.376 Y138.626
G01 X102.526 Y130.624
G01 X104.793 Y123.026
G01 X108.052 Y116.053
G01 X112.129 Y109.889
G01 X116.813 Y104.670
G01 X121.867 Y100.479
G01 X127.044 Y97.336
G01 X132.098 Y95.204
G01 X136.806 Y93.985
G01 X140.974 Y93.534
G01 X144.451 Y93.659
G01 X147.140 Y94.143
G01 X149.001 Y94.749
G01 X150.379 Y95.478
G01 X150.113 Y95.098
G01 X149.431 Y94.029
G01 X148.546 Y92.163
G01 X147.692 Y89.452
G01 X147.110 Y85.904
G01 X147.029 Y81.591
G01 X147.661 Y76.638
G01 X149.176 Y71.222
G01 X151.701 Y65.557
G01 X155.306 Y59.883
G01 X160.001 Y54.454
G01 X165.734 Y49.520
G01 X172.395 Y45.311
G01 X179.821 Y42.029
G01 X187.803 Y39.829
G01 X196.103 Y38.815
G01 X204.463 Y39.031
G01 X212.624 Y40.458
G01 X220.335 Y43.017
G01 X227.375 Y46.573
G01 X233.561 Y50.941
G01 X238.759 Y55.902
G01 X242.895 Y61.209
G01 X245.952 Y66.609
G01 X247.978 Y71.853
G01 X249.079 Y76.713
G01 X249.411 Y80.996
G01 X249.174 Y84.553
G01 X248.595 Y87.293
G01 X247.915 Y89.181
G01 X247.378 Y90.247
G01 X247.210 Y90.579
G01 X247.607 Y90.319
G01 X248.723 Y89.655
G01 X250.662 Y88.810
G01 X253.467 Y88.022
G01 X257.119 Y87.540
G01 X261.540 Y87.597
G01 X266.593 Y88.403
G01 X272.092 Y90.130
G01 X277.814 Y92.899
G01 X283.510 Y96.775
G01 X288.920 Y101.759
G01 X293.790 Y107.791
G01 X297.887 Y114.751
G01 X301.010 Y122.463
G01 X303.006 Y130.711
G01 X303.777 Y139.246
G01 X303.286 Y147.803
G01 X301.562 Y156.116
G01 X298.692 Y163.932
G01 X294.822 Y171.029
G01 X290.148 Y177.225
G01 X284.899 Y182.390
G01 X279.329 Y186.455
G01 X273.699 Y189.413
G01 X268.262 Y191.320
G01 X263.248 Y192.291
G01 X258.850 Y192.493
G01 X255.213 Y192.136
G01 X252.425 Y191.454
G01 X250.512 Y190.697
G01 X249.437 Y190.111
G01 X249.101 Y189.927
G01 X249.354 Y190.341
G01 X249.996 Y191.505
G01 X250.800 Y193.516
G01 X251.515 Y196.412
G01 X251.892 Y200.167
G01 X251.691 Y204.691
G01 X250.703 Y209.838
G01 X248.758 Y215.412
G01 X245.738 Y221.181
G01 X241.587 Y226.887
G01 X236.310 Y232.265
G01 X229.978 Y237.057
G01 X222.721 Y241.027
G01 X214.725 Y243.976
G01 X206.217 Y245.754
G01 X197.454 Y246.269
G01 X188.709 Y245.491
G01 X180.254 Y243.458
G01 X172.344 Y240.268
G01 X165.203 Y236.078
G01 X159.011 Y231.093
G01 X153.892 Y225.553
G01 X149.910 Y219.720
G01 X147.063 Y213.861
G01 X145.286 Y208.233
G01 X144.453 Y203.069
G01 X144.388 Y198.560
G01 X144.871 Y194.847
G01 X145.659 Y192.014
G01 X146.496 Y190.079
G01 X147.130 Y188.997
G01 X147.330 Y188.659
G01 X146.900 Y188.903
G01 X145.689 Y189.523
G01 X143.606 Y190.280
G01 X140.620 Y190.918
G01 X136.766 Y191.183
G01 X132.144 Y190.832
G01 X126.910 Y189.655
G01 X121.269 Y187.486
G01 X115.463 Y184.211
G01 X109.758 Y179.779
G01 X104.425 Y174.207
G01 X99.726 Y167.573
G01 X95.897 Y160.021
G01 X93.137 Y151.744
G01 X91.591 Y142.981
G01 X91.347 Y133.999
G01 X92.424 Y125.076
G01 X94.776 Y116.490
G01 X98.295 Y108.500
G01 X102.811 Y101.328
G01 X108.111 Y95.152
G01 X113.944 Y90.093
G01 X120.041 Y86.206
G01 X126.127 Y83.482
G01 X131.942 Y81.845
G01 X137.254 Y81.159
G01 X141.870 Y81.237
G01 X145.653 Y81.851
G01 X148.527 Y82.749
G01 X150.480 Y83.667
G01 X151.889 Y84.655
G01 X151.653 Y84.208
G01 X151.058 Y82.952
G01 X150.350 Y80.800
G01 X149.790 Y77.729
G01 X149.640 Y73.783
G01 X150.142 Y69.071
G01 X151.507 Y63.758
G01 X153.900 Y58.061
G01 X157.428 Y52.230
G01 X162.134 Y46.537
G01 X167.995 Y41.260
G01 X174.920 Y36.664
G01 X182.758 Y32.986
G01 X191.302 Y30.423
G01 X200.305 Y29.116
G01 X209.493 Y29.146
G01 X218.578 Y30.524
G01 X227.279 Y33.195
G01 X235.335 Y37.040
G01 X242.524 Y41.879
G01 X248.670 Y47.487
G01 X253.659 Y53.605
G01 X257.442 Y59.957
G01 X260.036 Y66.261
G01 X261.528 Y72.255
G01 X262.064 Y77.705
G01 X261.841 Y82.420
G01 X261.095 Y86.268
G01 X260.088 Y89.177
G01 X259.088 Y91.145
G01 X258.354 Y92.237
G01 X258.122 Y92.578
G01 X258.585 Y92.352
G01 X259.887 Y91.785
G01 X262.109 Y91.130
G01 X265.265 Y90.656
G01 X269.303 Y90.630
G01 X274.104 Y91.294
G01 X279.490 Y92.860
G01 X285.237 Y95.489
G01 X291.083 Y99.282
G01 X296.751 Y104.275
G01 X301.957 Y110.436
G01 X306.432 Y117.662
G01 X309.939 Y125.792
G01 X312.285 Y134.607
G01 X313.331 Y143.852
G01 X313.006 Y153.242
G01 X311.306 Y162.484
G01 X308.296 Y171.292
G01 X304.108 Y179.403
G01 X298.931 Y186.596
G01 X293.001 Y192.698
G01 X286.587 Y197.601
G01 X279.974 Y201.263
G01 X273.446 Y203.712
G01 X267.271 Y205.045
G01 X261.684 Y205.417
G01 X256.871 Y205.038
G01 X252.962 Y204.152
G01 X250.020 Y203.029
G01 X248.040 Y201.943
G01 X246.947 Y201.157
G01 X246.605 Y200.908
G01 X246.820 Y201.388
G01 X247.358 Y202.735
G01 X247.956 Y205.026
G01 X248.338 Y208.265
G01 X248.236 Y212.391
G01 X247.403 Y217.274
G01 X245.630 Y222.726
G01 X242.760 Y228.513
G01 X238.697 Y234.364
G01 X233.414 Y239.994
G01 X226.953 Y245.115
G01 X219.426 Y249.455
G01 X211.008 Y252.778
G01 X201.926 Y254.891
G01 X192.448 Y255.664
G01 X182.865 Y255.030
G01 X173.478 Y252.996
G01 X164.576 Y249.638
G01 X156.424 Y245.099
G01 X149.242 Y239.580
G01 X143.198 Y233.326
G01 X138.395 Y226.616
G01 X134.866 Y219.742
G01 X132.573 Y212.994
G01 X131.410 Y206.643
G01 X131.209 Y200.923
G01 X131.751 Y196.018
G01 X132.781 Y192.052
G01 X134.023 Y189.082
G01 X135.197 Y187.094
G01 X136.035 Y186.002
G01 X136.301 Y185.659
G01 X135.805 Y185.863
G01 X134.413 Y186.369
G01 X132.056 Y186.906
G01 X128.736 Y187.192
G01 X124.526 Y186.955
G01 X119.567 Y185.948
G01 X114.056 Y183.963
G01 X108.239 Y180.846
G01 X102.394 Y176.510
G01 X96.814 Y170.934
G01 X91.793 Y164.172
G01 X87.602 Y156.347
G01 X84.479 Y147.645
G01 X82.612 Y138.303
G01 X82.127 Y128.599
G01 X83.082 Y118.834
G01 X85.460 Y109.313
G01 X89.174 Y100.331
G01 X94.070 Y92.151
G01 X99.937 Y84.995
G01 X106.517 Y79.024
G01 X113.523 Y74.334
G01 X120.656 Y70.951
G01 X127.620 Y68.826
G01 X134.142 Y67.842
G01 X139.990 Y67.820
G01 X144.982 Y68.531
G01 X148.999 Y69.710
G01 X151.992 Y71.074
G01 X153.986 Y72.336
G01 X155.380 Y73.599
G01 X155.188 Y73.088
G01 X154.716 Y71.652
G01 X154.242 Y69.231
G01 X154.053 Y65.837
G01 X154.425 Y61.550
G01 X155.606 Y56.523
G01 X157.802 Y50.963
G01 X161.162 Y45.126
G01 X165.766 Y39.298
G01 X171.627 Y33.779
G01 X178.681 Y28.867
G01 X186.793 Y24.834
G01 X195.767 Y21.919
G01 X205.355 Y20.305
G01 X215.268 Y20.111
G01 X225.200 Y21.388
G01 X234.838 Y24.109
G01 X243.885 Y28.176
G01 X252.077 Y33.425
G01 X259.195 Y39.631
G01 X265.082 Y46.529
G01 X269.648 Y53.821
G01 X272.878 Y61.201
G01 X274.829 Y68.371
G01 X275.631 Y75.055
G01 X275.472 Y81.021
G01 X274.591 Y86.091
G01 X273.263 Y90.152
G01 X271.779 Y93.164
G01 X270.429 Y95.159
G01 X269.486 Y96.242
G01 X269.184 Y96.582
G01 X269.711 Y96.403
G01 X271.190 Y95.967
G01 X273.675 Y95.561
G01 X277.144 Y95.477
G01 X281.505 Y95.994
G01 X286.596 Y97.360
G01 X292.198 Y99.779
G01 X298.046 Y103.393
G01 X303.845 Y108.278
G01 X309.288 Y114.435
G01 X314.074 Y121.788
G01 X317.929 Y130.195
G01 X320.616 Y139.444
G01 X321.956 Y149.278
G01 X321.836 Y159.399
G01 X320.215 Y169.491
G01 X317.130 Y179.237
G01 X312.690 Y188.337
G01 X307.073 Y196.527
G01 X300.513 Y203.591
G01 X293.287 Y209.376
G01 X285.701 Y213.801
G01 X278.067 Y216.860
G01 X270.690 Y218.621
G01 X263.844 Y219.225
G01 X257.762 Y218.871
G01 X252.618 Y217.811
G01 X248.517 Y216.326
G01 X245.491 Y214.715
G01 X243.499 Y213.273
G01 X242.423 Y212.275
G01 X242.085 Y211.956
G01 X242.250 Y212.499
G01 X242.647 Y214.020
G01 X242.982 Y216.566
G01 X242.956 Y220.107
G01 X242.290 Y224.537
G01 X240.733 Y229.686
G01 X238.087 Y235.322
G01 X234.214 Y241.170
G01 X229.046 Y246.927
G01 X222.594 Y252.281
G01 X214.940 Y256.927
G01 X206.244 Y260.589
G01 X196.724 Y263.033
G01 X186.653 Y264.085
G01 X176.335 Y263.639
G01 X166.094 Y261.663
G01 X156.253 Y258.205
G01 X147.114 Y253.386
G01 X138.942 Y247.395
G01 X131.948 Y240.478
G01 X126.280 Y232.924
G01 X122.010 Y225.045
G01 X119.134 Y217.163
G01 X117.574 Y209.582
G01 X117.178 Y202.582
G01 X117.733 Y196.390
G01 X118.979 Y191.177
G01 X120.625 Y187.042
G01 X122.365 Y184.007
G01 X123.899 Y182.021
G01 X124.952 Y180.956
G01 X125.289 Y180.620
G01 X124.732 Y180.771
G01 X123.169 Y181.127
G01 X120.563 Y181.386
G01 X116.955 Y181.247
G01 X112.460 Y180.426
G01 X107.261 Y178.675
G01 X101.601 Y175.797
G01 X95.763 Y171.661
G01 X90.059 Y166.209
G01 X84.807 Y159.459
G01 X80.315 Y151.509
G01 X76.860 Y142.526
G01 X74.673 Y132.743
G01 X73.923 Y122.442
G01 X74.708 Y111.937
G01 X77.050 Y101.561
G01 X80.890 Y91.639
G01 X86.096 Y82.477
G01 X92.464 Y74.337
G01 X99.739 Y67.429
G01 X107.621 Y61.891
G01 X115.790 Y57.790
G01 X123.918 Y55.112
G01 X131.695 Y53.763
G01 X138.845 Y53.583
G01 X145.139 Y54.347
G01 X150.414 Y55.785
G01 X154.577 Y57.595
G01 X157.615 Y59.466
G01 X159.592 Y61.094
G01 X160.924 Y62.643
G01 X160.788 Y62.071
G01 X160.474 Y60.469
G01 X160.291 Y57.807
G01 X160.544 Y54.137
G01 X161.520 Y49.585
G01 X163.464 Y44.344
G01 X166.570 Y38.668
G01 X170.963 Y32.851
G01 X176.693 Y27.210
G01 X183.730 Y22.070
G01 X191.966 Y17.741
G01 X201.222 Y14.501
G01 X211.254 Y12.576
G01 X221.769 Y12.131
G01 X232.443 Y13.256
G01 X242.939 Y15.962
G01 X252.925 Y20.180
G01 X262.095 Y25.766
G01 X270.188 Y32.504
G01 X276.999 Y40.127
G01 X282.394 Y48.326
G01 X286.318 Y56.772
G01 X288.795 Y65.133
G01 X289.927 Y73.096
G01 X289.889 Y80.384
G01 X288.916 Y86.771
G01 X287.289 Y92.099
G01 X285.316 Y96.283
G01 X283.316 Y99.319
G01 X281.596 Y101.282
G01 X280.435 Y102.321
G01 X280.062 Y102.648
G01 X280.648 Y102.528
G01 X282.289 Y102.260
G01 X285.006 Y102.158
G01 X288.736 Y102.533
G01 X293.342 Y103.672
G01 X298.618 Y105.821
G01 X304.301 Y109.166
G01 X310.087 Y113.827
G01 X315.650 Y119.844
G01 X320.661 Y127.177
G01 X324.807 Y135.706
G01 X327.813 Y145.238
G01 X329.453 Y155.519
G01 X329.571 Y166.245
G01 X328.083 Y177.083
G01 X324.991 Y187.688
G01 X320.375 Y197.726
G01 X314.392 Y206.890
G01 X307.269 Y214.918
G01 X299.286 Y221.613
G01 X290.761 Y226.847
G01 X282.032 Y230.574
G01 X273.435 Y232.830
G01 X265.288 Y233.729
G01 X257.865 Y233.458
G01 X251.390 Y232.262
G01 X246.014 Y230.434
G01 X241.814 Y228.291
G01 X238.785 Y226.156
G01 X236.840 Y224.341
G01 X235.819 Y223.124
G01 X235.497 Y222.733
G01 X235.600 Y223.332
G01 X235.821 Y225.012
G01 X235.838 Y227.781
G01 X235.336 Y231.567
G01 X234.029 Y236.221
G01 X231.673 Y241.525
G01 X228.085 Y247.205
G01 X223.154 Y252.948
G01 X216.848 Y258.421
G01 X209.221 Y263.290
G01 X200.403 Y267.240
G01 X190.600 Y269.996
G01 X180.078 Y271.338
G01 X169.152 Y271.115
G01 X158.163 Y269.254
G01 X147.462 Y265.767
G01 X137.387 Y260.745
G01 X128.247 Y254.360
G01 X120.299 Y246.850
G01 X113.737 Y238.507
G01 X108.679 Y229.659
G01 X105.162 Y220.650
G01 X103.139 Y211.824
G01 X102.484 Y203.498
G01 X102.997 Y195.948
G01 X104.421 Y189.392
G01 X106.455 Y183.976
G01 X108.772 Y179.768
G01 X111.043 Y176.750
G01 X112.954 Y174.827
G01 X114.227 Y173.826
G01 X114.636 Y173.511
G01 X114.023 Y173.596
G01 X112.307 Y173.767
G01 X109.488 Y173.696
G01 X105.650 Y173.065
G01 X100.955 Y171.586
G01 X95.631 Y169.018
G01 X89.963 Y165.184
G01 X84.274 Y159.981
G01 X78.904 Y153.387
G01 X74.191 Y145.467
G01 X70.452 Y136.365
G01 X67.959 Y126.297
G01 X66.929 Y115.543
G01 X67.505 Y104.427
G01 X69.749 Y93.300
G01 X73.641 Y82.518
G01 X79.075 Y72.422
G01 X85.866 Y63.322
G01 X93.765 Y55.470
G01 X102.468 Y49.056
G01 X111.637 Y44.190
G01 X120.919 Y40.898
G01 X129.969 Y39.120
G01 X138.465 Y38.719
G01 X146.135 Y39.483
G01 X152.763 Y41.142
G01 X158.212 Y43.385
G01 X162.422 Y45.878
G01 X165.422 Y48.287
G01 X167.319 Y50.294
G01 X116.433 Y0.000
G01 X0.000 Y0.000

