;  Created by Sandify
;  https://sandify.org
;  Version: 0.2.4
;
;  Machine type: Rectangular
;    Min X (mm): 0
;    Max X (mm): 380
;    Min Y (mm): 0
;    Max Y (mm): 280
;  Content type: shape
;  Layer:
;    Shape: FileImport
;    Name: dither_nautilus.thr
;    From file:: dither_nautilus.thr
;    Aspect Ratio: true
;    Comments: 
;    Visible: true
;    Initial width: 10
;    Initial height: 10
;    X offset: 0
;    Y offset: 0
;    Rotate (degrees): 0
;    Reverse path: false
;    Fine tuning:
;      Connect to next layer: line
;      Draw portion of path (%): 100
;      Backtrack at end (%): 0
;      Rotate starting point (%): 0
;  Reverse export path: false
;
; File name: 'dither_nautilus'
;

G01 X190.000 Y280.000
G01 X189.307 Y279.371
G01 X188.623 Y278.743
G01 X187.947 Y278.117
G01 X187.270 Y277.491
G01 X186.602 Y276.868
G01 X185.942 Y276.246
G01 X185.282 Y275.624
G01 X184.631 Y275.004
G01 X183.987 Y274.386
G01 X183.343 Y273.767
G01 X182.707 Y273.151
G01 X182.079 Y272.537
G01 X181.452 Y271.922
G01 X180.832 Y271.310
G01 X180.220 Y270.699
G01 X179.609 Y270.089
G01 X179.005 Y269.480
G01 X178.409 Y268.874
G01 X177.813 Y268.267
G01 X177.225 Y267.662
G01 X176.644 Y267.059
G01 X176.064 Y266.456
G01 X175.491 Y265.856
G01 X174.927 Y265.257
G01 X174.362 Y264.658
G01 X173.805 Y264.061
G01 X173.255 Y263.465
G01 X172.706 Y262.870
G01 X172.164 Y262.277
G01 X171.630 Y261.686
G01 X171.096 Y261.095
G01 X170.569 Y260.505
G01 X170.050 Y259.918
G01 X169.531 Y259.331
G01 X169.019 Y258.745
G01 X168.515 Y258.162
G01 X168.011 Y257.579
G01 X167.515 Y256.997
G01 X167.025 Y256.418
G01 X166.536 Y255.838
G01 X166.054 Y255.261
G01 X165.580 Y254.685
G01 X165.105 Y254.109
G01 X164.638 Y253.536
G01 X164.178 Y252.964
G01 X163.718 Y252.392
G01 X163.266 Y251.823
G01 X162.820 Y251.255
G01 X162.375 Y250.688
G01 X161.937 Y250.122
G01 X161.505 Y249.558
G01 X161.074 Y248.994
G01 X160.650 Y248.433
G01 X160.233 Y247.873
G01 X159.399 Y246.753
G01 X158.594 Y245.642
G01 X157.816 Y244.538
G01 X157.038 Y243.435
G01 X156.288 Y242.340
G01 X155.564 Y241.252
G01 X154.841 Y240.165
G01 X154.146 Y239.085
G01 X153.476 Y238.014
G01 X152.807 Y236.943
G01 X152.164 Y235.880
G01 X151.548 Y234.825
G01 X150.931 Y233.770
G01 X150.341 Y232.723
G01 X149.776 Y231.685
G01 X149.211 Y230.646
G01 X148.672 Y229.616
G01 X148.157 Y228.594
G01 X147.643 Y227.572
G01 X147.154 Y226.558
G01 X146.689 Y225.553
G01 X146.224 Y224.547
G01 X145.784 Y223.550
G01 X145.368 Y222.561
G01 X144.951 Y221.572
G01 X144.559 Y220.592
G01 X144.190 Y219.620
G01 X143.821 Y218.648
G01 X143.476 Y217.684
G01 X143.153 Y216.729
G01 X142.831 Y215.774
G01 X142.531 Y214.827
G01 X142.254 Y213.889
G01 X141.976 Y212.951
G01 X141.721 Y212.021
G01 X141.488 Y211.100
G01 X141.255 Y210.179
G01 X141.044 Y209.266
G01 X140.854 Y208.362
G01 X140.664 Y207.458
G01 X140.495 Y206.563
G01 X140.347 Y205.676
G01 X140.199 Y204.789
G01 X140.072 Y203.911
G01 X139.965 Y203.042
G01 X139.858 Y202.172
G01 X139.771 Y201.312
G01 X139.704 Y200.460
G01 X139.637 Y199.608
G01 X139.590 Y198.765
G01 X139.561 Y197.930
G01 X139.533 Y197.096
G01 X139.524 Y196.270
G01 X139.533 Y195.453
G01 X139.543 Y194.637
G01 X139.571 Y193.829
G01 X139.617 Y193.030
G01 X139.664 Y192.231
G01 X139.728 Y191.441
G01 X139.810 Y190.659
G01 X139.892 Y189.878
G01 X139.991 Y189.106
G01 X140.108 Y188.343
G01 X140.224 Y187.580
G01 X140.358 Y186.825
G01 X140.507 Y186.080
G01 X140.658 Y185.335
G01 X140.824 Y184.599
G01 X141.006 Y183.872
G01 X141.189 Y183.145
G01 X141.387 Y182.427
G01 X141.601 Y181.718
G01 X141.814 Y181.009
G01 X142.044 Y180.309
G01 X142.288 Y179.619
G01 X142.532 Y178.928
G01 X142.791 Y178.247
G01 X143.064 Y177.575
G01 X143.337 Y176.903
G01 X143.625 Y176.240
G01 X143.926 Y175.586
G01 X144.228 Y174.933
G01 X144.543 Y174.289
G01 X144.871 Y173.654
G01 X145.200 Y173.019
G01 X145.542 Y172.393
G01 X145.896 Y171.777
G01 X146.251 Y171.161
G01 X146.618 Y170.554
G01 X146.997 Y169.956
G01 X147.377 Y169.359
G01 X147.769 Y168.771
G01 X148.172 Y168.192
G01 X148.575 Y167.614
G01 X148.990 Y167.045
G01 X149.417 Y166.485
G01 X149.843 Y165.926
G01 X150.280 Y165.376
G01 X150.728 Y164.835
G01 X151.176 Y164.295
G01 X151.634 Y163.764
G01 X152.103 Y163.243
G01 X152.571 Y162.722
G01 X153.050 Y162.210
G01 X153.538 Y161.708
G01 X154.515 Y160.705
G01 X155.529 Y159.739
G01 X156.578 Y158.813
G01 X157.626 Y157.887
G01 X158.709 Y157.000
G01 X159.820 Y156.153
G01 X160.932 Y155.305
G01 X162.074 Y154.497
G01 X163.241 Y153.729
G01 X164.407 Y152.961
G01 X165.600 Y152.233
G01 X166.813 Y151.545
G01 X168.026 Y150.857
G01 X169.260 Y150.209
G01 X170.511 Y149.602
G01 X171.762 Y148.995
G01 X173.030 Y148.428
G01 X174.310 Y147.903
G01 X175.591 Y147.377
G01 X176.883 Y146.893
G01 X178.184 Y146.450
G01 X179.485 Y146.007
G01 X180.795 Y145.605
G01 X182.108 Y145.245
G01 X183.345 Y144.910
G01 X183.421 Y144.885
G01 X184.280 Y144.700
G01 X184.738 Y144.567
G01 X185.327 Y144.477
G01 X185.893 Y144.340
G01 X186.055 Y144.291
G01 X186.468 Y144.243
G01 X186.866 Y144.164
G01 X187.247 Y144.058
G01 X187.372 Y144.015
G01 X187.652 Y144.002
G01 X187.925 Y143.972
G01 X188.189 Y143.924
G01 X188.443 Y143.861
G01 X188.687 Y143.782
G01 X188.688 Y143.782
G01 X188.892 Y143.784
G01 X189.093 Y143.774
G01 X189.291 Y143.755
G01 X189.484 Y143.725
G01 X189.673 Y143.686
G01 X189.857 Y143.637
G01 X190.000 Y143.591
G01 X189.823 Y143.604
G01 X189.645 Y143.609
G01 X189.465 Y143.605
G01 X189.286 Y143.591
G01 X189.106 Y143.569
G01 X188.927 Y143.538
G01 X188.749 Y143.498
G01 X188.572 Y143.448
G01 X188.397 Y143.390
G01 X188.224 Y143.323
G01 X188.054 Y143.247
G01 X187.887 Y143.162
G01 X187.724 Y143.069
G01 X187.565 Y142.967
G01 X187.410 Y142.857
G01 X187.261 Y142.739
G01 X187.205 Y142.692
G01 X186.915 Y142.693
G01 X186.618 Y142.671
G01 X186.317 Y142.626
G01 X186.012 Y142.558
G01 X185.706 Y142.465
G01 X185.399 Y142.349
G01 X185.094 Y142.208
G01 X184.792 Y142.043
G01 X184.495 Y141.854
G01 X184.409 Y141.793
G01 X183.268 Y141.800
G01 X183.138 Y141.794
G01 X181.856 Y141.835
G01 X180.567 Y141.916
G01 X179.279 Y141.997
G01 X177.984 Y142.118
G01 X176.686 Y142.280
G01 X175.389 Y142.441
G01 X174.090 Y142.643
G01 X172.792 Y142.886
G01 X171.494 Y143.129
G01 X170.198 Y143.412
G01 X168.908 Y143.736
G01 X167.618 Y144.060
G01 X166.334 Y144.425
G01 X165.060 Y144.831
G01 X163.786 Y145.237
G01 X162.522 Y145.684
G01 X161.272 Y146.172
G01 X160.022 Y146.661
G01 X158.786 Y147.190
G01 X157.568 Y147.761
G01 X156.351 Y148.332
G01 X155.151 Y148.945
G01 X153.974 Y149.599
G01 X152.797 Y150.254
G01 X151.643 Y150.950
G01 X150.514 Y151.688
G01 X149.386 Y152.426
G01 X148.284 Y153.206
G01 X147.213 Y154.028
G01 X146.142 Y154.850
G01 X145.101 Y155.714
G01 X144.095 Y156.621
G01 X143.090 Y157.527
G01 X142.118 Y158.477
G01 X141.186 Y159.468
G01 X140.253 Y160.460
G01 X139.359 Y161.494
G01 X138.509 Y162.571
G01 X137.658 Y163.648
G01 X136.850 Y164.768
G01 X136.089 Y165.931
G01 X135.708 Y166.513
G01 X135.340 Y167.105
G01 X134.983 Y167.708
G01 X134.627 Y168.311
G01 X134.282 Y168.925
G01 X133.951 Y169.549
G01 X133.620 Y170.174
G01 X133.301 Y170.809
G01 X132.996 Y171.456
G01 X132.690 Y172.102
G01 X132.398 Y172.759
G01 X132.120 Y173.427
G01 X131.842 Y174.095
G01 X131.577 Y174.774
G01 X131.327 Y175.464
G01 X131.077 Y176.153
G01 X130.841 Y176.854
G01 X130.620 Y177.566
G01 X130.399 Y178.277
G01 X130.193 Y179.000
G01 X130.002 Y179.733
G01 X129.811 Y180.467
G01 X129.636 Y181.211
G01 X129.476 Y181.966
G01 X129.317 Y182.722
G01 X129.173 Y183.488
G01 X129.046 Y184.266
G01 X128.918 Y185.043
G01 X128.807 Y185.831
G01 X128.713 Y186.631
G01 X128.619 Y187.430
G01 X128.542 Y188.241
G01 X128.482 Y189.062
G01 X128.422 Y189.884
G01 X128.380 Y190.716
G01 X128.355 Y191.560
G01 X128.331 Y192.404
G01 X128.324 Y193.258
G01 X128.336 Y194.124
G01 X128.348 Y194.990
G01 X128.378 Y195.867
G01 X128.427 Y196.755
G01 X128.477 Y197.644
G01 X128.545 Y198.543
G01 X128.632 Y199.453
G01 X128.720 Y200.364
G01 X128.827 Y201.285
G01 X128.954 Y202.218
G01 X129.081 Y203.151
G01 X129.228 Y204.095
G01 X129.396 Y205.050
G01 X129.563 Y206.006
G01 X129.751 Y206.972
G01 X129.960 Y207.950
G01 X130.169 Y208.928
G01 X130.399 Y209.917
G01 X130.650 Y210.917
G01 X130.902 Y211.917
G01 X131.175 Y212.929
G01 X131.470 Y213.952
G01 X131.765 Y214.975
G01 X132.082 Y216.009
G01 X132.421 Y217.054
G01 X132.761 Y218.100
G01 X133.123 Y219.157
G01 X133.508 Y220.225
G01 X133.893 Y221.293
G01 X134.301 Y222.373
G01 X134.733 Y223.464
G01 X135.165 Y224.555
G01 X135.620 Y225.657
G01 X136.100 Y226.771
G01 X136.579 Y227.885
G01 X137.082 Y229.010
G01 X137.611 Y230.147
G01 X138.139 Y231.283
G01 X138.691 Y232.432
G01 X139.269 Y233.591
G01 X140.450 Y235.922
G01 X141.078 Y237.104
G01 X141.707 Y238.287
G01 X142.361 Y239.481
G01 X143.041 Y240.687
G01 X143.381 Y241.290
G01 X143.728 Y241.895
G01 X144.081 Y242.504
G01 X144.434 Y243.112
G01 X144.794 Y243.724
G01 X145.161 Y244.338
G01 X145.527 Y244.952
G01 X145.900 Y245.570
G01 X146.280 Y246.190
G01 X146.660 Y246.810
G01 X147.047 Y247.433
G01 X147.440 Y248.059
G01 X147.834 Y248.685
G01 X148.234 Y249.314
G01 X148.641 Y249.945
G01 X149.048 Y250.577
G01 X149.462 Y251.212
G01 X149.883 Y251.849
G01 X150.303 Y252.487
G01 X150.731 Y253.127
G01 X151.166 Y253.770
G01 X151.601 Y254.414
G01 X152.042 Y255.060
G01 X152.491 Y255.709
G01 X152.940 Y256.358
G01 X153.396 Y257.010
G01 X153.859 Y257.665
G01 X154.322 Y258.320
G01 X154.792 Y258.978
G01 X155.269 Y259.639
G01 X155.746 Y260.300
G01 X156.230 Y260.963
G01 X156.722 Y261.630
G01 X157.214 Y262.297
G01 X157.712 Y262.966
G01 X158.219 Y263.639
G01 X158.725 Y264.311
G01 X159.238 Y264.987
G01 X159.759 Y265.665
G01 X160.280 Y266.343
G01 X160.808 Y267.025
G01 X161.344 Y267.709
G01 X161.879 Y268.393
G01 X162.422 Y269.080
G01 X162.973 Y269.770
G01 X163.524 Y270.460
G01 X164.082 Y271.153
G01 X164.647 Y271.849
G01 X161.795 Y270.432
G01 X158.943 Y269.014
G01 X156.091 Y267.596
G01 X153.239 Y266.179
G01 X150.386 Y264.761
G01 X147.534 Y263.344
G01 X144.682 Y261.926
G01 X141.830 Y260.508
G01 X141.393 Y259.768
G01 X140.963 Y259.032
G01 X140.540 Y258.299
G01 X140.117 Y257.567
G01 X139.700 Y256.838
G01 X139.290 Y256.113
G01 X138.881 Y255.388
G01 X138.477 Y254.666
G01 X138.081 Y253.949
G01 X137.684 Y253.232
G01 X137.294 Y252.518
G01 X136.910 Y251.808
G01 X136.527 Y251.098
G01 X136.150 Y250.392
G01 X135.779 Y249.690
G01 X135.409 Y248.988
G01 X135.044 Y248.289
G01 X134.687 Y247.595
G01 X134.329 Y246.900
G01 X133.977 Y246.209
G01 X133.632 Y245.522
G01 X133.287 Y244.835
G01 X132.949 Y244.151
G01 X132.616 Y243.471
G01 X132.284 Y242.792
G01 X131.958 Y242.116
G01 X131.638 Y241.443
G01 X131.318 Y240.771
G01 X131.004 Y240.103
G01 X130.696 Y239.438
G01 X130.389 Y238.773
G01 X130.087 Y238.112
G01 X129.792 Y237.454
G01 X129.497 Y236.797
G01 X129.207 Y236.143
G01 X128.924 Y235.493
G01 X128.358 Y234.193
G01 X127.815 Y232.907
G01 X127.297 Y231.637
G01 X126.778 Y230.366
G01 X126.283 Y229.110
G01 X125.811 Y227.868
G01 X125.339 Y226.627
G01 X124.890 Y225.400
G01 X124.464 Y224.187
G01 X123.635 Y221.777
G01 X123.254 Y220.593
G01 X122.872 Y219.409
G01 X122.513 Y218.240
G01 X122.176 Y217.085
G01 X121.839 Y215.930
G01 X121.523 Y214.789
G01 X121.229 Y213.662
G01 X120.934 Y212.536
G01 X120.661 Y211.423
G01 X120.408 Y210.325
G01 X120.156 Y209.226
G01 X119.924 Y208.142
G01 X119.713 Y207.072
G01 X119.501 Y206.001
G01 X119.310 Y204.945
G01 X119.138 Y203.903
G01 X118.967 Y202.860
G01 X118.815 Y201.831
G01 X118.683 Y200.817
G01 X118.550 Y199.802
G01 X118.437 Y198.801
G01 X118.343 Y197.813
G01 X118.249 Y196.826
G01 X118.173 Y195.852
G01 X118.116 Y194.892
G01 X118.058 Y193.932
G01 X118.020 Y192.985
G01 X117.998 Y192.053
G01 X117.977 Y191.119
G01 X117.974 Y190.200
G01 X117.988 Y189.294
G01 X118.002 Y188.388
G01 X118.034 Y187.495
G01 X118.082 Y186.616
G01 X118.130 Y185.736
G01 X118.195 Y184.870
G01 X118.277 Y184.017
G01 X118.358 Y183.164
G01 X118.456 Y182.324
G01 X118.570 Y181.498
G01 X118.684 Y180.671
G01 X118.813 Y179.858
G01 X118.959 Y179.057
G01 X119.104 Y178.257
G01 X119.264 Y177.469
G01 X119.440 Y176.695
G01 X119.615 Y175.920
G01 X119.806 Y175.158
G01 X120.010 Y174.410
G01 X120.215 Y173.661
G01 X120.434 Y172.925
G01 X120.668 Y172.201
G01 X120.901 Y171.478
G01 X121.148 Y170.768
G01 X121.409 Y170.070
G01 X121.669 Y169.372
G01 X121.943 Y168.686
G01 X122.230 Y168.014
G01 X122.518 Y167.341
G01 X122.818 Y166.681
G01 X123.130 Y166.033
G01 X123.443 Y165.385
G01 X123.768 Y164.750
G01 X124.105 Y164.127
G01 X124.442 Y163.504
G01 X124.792 Y162.893
G01 X125.152 Y162.294
G01 X125.874 Y161.098
G01 X126.641 Y159.950
G01 X127.451 Y158.850
G01 X128.261 Y157.750
G01 X129.113 Y156.698
G01 X130.004 Y155.694
G01 X130.894 Y154.690
G01 X131.823 Y153.733
G01 X132.787 Y152.823
G01 X133.750 Y151.913
G01 X134.749 Y151.050
G01 X135.777 Y150.232
G01 X136.806 Y149.415
G01 X137.866 Y148.643
G01 X138.952 Y147.917
G01 X140.038 Y147.190
G01 X141.151 Y146.509
G01 X142.287 Y145.872
G01 X143.423 Y145.235
G01 X144.582 Y144.642
G01 X145.760 Y144.093
G01 X146.938 Y143.544
G01 X148.135 Y143.038
G01 X149.348 Y142.575
G01 X150.560 Y142.113
G01 X151.787 Y141.693
G01 X153.026 Y141.315
G01 X154.265 Y140.937
G01 X155.515 Y140.601
G01 X156.772 Y140.306
G01 X158.030 Y140.012
G01 X159.295 Y139.758
G01 X160.564 Y139.545
G01 X161.832 Y139.332
G01 X163.104 Y139.160
G01 X164.376 Y139.027
G01 X165.648 Y138.895
G01 X166.920 Y138.802
G01 X168.187 Y138.748
G01 X169.455 Y138.694
G01 X170.718 Y138.679
G01 X171.973 Y138.702
G01 X173.229 Y138.725
G01 X174.476 Y138.786
G01 X175.711 Y138.885
G01 X176.946 Y138.984
G01 X178.170 Y139.120
G01 X179.378 Y139.293
G01 X178.343 Y138.647
G01 X177.349 Y137.898
G01 X177.174 Y137.752
G01 X175.684 Y136.759
G01 X174.971 Y136.211
G01 X173.846 Y135.883
G01 X172.702 Y135.588
G01 X171.541 Y135.327
G01 X170.380 Y135.066
G01 X169.202 Y134.839
G01 X168.012 Y134.648
G01 X166.821 Y134.456
G01 X165.617 Y134.299
G01 X164.403 Y134.180
G01 X163.190 Y134.060
G01 X161.967 Y133.976
G01 X160.738 Y133.931
G01 X159.509 Y133.885
G01 X158.274 Y133.877
G01 X157.037 Y133.908
G01 X155.799 Y133.940
G01 X154.559 Y134.010
G01 X153.321 Y134.120
G01 X152.082 Y134.231
G01 X150.845 Y134.382
G01 X149.612 Y134.574
G01 X148.379 Y134.767
G01 X147.151 Y135.000
G01 X145.932 Y135.277
G01 X144.712 Y135.554
G01 X143.500 Y135.873
G01 X142.301 Y136.237
G01 X141.102 Y136.601
G01 X139.914 Y137.008
G01 X138.742 Y137.461
G01 X137.570 Y137.914
G01 X136.413 Y138.412
G01 X135.275 Y138.957
G01 X134.138 Y139.502
G01 X133.019 Y140.093
G01 X131.923 Y140.733
G01 X130.827 Y141.372
G01 X129.753 Y142.059
G01 X128.706 Y142.795
G01 X127.659 Y143.531
G01 X126.638 Y144.316
G01 X125.646 Y145.152
G01 X124.655 Y145.988
G01 X123.693 Y146.873
G01 X122.765 Y147.811
G01 X121.836 Y148.748
G01 X120.941 Y149.738
G01 X120.083 Y150.780
G01 X119.225 Y151.822
G01 X118.404 Y152.916
G01 X117.623 Y154.065
G01 X117.232 Y154.640
G01 X116.852 Y155.228
G01 X116.482 Y155.829
G01 X116.113 Y156.431
G01 X115.754 Y157.046
G01 X115.405 Y157.676
G01 X115.057 Y158.305
G01 X114.720 Y158.948
G01 X114.394 Y159.605
G01 X114.068 Y160.262
G01 X113.754 Y160.933
G01 X113.452 Y161.618
G01 X113.150 Y162.303
G01 X112.859 Y163.003
G01 X112.581 Y163.716
G01 X112.303 Y164.430
G01 X112.037 Y165.158
G01 X111.784 Y165.901
G01 X111.531 Y166.643
G01 X111.291 Y167.400
G01 X111.064 Y168.171
G01 X110.837 Y168.943
G01 X110.623 Y169.729
G01 X110.423 Y170.530
G01 X110.223 Y171.331
G01 X110.037 Y172.147
G01 X109.865 Y172.978
G01 X109.692 Y173.808
G01 X109.534 Y174.654
G01 X109.391 Y175.515
G01 X109.247 Y176.375
G01 X109.118 Y177.251
G01 X109.004 Y178.142
G01 X108.891 Y179.033
G01 X108.792 Y179.940
G01 X108.708 Y180.861
G01 X108.625 Y181.783
G01 X108.557 Y182.720
G01 X108.505 Y183.673
G01 X108.453 Y184.626
G01 X108.417 Y185.594
G01 X108.397 Y186.578
G01 X108.377 Y187.562
G01 X108.374 Y188.562
G01 X108.387 Y189.577
G01 X108.401 Y190.593
G01 X108.431 Y191.625
G01 X108.478 Y192.672
G01 X108.526 Y193.720
G01 X108.591 Y194.783
G01 X108.673 Y195.863
G01 X108.756 Y196.943
G01 X108.856 Y198.039
G01 X108.974 Y199.151
G01 X109.092 Y200.264
G01 X109.229 Y201.392
G01 X109.384 Y202.538
G01 X109.539 Y203.683
G01 X109.712 Y204.845
G01 X109.905 Y206.023
G01 X110.098 Y207.201
G01 X110.310 Y208.396
G01 X110.541 Y209.608
G01 X111.293 Y213.295
G01 X111.564 Y214.540
G01 X111.855 Y215.803
G01 X112.166 Y217.083
G01 X112.476 Y218.363
G01 X112.808 Y219.660
G01 X113.160 Y220.974
G01 X113.512 Y222.288
G01 X113.885 Y223.620
G01 X114.279 Y224.969
G01 X114.477 Y225.643
G01 X114.679 Y226.322
G01 X114.887 Y227.005
G01 X115.095 Y227.689
G01 X115.308 Y228.376
G01 X115.526 Y229.068
G01 X115.745 Y229.760
G01 X115.969 Y230.457
G01 X116.199 Y231.158
G01 X116.428 Y231.859
G01 X116.663 Y232.564
G01 X116.904 Y233.274
G01 X117.144 Y233.983
G01 X117.391 Y234.697
G01 X117.642 Y235.416
G01 X117.894 Y236.135
G01 X118.151 Y236.858
G01 X118.414 Y237.585
G01 X118.677 Y238.313
G01 X118.946 Y239.045
G01 X119.220 Y239.782
G01 X119.494 Y240.518
G01 X119.774 Y241.259
G01 X120.060 Y242.005
G01 X120.346 Y242.751
G01 X120.638 Y243.501
G01 X120.935 Y244.255
G01 X121.232 Y245.010
G01 X121.536 Y245.769
G01 X121.845 Y246.533
G01 X119.726 Y244.526
G01 X117.606 Y242.520
G01 X115.487 Y240.513
G01 X113.368 Y238.507
G01 X111.249 Y236.500
G01 X109.129 Y234.494
G01 X107.010 Y232.488
G01 X104.891 Y230.481
G01 X104.705 Y229.713
G01 X104.524 Y228.950
G01 X104.348 Y228.193
G01 X104.173 Y227.435
G01 X104.002 Y226.682
G01 X103.835 Y225.935
G01 X103.669 Y225.187
G01 X103.508 Y224.445
G01 X103.351 Y223.707
G01 X103.195 Y222.970
G01 X103.043 Y222.238
G01 X102.896 Y221.510
G01 X102.749 Y220.783
G01 X102.607 Y220.061
G01 X102.470 Y219.343
G01 X102.332 Y218.626
G01 X102.199 Y217.914
G01 X102.071 Y217.206
G01 X101.943 Y216.499
G01 X101.820 Y215.797
G01 X101.701 Y215.099
G01 X101.582 Y214.402
G01 X101.468 Y213.709
G01 X101.358 Y213.021
G01 X101.138 Y211.646
G01 X100.937 Y210.291
G01 X100.753 Y208.955
G01 X100.570 Y207.618
G01 X100.404 Y206.302
G01 X100.256 Y205.005
G01 X100.107 Y203.707
G01 X99.976 Y202.429
G01 X99.862 Y201.170
G01 X99.748 Y199.911
G01 X99.571 Y197.450
G01 X99.490 Y196.228
G01 X99.427 Y195.026
G01 X99.379 Y193.842
G01 X99.331 Y192.658
G01 X99.300 Y191.493
G01 X99.284 Y190.347
G01 X99.268 Y189.200
G01 X99.268 Y188.071
G01 X99.284 Y186.961
G01 X99.299 Y185.851
G01 X99.330 Y184.759
G01 X99.375 Y183.685
G01 X99.421 Y182.611
G01 X99.482 Y181.555
G01 X99.557 Y180.517
G01 X99.632 Y179.479
G01 X99.722 Y178.459
G01 X99.826 Y177.456
G01 X99.930 Y176.453
G01 X100.048 Y175.468
G01 X100.180 Y174.500
G01 X100.312 Y173.532
G01 X100.458 Y172.582
G01 X100.617 Y171.648
G01 X100.776 Y170.715
G01 X100.948 Y169.799
G01 X101.133 Y168.900
G01 X101.319 Y168.000
G01 X101.517 Y167.118
G01 X101.728 Y166.252
G01 X101.938 Y165.387
G01 X102.162 Y164.538
G01 X102.397 Y163.706
G01 X102.633 Y162.873
G01 X102.880 Y162.058
G01 X103.140 Y161.258
G01 X103.399 Y160.459
G01 X103.670 Y159.676
G01 X103.953 Y158.908
G01 X104.235 Y158.141
G01 X104.529 Y157.390
G01 X104.833 Y156.655
G01 X105.138 Y155.920
G01 X105.454 Y155.201
G01 X105.780 Y154.498
G01 X106.106 Y153.794
G01 X106.443 Y153.107
G01 X106.790 Y152.434
G01 X107.137 Y151.762
G01 X107.494 Y151.105
G01 X107.860 Y150.464
G01 X108.227 Y149.822
G01 X108.603 Y149.196
G01 X108.989 Y148.585
G01 X109.375 Y147.974
G01 X109.770 Y147.377
G01 X110.174 Y146.796
G01 X110.578 Y146.215
G01 X110.991 Y145.648
G01 X111.412 Y145.097
G01 X112.255 Y143.993
G01 X113.132 Y142.948
G01 X114.040 Y141.960
G01 X114.948 Y140.972
G01 X115.886 Y140.041
G01 X116.852 Y139.165
G01 X117.818 Y138.289
G01 X118.812 Y137.468
G01 X119.831 Y136.701
G01 X120.849 Y135.934
G01 X121.891 Y135.220
G01 X122.955 Y134.558
G01 X124.019 Y133.896
G01 X125.104 Y133.287
G01 X126.207 Y132.727
G01 X127.310 Y132.167
G01 X128.430 Y131.658
G01 X129.566 Y131.197
G01 X130.701 Y130.736
G01 X131.852 Y130.323
G01 X133.014 Y129.958
G01 X134.175 Y129.592
G01 X135.349 Y129.273
G01 X136.530 Y129.000
G01 X137.712 Y128.726
G01 X138.901 Y128.498
G01 X140.096 Y128.313
G01 X141.291 Y128.128
G01 X142.491 Y127.987
G01 X143.693 Y127.887
G01 X144.894 Y127.787
G01 X146.098 Y127.730
G01 X147.300 Y127.712
G01 X148.502 Y127.694
G01 X149.703 Y127.717
G01 X150.899 Y127.778
G01 X152.095 Y127.839
G01 X153.286 Y127.939
G01 X154.470 Y128.075
G01 X155.653 Y128.211
G01 X156.829 Y128.384
G01 X157.994 Y128.593
G01 X159.159 Y128.801
G01 X160.312 Y129.044
G01 X161.451 Y129.321
G01 X162.591 Y129.598
G01 X163.716 Y129.908
G01 X164.823 Y130.250
G01 X165.931 Y130.593
G01 X167.021 Y130.966
G01 X168.090 Y131.370
G01 X169.159 Y131.774
G01 X170.207 Y132.208
G01 X171.232 Y132.671
G01 X169.891 Y130.987
G01 X169.709 Y130.733
G01 X168.185 Y128.795
G01 X167.273 Y128.218
G01 X166.333 Y127.666
G01 X165.370 Y127.139
G01 X164.406 Y126.612
G01 X163.418 Y126.111
G01 X162.409 Y125.638
G01 X161.401 Y125.165
G01 X160.371 Y124.720
G01 X159.322 Y124.305
G01 X158.274 Y123.890
G01 X157.207 Y123.504
G01 X156.125 Y123.151
G01 X155.042 Y122.797
G01 X153.945 Y122.476
G01 X152.834 Y122.188
G01 X151.724 Y121.900
G01 X150.600 Y121.647
G01 X149.467 Y121.429
G01 X148.334 Y121.211
G01 X147.191 Y121.030
G01 X146.042 Y120.886
G01 X144.892 Y120.742
G01 X143.735 Y120.636
G01 X142.574 Y120.570
G01 X141.413 Y120.504
G01 X140.247 Y120.479
G01 X139.081 Y120.495
G01 X137.914 Y120.511
G01 X136.747 Y120.569
G01 X135.580 Y120.672
G01 X134.414 Y120.774
G01 X133.249 Y120.920
G01 X132.089 Y121.113
G01 X130.928 Y121.305
G01 X129.772 Y121.543
G01 X128.623 Y121.830
G01 X127.475 Y122.116
G01 X126.333 Y122.451
G01 X125.201 Y122.836
G01 X124.070 Y123.220
G01 X122.948 Y123.655
G01 X121.840 Y124.142
G01 X120.731 Y124.629
G01 X119.635 Y125.168
G01 X118.555 Y125.762
G01 X117.475 Y126.355
G01 X116.411 Y127.002
G01 X115.365 Y127.706
G01 X114.319 Y128.409
G01 X113.292 Y129.169
G01 X112.287 Y129.987
G01 X111.281 Y130.805
G01 X110.297 Y131.681
G01 X109.336 Y132.618
G01 X108.377 Y133.554
G01 X107.441 Y134.551
G01 X106.532 Y135.609
G01 X106.078 Y136.139
G01 X105.630 Y136.684
G01 X105.190 Y137.245
G01 X104.749 Y137.805
G01 X104.316 Y138.382
G01 X103.890 Y138.975
G01 X103.464 Y139.567
G01 X103.046 Y140.176
G01 X102.635 Y140.801
G01 X102.225 Y141.426
G01 X101.822 Y142.067
G01 X101.428 Y142.725
G01 X101.033 Y143.383
G01 X100.647 Y144.058
G01 X100.269 Y144.749
G01 X99.892 Y145.441
G01 X99.522 Y146.149
G01 X99.162 Y146.874
G01 X98.802 Y147.599
G01 X98.450 Y148.342
G01 X98.108 Y149.101
G01 X97.766 Y149.861
G01 X97.434 Y150.638
G01 X97.110 Y151.432
G01 X96.787 Y152.227
G01 X96.473 Y153.039
G01 X96.170 Y153.869
G01 X95.866 Y154.699
G01 X95.573 Y155.547
G01 X95.289 Y156.413
G01 X95.006 Y157.279
G01 X94.733 Y158.163
G01 X94.471 Y159.065
G01 X94.208 Y159.967
G01 X93.957 Y160.888
G01 X93.716 Y161.827
G01 X93.475 Y162.767
G01 X93.246 Y163.724
G01 X93.028 Y164.701
G01 X92.810 Y165.678
G01 X92.603 Y166.673
G01 X92.408 Y167.688
G01 X92.213 Y168.703
G01 X92.029 Y169.736
G01 X91.858 Y170.790
G01 X91.687 Y171.843
G01 X91.528 Y172.915
G01 X91.381 Y174.007
G01 X91.235 Y175.099
G01 X91.101 Y176.211
G01 X90.979 Y177.342
G01 X90.858 Y178.474
G01 X90.749 Y179.625
G01 X90.654 Y180.797
G01 X90.559 Y181.968
G01 X90.476 Y183.160
G01 X90.408 Y184.372
G01 X90.284 Y186.816
G01 X90.243 Y188.069
G01 X90.201 Y189.322
G01 X90.174 Y190.595
G01 X90.161 Y191.890
G01 X90.148 Y193.184
G01 X90.149 Y194.500
G01 X90.164 Y195.836
G01 X90.180 Y197.172
G01 X90.210 Y198.530
G01 X90.256 Y199.909
G01 X90.278 Y200.598
G01 X90.304 Y201.293
G01 X90.335 Y201.993
G01 X90.365 Y202.693
G01 X90.399 Y203.399
G01 X90.436 Y204.110
G01 X90.474 Y204.821
G01 X90.516 Y205.537
G01 X90.561 Y206.259
G01 X90.606 Y206.981
G01 X90.656 Y207.708
G01 X90.709 Y208.441
G01 X90.762 Y209.173
G01 X90.819 Y209.912
G01 X90.880 Y210.655
G01 X90.941 Y211.399
G01 X91.006 Y212.148
G01 X91.075 Y212.903
G01 X89.744 Y210.581
G01 X88.412 Y208.258
G01 X87.080 Y205.936
G01 X85.749 Y203.614
G01 X84.417 Y201.291
G01 X83.085 Y198.969
G01 X81.753 Y196.646
G01 X80.422 Y194.324
G01 X80.461 Y193.598
G01 X80.503 Y192.878
G01 X80.548 Y192.163
G01 X80.593 Y191.449
G01 X80.641 Y190.740
G01 X80.693 Y190.037
G01 X80.795 Y188.630
G01 X80.909 Y187.247
G01 X81.035 Y185.886
G01 X81.161 Y184.526
G01 X81.298 Y183.187
G01 X81.447 Y181.872
G01 X81.596 Y180.556
G01 X81.756 Y179.262
G01 X81.927 Y177.991
G01 X82.098 Y176.719
G01 X82.280 Y175.469
G01 X82.473 Y174.242
G01 X82.665 Y173.014
G01 X83.083 Y170.623
G01 X83.296 Y169.438
G01 X83.521 Y168.275
G01 X83.755 Y167.133
G01 X83.989 Y165.991
G01 X84.234 Y164.870
G01 X84.488 Y163.769
G01 X84.742 Y162.669
G01 X85.006 Y161.590
G01 X85.280 Y160.531
G01 X85.553 Y159.473
G01 X85.836 Y158.435
G01 X86.128 Y157.417
G01 X86.421 Y156.399
G01 X86.722 Y155.401
G01 X87.032 Y154.424
G01 X87.342 Y153.446
G01 X87.661 Y152.489
G01 X87.989 Y151.551
G01 X88.317 Y150.613
G01 X88.653 Y149.695
G01 X88.998 Y148.796
G01 X89.342 Y147.897
G01 X89.695 Y147.018
G01 X90.055 Y146.158
G01 X90.416 Y145.298
G01 X90.785 Y144.456
G01 X91.161 Y143.634
G01 X91.538 Y142.812
G01 X91.922 Y142.009
G01 X92.313 Y141.224
G01 X92.704 Y140.439
G01 X93.103 Y139.673
G01 X93.509 Y138.925
G01 X93.914 Y138.177
G01 X94.327 Y137.447
G01 X94.747 Y136.735
G01 X95.166 Y136.024
G01 X95.593 Y135.330
G01 X96.025 Y134.654
G01 X96.458 Y133.978
G01 X96.897 Y133.320
G01 X97.343 Y132.679
G01 X97.788 Y132.038
G01 X98.239 Y131.414
G01 X98.697 Y130.808
G01 X99.154 Y130.201
G01 X99.617 Y129.612
G01 X100.086 Y129.040
G01 X100.554 Y128.467
G01 X101.028 Y127.911
G01 X101.508 Y127.372
G01 X101.987 Y126.833
G01 X102.472 Y126.311
G01 X102.961 Y125.804
G01 X103.941 Y124.792
G01 X104.939 Y123.844
G01 X105.955 Y122.960
G01 X106.971 Y122.075
G01 X108.004 Y121.253
G01 X109.052 Y120.491
G01 X110.100 Y119.730
G01 X111.163 Y119.028
G01 X112.238 Y118.385
G01 X113.314 Y117.742
G01 X114.401 Y117.157
G01 X115.499 Y116.628
G01 X116.596 Y116.099
G01 X117.704 Y115.626
G01 X118.819 Y115.206
G01 X119.933 Y114.787
G01 X121.056 Y114.420
G01 X122.183 Y114.106
G01 X123.311 Y113.791
G01 X124.444 Y113.527
G01 X125.579 Y113.312
G01 X126.714 Y113.097
G01 X127.852 Y112.932
G01 X128.990 Y112.812
G01 X130.128 Y112.693
G01 X131.266 Y112.621
G01 X132.402 Y112.593
G01 X133.538 Y112.564
G01 X134.672 Y112.580
G01 X135.801 Y112.639
G01 X136.930 Y112.697
G01 X138.054 Y112.797
G01 X139.172 Y112.937
G01 X140.289 Y113.077
G01 X141.399 Y113.257
G01 X142.500 Y113.474
G01 X143.600 Y113.691
G01 X144.691 Y113.946
G01 X145.770 Y114.236
G01 X146.850 Y114.525
G01 X147.917 Y114.850
G01 X148.969 Y115.208
G01 X150.022 Y115.566
G01 X151.060 Y115.956
G01 X152.082 Y116.377
G01 X153.103 Y116.798
G01 X154.108 Y117.250
G01 X155.093 Y117.730
G01 X156.079 Y118.210
G01 X157.045 Y118.718
G01 X157.989 Y119.252
G01 X158.933 Y119.786
G01 X159.856 Y120.346
G01 X160.754 Y120.930
G01 X161.653 Y121.514
G01 X162.527 Y122.121
G01 X163.375 Y122.750
G01 X164.223 Y123.379
G01 X165.044 Y124.029
G01 X165.836 Y124.698
G01 X165.004 Y122.594
G01 X164.173 Y120.489
G01 X163.506 Y119.748
G01 X162.810 Y119.022
G01 X162.085 Y118.312
G01 X161.360 Y117.602
G01 X160.606 Y116.909
G01 X159.827 Y116.235
G01 X159.047 Y115.561
G01 X158.241 Y114.907
G01 X157.410 Y114.274
G01 X156.580 Y113.641
G01 X155.725 Y113.030
G01 X154.848 Y112.443
G01 X153.971 Y111.856
G01 X153.072 Y111.293
G01 X152.152 Y110.758
G01 X151.232 Y110.222
G01 X150.292 Y109.713
G01 X149.334 Y109.233
G01 X148.375 Y108.753
G01 X147.399 Y108.302
G01 X146.406 Y107.884
G01 X145.413 Y107.465
G01 X144.404 Y107.078
G01 X143.380 Y106.725
G01 X142.357 Y106.372
G01 X141.319 Y106.054
G01 X140.269 Y105.772
G01 X139.219 Y105.491
G01 X138.156 Y105.246
G01 X137.084 Y105.040
G01 X136.011 Y104.835
G01 X134.929 Y104.669
G01 X133.838 Y104.544
G01 X132.747 Y104.420
G01 X131.647 Y104.337
G01 X130.542 Y104.299
G01 X129.437 Y104.261
G01 X128.325 Y104.267
G01 X127.209 Y104.319
G01 X126.093 Y104.372
G01 X124.973 Y104.472
G01 X123.851 Y104.621
G01 X122.729 Y104.770
G01 X121.604 Y104.968
G01 X120.480 Y105.218
G01 X119.355 Y105.469
G01 X118.231 Y105.771
G01 X117.108 Y106.127
G01 X115.985 Y106.483
G01 X114.864 Y106.894
G01 X113.747 Y107.362
G01 X112.629 Y107.829
G01 X111.516 Y108.354
G01 X110.409 Y108.937
G01 X109.301 Y109.521
G01 X108.200 Y110.164
G01 X107.106 Y110.869
G01 X106.012 Y111.574
G01 X104.927 Y112.341
G01 X103.851 Y113.172
G01 X102.775 Y114.003
G01 X101.709 Y114.899
G01 X100.655 Y115.861
G01 X100.128 Y116.343
G01 X99.604 Y116.841
G01 X99.083 Y117.356
G01 X98.562 Y117.871
G01 X98.045 Y118.403
G01 X97.530 Y118.952
G01 X97.016 Y119.502
G01 X96.506 Y120.068
G01 X95.999 Y120.653
G01 X95.492 Y121.237
G01 X94.989 Y121.839
G01 X94.490 Y122.459
G01 X93.991 Y123.079
G01 X93.495 Y123.717
G01 X93.004 Y124.374
G01 X92.514 Y125.030
G01 X92.027 Y125.704
G01 X91.545 Y126.398
G01 X91.062 Y127.091
G01 X90.585 Y127.802
G01 X90.112 Y128.533
G01 X89.639 Y129.264
G01 X89.171 Y130.013
G01 X88.707 Y130.782
G01 X88.244 Y131.551
G01 X87.786 Y132.339
G01 X87.333 Y133.147
G01 X86.880 Y133.955
G01 X86.432 Y134.782
G01 X85.990 Y135.629
G01 X85.548 Y136.476
G01 X85.111 Y137.343
G01 X84.680 Y138.230
G01 X84.249 Y139.117
G01 X83.824 Y140.024
G01 X83.404 Y140.951
G01 X82.985 Y141.879
G01 X82.572 Y142.827
G01 X82.165 Y143.796
G01 X81.758 Y144.765
G01 X81.357 Y145.755
G01 X80.963 Y146.766
G01 X80.569 Y147.777
G01 X80.181 Y148.809
G01 X79.800 Y149.862
G01 X79.419 Y150.916
G01 X79.045 Y151.990
G01 X78.678 Y153.087
G01 X78.311 Y154.183
G01 X77.951 Y155.302
G01 X77.598 Y156.442
G01 X76.899 Y158.745
G01 X76.561 Y159.930
G01 X76.223 Y161.114
G01 X75.892 Y162.321
G01 X75.569 Y163.551
G01 X75.246 Y164.781
G01 X74.931 Y166.033
G01 X74.624 Y167.309
G01 X74.317 Y168.584
G01 X74.018 Y169.883
G01 X73.727 Y171.205
G01 X73.436 Y172.526
G01 X73.154 Y173.871
G01 X72.880 Y175.240
G01 X72.312 Y172.848
G01 X71.743 Y170.456
G01 X71.175 Y168.064
G01 X70.607 Y165.673
G01 X70.039 Y163.281
G01 X69.471 Y160.889
G01 X68.902 Y158.497
G01 X68.334 Y156.105
G01 X68.781 Y154.842
G01 X69.234 Y153.602
G01 X69.691 Y152.386
G01 X70.148 Y151.169
G01 X70.610 Y149.976
G01 X71.076 Y148.806
G01 X71.543 Y147.636
G01 X72.014 Y146.488
G01 X72.489 Y145.363
G01 X72.964 Y144.239
G01 X73.928 Y142.056
G01 X74.900 Y139.919
G01 X75.392 Y138.883
G01 X75.884 Y137.847
G01 X76.380 Y136.833
G01 X76.880 Y135.840
G01 X77.379 Y134.848
G01 X77.883 Y133.877
G01 X78.390 Y132.928
G01 X78.897 Y131.978
G01 X79.408 Y131.050
G01 X79.922 Y130.142
G01 X80.436 Y129.235
G01 X80.954 Y128.348
G01 X81.475 Y127.482
G01 X81.995 Y126.616
G01 X82.519 Y125.771
G01 X83.046 Y124.946
G01 X83.573 Y124.121
G01 X84.103 Y123.316
G01 X84.635 Y122.531
G01 X85.168 Y121.746
G01 X85.703 Y120.981
G01 X86.241 Y120.236
G01 X86.779 Y119.490
G01 X87.320 Y118.764
G01 X87.863 Y118.058
G01 X88.406 Y117.351
G01 X88.951 Y116.664
G01 X89.499 Y115.995
G01 X90.046 Y115.327
G01 X90.596 Y114.677
G01 X91.147 Y114.047
G01 X91.699 Y113.416
G01 X92.253 Y112.803
G01 X92.808 Y112.209
G01 X93.364 Y111.615
G01 X93.921 Y111.039
G01 X94.480 Y110.482
G01 X95.039 Y109.924
G01 X95.599 Y109.384
G01 X96.161 Y108.862
G01 X96.723 Y108.339
G01 X97.286 Y107.835
G01 X97.851 Y107.347
G01 X98.415 Y106.860
G01 X98.981 Y106.390
G01 X99.547 Y105.936
G01 X100.114 Y105.483
G01 X100.681 Y105.047
G01 X101.250 Y104.627
G01 X101.818 Y104.207
G01 X102.387 Y103.804
G01 X102.957 Y103.417
G01 X104.097 Y102.644
G01 X105.239 Y101.935
G01 X106.381 Y101.289
G01 X107.524 Y100.643
G01 X108.668 Y100.059
G01 X109.810 Y99.536
G01 X110.953 Y99.012
G01 X112.095 Y98.548
G01 X113.235 Y98.141
G01 X114.374 Y97.734
G01 X115.511 Y97.384
G01 X116.645 Y97.089
G01 X117.778 Y96.794
G01 X118.907 Y96.553
G01 X120.031 Y96.364
G01 X121.154 Y96.175
G01 X122.272 Y96.038
G01 X123.383 Y95.950
G01 X124.494 Y95.863
G01 X125.598 Y95.824
G01 X126.693 Y95.832
G01 X127.788 Y95.840
G01 X128.874 Y95.894
G01 X129.950 Y95.993
G01 X131.026 Y96.091
G01 X132.091 Y96.233
G01 X133.145 Y96.417
G01 X134.199 Y96.601
G01 X135.240 Y96.825
G01 X136.269 Y97.089
G01 X137.297 Y97.352
G01 X138.311 Y97.654
G01 X139.311 Y97.992
G01 X140.310 Y98.330
G01 X141.295 Y98.704
G01 X142.262 Y99.111
G01 X143.230 Y99.519
G01 X144.181 Y99.959
G01 X145.114 Y100.431
G01 X146.046 Y100.902
G01 X146.961 Y101.404
G01 X147.855 Y101.933
G01 X148.750 Y102.463
G01 X149.625 Y103.021
G01 X150.478 Y103.605
G01 X151.331 Y104.188
G01 X152.162 Y104.796
G01 X152.971 Y105.428
G01 X153.779 Y106.059
G01 X154.565 Y106.713
G01 X155.326 Y107.387
G01 X156.087 Y108.061
G01 X156.823 Y108.755
G01 X157.533 Y109.467
G01 X158.243 Y110.179
G01 X158.926 Y110.908
G01 X159.582 Y111.651
G01 X160.238 Y112.395
G01 X160.866 Y113.153
G01 X161.465 Y113.924
G01 X162.063 Y114.695
G01 X162.632 Y115.477
G01 X163.170 Y116.270
G01 X162.865 Y113.516
G01 X162.792 Y112.129
G01 X162.381 Y111.305
G01 X161.940 Y110.486
G01 X161.469 Y109.674
G01 X160.997 Y108.862
G01 X160.496 Y108.058
G01 X159.967 Y107.264
G01 X159.437 Y106.470
G01 X158.879 Y105.686
G01 X158.293 Y104.916
G01 X157.707 Y104.145
G01 X157.094 Y103.388
G01 X156.454 Y102.646
G01 X155.815 Y101.904
G01 X155.149 Y101.178
G01 X154.458 Y100.471
G01 X153.767 Y99.763
G01 X153.051 Y99.074
G01 X152.311 Y98.407
G01 X151.571 Y97.739
G01 X150.806 Y97.092
G01 X150.020 Y96.470
G01 X149.233 Y95.847
G01 X148.423 Y95.249
G01 X147.592 Y94.677
G01 X146.761 Y94.105
G01 X145.908 Y93.560
G01 X145.035 Y93.044
G01 X144.162 Y92.528
G01 X143.268 Y92.041
G01 X142.355 Y91.587
G01 X141.442 Y91.133
G01 X140.510 Y90.711
G01 X139.560 Y90.323
G01 X138.609 Y89.936
G01 X137.641 Y89.584
G01 X136.656 Y89.269
G01 X135.670 Y88.954
G01 X134.668 Y88.677
G01 X133.650 Y88.440
G01 X132.632 Y88.203
G01 X131.598 Y88.007
G01 X130.550 Y87.853
G01 X129.502 Y87.700
G01 X128.439 Y87.589
G01 X127.363 Y87.525
G01 X126.286 Y87.460
G01 X125.197 Y87.441
G01 X124.095 Y87.471
G01 X122.993 Y87.500
G01 X121.879 Y87.579
G01 X120.754 Y87.708
G01 X119.629 Y87.837
G01 X118.492 Y88.018
G01 X117.346 Y88.253
G01 X116.200 Y88.487
G01 X115.044 Y88.776
G01 X113.879 Y89.121
G01 X112.715 Y89.466
G01 X111.541 Y89.868
G01 X110.360 Y90.330
G01 X109.179 Y90.791
G01 X107.991 Y91.312
G01 X106.796 Y91.895
G01 X105.601 Y92.478
G01 X104.400 Y93.123
G01 X103.194 Y93.833
G01 X102.590 Y94.188
G01 X101.986 Y94.559
G01 X101.380 Y94.947
G01 X100.775 Y95.335
G01 X100.168 Y95.739
G01 X99.560 Y96.161
G01 X98.952 Y96.582
G01 X98.343 Y97.020
G01 X97.734 Y97.476
G01 X97.124 Y97.931
G01 X96.513 Y98.404
G01 X95.902 Y98.894
G01 X95.291 Y99.384
G01 X94.679 Y99.892
G01 X94.066 Y100.418
G01 X93.454 Y100.943
G01 X92.841 Y101.487
G01 X92.227 Y102.049
G01 X91.614 Y102.611
G01 X91.000 Y103.191
G01 X90.386 Y103.790
G01 X89.772 Y104.389
G01 X89.157 Y105.006
G01 X88.542 Y105.643
G01 X87.928 Y106.279
G01 X87.313 Y106.934
G01 X86.698 Y107.609
G01 X86.084 Y108.284
G01 X85.469 Y108.978
G01 X84.855 Y109.691
G01 X84.240 Y110.405
G01 X83.626 Y111.138
G01 X83.012 Y111.891
G01 X82.398 Y112.644
G01 X81.784 Y113.417
G01 X81.171 Y114.211
G01 X80.557 Y115.004
G01 X79.945 Y115.818
G01 X79.332 Y116.652
G01 X78.720 Y117.487
G01 X78.109 Y118.342
G01 X77.498 Y119.218
G01 X76.887 Y120.094
G01 X76.277 Y120.991
G01 X75.668 Y121.909
G01 X75.059 Y122.828
G01 X74.450 Y123.768
G01 X73.843 Y124.729
G01 X73.236 Y125.690
G01 X72.025 Y127.679
G01 X70.816 Y129.711
G01 X70.214 Y130.760
G01 X69.611 Y131.810
G01 X69.010 Y132.882
G01 X68.410 Y133.976
G01 X67.811 Y135.071
G01 X67.213 Y136.188
G01 X66.616 Y137.329
G01 X66.728 Y135.071
G01 X66.840 Y132.814
G01 X66.952 Y130.556
G01 X67.064 Y128.299
G01 X67.176 Y126.042
G01 X67.289 Y123.784
G01 X67.401 Y121.527
G01 X67.513 Y119.270
G01 X68.233 Y118.265
G01 X68.953 Y117.283
G01 X69.671 Y116.323
G01 X70.388 Y115.362
G01 X71.105 Y114.424
G01 X71.819 Y113.506
G01 X73.247 Y111.693
G01 X73.958 Y110.819
G01 X74.669 Y109.944
G01 X75.379 Y109.090
G01 X76.087 Y108.258
G01 X76.794 Y107.425
G01 X77.500 Y106.613
G01 X78.204 Y105.821
G01 X78.908 Y105.029
G01 X79.610 Y104.258
G01 X80.310 Y103.507
G01 X81.010 Y102.755
G01 X81.708 Y102.024
G01 X82.404 Y101.313
G01 X83.099 Y100.601
G01 X83.793 Y99.910
G01 X84.485 Y99.237
G01 X85.176 Y98.565
G01 X85.865 Y97.912
G01 X86.552 Y97.278
G01 X87.239 Y96.644
G01 X87.924 Y96.029
G01 X88.606 Y95.433
G01 X89.289 Y94.836
G01 X89.968 Y94.259
G01 X90.646 Y93.700
G01 X91.323 Y93.140
G01 X91.998 Y92.599
G01 X92.670 Y92.076
G01 X93.343 Y91.554
G01 X94.012 Y91.049
G01 X94.679 Y90.561
G01 X95.346 Y90.074
G01 X96.010 Y89.604
G01 X96.672 Y89.152
G01 X97.333 Y88.700
G01 X97.992 Y88.265
G01 X98.648 Y87.847
G01 X99.304 Y87.429
G01 X99.957 Y87.028
G01 X100.607 Y86.643
G01 X101.256 Y86.259
G01 X101.904 Y85.891
G01 X102.547 Y85.539
G01 X103.191 Y85.188
G01 X103.832 Y84.853
G01 X104.470 Y84.533
G01 X105.745 Y83.894
G01 X107.008 Y83.320
G01 X108.257 Y82.806
G01 X109.506 Y82.292
G01 X110.742 Y81.839
G01 X111.963 Y81.444
G01 X113.184 Y81.049
G01 X114.392 Y80.713
G01 X115.584 Y80.432
G01 X116.776 Y80.151
G01 X117.953 Y79.925
G01 X119.115 Y79.752
G01 X120.276 Y79.579
G01 X121.422 Y79.459
G01 X122.551 Y79.389
G01 X123.681 Y79.319
G01 X124.793 Y79.299
G01 X125.889 Y79.326
G01 X126.984 Y79.353
G01 X128.062 Y79.427
G01 X129.122 Y79.546
G01 X130.182 Y79.665
G01 X131.224 Y79.828
G01 X132.247 Y80.033
G01 X133.270 Y80.238
G01 X134.275 Y80.485
G01 X135.259 Y80.771
G01 X136.244 Y81.057
G01 X137.209 Y81.381
G01 X138.154 Y81.742
G01 X139.099 Y82.103
G01 X140.023 Y82.500
G01 X140.926 Y82.931
G01 X141.829 Y83.362
G01 X142.712 Y83.826
G01 X143.572 Y84.321
G01 X144.432 Y84.816
G01 X145.270 Y85.341
G01 X146.086 Y85.895
G01 X146.902 Y86.448
G01 X147.695 Y87.030
G01 X148.464 Y87.637
G01 X149.234 Y88.244
G01 X149.980 Y88.876
G01 X150.702 Y89.530
G01 X151.424 Y90.185
G01 X152.122 Y90.862
G01 X152.794 Y91.558
G01 X153.467 Y92.255
G01 X154.115 Y92.972
G01 X154.737 Y93.705
G01 X155.359 Y94.439
G01 X155.955 Y95.189
G01 X156.525 Y95.954
G01 X157.095 Y96.718
G01 X157.638 Y97.497
G01 X158.154 Y98.287
G01 X158.671 Y99.078
G01 X159.159 Y99.880
G01 X159.620 Y100.690
G01 X160.081 Y101.501
G01 X160.514 Y102.320
G01 X160.917 Y103.145
G01 X161.321 Y103.971
G01 X161.696 Y104.802
G01 X162.042 Y105.636
G01 X162.388 Y106.471
G01 X162.704 Y107.309
G01 X162.989 Y108.147
G01 X163.476 Y105.414
G01 X163.709 Y104.390
G01 X163.543 Y103.555
G01 X163.348 Y102.716
G01 X163.124 Y101.876
G01 X162.901 Y101.036
G01 X162.648 Y100.195
G01 X162.367 Y99.356
G01 X162.086 Y98.516
G01 X161.777 Y97.679
G01 X161.440 Y96.847
G01 X161.102 Y96.014
G01 X160.737 Y95.186
G01 X160.344 Y94.365
G01 X159.951 Y93.544
G01 X159.531 Y92.731
G01 X159.083 Y91.927
G01 X158.635 Y91.124
G01 X158.160 Y90.330
G01 X157.157 Y88.768
G01 X156.628 Y88.000
G01 X156.073 Y87.248
G01 X155.518 Y86.495
G01 X154.936 Y85.758
G01 X154.329 Y85.039
G01 X153.721 Y84.320
G01 X153.087 Y83.619
G01 X152.428 Y82.939
G01 X151.768 Y82.259
G01 X151.083 Y81.600
G01 X150.373 Y80.964
G01 X149.662 Y80.329
G01 X148.926 Y79.717
G01 X148.166 Y79.131
G01 X147.405 Y78.546
G01 X146.619 Y77.986
G01 X145.809 Y77.456
G01 X144.999 Y76.926
G01 X144.164 Y76.425
G01 X143.305 Y75.955
G01 X142.446 Y75.486
G01 X141.563 Y75.048
G01 X140.656 Y74.645
G01 X139.749 Y74.242
G01 X138.818 Y73.873
G01 X137.864 Y73.541
G01 X136.910 Y73.210
G01 X135.933 Y72.915
G01 X134.932 Y72.661
G01 X133.931 Y72.406
G01 X132.908 Y72.192
G01 X131.861 Y72.020
G01 X130.815 Y71.848
G01 X129.746 Y71.719
G01 X128.655 Y71.635
G01 X127.564 Y71.551
G01 X126.450 Y71.512
G01 X125.315 Y71.522
G01 X124.180 Y71.531
G01 X123.022 Y71.589
G01 X121.844 Y71.697
G01 X120.665 Y71.805
G01 X119.465 Y71.965
G01 X118.243 Y72.177
G01 X117.022 Y72.390
G01 X115.779 Y72.656
G01 X114.516 Y72.978
G01 X113.253 Y73.301
G01 X111.969 Y73.679
G01 X110.664 Y74.117
G01 X110.012 Y74.336
G01 X109.355 Y74.569
G01 X108.693 Y74.818
G01 X108.030 Y75.066
G01 X107.363 Y75.330
G01 X106.691 Y75.609
G01 X106.018 Y75.888
G01 X105.341 Y76.182
G01 X104.659 Y76.493
G01 X103.976 Y76.803
G01 X103.289 Y77.129
G01 X102.597 Y77.471
G01 X101.905 Y77.813
G01 X101.208 Y78.171
G01 X100.506 Y78.546
G01 X99.804 Y78.921
G01 X99.097 Y79.312
G01 X98.386 Y79.719
G01 X97.674 Y80.127
G01 X96.958 Y80.552
G01 X96.237 Y80.994
G01 X95.516 Y81.435
G01 X94.790 Y81.894
G01 X94.059 Y82.370
G01 X93.329 Y82.847
G01 X92.593 Y83.341
G01 X91.853 Y83.852
G01 X91.114 Y84.364
G01 X90.369 Y84.893
G01 X89.620 Y85.440
G01 X88.870 Y85.988
G01 X88.117 Y86.553
G01 X87.358 Y87.138
G01 X86.600 Y87.722
G01 X85.837 Y88.324
G01 X85.069 Y88.946
G01 X84.302 Y89.567
G01 X83.530 Y90.207
G01 X82.753 Y90.866
G01 X81.977 Y91.526
G01 X81.196 Y92.204
G01 X80.411 Y92.902
G01 X79.625 Y93.600
G01 X78.835 Y94.318
G01 X78.041 Y95.055
G01 X77.247 Y95.792
G01 X76.449 Y96.550
G01 X75.646 Y97.327
G01 X74.843 Y98.104
G01 X73.224 Y99.720
G01 X72.413 Y100.538
G01 X71.597 Y101.376
G01 X70.777 Y102.236
G01 X72.117 Y98.297
G01 X73.457 Y94.359
G01 X74.797 Y90.420
G01 X76.137 Y86.481
G01 X77.919 Y85.082
G01 X78.800 Y84.411
G01 X79.681 Y83.740
G01 X80.556 Y83.088
G01 X81.424 Y82.454
G01 X82.291 Y81.821
G01 X83.152 Y81.206
G01 X84.007 Y80.609
G01 X84.861 Y80.013
G01 X85.708 Y79.434
G01 X86.549 Y78.874
G01 X87.390 Y78.314
G01 X88.224 Y77.772
G01 X89.052 Y77.247
G01 X89.879 Y76.722
G01 X90.700 Y76.216
G01 X91.514 Y75.726
G01 X92.328 Y75.236
G01 X93.135 Y74.764
G01 X93.936 Y74.309
G01 X94.737 Y73.853
G01 X95.531 Y73.415
G01 X96.318 Y72.993
G01 X97.105 Y72.572
G01 X97.885 Y72.167
G01 X98.659 Y71.778
G01 X99.433 Y71.389
G01 X100.200 Y71.017
G01 X100.960 Y70.660
G01 X101.720 Y70.304
G01 X102.474 Y69.964
G01 X103.221 Y69.639
G01 X103.968 Y69.314
G01 X104.708 Y69.005
G01 X105.441 Y68.711
G01 X106.174 Y68.418
G01 X106.901 Y68.139
G01 X107.621 Y67.876
G01 X108.341 Y67.613
G01 X109.054 Y67.364
G01 X109.761 Y67.131
G01 X110.467 Y66.897
G01 X111.167 Y66.678
G01 X111.860 Y66.474
G01 X112.553 Y66.269
G01 X113.239 Y66.079
G01 X113.918 Y65.902
G01 X115.277 Y65.550
G01 X116.609 Y65.253
G01 X117.914 Y65.010
G01 X119.220 Y64.767
G01 X120.498 Y64.578
G01 X121.749 Y64.439
G01 X123.000 Y64.300
G01 X124.224 Y64.212
G01 X125.421 Y64.173
G01 X126.618 Y64.133
G01 X127.788 Y64.141
G01 X128.931 Y64.195
G01 X130.074 Y64.249
G01 X131.190 Y64.348
G01 X132.279 Y64.491
G01 X133.367 Y64.633
G01 X134.429 Y64.818
G01 X135.464 Y65.043
G01 X136.499 Y65.269
G01 X137.506 Y65.534
G01 X138.487 Y65.837
G01 X139.467 Y66.140
G01 X140.421 Y66.481
G01 X141.347 Y66.857
G01 X142.273 Y67.233
G01 X143.172 Y67.643
G01 X144.044 Y68.086
G01 X144.916 Y68.529
G01 X145.761 Y69.005
G01 X146.579 Y69.509
G01 X147.397 Y70.014
G01 X148.187 Y70.549
G01 X148.950 Y71.111
G01 X149.714 Y71.672
G01 X150.450 Y72.261
G01 X151.159 Y72.874
G01 X151.868 Y73.487
G01 X152.550 Y74.125
G01 X153.204 Y74.784
G01 X153.859 Y75.443
G01 X154.486 Y76.124
G01 X155.086 Y76.824
G01 X155.686 Y77.524
G01 X156.259 Y78.243
G01 X156.804 Y78.979
G01 X157.350 Y79.714
G01 X157.868 Y80.466
G01 X158.359 Y81.232
G01 X158.850 Y81.998
G01 X159.314 Y82.778
G01 X159.750 Y83.569
G01 X160.186 Y84.360
G01 X160.595 Y85.162
G01 X160.977 Y85.973
G01 X161.359 Y86.783
G01 X161.713 Y87.603
G01 X162.040 Y88.428
G01 X162.367 Y89.253
G01 X162.667 Y90.084
G01 X162.939 Y90.918
G01 X163.211 Y91.752
G01 X163.456 Y92.590
G01 X163.674 Y93.428
G01 X163.891 Y94.266
G01 X164.081 Y95.105
G01 X164.244 Y95.941
G01 X164.407 Y96.778
G01 X164.542 Y97.613
G01 X164.650 Y98.443
G01 X164.758 Y99.273
G01 X164.838 Y100.098
G01 X164.891 Y100.916
G01 X166.102 Y98.450
G01 X166.472 Y97.769
G01 X166.523 Y96.982
G01 X166.550 Y96.184
G01 X166.550 Y95.377
G01 X166.551 Y94.571
G01 X166.526 Y93.757
G01 X166.475 Y92.937
G01 X166.424 Y92.118
G01 X166.347 Y91.292
G01 X166.244 Y90.464
G01 X166.141 Y89.635
G01 X166.011 Y88.804
G01 X165.855 Y87.972
G01 X165.698 Y87.140
G01 X165.516 Y86.308
G01 X165.306 Y85.477
G01 X165.096 Y84.647
G01 X164.859 Y83.818
G01 X164.596 Y82.994
G01 X164.332 Y82.170
G01 X164.040 Y81.351
G01 X163.722 Y80.538
G01 X163.403 Y79.726
G01 X163.057 Y78.920
G01 X162.683 Y78.124
G01 X162.308 Y77.329
G01 X161.906 Y76.542
G01 X161.476 Y75.768
G01 X161.046 Y74.994
G01 X160.588 Y74.232
G01 X160.101 Y73.484
G01 X159.614 Y72.737
G01 X159.099 Y72.004
G01 X158.555 Y71.288
G01 X158.011 Y70.572
G01 X157.438 Y69.874
G01 X156.836 Y69.195
G01 X156.234 Y68.516
G01 X155.603 Y67.857
G01 X154.942 Y67.219
G01 X154.282 Y66.582
G01 X153.592 Y65.967
G01 X152.872 Y65.377
G01 X152.152 Y64.786
G01 X151.403 Y64.221
G01 X150.624 Y63.682
G01 X149.844 Y63.144
G01 X149.035 Y62.633
G01 X148.195 Y62.152
G01 X147.355 Y61.670
G01 X146.485 Y61.218
G01 X145.584 Y60.799
G01 X144.684 Y60.379
G01 X143.752 Y59.992
G01 X142.790 Y59.640
G01 X141.827 Y59.287
G01 X140.834 Y58.970
G01 X139.809 Y58.689
G01 X138.784 Y58.409
G01 X137.729 Y58.166
G01 X136.641 Y57.963
G01 X135.553 Y57.760
G01 X134.434 Y57.596
G01 X133.283 Y57.475
G01 X132.132 Y57.354
G01 X130.949 Y57.276
G01 X129.734 Y57.242
G01 X128.519 Y57.208
G01 X127.272 Y57.219
G01 X125.992 Y57.277
G01 X124.712 Y57.336
G01 X123.399 Y57.442
G01 X122.054 Y57.597
G01 X120.709 Y57.753
G01 X119.331 Y57.959
G01 X117.920 Y58.217
G01 X117.214 Y58.346
G01 X116.500 Y58.488
G01 X115.778 Y58.644
G01 X115.056 Y58.799
G01 X114.325 Y58.968
G01 X113.586 Y59.151
G01 X112.847 Y59.334
G01 X112.100 Y59.530
G01 X111.344 Y59.741
G01 X110.589 Y59.951
G01 X109.825 Y60.176
G01 X109.052 Y60.415
G01 X108.280 Y60.654
G01 X107.499 Y60.907
G01 X106.709 Y61.175
G01 X105.920 Y61.443
G01 X105.122 Y61.726
G01 X104.315 Y62.023
G01 X103.509 Y62.321
G01 X102.694 Y62.634
G01 X101.870 Y62.962
G01 X101.047 Y63.290
G01 X100.215 Y63.633
G01 X99.374 Y63.992
G01 X98.533 Y64.351
G01 X97.684 Y64.726
G01 X96.826 Y65.116
G01 X95.968 Y65.507
G01 X95.102 Y65.913
G01 X94.226 Y66.336
G01 X93.351 Y66.759
G01 X92.467 Y67.198
G01 X91.575 Y67.653
G01 X90.682 Y68.109
G01 X89.781 Y68.581
G01 X88.871 Y69.070
G01 X87.961 Y69.559
G01 X87.042 Y70.065
G01 X86.114 Y70.588
G01 X85.186 Y71.111
G01 X84.250 Y71.652
G01 X83.305 Y72.209
G01 X85.475 Y69.050
G01 X87.645 Y65.891
G01 X89.815 Y62.731
G01 X91.985 Y59.571
G01 X92.959 Y59.163
G01 X93.921 Y58.771
G01 X94.874 Y58.394
G01 X95.826 Y58.017
G01 X96.768 Y57.655
G01 X97.699 Y57.308
G01 X98.630 Y56.961
G01 X99.551 Y56.629
G01 X100.462 Y56.312
G01 X101.372 Y55.994
G01 X102.272 Y55.692
G01 X103.162 Y55.404
G01 X104.052 Y55.115
G01 X104.931 Y54.842
G01 X105.800 Y54.582
G01 X106.669 Y54.322
G01 X107.528 Y54.076
G01 X108.377 Y53.845
G01 X109.226 Y53.613
G01 X110.064 Y53.395
G01 X110.893 Y53.190
G01 X111.722 Y52.986
G01 X112.540 Y52.795
G01 X113.348 Y52.617
G01 X114.157 Y52.439
G01 X114.955 Y52.274
G01 X115.744 Y52.123
G01 X116.532 Y51.971
G01 X117.311 Y51.832
G01 X118.079 Y51.706
G01 X118.848 Y51.580
G01 X119.607 Y51.466
G01 X120.356 Y51.365
G01 X121.105 Y51.264
G01 X121.844 Y51.175
G01 X122.574 Y51.098
G01 X123.304 Y51.021
G01 X124.024 Y50.956
G01 X124.734 Y50.903
G01 X125.444 Y50.850
G01 X126.145 Y50.808
G01 X126.836 Y50.778
G01 X128.218 Y50.718
G01 X129.562 Y50.704
G01 X130.868 Y50.733
G01 X132.174 Y50.762
G01 X133.443 Y50.834
G01 X134.675 Y50.948
G01 X135.907 Y51.061
G01 X137.101 Y51.215
G01 X138.260 Y51.408
G01 X139.418 Y51.601
G01 X140.540 Y51.832
G01 X141.626 Y52.100
G01 X142.713 Y52.368
G01 X143.763 Y52.672
G01 X144.778 Y53.010
G01 X145.794 Y53.348
G01 X146.774 Y53.719
G01 X147.719 Y54.123
G01 X148.665 Y54.526
G01 X149.576 Y54.961
G01 X150.453 Y55.425
G01 X151.330 Y55.888
G01 X152.173 Y56.381
G01 X152.983 Y56.901
G01 X153.793 Y57.421
G01 X154.569 Y57.968
G01 X155.313 Y58.539
G01 X156.057 Y59.110
G01 X156.768 Y59.705
G01 X157.447 Y60.322
G01 X158.126 Y60.940
G01 X158.773 Y61.579
G01 X159.388 Y62.238
G01 X160.004 Y62.897
G01 X160.588 Y63.576
G01 X161.141 Y64.272
G01 X161.694 Y64.968
G01 X162.216 Y65.681
G01 X162.707 Y66.410
G01 X163.199 Y67.138
G01 X163.661 Y67.881
G01 X164.093 Y68.637
G01 X164.524 Y69.392
G01 X164.927 Y70.161
G01 X165.300 Y70.939
G01 X165.673 Y71.718
G01 X166.017 Y72.506
G01 X166.333 Y73.303
G01 X166.648 Y74.099
G01 X166.935 Y74.904
G01 X167.195 Y75.713
G01 X167.454 Y76.523
G01 X167.686 Y77.338
G01 X167.890 Y78.157
G01 X168.094 Y78.975
G01 X168.271 Y79.796
G01 X168.421 Y80.619
G01 X168.572 Y81.441
G01 X168.696 Y82.263
G01 X168.793 Y83.085
G01 X168.891 Y83.906
G01 X168.963 Y84.725
G01 X169.009 Y85.541
G01 X169.056 Y86.356
G01 X169.077 Y87.168
G01 X169.073 Y87.973
G01 X169.069 Y88.778
G01 X169.041 Y89.577
G01 X168.988 Y90.366
G01 X168.935 Y91.156
G01 X168.858 Y91.938
G01 X168.758 Y92.708
G01 X168.657 Y93.478
G01 X168.533 Y94.237
G01 X168.386 Y94.982
G01 X170.196 Y92.966
G01 X170.568 Y92.578
G01 X170.800 Y91.884
G01 X171.012 Y91.175
G01 X171.203 Y90.451
G01 X171.394 Y89.727
G01 X171.563 Y88.990
G01 X171.711 Y88.241
G01 X171.858 Y87.492
G01 X171.984 Y86.732
G01 X172.086 Y85.962
G01 X172.189 Y85.192
G01 X172.269 Y84.413
G01 X172.324 Y83.626
G01 X172.380 Y82.840
G01 X172.412 Y82.046
G01 X172.420 Y81.248
G01 X172.427 Y80.449
G01 X172.410 Y79.646
G01 X172.367 Y78.839
G01 X172.325 Y78.033
G01 X172.256 Y77.224
G01 X172.162 Y76.414
G01 X172.067 Y75.604
G01 X171.946 Y74.794
G01 X171.797 Y73.985
G01 X171.649 Y73.176
G01 X171.473 Y72.369
G01 X171.269 Y71.565
G01 X171.065 Y70.762
G01 X170.833 Y69.962
G01 X170.572 Y69.168
G01 X170.311 Y68.374
G01 X170.021 Y67.586
G01 X169.701 Y66.806
G01 X169.381 Y66.027
G01 X169.031 Y65.255
G01 X168.651 Y64.494
G01 X168.270 Y63.732
G01 X167.859 Y62.981
G01 X167.416 Y62.243
G01 X166.972 Y61.504
G01 X166.498 Y60.778
G01 X165.990 Y60.067
G01 X165.483 Y59.355
G01 X164.943 Y58.659
G01 X164.370 Y57.979
G01 X163.797 Y57.299
G01 X163.190 Y56.636
G01 X162.549 Y55.992
G01 X161.908 Y55.348
G01 X161.233 Y54.723
G01 X160.523 Y54.120
G01 X159.813 Y53.516
G01 X159.067 Y52.934
G01 X158.286 Y52.375
G01 X157.504 Y51.816
G01 X156.687 Y51.280
G01 X155.832 Y50.770
G01 X154.978 Y50.260
G01 X154.086 Y49.776
G01 X153.157 Y49.320
G01 X152.228 Y48.863
G01 X151.261 Y48.434
G01 X150.256 Y48.036
G01 X149.250 Y47.637
G01 X148.206 Y47.268
G01 X147.122 Y46.932
G01 X146.039 Y46.595
G01 X144.916 Y46.291
G01 X143.752 Y46.021
G01 X142.588 Y45.751
G01 X141.384 Y45.515
G01 X140.139 Y45.316
G01 X138.894 Y45.117
G01 X137.607 Y44.954
G01 X136.279 Y44.830
G01 X134.950 Y44.706
G01 X133.579 Y44.621
G01 X132.165 Y44.577
G01 X131.458 Y44.555
G01 X130.740 Y44.543
G01 X130.012 Y44.541
G01 X129.283 Y44.540
G01 X128.544 Y44.549
G01 X127.794 Y44.569
G01 X127.043 Y44.589
G01 X126.282 Y44.619
G01 X125.509 Y44.661
G01 X124.737 Y44.703
G01 X123.954 Y44.756
G01 X123.159 Y44.820
G01 X122.364 Y44.884
G01 X121.558 Y44.959
G01 X120.741 Y45.046
G01 X119.924 Y45.133
G01 X119.095 Y45.232
G01 X118.255 Y45.342
G01 X117.415 Y45.453
G01 X116.564 Y45.575
G01 X115.701 Y45.710
G01 X114.838 Y45.844
G01 X113.964 Y45.991
G01 X113.078 Y46.150
G01 X112.192 Y46.309
G01 X111.295 Y46.480
G01 X110.385 Y46.664
G01 X109.476 Y46.848
G01 X108.555 Y47.045
G01 X107.622 Y47.255
G01 X106.689 Y47.465
G01 X105.744 Y47.687
G01 X104.787 Y47.923
G01 X103.830 Y48.159
G01 X102.862 Y48.409
G01 X101.881 Y48.671
G01 X104.586 Y46.395
G01 X107.291 Y44.120
G01 X109.996 Y41.844
G01 X112.702 Y39.568
G01 X113.671 Y39.444
G01 X114.626 Y39.331
G01 X115.569 Y39.229
G01 X116.512 Y39.127
G01 X117.442 Y39.037
G01 X118.359 Y38.957
G01 X119.276 Y38.877
G01 X120.179 Y38.808
G01 X121.071 Y38.750
G01 X121.962 Y38.692
G01 X122.840 Y38.644
G01 X123.706 Y38.607
G01 X124.572 Y38.570
G01 X125.425 Y38.543
G01 X126.266 Y38.526
G01 X127.107 Y38.509
G01 X127.935 Y38.503
G01 X128.751 Y38.506
G01 X129.566 Y38.509
G01 X130.370 Y38.522
G01 X131.161 Y38.545
G01 X131.953 Y38.568
G01 X132.732 Y38.601
G01 X133.499 Y38.643
G01 X134.266 Y38.684
G01 X135.021 Y38.736
G01 X135.764 Y38.796
G01 X136.507 Y38.857
G01 X137.238 Y38.926
G01 X137.957 Y39.004
G01 X138.676 Y39.083
G01 X139.384 Y39.170
G01 X140.080 Y39.266
G01 X140.775 Y39.362
G01 X141.459 Y39.467
G01 X142.132 Y39.580
G01 X143.477 Y39.806
G01 X144.777 Y40.066
G01 X146.031 Y40.358
G01 X147.285 Y40.649
G01 X148.494 Y40.972
G01 X149.659 Y41.325
G01 X150.825 Y41.677
G01 X151.946 Y42.060
G01 X153.025 Y42.470
G01 X154.103 Y42.880
G01 X155.139 Y43.317
G01 X156.133 Y43.781
G01 X157.127 Y44.244
G01 X158.080 Y44.733
G01 X158.992 Y45.246
G01 X159.904 Y45.759
G01 X160.775 Y46.295
G01 X161.607 Y46.854
G01 X162.438 Y47.412
G01 X163.231 Y47.992
G01 X163.985 Y48.591
G01 X164.739 Y49.191
G01 X165.454 Y49.811
G01 X166.132 Y50.448
G01 X166.811 Y51.085
G01 X167.452 Y51.740
G01 X168.057 Y52.411
G01 X168.661 Y53.082
G01 X169.230 Y53.768
G01 X169.764 Y54.468
G01 X170.297 Y55.169
G01 X170.796 Y55.883
G01 X171.260 Y56.609
G01 X171.725 Y57.335
G01 X172.155 Y58.073
G01 X172.553 Y58.820
G01 X172.951 Y59.568
G01 X173.316 Y60.325
G01 X173.649 Y61.091
G01 X173.982 Y61.856
G01 X174.283 Y62.629
G01 X174.554 Y63.408
G01 X174.824 Y64.187
G01 X175.064 Y64.972
G01 X175.275 Y65.761
G01 X175.485 Y66.550
G01 X175.666 Y67.343
G01 X175.971 Y68.932
G01 X176.095 Y69.729
G01 X176.191 Y70.525
G01 X176.288 Y71.322
G01 X176.357 Y72.118
G01 X176.400 Y72.913
G01 X176.443 Y73.707
G01 X176.460 Y74.499
G01 X176.451 Y75.288
G01 X176.443 Y76.076
G01 X176.409 Y76.860
G01 X176.352 Y77.639
G01 X176.294 Y78.417
G01 X176.212 Y79.189
G01 X176.107 Y79.954
G01 X176.003 Y80.718
G01 X175.875 Y81.474
G01 X175.726 Y82.220
G01 X175.576 Y82.967
G01 X175.405 Y83.703
G01 X175.213 Y84.428
G01 X175.021 Y85.152
G01 X174.808 Y85.864
G01 X174.576 Y86.563
G01 X174.343 Y87.261
G01 X174.091 Y87.946
G01 X173.821 Y88.615
G01 X173.550 Y89.283
G01 X173.261 Y89.936
G01 X172.954 Y90.571
G01 X175.207 Y89.129
G01 X175.482 Y88.964
G01 X176.222 Y87.824
G01 X176.904 Y86.607
G01 X177.518 Y85.326
G01 X177.825 Y84.685
G01 X178.115 Y84.029
G01 X178.387 Y83.359
G01 X178.658 Y82.688
G01 X178.911 Y82.004
G01 X179.145 Y81.307
G01 X179.378 Y80.610
G01 X179.592 Y79.900
G01 X179.785 Y79.180
G01 X179.978 Y78.460
G01 X180.150 Y77.730
G01 X180.300 Y76.990
G01 X180.450 Y76.251
G01 X180.577 Y75.502
G01 X180.681 Y74.747
G01 X180.785 Y73.992
G01 X180.866 Y73.229
G01 X180.921 Y72.461
G01 X180.977 Y71.693
G01 X181.008 Y70.920
G01 X181.013 Y70.143
G01 X181.017 Y69.367
G01 X180.996 Y68.586
G01 X180.947 Y67.804
G01 X180.899 Y67.022
G01 X180.822 Y66.238
G01 X180.613 Y64.670
G01 X180.479 Y63.886
G01 X180.316 Y63.104
G01 X180.152 Y62.321
G01 X179.958 Y61.541
G01 X179.734 Y60.763
G01 X179.509 Y59.986
G01 X179.253 Y59.212
G01 X178.964 Y58.444
G01 X178.675 Y57.675
G01 X178.354 Y56.912
G01 X177.999 Y56.156
G01 X177.644 Y55.399
G01 X177.255 Y54.650
G01 X176.830 Y53.909
G01 X176.406 Y53.169
G01 X175.947 Y52.437
G01 X175.451 Y51.715
G01 X174.955 Y50.994
G01 X174.423 Y50.283
G01 X173.853 Y49.585
G01 X173.283 Y48.886
G01 X172.675 Y48.200
G01 X172.029 Y47.527
G01 X171.382 Y46.855
G01 X170.696 Y46.196
G01 X169.970 Y45.554
G01 X169.244 Y44.911
G01 X168.477 Y44.285
G01 X167.669 Y43.675
G01 X166.861 Y43.066
G01 X166.011 Y42.475
G01 X165.118 Y41.902
G01 X164.226 Y41.330
G01 X163.290 Y40.777
G01 X162.310 Y40.245
G01 X161.330 Y39.713
G01 X160.306 Y39.202
G01 X159.237 Y38.713
G01 X158.167 Y38.225
G01 X157.052 Y37.760
G01 X155.890 Y37.319
G01 X154.728 Y36.878
G01 X153.519 Y36.462
G01 X152.263 Y36.072
G01 X151.006 Y35.683
G01 X149.701 Y35.319
G01 X148.347 Y34.984
G01 X147.669 Y34.816
G01 X146.980 Y34.655
G01 X146.278 Y34.502
G01 X145.576 Y34.348
G01 X144.861 Y34.202
G01 X144.134 Y34.063
G01 X143.407 Y33.925
G01 X142.667 Y33.793
G01 X141.914 Y33.670
G01 X141.162 Y33.546
G01 X140.396 Y33.430
G01 X139.618 Y33.322
G01 X138.839 Y33.214
G01 X138.048 Y33.114
G01 X137.243 Y33.022
G01 X136.438 Y32.930
G01 X135.621 Y32.846
G01 X134.789 Y32.771
G01 X133.958 Y32.695
G01 X133.114 Y32.628
G01 X132.256 Y32.570
G01 X131.398 Y32.511
G01 X130.526 Y32.461
G01 X129.642 Y32.420
G01 X128.756 Y32.379
G01 X127.858 Y32.346
G01 X126.945 Y32.323
G01 X126.033 Y32.299
G01 X125.106 Y32.285
G01 X124.166 Y32.279
G01 X127.127 Y30.907
G01 X130.088 Y29.533
G01 X133.049 Y28.160
G01 X136.010 Y26.788
G01 X136.907 Y26.912
G01 X137.789 Y27.043
G01 X138.657 Y27.181
G01 X139.525 Y27.319
G01 X140.378 Y27.465
G01 X141.218 Y27.616
G01 X142.058 Y27.768
G01 X142.883 Y27.927
G01 X143.695 Y28.092
G01 X144.506 Y28.257
G01 X145.304 Y28.428
G01 X146.088 Y28.606
G01 X146.872 Y28.784
G01 X147.642 Y28.968
G01 X148.399 Y29.159
G01 X149.156 Y29.349
G01 X149.899 Y29.546
G01 X150.629 Y29.748
G01 X151.359 Y29.951
G01 X152.075 Y30.159
G01 X152.778 Y30.373
G01 X153.482 Y30.587
G01 X154.172 Y30.807
G01 X154.849 Y31.033
G01 X156.203 Y31.484
G01 X157.505 Y31.957
G01 X158.757 Y32.451
G01 X160.008 Y32.945
G01 X161.210 Y33.459
G01 X162.361 Y33.993
G01 X163.513 Y34.527
G01 X164.616 Y35.080
G01 X165.672 Y35.651
G01 X166.727 Y36.222
G01 X167.734 Y36.810
G01 X168.696 Y37.415
G01 X169.657 Y38.019
G01 X170.572 Y38.640
G01 X171.443 Y39.276
G01 X172.313 Y39.911
G01 X173.139 Y40.561
G01 X173.921 Y41.224
G01 X174.704 Y41.887
G01 X175.443 Y42.563
G01 X176.140 Y43.251
G01 X176.837 Y43.939
G01 X177.493 Y44.638
G01 X178.107 Y45.348
G01 X178.722 Y46.057
G01 X179.297 Y46.776
G01 X179.832 Y47.504
G01 X180.368 Y48.232
G01 X180.865 Y48.969
G01 X181.324 Y49.712
G01 X181.783 Y50.456
G01 X182.204 Y51.206
G01 X182.590 Y51.962
G01 X182.975 Y52.718
G01 X183.325 Y53.479
G01 X183.640 Y54.245
G01 X183.954 Y55.010
G01 X184.235 Y55.779
G01 X184.482 Y56.551
G01 X184.729 Y57.323
G01 X184.942 Y58.097
G01 X185.125 Y58.872
G01 X185.307 Y59.647
G01 X185.457 Y60.423
G01 X185.577 Y61.198
G01 X185.697 Y61.973
G01 X185.787 Y62.748
G01 X185.848 Y63.520
G01 X185.909 Y64.292
G01 X185.942 Y65.063
G01 X185.946 Y65.829
G01 X185.951 Y66.596
G01 X185.929 Y67.359
G01 X185.880 Y68.116
G01 X185.832 Y68.874
G01 X185.757 Y69.626
G01 X185.658 Y70.372
G01 X185.559 Y71.118
G01 X185.436 Y71.857
G01 X185.290 Y72.587
G01 X185.143 Y73.318
G01 X184.974 Y74.040
G01 X184.783 Y74.753
G01 X184.592 Y75.465
G01 X184.379 Y76.168
G01 X184.146 Y76.860
G01 X183.913 Y77.551
G01 X183.661 Y78.231
G01 X183.389 Y78.899
G01 X183.117 Y79.566
G01 X182.827 Y80.220
G01 X182.520 Y80.860
G01 X181.905 Y82.140
G01 X181.220 Y83.363
G01 X180.479 Y84.516
G01 X179.738 Y85.668
G01 X178.939 Y86.751
G01 X178.094 Y87.753
G01 X180.624 Y86.958
G01 X180.735 Y86.927
G01 X181.663 Y86.069
G01 X182.556 Y85.127
G01 X183.404 Y84.111
G01 X184.251 Y83.095
G01 X185.052 Y82.005
G01 X185.795 Y80.851
G01 X186.537 Y79.697
G01 X187.220 Y78.479
G01 X187.832 Y77.207
G01 X188.138 Y76.571
G01 X188.427 Y75.922
G01 X188.696 Y75.260
G01 X188.964 Y74.599
G01 X189.214 Y73.925
G01 X189.442 Y73.241
G01 X189.671 Y72.557
G01 X189.878 Y71.861
G01 X190.063 Y71.157
G01 X190.248 Y70.452
G01 X190.410 Y69.738
G01 X190.549 Y69.015
G01 X190.687 Y68.293
G01 X190.801 Y67.562
G01 X190.890 Y66.824
G01 X190.978 Y66.086
G01 X191.041 Y65.341
G01 X191.076 Y64.591
G01 X191.112 Y63.841
G01 X191.120 Y63.084
G01 X191.100 Y62.324
G01 X191.079 Y61.563
G01 X191.030 Y60.798
G01 X190.950 Y60.031
G01 X190.871 Y59.262
G01 X190.761 Y58.491
G01 X190.619 Y57.718
G01 X190.477 Y56.945
G01 X190.303 Y56.171
G01 X190.096 Y55.395
G01 X189.888 Y54.620
G01 X189.647 Y53.844
G01 X189.371 Y53.069
G01 X189.095 Y52.294
G01 X188.784 Y51.520
G01 X188.436 Y50.747
G01 X188.089 Y49.975
G01 X187.704 Y49.205
G01 X187.282 Y48.438
G01 X186.859 Y47.671
G01 X186.398 Y46.907
G01 X185.898 Y46.148
G01 X185.397 Y45.389
G01 X184.857 Y44.635
G01 X184.275 Y43.886
G01 X183.694 Y43.138
G01 X183.071 Y42.395
G01 X182.405 Y41.660
G01 X181.739 Y40.924
G01 X181.030 Y40.196
G01 X180.277 Y39.476
G01 X179.523 Y38.757
G01 X178.725 Y38.045
G01 X177.882 Y37.344
G01 X177.038 Y36.642
G01 X176.148 Y35.950
G01 X175.210 Y35.270
G01 X174.273 Y34.589
G01 X173.288 Y33.920
G01 X172.253 Y33.262
G01 X171.219 Y32.605
G01 X170.136 Y31.960
G01 X169.002 Y31.329
G01 X167.867 Y30.697
G01 X166.682 Y30.080
G01 X165.445 Y29.477
G01 X164.827 Y29.175
G01 X164.195 Y28.878
G01 X163.550 Y28.584
G01 X162.905 Y28.290
G01 X162.247 Y28.000
G01 X161.575 Y27.714
G01 X160.903 Y27.428
G01 X160.218 Y27.147
G01 X159.519 Y26.869
G01 X158.820 Y26.591
G01 X158.108 Y26.318
G01 X157.381 Y26.049
G01 X156.655 Y25.780
G01 X155.915 Y25.515
G01 X155.160 Y25.255
G01 X154.406 Y24.995
G01 X153.638 Y24.740
G01 X152.855 Y24.489
G01 X152.072 Y24.238
G01 X151.276 Y23.992
G01 X150.464 Y23.750
G01 X149.653 Y23.509
G01 X148.827 Y23.273
G01 X147.987 Y23.041
G01 X150.958 Y22.521
G01 X153.929 Y22.002
G01 X156.900 Y21.482
G01 X159.872 Y20.962
G01 X160.645 Y21.288
G01 X161.405 Y21.617
G01 X162.149 Y21.949
G01 X162.894 Y22.281
G01 X163.625 Y22.616
G01 X164.341 Y22.954
G01 X165.057 Y23.291
G01 X165.759 Y23.632
G01 X166.447 Y23.975
G01 X167.135 Y24.318
G01 X167.810 Y24.664
G01 X168.470 Y25.012
G01 X169.130 Y25.360
G01 X169.777 Y25.711
G01 X170.410 Y26.064
G01 X171.043 Y26.417
G01 X171.663 Y26.772
G01 X172.269 Y27.130
G01 X173.481 Y27.845
G01 X174.640 Y28.569
G01 X175.748 Y29.302
G01 X176.855 Y30.034
G01 X177.911 Y30.774
G01 X178.916 Y31.521
G01 X179.921 Y32.268
G01 X180.877 Y33.022
G01 X181.784 Y33.782
G01 X182.691 Y34.541
G01 X183.549 Y35.307
G01 X184.361 Y36.077
G01 X185.173 Y36.848
G01 X185.938 Y37.623
G01 X186.658 Y38.402
G01 X187.378 Y39.180
G01 X188.053 Y39.963
G01 X188.684 Y40.748
G01 X189.315 Y41.533
G01 X189.903 Y42.321
G01 X190.449 Y43.111
G01 X190.995 Y43.901
G01 X191.499 Y44.692
G01 X191.964 Y45.484
G01 X192.428 Y46.275
G01 X192.851 Y47.068
G01 X193.237 Y47.860
G01 X193.622 Y48.652
G01 X193.969 Y49.443
G01 X194.279 Y50.233
G01 X194.589 Y51.023
G01 X194.862 Y51.812
G01 X195.100 Y52.598
G01 X195.338 Y53.384
G01 X195.541 Y54.167
G01 X195.710 Y54.947
G01 X195.879 Y55.727
G01 X196.015 Y56.503
G01 X196.118 Y57.275
G01 X196.222 Y58.046
G01 X196.294 Y58.813
G01 X196.335 Y59.575
G01 X196.377 Y60.336
G01 X196.388 Y61.092
G01 X196.371 Y61.841
G01 X196.354 Y62.590
G01 X196.308 Y63.332
G01 X196.235 Y64.066
G01 X196.162 Y64.800
G01 X196.062 Y65.527
G01 X195.937 Y66.245
G01 X195.812 Y66.963
G01 X195.661 Y67.672
G01 X195.487 Y68.371
G01 X195.313 Y69.070
G01 X195.116 Y69.759
G01 X194.896 Y70.438
G01 X194.676 Y71.116
G01 X194.434 Y71.783
G01 X194.172 Y72.439
G01 X193.910 Y73.094
G01 X193.628 Y73.738
G01 X193.327 Y74.368
G01 X192.724 Y75.629
G01 X192.047 Y76.838
G01 X191.309 Y77.987
G01 X190.570 Y79.136
G01 X189.770 Y80.224
G01 X188.922 Y81.243
G01 X188.073 Y82.263
G01 X187.176 Y83.213
G01 X186.244 Y84.087
G01 X185.312 Y84.961
G01 X184.345 Y85.757
G01 X183.356 Y86.468
G01 X185.912 Y86.355
G01 X186.943 Y85.790
G01 X187.963 Y85.140
G01 X188.959 Y84.412
G01 X189.954 Y83.684
G01 X190.926 Y82.877
G01 X191.860 Y81.998
G01 X192.794 Y81.119
G01 X193.690 Y80.168
G01 X194.534 Y79.152
G01 X195.379 Y78.135
G01 X196.172 Y77.053
G01 X196.900 Y75.912
G01 X197.628 Y74.771
G01 X198.292 Y73.570
G01 X198.876 Y72.317
G01 X199.460 Y71.064
G01 X199.966 Y69.759
G01 X200.380 Y68.407
G01 X200.586 Y67.731
G01 X200.770 Y67.043
G01 X200.929 Y66.345
G01 X201.088 Y65.647
G01 X201.222 Y64.938
G01 X201.437 Y63.500
G01 X201.518 Y62.771
G01 X201.571 Y62.033
G01 X201.624 Y61.295
G01 X201.649 Y60.548
G01 X201.644 Y59.793
G01 X201.639 Y59.038
G01 X201.603 Y58.274
G01 X201.537 Y57.503
G01 X201.470 Y56.731
G01 X201.372 Y55.952
G01 X201.241 Y55.167
G01 X201.109 Y54.382
G01 X200.944 Y53.589
G01 X200.744 Y52.791
G01 X200.545 Y51.993
G01 X200.310 Y51.189
G01 X200.038 Y50.380
G01 X199.767 Y49.571
G01 X199.458 Y48.757
G01 X199.112 Y47.938
G01 X198.765 Y47.120
G01 X198.380 Y46.297
G01 X197.955 Y45.471
G01 X197.530 Y44.645
G01 X197.065 Y43.815
G01 X196.558 Y42.983
G01 X196.051 Y42.150
G01 X195.502 Y41.315
G01 X194.909 Y40.478
G01 X194.317 Y39.642
G01 X193.681 Y38.803
G01 X193.000 Y37.963
G01 X192.319 Y37.123
G01 X191.592 Y36.282
G01 X190.819 Y35.441
G01 X190.046 Y34.600
G01 X189.225 Y33.759
G01 X188.357 Y32.918
G01 X187.488 Y32.077
G01 X186.570 Y31.237
G01 X185.602 Y30.398
G01 X184.635 Y29.559
G01 X183.617 Y28.722
G01 X182.546 Y27.886
G01 X181.476 Y27.051
G01 X180.354 Y26.218
G01 X179.178 Y25.388
G01 X178.590 Y24.973
G01 X177.989 Y24.558
G01 X177.374 Y24.145
G01 X176.758 Y23.731
G01 X176.130 Y23.319
G01 X175.487 Y22.907
G01 X174.845 Y22.495
G01 X174.188 Y22.085
G01 X173.518 Y21.675
G01 X172.847 Y21.265
G01 X172.163 Y20.856
G01 X171.464 Y20.449
G01 X174.244 Y20.682
G01 X177.025 Y20.915
G01 X179.806 Y21.149
G01 X182.587 Y21.382
G01 X183.204 Y21.857
G01 X183.809 Y22.332
G01 X184.399 Y22.807
G01 X184.989 Y23.281
G01 X185.566 Y23.754
G01 X186.130 Y24.227
G01 X186.693 Y24.700
G01 X187.244 Y25.172
G01 X187.781 Y25.644
G01 X188.318 Y26.115
G01 X188.842 Y26.586
G01 X189.353 Y27.055
G01 X190.375 Y27.994
G01 X191.345 Y28.930
G01 X192.266 Y29.862
G01 X193.186 Y30.794
G01 X194.056 Y31.721
G01 X194.879 Y32.644
G01 X195.701 Y33.567
G01 X196.475 Y34.485
G01 X197.202 Y35.398
G01 X197.930 Y36.311
G01 X198.611 Y37.219
G01 X199.247 Y38.121
G01 X199.883 Y39.023
G01 X200.474 Y39.919
G01 X201.023 Y40.808
G01 X201.571 Y41.698
G01 X202.076 Y42.581
G01 X202.540 Y43.458
G01 X203.004 Y44.334
G01 X203.427 Y45.203
G01 X203.810 Y46.065
G01 X204.193 Y46.927
G01 X204.536 Y47.781
G01 X204.841 Y48.627
G01 X205.147 Y49.473
G01 X205.414 Y50.311
G01 X205.646 Y51.141
G01 X205.877 Y51.970
G01 X206.073 Y52.791
G01 X206.233 Y53.602
G01 X206.394 Y54.413
G01 X206.521 Y55.216
G01 X206.614 Y56.008
G01 X206.708 Y56.800
G01 X206.769 Y57.582
G01 X206.799 Y58.354
G01 X206.829 Y59.126
G01 X206.828 Y59.888
G01 X206.798 Y60.639
G01 X206.768 Y61.389
G01 X206.708 Y62.129
G01 X206.621 Y62.857
G01 X206.534 Y63.585
G01 X206.420 Y64.301
G01 X206.279 Y65.005
G01 X206.139 Y65.710
G01 X205.973 Y66.402
G01 X205.782 Y67.081
G01 X205.402 Y68.440
G01 X204.925 Y69.748
G01 X204.366 Y71.000
G01 X203.806 Y72.253
G01 X203.165 Y73.450
G01 X202.454 Y74.587
G01 X201.743 Y75.724
G01 X200.964 Y76.801
G01 X200.130 Y77.813
G01 X199.295 Y78.825
G01 X198.406 Y79.772
G01 X197.476 Y80.651
G01 X196.546 Y81.529
G01 X195.574 Y82.338
G01 X194.575 Y83.073
G01 X193.577 Y83.808
G01 X192.550 Y84.469
G01 X191.511 Y85.052
G01 X190.471 Y85.635
G01 X189.418 Y86.139
G01 X188.365 Y86.561
G01 X190.681 Y87.056
G01 X191.739 Y86.773
G01 X192.807 Y86.411
G01 X193.871 Y85.972
G01 X194.936 Y85.533
G01 X195.997 Y85.016
G01 X197.041 Y84.425
G01 X198.085 Y83.835
G01 X199.112 Y83.170
G01 X200.109 Y82.433
G01 X201.105 Y81.696
G01 X202.070 Y80.888
G01 X202.990 Y80.012
G01 X203.911 Y79.135
G01 X204.787 Y78.189
G01 X205.605 Y77.178
G01 X206.422 Y76.167
G01 X207.181 Y75.089
G01 X207.868 Y73.949
G01 X208.555 Y72.809
G01 X209.170 Y71.605
G01 X209.699 Y70.342
G01 X210.228 Y69.078
G01 X210.672 Y67.754
G01 X211.015 Y66.373
G01 X211.187 Y65.682
G01 X211.334 Y64.977
G01 X211.454 Y64.258
G01 X211.574 Y63.539
G01 X211.668 Y62.806
G01 X211.733 Y62.059
G01 X211.798 Y61.312
G01 X211.835 Y60.552
G01 X211.842 Y59.778
G01 X211.849 Y59.004
G01 X211.826 Y58.217
G01 X211.771 Y57.417
G01 X211.716 Y56.617
G01 X211.629 Y55.804
G01 X211.509 Y54.979
G01 X211.388 Y54.153
G01 X211.234 Y53.315
G01 X211.045 Y52.465
G01 X210.856 Y51.614
G01 X210.632 Y50.752
G01 X210.371 Y49.877
G01 X210.110 Y49.002
G01 X209.812 Y48.116
G01 X209.475 Y47.218
G01 X209.138 Y46.320
G01 X208.763 Y45.410
G01 X208.347 Y44.489
G01 X207.931 Y43.569
G01 X207.475 Y42.637
G01 X206.976 Y41.694
G01 X206.478 Y40.751
G01 X205.938 Y39.797
G01 X205.354 Y38.833
G01 X204.769 Y37.869
G01 X204.141 Y36.894
G01 X203.468 Y35.909
G01 X202.794 Y34.924
G01 X202.075 Y33.930
G01 X201.309 Y32.925
G01 X200.542 Y31.920
G01 X199.729 Y30.905
G01 X198.866 Y29.881
G01 X198.004 Y28.857
G01 X197.092 Y27.824
G01 X196.130 Y26.781
G01 X195.649 Y26.260
G01 X195.155 Y25.736
G01 X194.648 Y25.210
G01 X194.141 Y24.685
G01 X193.622 Y24.157
G01 X193.089 Y23.626
G01 X195.528 Y24.479
G01 X197.968 Y25.333
G01 X200.407 Y26.186
G01 X202.846 Y27.039
G01 X203.291 Y27.610
G01 X203.724 Y28.179
G01 X204.145 Y28.743
G01 X204.566 Y29.308
G01 X204.975 Y29.869
G01 X205.372 Y30.426
G01 X206.166 Y31.540
G01 X206.912 Y32.640
G01 X207.613 Y33.725
G01 X208.314 Y34.811
G01 X208.969 Y35.881
G01 X209.580 Y36.937
G01 X210.192 Y37.992
G01 X210.759 Y39.033
G01 X211.284 Y40.058
G01 X211.808 Y41.084
G01 X212.291 Y42.095
G01 X212.733 Y43.090
G01 X213.174 Y44.086
G01 X213.576 Y45.066
G01 X213.938 Y46.031
G01 X214.300 Y46.996
G01 X214.623 Y47.945
G01 X214.909 Y48.880
G01 X215.195 Y49.814
G01 X215.444 Y50.733
G01 X215.657 Y51.636
G01 X215.870 Y52.539
G01 X216.047 Y53.427
G01 X216.191 Y54.299
G01 X216.335 Y55.170
G01 X216.444 Y56.027
G01 X216.522 Y56.867
G01 X216.599 Y57.707
G01 X216.645 Y58.532
G01 X216.660 Y59.340
G01 X216.674 Y60.149
G01 X216.658 Y60.941
G01 X216.614 Y61.717
G01 X216.569 Y62.494
G01 X216.496 Y63.254
G01 X216.395 Y63.998
G01 X216.295 Y64.742
G01 X216.167 Y65.469
G01 X216.014 Y66.180
G01 X215.861 Y66.891
G01 X215.682 Y67.586
G01 X215.479 Y68.264
G01 X215.277 Y68.943
G01 X215.051 Y69.604
G01 X214.803 Y70.249
G01 X214.306 Y71.539
G01 X213.721 Y72.762
G01 X213.061 Y73.917
G01 X212.401 Y75.072
G01 X211.667 Y76.160
G01 X210.871 Y77.178
G01 X210.075 Y78.196
G01 X209.218 Y79.145
G01 X208.312 Y80.024
G01 X207.407 Y80.903
G01 X206.454 Y81.712
G01 X205.467 Y82.450
G01 X204.479 Y83.187
G01 X203.458 Y83.853
G01 X202.415 Y84.447
G01 X201.372 Y85.041
G01 X200.309 Y85.563
G01 X199.238 Y86.011
G01 X198.167 Y86.459
G01 X197.089 Y86.833
G01 X196.017 Y87.133
G01 X194.945 Y87.433
G01 X193.879 Y87.659
G01 X192.833 Y87.808
G01 X194.798 Y88.785
G01 X195.818 Y88.760
G01 X196.866 Y88.665
G01 X197.930 Y88.498
G01 X198.993 Y88.332
G01 X200.071 Y88.095
G01 X201.152 Y87.786
G01 X202.232 Y87.477
G01 X203.314 Y87.096
G01 X204.385 Y86.644
G01 X205.455 Y86.191
G01 X206.515 Y85.667
G01 X207.550 Y85.070
G01 X208.586 Y84.472
G01 X209.597 Y83.803
G01 X210.570 Y83.060
G01 X211.544 Y82.318
G01 X212.480 Y81.503
G01 X213.366 Y80.614
G01 X214.252 Y79.725
G01 X215.088 Y78.763
G01 X215.860 Y77.727
G01 X216.632 Y76.691
G01 X217.341 Y75.581
G01 X217.973 Y74.397
G01 X218.605 Y73.213
G01 X219.160 Y71.954
G01 X219.626 Y70.621
G01 X219.859 Y69.954
G01 X220.070 Y69.269
G01 X220.256 Y68.565
G01 X220.443 Y67.860
G01 X220.605 Y67.138
G01 X220.742 Y66.396
G01 X220.879 Y65.654
G01 X220.990 Y64.894
G01 X221.074 Y64.114
G01 X221.158 Y63.335
G01 X221.214 Y62.537
G01 X221.242 Y61.719
G01 X221.270 Y60.902
G01 X221.268 Y60.066
G01 X221.236 Y59.211
G01 X221.204 Y58.356
G01 X221.142 Y57.482
G01 X221.047 Y56.589
G01 X220.953 Y55.696
G01 X220.826 Y54.784
G01 X220.665 Y53.852
G01 X220.504 Y52.921
G01 X220.310 Y51.971
G01 X220.080 Y51.001
G01 X219.850 Y50.032
G01 X219.584 Y49.043
G01 X219.282 Y48.035
G01 X218.979 Y47.027
G01 X218.639 Y46.000
G01 X218.261 Y44.954
G01 X217.883 Y43.907
G01 X217.465 Y42.841
G01 X217.008 Y41.756
G01 X216.550 Y40.671
G01 X216.052 Y39.567
G01 X215.513 Y38.443
G01 X214.973 Y37.319
G01 X214.391 Y36.176
G01 X213.765 Y35.014
G01 X213.140 Y33.851
G01 X212.471 Y32.669
G01 X211.756 Y31.467
G01 X213.753 Y32.790
G01 X215.749 Y34.113
G01 X217.746 Y35.436
G01 X219.743 Y36.759
G01 X220.283 Y37.995
G01 X220.782 Y39.207
G01 X221.242 Y40.395
G01 X221.702 Y41.583
G01 X222.122 Y42.747
G01 X222.505 Y43.889
G01 X222.887 Y45.030
G01 X223.231 Y46.148
G01 X223.539 Y47.242
G01 X223.847 Y48.337
G01 X224.119 Y49.409
G01 X224.355 Y50.457
G01 X224.592 Y51.506
G01 X224.794 Y52.531
G01 X224.963 Y53.534
G01 X225.131 Y54.538
G01 X225.267 Y55.518
G01 X225.370 Y56.476
G01 X225.474 Y57.434
G01 X225.546 Y58.369
G01 X225.588 Y59.283
G01 X225.629 Y60.196
G01 X225.641 Y61.088
G01 X225.624 Y61.957
G01 X225.607 Y62.826
G01 X225.562 Y63.674
G01 X225.489 Y64.499
G01 X225.416 Y65.325
G01 X225.317 Y66.129
G01 X225.192 Y66.911
G01 X225.067 Y67.694
G01 X224.916 Y68.455
G01 X224.742 Y69.195
G01 X224.567 Y69.934
G01 X224.369 Y70.653
G01 X224.148 Y71.351
G01 X223.927 Y72.048
G01 X223.684 Y72.725
G01 X223.420 Y73.381
G01 X223.156 Y74.037
G01 X222.872 Y74.672
G01 X222.568 Y75.287
G01 X221.960 Y76.516
G01 X221.275 Y77.663
G01 X220.526 Y78.731
G01 X219.777 Y79.798
G01 X218.963 Y80.785
G01 X218.097 Y81.694
G01 X217.232 Y82.603
G01 X216.314 Y83.434
G01 X215.357 Y84.188
G01 X214.400 Y84.943
G01 X213.403 Y85.622
G01 X212.380 Y86.225
G01 X211.356 Y86.830
G01 X210.305 Y87.359
G01 X209.240 Y87.817
G01 X208.175 Y88.274
G01 X207.095 Y88.659
G01 X206.014 Y88.973
G01 X204.932 Y89.288
G01 X203.848 Y89.532
G01 X202.775 Y89.707
G01 X201.701 Y89.882
G01 X200.638 Y89.989
G01 X199.598 Y90.029
G01 X198.558 Y90.069
G01 X197.541 Y90.043
G01 X196.559 Y89.952
G01 X198.105 Y91.275
G01 X199.037 Y91.472
G01 X200.011 Y91.611
G01 X201.015 Y91.689
G01 X202.018 Y91.766
G01 X203.052 Y91.782
G01 X204.105 Y91.734
G01 X205.157 Y91.685
G01 X206.227 Y91.572
G01 X207.304 Y91.390
G01 X208.381 Y91.209
G01 X209.464 Y90.960
G01 X210.542 Y90.639
G01 X211.620 Y90.319
G01 X212.693 Y89.927
G01 X213.748 Y89.461
G01 X214.804 Y88.995
G01 X215.843 Y88.455
G01 X216.853 Y87.837
G01 X217.863 Y87.218
G01 X218.844 Y86.523
G01 X219.784 Y85.746
G01 X220.725 Y84.969
G01 X221.625 Y84.112
G01 X222.472 Y83.170
G01 X223.320 Y82.228
G01 X224.115 Y81.203
G01 X224.846 Y80.089
G01 X225.578 Y78.976
G01 X226.245 Y77.776
G01 X226.836 Y76.484
G01 X227.132 Y75.839
G01 X227.409 Y75.171
G01 X227.665 Y74.479
G01 X227.921 Y73.788
G01 X228.157 Y73.074
G01 X228.371 Y72.336
G01 X228.585 Y71.598
G01 X228.777 Y70.837
G01 X228.946 Y70.052
G01 X229.115 Y69.267
G01 X229.260 Y68.458
G01 X229.381 Y67.624
G01 X229.501 Y66.791
G01 X229.597 Y65.934
G01 X229.666 Y65.051
G01 X229.736 Y64.169
G01 X229.779 Y63.262
G01 X229.794 Y62.331
G01 X229.809 Y61.399
G01 X229.797 Y60.442
G01 X229.755 Y59.459
G01 X229.713 Y58.477
G01 X229.642 Y57.469
G01 X229.541 Y56.435
G01 X229.439 Y55.401
G01 X229.307 Y54.341
G01 X229.142 Y53.255
G01 X228.978 Y52.169
G01 X228.781 Y51.057
G01 X228.550 Y49.918
G01 X228.320 Y48.779
G01 X228.056 Y47.613
G01 X227.757 Y46.420
G01 X227.458 Y45.227
G01 X227.123 Y44.007
G01 X226.752 Y42.760
G01 X228.252 Y44.400
G01 X229.752 Y46.040
G01 X231.252 Y47.679
G01 X232.752 Y49.319
G01 X232.960 Y50.558
G01 X233.137 Y51.766
G01 X233.283 Y52.944
G01 X233.429 Y54.123
G01 X233.544 Y55.271
G01 X233.630 Y56.390
G01 X233.717 Y57.509
G01 X233.774 Y58.599
G01 X233.803 Y59.660
G01 X233.832 Y60.721
G01 X233.833 Y61.753
G01 X233.808 Y62.757
G01 X233.783 Y63.761
G01 X233.731 Y64.736
G01 X233.655 Y65.684
G01 X233.578 Y66.632
G01 X233.476 Y67.552
G01 X233.351 Y68.445
G01 X233.225 Y69.338
G01 X233.076 Y70.204
G01 X232.904 Y71.043
G01 X232.733 Y71.883
G01 X232.538 Y72.695
G01 X232.324 Y73.482
G01 X232.109 Y74.268
G01 X231.873 Y75.029
G01 X231.617 Y75.764
G01 X231.361 Y76.499
G01 X231.086 Y77.209
G01 X230.792 Y77.893
G01 X230.499 Y78.578
G01 X230.187 Y79.238
G01 X229.858 Y79.873
G01 X229.530 Y80.508
G01 X229.184 Y81.119
G01 X228.823 Y81.706
G01 X228.100 Y82.880
G01 X227.316 Y83.959
G01 X226.480 Y84.946
G01 X225.644 Y85.934
G01 X224.757 Y86.831
G01 X223.830 Y87.641
G01 X222.903 Y88.451
G01 X221.935 Y89.175
G01 X220.938 Y89.816
G01 X219.941 Y90.458
G01 X218.915 Y91.017
G01 X217.870 Y91.498
G01 X216.825 Y91.980
G01 X215.762 Y92.384
G01 X214.691 Y92.714
G01 X213.620 Y93.044
G01 X212.542 Y93.302
G01 X211.466 Y93.490
G01 X210.391 Y93.678
G01 X209.320 Y93.797
G01 X208.262 Y93.852
G01 X207.205 Y93.907
G01 X206.162 Y93.897
G01 X205.144 Y93.827
G01 X204.126 Y93.757
G01 X203.134 Y93.627
G01 X202.177 Y93.441
G01 X201.221 Y93.255
G01 X200.301 Y93.014
G01 X199.428 Y92.721
G01 X200.525 Y94.259
G01 X201.332 Y94.636
G01 X202.189 Y94.969
G01 X203.089 Y95.253
G01 X203.988 Y95.536
G01 X204.929 Y95.770
G01 X205.901 Y95.950
G01 X206.873 Y96.129
G01 X207.876 Y96.254
G01 X208.901 Y96.318
G01 X209.926 Y96.382
G01 X210.972 Y96.385
G01 X212.030 Y96.324
G01 X213.087 Y96.261
G01 X214.156 Y96.134
G01 X215.226 Y95.935
G01 X216.297 Y95.736
G01 X217.368 Y95.466
G01 X218.431 Y95.119
G01 X219.494 Y94.772
G01 X220.549 Y94.349
G01 X221.584 Y93.843
G01 X222.620 Y93.338
G01 X223.637 Y92.750
G01 X224.626 Y92.075
G01 X225.614 Y91.400
G01 X226.574 Y90.638
G01 X227.495 Y89.782
G01 X228.416 Y88.927
G01 X229.299 Y87.978
G01 X230.133 Y86.931
G01 X230.967 Y85.885
G01 X231.752 Y84.739
G01 X232.478 Y83.490
G01 X232.842 Y82.866
G01 X233.190 Y82.215
G01 X233.523 Y81.538
G01 X233.856 Y80.861
G01 X234.173 Y80.158
G01 X234.472 Y79.427
G01 X234.772 Y78.695
G01 X235.054 Y77.937
G01 X235.318 Y77.151
G01 X235.582 Y76.365
G01 X235.828 Y75.550
G01 X236.054 Y74.707
G01 X236.280 Y73.864
G01 X236.486 Y72.993
G01 X236.672 Y72.092
G01 X236.857 Y71.191
G01 X237.022 Y70.260
G01 X237.164 Y69.300
G01 X237.306 Y68.340
G01 X237.427 Y67.349
G01 X237.523 Y66.328
G01 X237.620 Y65.307
G01 X237.693 Y64.255
G01 X237.742 Y63.172
G01 X237.791 Y62.089
G01 X237.815 Y60.974
G01 X237.813 Y59.827
G01 X237.811 Y58.681
G01 X237.783 Y57.502
G01 X237.728 Y56.290
G01 X239.707 Y59.913
G01 X241.686 Y63.535
G01 X241.598 Y64.703
G01 X241.488 Y65.836
G01 X241.356 Y66.936
G01 X241.225 Y68.036
G01 X241.072 Y69.102
G01 X240.899 Y70.136
G01 X240.726 Y71.169
G01 X240.533 Y72.170
G01 X240.321 Y73.138
G01 X240.109 Y74.107
G01 X239.878 Y75.043
G01 X239.629 Y75.949
G01 X239.380 Y76.854
G01 X239.114 Y77.728
G01 X238.830 Y78.572
G01 X238.547 Y79.415
G01 X238.246 Y80.229
G01 X237.930 Y81.012
G01 X237.614 Y81.796
G01 X237.283 Y82.550
G01 X236.937 Y83.275
G01 X236.591 Y84.000
G01 X236.230 Y84.696
G01 X235.856 Y85.364
G01 X235.482 Y86.032
G01 X235.095 Y86.672
G01 X234.695 Y87.285
G01 X234.296 Y87.898
G01 X233.884 Y88.483
G01 X233.461 Y89.042
G01 X232.615 Y90.160
G01 X231.725 Y91.172
G01 X230.799 Y92.084
G01 X229.873 Y92.996
G01 X228.912 Y93.809
G01 X227.924 Y94.528
G01 X226.937 Y95.247
G01 X225.923 Y95.873
G01 X224.891 Y96.412
G01 X223.859 Y96.950
G01 X222.810 Y97.402
G01 X221.753 Y97.773
G01 X220.695 Y98.144
G01 X219.629 Y98.434
G01 X218.564 Y98.649
G01 X217.499 Y98.865
G01 X216.434 Y99.007
G01 X215.379 Y99.080
G01 X214.324 Y99.153
G01 X213.278 Y99.158
G01 X212.251 Y99.101
G01 X211.224 Y99.044
G01 X210.216 Y98.925
G01 X209.235 Y98.751
G01 X208.254 Y98.577
G01 X207.301 Y98.348
G01 X206.385 Y98.069
G01 X205.468 Y97.790
G01 X204.588 Y97.462
G01 X203.754 Y97.091
G01 X202.920 Y96.720
G01 X202.132 Y96.306
G01 X201.398 Y95.856
G01 X202.050 Y97.485
G01 X202.707 Y97.997
G01 X203.421 Y98.481
G01 X204.183 Y98.928
G01 X204.946 Y99.375
G01 X205.758 Y99.786
G01 X206.610 Y100.154
G01 X207.463 Y100.522
G01 X208.357 Y100.846
G01 X209.283 Y101.121
G01 X210.210 Y101.395
G01 X211.170 Y101.620
G01 X212.154 Y101.787
G01 X213.139 Y101.954
G01 X214.149 Y102.064
G01 X215.176 Y102.110
G01 X216.203 Y102.155
G01 X217.247 Y102.137
G01 X218.300 Y102.047
G01 X219.353 Y101.957
G01 X220.415 Y101.796
G01 X221.478 Y101.556
G01 X222.541 Y101.317
G01 X223.606 Y100.999
G01 X224.663 Y100.596
G01 X225.721 Y100.193
G01 X226.771 Y99.704
G01 X227.807 Y99.123
G01 X228.843 Y98.542
G01 X229.864 Y97.869
G01 X230.863 Y97.096
G01 X231.861 Y96.323
G01 X232.836 Y95.451
G01 X234.253 Y93.982
G01 X234.718 Y93.466
G01 X235.174 Y92.923
G01 X235.630 Y92.379
G01 X236.077 Y91.808
G01 X236.514 Y91.209
G01 X236.952 Y90.609
G01 X237.380 Y89.981
G01 X237.797 Y89.324
G01 X238.214 Y88.667
G01 X238.621 Y87.981
G01 X239.016 Y87.265
G01 X239.411 Y86.548
G01 X239.794 Y85.801
G01 X240.164 Y85.024
G01 X240.535 Y84.246
G01 X240.892 Y83.437
G01 X241.236 Y82.597
G01 X241.580 Y81.756
G01 X241.911 Y80.884
G01 X242.227 Y79.979
G01 X242.542 Y79.073
G01 X242.844 Y78.135
G01 X243.129 Y77.163
G01 X243.414 Y76.192
G01 X243.684 Y75.186
G01 X243.937 Y74.146
G01 X244.190 Y73.106
G01 X244.427 Y72.032
G01 X244.645 Y70.922
G01 X245.643 Y74.627
G01 X246.640 Y78.332
G01 X246.303 Y79.372
G01 X245.954 Y80.375
G01 X245.592 Y81.344
G01 X245.230 Y82.313
G01 X244.855 Y83.247
G01 X244.470 Y84.148
G01 X244.084 Y85.048
G01 X243.688 Y85.914
G01 X243.280 Y86.747
G01 X242.873 Y87.580
G01 X242.455 Y88.380
G01 X242.028 Y89.148
G01 X241.600 Y89.916
G01 X241.163 Y90.651
G01 X240.718 Y91.356
G01 X240.272 Y92.061
G01 X239.817 Y92.735
G01 X239.355 Y93.378
G01 X238.893 Y94.021
G01 X238.422 Y94.635
G01 X237.945 Y95.219
G01 X237.468 Y95.803
G01 X236.983 Y96.358
G01 X236.493 Y96.884
G01 X235.512 Y97.937
G01 X234.507 Y98.877
G01 X233.483 Y99.712
G01 X232.460 Y100.546
G01 X231.419 Y101.275
G01 X230.368 Y101.907
G01 X229.316 Y102.538
G01 X228.254 Y103.071
G01 X227.187 Y103.515
G01 X226.121 Y103.958
G01 X225.051 Y104.311
G01 X223.984 Y104.581
G01 X222.916 Y104.852
G01 X221.852 Y105.040
G01 X220.798 Y105.153
G01 X219.744 Y105.265
G01 X218.699 Y105.303
G01 X217.672 Y105.274
G01 X216.645 Y105.245
G01 X215.634 Y105.148
G01 X214.647 Y104.991
G01 X213.660 Y104.835
G01 X212.697 Y104.619
G01 X211.765 Y104.351
G01 X210.832 Y104.082
G01 X209.931 Y103.762
G01 X209.067 Y103.397
G01 X208.202 Y103.032
G01 X207.376 Y102.623
G01 X206.594 Y102.177
G01 X205.812 Y101.731
G01 X205.074 Y101.248
G01 X204.388 Y100.736
G01 X203.702 Y100.224
G01 X203.067 Y99.682
G01 X202.490 Y99.119
G01 X202.727 Y100.734
G01 X203.222 Y101.337
G01 X203.776 Y101.925
G01 X204.382 Y102.492
G01 X204.988 Y103.058
G01 X205.647 Y103.602
G01 X206.354 Y104.115
G01 X207.060 Y104.629
G01 X207.814 Y105.112
G01 X208.608 Y105.556
G01 X209.403 Y106.001
G01 X210.239 Y106.407
G01 X211.111 Y106.766
G01 X211.982 Y107.126
G01 X212.889 Y107.438
G01 X213.825 Y107.697
G01 X214.762 Y107.955
G01 X215.728 Y108.158
G01 X216.718 Y108.299
G01 X217.708 Y108.440
G01 X218.721 Y108.519
G01 X219.753 Y108.526
G01 X220.785 Y108.534
G01 X221.834 Y108.470
G01 X222.896 Y108.328
G01 X223.957 Y108.186
G01 X225.031 Y107.965
G01 X226.111 Y107.657
G01 X227.191 Y107.349
G01 X228.278 Y106.955
G01 X229.364 Y106.465
G01 X230.451 Y105.975
G01 X231.538 Y105.391
G01 X232.620 Y104.703
G01 X233.702 Y104.015
G01 X234.779 Y103.225
G01 X235.844 Y102.323
G01 X236.377 Y101.872
G01 X236.906 Y101.393
G01 X237.433 Y100.886
G01 X237.959 Y100.379
G01 X238.482 Y99.842
G01 X239.000 Y99.276
G01 X239.519 Y98.710
G01 X240.033 Y98.115
G01 X240.542 Y97.488
G01 X241.052 Y96.861
G01 X241.556 Y96.204
G01 X242.054 Y95.515
G01 X242.553 Y94.826
G01 X243.046 Y94.105
G01 X243.532 Y93.351
G01 X244.019 Y92.597
G01 X244.499 Y91.811
G01 X244.971 Y90.990
G01 X245.444 Y90.170
G01 X245.910 Y89.315
G01 X246.367 Y88.426
G01 X246.825 Y87.537
G01 X247.275 Y86.613
G01 X247.716 Y85.654
G01 X247.822 Y89.222
G01 X247.928 Y92.790
G01 X247.397 Y93.661
G01 X246.861 Y94.498
G01 X246.321 Y95.300
G01 X245.781 Y96.102
G01 X245.237 Y96.870
G01 X244.690 Y97.605
G01 X244.143 Y98.339
G01 X243.593 Y99.041
G01 X243.040 Y99.710
G01 X242.487 Y100.379
G01 X241.932 Y101.016
G01 X241.374 Y101.622
G01 X240.817 Y102.228
G01 X240.257 Y102.803
G01 X239.696 Y103.348
G01 X239.135 Y103.893
G01 X238.573 Y104.408
G01 X238.009 Y104.893
G01 X237.446 Y105.379
G01 X236.882 Y105.836
G01 X236.317 Y106.264
G01 X235.753 Y106.693
G01 X235.188 Y107.094
G01 X234.624 Y107.468
G01 X233.495 Y108.215
G01 X232.367 Y108.855
G01 X231.246 Y109.396
G01 X230.125 Y109.936
G01 X229.009 Y110.377
G01 X227.905 Y110.727
G01 X226.800 Y111.078
G01 X225.707 Y111.337
G01 X224.628 Y111.513
G01 X223.550 Y111.690
G01 X222.488 Y111.784
G01 X221.446 Y111.803
G01 X220.403 Y111.823
G01 X219.382 Y111.769
G01 X218.385 Y111.648
G01 X217.388 Y111.528
G01 X216.417 Y111.341
G01 X215.475 Y111.097
G01 X214.533 Y110.854
G01 X213.621 Y110.552
G01 X212.744 Y110.202
G01 X211.866 Y109.851
G01 X211.024 Y109.452
G01 X210.220 Y109.012
G01 X209.417 Y108.571
G01 X208.653 Y108.090
G01 X207.933 Y107.577
G01 X207.213 Y107.063
G01 X206.538 Y106.517
G01 X205.911 Y105.948
G01 X205.284 Y105.378
G01 X204.706 Y104.784
G01 X204.182 Y104.174
G01 X203.657 Y103.565
G01 X203.187 Y102.940
G01 X202.774 Y102.307
G01 X202.645 Y103.821
G01 X202.975 Y104.473
G01 X203.363 Y105.124
G01 X203.805 Y105.766
G01 X204.246 Y106.409
G01 X204.741 Y107.042
G01 X205.286 Y107.657
G01 X205.831 Y108.273
G01 X206.426 Y108.871
G01 X207.067 Y109.442
G01 X207.708 Y110.014
G01 X208.395 Y110.559
G01 X209.124 Y111.070
G01 X209.854 Y111.581
G01 X210.626 Y112.056
G01 X211.437 Y112.489
G01 X212.247 Y112.921
G01 X213.097 Y113.311
G01 X213.981 Y113.648
G01 X214.866 Y113.985
G01 X215.786 Y114.271
G01 X216.737 Y114.496
G01 X217.688 Y114.721
G01 X218.670 Y114.886
G01 X219.680 Y114.981
G01 X220.690 Y115.077
G01 X221.728 Y115.104
G01 X222.789 Y115.053
G01 X223.851 Y115.002
G01 X224.937 Y114.873
G01 X226.043 Y114.659
G01 X227.149 Y114.444
G01 X228.275 Y114.144
G01 X229.418 Y113.749
G01 X230.560 Y113.353
G01 X231.720 Y112.864
G01 X232.892 Y112.270
G01 X234.064 Y111.677
G01 X235.249 Y110.981
G01 X236.444 Y110.173
G01 X237.041 Y109.769
G01 X237.640 Y109.337
G01 X238.241 Y108.876
G01 X238.843 Y108.415
G01 X239.446 Y107.925
G01 X240.050 Y107.405
G01 X240.655 Y106.885
G01 X241.261 Y106.335
G01 X241.867 Y105.754
G01 X242.474 Y105.173
G01 X243.082 Y104.560
G01 X243.690 Y103.916
G01 X244.298 Y103.271
G01 X244.906 Y102.594
G01 X245.515 Y101.884
G01 X246.124 Y101.174
G01 X246.732 Y100.431
G01 X247.340 Y99.653
G01 X246.680 Y102.911
G01 X246.021 Y106.169
G01 X245.350 Y106.848
G01 X244.683 Y107.495
G01 X244.019 Y108.110
G01 X243.355 Y108.725
G01 X242.695 Y109.307
G01 X242.039 Y109.859
G01 X241.382 Y110.411
G01 X240.730 Y110.932
G01 X240.081 Y111.423
G01 X239.433 Y111.915
G01 X238.789 Y112.376
G01 X238.149 Y112.809
G01 X237.509 Y113.242
G01 X236.874 Y113.646
G01 X236.244 Y114.022
G01 X235.613 Y114.398
G01 X234.988 Y114.747
G01 X234.368 Y115.069
G01 X233.127 Y115.714
G01 X231.907 Y116.252
G01 X230.710 Y116.692
G01 X229.514 Y117.133
G01 X228.341 Y117.475
G01 X227.194 Y117.729
G01 X226.047 Y117.983
G01 X224.926 Y118.148
G01 X223.833 Y118.232
G01 X222.741 Y118.316
G01 X221.678 Y118.320
G01 X220.645 Y118.253
G01 X219.613 Y118.185
G01 X218.613 Y118.045
G01 X217.646 Y117.842
G01 X216.679 Y117.640
G01 X215.747 Y117.374
G01 X214.851 Y117.053
G01 X213.955 Y116.732
G01 X213.096 Y116.357
G01 X212.276 Y115.936
G01 X211.456 Y115.515
G01 X210.676 Y115.048
G01 X209.938 Y114.544
G01 X209.199 Y114.040
G01 X208.503 Y113.498
G01 X207.852 Y112.928
G01 X207.200 Y112.358
G01 X206.594 Y111.759
G01 X206.035 Y111.139
G01 X205.475 Y110.520
G01 X204.963 Y109.881
G01 X204.502 Y109.230
G01 X204.040 Y108.580
G01 X203.628 Y107.918
G01 X203.269 Y107.253
G01 X202.911 Y106.588
G01 X202.604 Y105.920
G01 X202.354 Y105.258
G01 X201.918 Y106.604
G01 X202.091 Y107.268
G01 X202.317 Y107.943
G01 X202.595 Y108.621
G01 X202.872 Y109.299
G01 X203.201 Y109.981
G01 X203.580 Y110.657
G01 X203.958 Y111.332
G01 X204.386 Y112.003
G01 X204.863 Y112.659
G01 X205.339 Y113.315
G01 X205.863 Y113.957
G01 X206.433 Y114.576
G01 X207.003 Y115.196
G01 X207.620 Y115.793
G01 X208.281 Y116.358
G01 X208.942 Y116.924
G01 X209.648 Y117.458
G01 X210.396 Y117.952
G01 X211.145 Y118.447
G01 X211.937 Y118.902
G01 X212.769 Y119.308
G01 X213.602 Y119.714
G01 X214.476 Y120.072
G01 X215.390 Y120.373
G01 X216.303 Y120.674
G01 X217.256 Y120.918
G01 X218.247 Y121.097
G01 X219.238 Y121.275
G01 X220.267 Y121.388
G01 X221.332 Y121.427
G01 X222.397 Y121.466
G01 X223.498 Y121.431
G01 X224.633 Y121.313
G01 X225.769 Y121.195
G01 X226.939 Y120.994
G01 X228.142 Y120.703
G01 X229.345 Y120.411
G01 X230.580 Y120.028
G01 X231.847 Y119.545
G01 X232.481 Y119.304
G01 X233.122 Y119.037
G01 X233.770 Y118.745
G01 X234.419 Y118.453
G01 X235.076 Y118.134
G01 X235.739 Y117.789
G01 X236.403 Y117.443
G01 X237.074 Y117.071
G01 X237.752 Y116.670
G01 X238.431 Y116.269
G01 X239.116 Y115.840
G01 X239.808 Y115.382
G01 X240.500 Y114.924
G01 X241.200 Y114.437
G01 X241.906 Y113.919
G01 X242.612 Y113.401
G01 X243.324 Y112.853
G01 X244.044 Y112.274
G01 X242.764 Y115.095
G01 X241.485 Y117.917
G01 X240.730 Y118.395
G01 X239.985 Y118.844
G01 X239.249 Y119.265
G01 X238.514 Y119.685
G01 X237.788 Y120.077
G01 X237.071 Y120.442
G01 X236.355 Y120.807
G01 X235.649 Y121.144
G01 X234.952 Y121.455
G01 X234.255 Y121.766
G01 X233.568 Y122.051
G01 X232.891 Y122.311
G01 X231.537 Y122.830
G01 X230.222 Y123.248
G01 X228.948 Y123.573
G01 X227.674 Y123.899
G01 X226.440 Y124.131
G01 X225.248 Y124.280
G01 X224.055 Y124.429
G01 X222.904 Y124.494
G01 X221.794 Y124.482
G01 X220.684 Y124.471
G01 X219.616 Y124.385
G01 X218.591 Y124.230
G01 X217.566 Y124.076
G01 X216.583 Y123.855
G01 X215.644 Y123.575
G01 X214.704 Y123.294
G01 X213.808 Y122.955
G01 X212.957 Y122.566
G01 X212.105 Y122.176
G01 X211.297 Y121.736
G01 X210.534 Y121.254
G01 X209.771 Y120.772
G01 X209.052 Y120.248
G01 X208.380 Y119.691
G01 X207.707 Y119.133
G01 X207.080 Y118.542
G01 X206.499 Y117.926
G01 X205.919 Y117.310
G01 X205.384 Y116.668
G01 X204.897 Y116.010
G01 X204.409 Y115.352
G01 X203.969 Y114.677
G01 X203.576 Y113.994
G01 X203.184 Y113.311
G01 X202.839 Y112.619
G01 X202.543 Y111.928
G01 X202.246 Y111.236
G01 X201.999 Y110.545
G01 X201.800 Y109.862
G01 X201.602 Y109.180
G01 X201.453 Y108.506
G01 X201.353 Y107.848
G01 X200.678 Y108.982
G01 X200.736 Y110.269
G01 X200.980 Y111.643
G01 X201.412 Y113.039
G01 X201.628 Y113.737
G01 X201.891 Y114.440
G01 X202.201 Y115.141
G01 X202.510 Y115.842
G01 X202.867 Y116.540
G01 X203.271 Y117.226
G01 X203.675 Y117.913
G01 X204.126 Y118.589
G01 X204.624 Y119.246
G01 X205.123 Y119.903
G01 X205.668 Y120.540
G01 X206.262 Y121.150
G01 X206.855 Y121.761
G01 X207.495 Y122.343
G01 X208.183 Y122.891
G01 X208.871 Y123.438
G01 X209.607 Y123.950
G01 X210.391 Y124.418
G01 X211.174 Y124.886
G01 X212.005 Y125.310
G01 X212.884 Y125.683
G01 X213.763 Y126.055
G01 X214.690 Y126.375
G01 X215.664 Y126.636
G01 X216.639 Y126.896
G01 X217.662 Y127.096
G01 X218.733 Y127.228
G01 X219.804 Y127.360
G01 X220.923 Y127.424
G01 X222.090 Y127.411
G01 X223.257 Y127.398
G01 X224.473 Y127.308
G01 X225.737 Y127.134
G01 X227.001 Y126.960
G01 X228.313 Y126.701
G01 X229.674 Y126.349
G01 X230.354 Y126.173
G01 X231.047 Y125.974
G01 X231.751 Y125.751
G01 X232.456 Y125.527
G01 X233.173 Y125.280
G01 X233.902 Y125.007
G01 X234.631 Y124.734
G01 X235.372 Y124.436
G01 X236.126 Y124.111
G01 X236.879 Y123.787
G01 X237.645 Y123.436
G01 X238.423 Y123.058
G01 X236.678 Y125.362
G01 X234.934 Y127.666
G01 X234.145 Y127.946
G01 X233.371 Y128.201
G01 X232.611 Y128.432
G01 X231.851 Y128.663
G01 X231.105 Y128.870
G01 X230.374 Y129.054
G01 X229.642 Y129.237
G01 X228.925 Y129.398
G01 X228.222 Y129.537
G01 X227.520 Y129.676
G01 X226.831 Y129.792
G01 X226.156 Y129.888
G01 X224.807 Y130.079
G01 X223.514 Y130.186
G01 X222.276 Y130.217
G01 X221.038 Y130.247
G01 X219.856 Y130.202
G01 X218.727 Y130.087
G01 X217.599 Y129.973
G01 X216.525 Y129.790
G01 X215.504 Y129.547
G01 X214.484 Y129.303
G01 X213.516 Y128.999
G01 X212.602 Y128.642
G01 X211.687 Y128.286
G01 X210.824 Y127.876
G01 X210.013 Y127.422
G01 X209.202 Y126.967
G01 X208.442 Y126.468
G01 X207.733 Y125.932
G01 X207.024 Y125.395
G01 X206.365 Y124.822
G01 X205.756 Y124.220
G01 X205.146 Y123.618
G01 X204.587 Y122.986
G01 X204.075 Y122.334
G01 X203.564 Y121.681
G01 X203.101 Y121.007
G01 X202.686 Y120.320
G01 X202.271 Y119.633
G01 X201.904 Y118.932
G01 X201.583 Y118.226
G01 X201.262 Y117.521
G01 X200.988 Y116.809
G01 X200.759 Y116.100
G01 X200.531 Y115.391
G01 X200.348 Y114.685
G01 X200.209 Y113.989
G01 X199.933 Y112.596
G01 X199.835 Y111.245
G01 X199.909 Y109.998
G01 X199.062 Y110.893
G01 X198.867 Y112.088
G01 X198.827 Y113.402
G01 X198.955 Y114.776
G01 X199.019 Y115.463
G01 X199.125 Y116.164
G01 X199.274 Y116.873
G01 X199.424 Y117.582
G01 X199.618 Y118.298
G01 X199.857 Y119.014
G01 X200.096 Y119.730
G01 X200.381 Y120.445
G01 X200.713 Y121.153
G01 X201.045 Y121.861
G01 X201.425 Y122.561
G01 X201.853 Y123.246
G01 X202.281 Y123.931
G01 X202.758 Y124.601
G01 X203.286 Y125.248
G01 X203.814 Y125.895
G01 X204.392 Y126.519
G01 X205.023 Y127.113
G01 X205.654 Y127.707
G01 X206.337 Y128.271
G01 X207.074 Y128.797
G01 X207.812 Y129.323
G01 X208.603 Y129.812
G01 X209.450 Y130.255
G01 X210.298 Y130.698
G01 X211.201 Y131.096
G01 X212.161 Y131.441
G01 X213.122 Y131.786
G01 X214.140 Y132.078
G01 X215.217 Y132.310
G01 X216.294 Y132.542
G01 X217.431 Y132.714
G01 X218.628 Y132.818
G01 X219.826 Y132.922
G01 X221.084 Y132.958
G01 X222.405 Y132.919
G01 X223.726 Y132.880
G01 X225.110 Y132.766
G01 X226.558 Y132.569
G01 X227.282 Y132.471
G01 X228.022 Y132.352
G01 X228.778 Y132.211
G01 X229.534 Y132.070
G01 X230.307 Y131.908
G01 X231.096 Y131.723
G01 X229.040 Y133.469
G01 X226.983 Y135.216
G01 X226.204 Y135.310
G01 X225.443 Y135.385
G01 X224.699 Y135.440
G01 X223.956 Y135.495
G01 X223.231 Y135.531
G01 X222.523 Y135.548
G01 X221.107 Y135.584
G01 X219.761 Y135.546
G01 X218.484 Y135.442
G01 X217.206 Y135.339
G01 X215.996 Y135.169
G01 X214.852 Y134.940
G01 X213.707 Y134.712
G01 X212.629 Y134.424
G01 X211.613 Y134.085
G01 X210.597 Y133.745
G01 X209.644 Y133.354
G01 X208.752 Y132.918
G01 X207.860 Y132.481
G01 X207.029 Y132.000
G01 X206.255 Y131.482
G01 X205.482 Y130.963
G01 X204.767 Y130.407
G01 X204.109 Y129.819
G01 X203.462 Y129.243
G01 X203.450 Y129.232
G01 X202.859 Y128.626
G01 X202.847 Y128.614
G01 X202.297 Y127.973
G01 X201.748 Y127.332
G01 X201.252 Y126.666
G01 X200.807 Y125.985
G01 X200.362 Y125.303
G01 X199.968 Y124.605
G01 X199.623 Y123.897
G01 X199.278 Y123.190
G01 X198.981 Y122.473
G01 X198.731 Y121.753
G01 X198.481 Y121.034
G01 X198.278 Y120.312
G01 X198.118 Y119.595
G01 X197.958 Y118.877
G01 X197.842 Y118.165
G01 X197.768 Y117.464
G01 X197.693 Y116.763
G01 X197.661 Y116.074
G01 X197.667 Y115.403
G01 X197.680 Y114.063
G01 X197.849 Y112.797
G01 X198.156 Y111.663
G01 X197.204 Y112.309
G01 X196.796 Y113.373
G01 X196.509 Y114.580
G01 X196.364 Y115.875
G01 X196.220 Y117.171
G01 X196.219 Y118.555
G01 X196.386 Y119.977
G01 X196.469 Y120.688
G01 X196.594 Y121.407
G01 X196.765 Y122.130
G01 X196.935 Y122.852
G01 X197.150 Y123.577
G01 X197.413 Y124.298
G01 X197.675 Y125.019
G01 X197.986 Y125.736
G01 X198.348 Y126.443
G01 X198.710 Y127.149
G01 X199.122 Y127.845
G01 X199.562 Y128.483
G01 X199.589 Y128.524
G01 X200.016 Y129.142
G01 X200.055 Y129.202
G01 X200.507 Y129.773
G01 X200.575 Y129.864
G01 X201.060 Y130.395
G01 X201.152 Y130.502
G01 X201.639 Y131.034
G01 X201.730 Y131.139
G01 X202.262 Y131.649
G01 X202.364 Y131.753
G01 X202.957 Y132.248
G01 X203.058 Y132.337
G01 X203.675 Y132.852
G01 X203.752 Y132.920
G01 X204.455 Y133.434
G01 X204.506 Y133.474
G01 X205.322 Y133.990
G01 X206.139 Y134.507
G01 X207.019 Y134.986
G01 X207.965 Y135.422
G01 X208.910 Y135.858
G01 X209.922 Y136.250
G01 X211.002 Y136.593
G01 X212.082 Y136.935
G01 X213.232 Y137.227
G01 X214.453 Y137.463
G01 X215.674 Y137.699
G01 X216.967 Y137.878
G01 X218.335 Y137.993
G01 X219.019 Y138.051
G01 X219.722 Y138.093
G01 X220.444 Y138.119
G01 X221.165 Y138.144
G01 X221.906 Y138.153
G01 X222.667 Y138.144
G01 X220.441 Y139.328
G01 X218.215 Y140.512
G01 X217.482 Y140.441
G01 X216.769 Y140.355
G01 X216.076 Y140.255
G01 X215.383 Y140.155
G01 X214.710 Y140.040
G01 X214.057 Y139.913
G01 X212.751 Y139.658
G01 X211.523 Y139.349
G01 X210.369 Y138.993
G01 X209.216 Y138.637
G01 X208.138 Y138.234
G01 X207.130 Y137.789
G01 X206.123 Y137.345
G01 X205.187 Y136.859
G01 X204.319 Y136.338
G01 X203.486 Y135.836
G01 X203.451 Y135.816
G01 X202.762 Y135.332
G01 X202.651 Y135.260
G01 X202.069 Y134.789
G01 X201.915 Y134.675
G01 X201.370 Y134.233
G01 X201.179 Y134.089
G01 X200.707 Y133.648
G01 X200.507 Y133.474
G01 X200.087 Y133.027
G01 X199.895 Y132.837
G01 X199.484 Y132.398
G01 X199.284 Y132.199
G01 X198.907 Y131.737
G01 X198.734 Y131.538
G01 X198.380 Y131.043
G01 X198.240 Y130.860
G01 X197.876 Y130.351
G01 X197.747 Y130.182
G01 X197.396 Y129.616
G01 X197.310 Y129.487
G01 X196.968 Y128.850
G01 X196.928 Y128.781
G01 X196.562 Y128.105
G01 X196.545 Y128.075
G01 X196.216 Y127.358
G01 X195.937 Y126.637
G01 X195.658 Y125.915
G01 X195.429 Y125.188
G01 X195.246 Y124.462
G01 X195.064 Y123.737
G01 X194.928 Y123.012
G01 X194.835 Y122.295
G01 X194.742 Y121.577
G01 X194.692 Y120.867
G01 X194.681 Y120.170
G01 X194.660 Y118.777
G01 X194.797 Y117.436
G01 X195.063 Y116.196
G01 X195.330 Y114.957
G01 X195.725 Y113.819
G01 X196.222 Y112.831
G01 X195.224 Y113.233
G01 X194.649 Y114.139
G01 X194.157 Y115.201
G01 X193.779 Y116.374
G01 X193.401 Y117.548
G01 X193.138 Y118.833
G01 X193.022 Y120.186
G01 X192.964 Y120.863
G01 X192.943 Y121.556
G01 X192.962 Y122.261
G01 X192.981 Y122.966
G01 X193.041 Y123.682
G01 X193.146 Y124.404
G01 X193.250 Y125.127
G01 X193.399 Y125.855
G01 X193.597 Y126.583
G01 X193.795 Y127.312
G01 X194.042 Y128.040
G01 X194.341 Y128.764
G01 X194.641 Y129.488
G01 X194.954 Y130.120
G01 X194.993 Y130.206
G01 X195.309 Y130.741
G01 X195.402 Y130.914
G01 X195.696 Y131.409
G01 X195.810 Y131.622
G01 X196.109 Y132.055
G01 X196.276 Y132.320
G01 X196.585 Y132.704
G01 X196.802 Y133.001
G01 X197.103 Y133.375
G01 X197.328 Y133.682
G01 X197.651 Y134.033
G01 X197.915 Y134.347
G01 X198.272 Y134.685
G01 X198.567 Y134.991
G01 X198.941 Y135.345
G01 X199.218 Y135.634
G01 X199.652 Y135.996
G01 X199.934 Y136.256
G01 X200.454 Y136.636
G01 X200.719 Y136.851
G01 X201.295 Y137.276
G01 X201.504 Y137.446
G01 X202.215 Y137.911
G01 X202.358 Y138.013
G01 X203.258 Y138.531
G01 X203.284 Y138.548
G01 X204.210 Y139.083
G01 X205.210 Y139.585
G01 X206.285 Y140.049
G01 X207.361 Y140.514
G01 X208.513 Y140.940
G01 X209.746 Y141.322
G01 X210.979 Y141.704
G01 X212.293 Y142.043
G01 X213.692 Y142.332
G01 X211.424 Y142.977
G01 X209.156 Y143.622
G01 X207.838 Y143.199
G01 X206.606 Y142.737
G01 X205.456 Y142.240
G01 X204.307 Y141.744
G01 X203.239 Y141.214
G01 X202.249 Y140.654
G01 X201.258 Y140.094
G01 X200.462 Y139.574
G01 X200.346 Y139.505
G01 X199.745 Y139.053
G01 X199.506 Y138.892
G01 X198.996 Y138.501
G01 X198.667 Y138.279
G01 X198.273 Y137.931
G01 X197.900 Y137.642
G01 X197.585 Y137.324
G01 X197.258 Y137.031
G01 X197.203 Y136.985
G01 X196.919 Y136.696
G01 X196.624 Y136.428
G01 X196.505 Y136.328
G01 X196.263 Y136.047
G01 X196.010 Y135.781
G01 X195.877 Y135.652
G01 X195.660 Y135.366
G01 X195.429 Y135.091
G01 X195.312 Y134.962
G01 X195.092 Y134.672
G01 X194.857 Y134.391
G01 X194.748 Y134.271
G01 X194.534 Y133.947
G01 X194.300 Y133.631
G01 X194.248 Y133.566
G01 X194.031 Y133.191
G01 X193.808 Y132.852
G01 X193.565 Y132.436
G01 X193.368 Y132.137
G01 X193.110 Y131.627
G01 X192.989 Y131.414
G01 X192.710 Y130.779
G01 X192.664 Y130.685
G01 X192.344 Y129.966
G01 X192.340 Y129.957
G01 X192.071 Y129.224
G01 X191.854 Y128.492
G01 X191.637 Y127.759
G01 X191.470 Y127.027
G01 X191.351 Y126.301
G01 X191.232 Y125.574
G01 X191.159 Y124.852
G01 X191.129 Y124.141
G01 X191.069 Y122.719
G01 X191.179 Y121.338
G01 X191.423 Y120.038
G01 X191.668 Y118.737
G01 X192.047 Y117.517
G01 X192.525 Y116.417
G01 X193.004 Y115.317
G01 X193.582 Y114.337
G01 X194.224 Y113.517
G01 X193.233 Y113.689
G01 X192.534 Y114.421
G01 X191.882 Y115.314
G01 X191.314 Y116.334
G01 X190.745 Y117.353
G01 X190.261 Y118.499
G01 X189.898 Y119.737
G01 X189.536 Y120.975
G01 X189.295 Y122.304
G01 X189.214 Y123.691
G01 X189.173 Y124.384
G01 X189.172 Y125.091
G01 X189.216 Y125.808
G01 X189.260 Y126.526
G01 X189.348 Y127.253
G01 X189.486 Y127.985
G01 X189.623 Y128.718
G01 X189.810 Y129.456
G01 X190.051 Y130.196
G01 X190.292 Y130.935
G01 X190.587 Y131.676
G01 X190.917 Y132.359
G01 X190.941 Y132.413
G01 X191.222 Y132.983
G01 X191.294 Y133.150
G01 X191.545 Y133.570
G01 X191.706 Y133.885
G01 X191.931 Y134.197
G01 X192.129 Y134.516
G01 X192.182 Y134.611
G01 X192.375 Y134.874
G01 X192.547 Y135.143
G01 X192.658 Y135.338
G01 X192.836 Y135.548
G01 X193.001 Y135.764
G01 X193.151 Y135.985
G01 X193.197 Y136.057
G01 X193.372 Y136.235
G01 X193.537 Y136.421
G01 X193.693 Y136.613
G01 X193.804 Y136.765
G01 X193.977 Y136.940
G01 X194.142 Y137.126
G01 X194.299 Y137.320
G01 X194.411 Y137.472
G01 X194.611 Y137.650
G01 X194.803 Y137.842
G01 X194.988 Y138.047
G01 X195.087 Y138.167
G01 X195.339 Y138.368
G01 X195.584 Y138.588
G01 X195.819 Y138.829
G01 X195.835 Y138.847
G01 X196.141 Y139.096
G01 X196.437 Y139.374
G01 X196.583 Y139.526
G01 X197.005 Y139.840
G01 X197.404 Y140.189
G01 X198.004 Y140.598
G01 X198.303 Y140.831
G01 X199.053 Y141.358
G01 X199.201 Y141.474
G01 X200.177 Y142.096
G01 X201.236 Y142.693
G01 X202.294 Y143.290
G01 X203.435 Y143.862
G01 X204.662 Y144.405
G01 X202.819 Y144.548
G01 X202.461 Y144.556
G01 X201.098 Y144.687
G01 X200.259 Y144.707
G01 X199.130 Y144.059
G01 X198.088 Y143.391
G01 X197.127 Y142.707
G01 X196.167 Y142.023
G01 X195.574 Y141.530
G01 X195.288 Y141.323
G01 X194.942 Y140.981
G01 X194.576 Y140.677
G01 X194.486 Y140.610
G01 X194.258 Y140.368
G01 X194.017 Y140.149
G01 X193.766 Y139.955
G01 X193.683 Y139.898
G01 X193.551 Y139.727
G01 X193.412 Y139.568
G01 X193.265 Y139.423
G01 X193.113 Y139.290
G01 X192.958 Y139.173
G01 X192.872 Y139.043
G01 X192.781 Y138.919
G01 X192.684 Y138.802
G01 X192.583 Y138.691
G01 X192.477 Y138.588
G01 X192.368 Y138.491
G01 X192.304 Y138.440
G01 X192.229 Y138.325
G01 X192.149 Y138.214
G01 X192.063 Y138.106
G01 X191.972 Y138.003
G01 X191.876 Y137.904
G01 X191.774 Y137.810
G01 X191.668 Y137.721
G01 X191.650 Y137.706
G01 X191.572 Y137.571
G01 X191.485 Y137.439
G01 X191.389 Y137.309
G01 X191.283 Y137.182
G01 X191.168 Y137.060
G01 X191.068 Y136.964
G01 X190.962 Y136.768
G01 X190.838 Y136.576
G01 X190.698 Y136.388
G01 X190.553 Y136.218
G01 X190.391 Y135.943
G01 X190.203 Y135.675
G01 X190.037 Y135.471
G01 X189.797 Y135.037
G01 X189.589 Y134.719
G01 X189.239 Y134.032
G01 X189.202 Y133.967
G01 X188.815 Y133.214
G01 X188.490 Y132.461
G01 X188.221 Y131.710
G01 X187.953 Y130.959
G01 X187.742 Y130.211
G01 X187.582 Y129.469
G01 X187.423 Y128.727
G01 X187.315 Y127.992
G01 X187.254 Y127.267
G01 X187.133 Y125.817
G01 X187.199 Y124.408
G01 X187.413 Y123.070
G01 X187.627 Y121.732
G01 X187.989 Y120.465
G01 X188.459 Y119.299
G01 X188.930 Y118.133
G01 X189.508 Y117.068
G01 X190.155 Y116.134
G01 X190.802 Y115.200
G01 X191.518 Y114.398
G01 X192.262 Y113.756
G01 X191.321 Y113.724
G01 X190.541 Y114.275
G01 X189.773 Y114.985
G01 X189.059 Y115.829
