;  Created by Sandify
;  https://sandify.org
;  Version: 0.2.4
;
;  Machine type: Rectangular
;    Min X (mm): 0
;    Max X (mm): 380
;    Min Y (mm): 0
;    Max Y (mm): 280
;  Content type: shape
;  Layer:
;    Shape: FileImport
;    Name: dither_yinyang.thr
;    From file:: dither_yinyang.thr
;    Aspect Ratio: true
;    Comments: 
;    Visible: true
;    Initial width: 10
;    Initial height: 10
;    X offset: 0
;    Y offset: 0
;    Rotate (degrees): 0
;    Reverse path: false
;    Fine tuning:
;      Connect to next layer: line
;      Draw portion of path (%): 100
;      Backtrack at end (%): 0
;      Rotate starting point (%): 0
;  Reverse export path: false
;
; File name: 'dither_yinyang'
;

G01 X190.000 Y140.000
G01 X189.999 Y140.012
G01 X189.998 Y140.025
G01 X189.995 Y140.037
G01 X189.990 Y140.049
G01 X189.985 Y140.060
G01 X189.978 Y140.071
G01 X189.971 Y140.082
G01 X189.962 Y140.092
G01 X189.952 Y140.101
G01 X189.941 Y140.110
G01 X189.930 Y140.117
G01 X189.917 Y140.124
G01 X189.904 Y140.130
G01 X189.890 Y140.134
G01 X189.875 Y140.138
G01 X189.859 Y140.141
G01 X189.844 Y140.142
G01 X189.827 Y140.142
G01 X189.810 Y140.141
G01 X189.793 Y140.138
G01 X189.776 Y140.134
G01 X189.759 Y140.129
G01 X189.742 Y140.122
G01 X189.725 Y140.114
G01 X189.708 Y140.105
G01 X189.691 Y140.094
G01 X189.675 Y140.082
G01 X189.659 Y140.068
G01 X189.644 Y140.053
G01 X189.629 Y140.037
G01 X189.615 Y140.019
G01 X189.602 Y140.000
G01 X189.598 Y139.993
G01 X189.592 Y139.972
G01 X189.588 Y139.952
G01 X189.585 Y139.931
G01 X189.583 Y139.909
G01 X189.582 Y139.887
G01 X189.582 Y139.865
G01 X189.583 Y139.842
G01 X189.585 Y139.819
G01 X189.589 Y139.796
G01 X189.594 Y139.773
G01 X189.601 Y139.751
G01 X189.608 Y139.728
G01 X189.617 Y139.705
G01 X189.627 Y139.682
G01 X189.639 Y139.660
G01 X189.652 Y139.638
G01 X189.666 Y139.617
G01 X189.681 Y139.596
G01 X189.697 Y139.576
G01 X189.715 Y139.556
G01 X189.734 Y139.538
G01 X189.754 Y139.519
G01 X189.776 Y139.502
G01 X189.798 Y139.486
G01 X189.822 Y139.471
G01 X189.846 Y139.457
G01 X189.872 Y139.444
G01 X189.898 Y139.432
G01 X189.925 Y139.421
G01 X189.953 Y139.412
G01 X189.982 Y139.404
G01 X190.011 Y139.398
G01 X190.041 Y139.393
G01 X190.071 Y139.390
G01 X190.102 Y139.388
G01 X190.134 Y139.387
G01 X190.165 Y139.389
G01 X190.197 Y139.391
G01 X190.229 Y139.396
G01 X190.261 Y139.402
G01 X190.292 Y139.410
G01 X190.324 Y139.420
G01 X190.355 Y139.431
G01 X190.386 Y139.444
G01 X190.417 Y139.459
G01 X190.447 Y139.475
G01 X190.477 Y139.493
G01 X190.505 Y139.513
G01 X190.533 Y139.534
G01 X190.561 Y139.557
G01 X190.587 Y139.581
G01 X190.612 Y139.607
G01 X190.636 Y139.635
G01 X190.659 Y139.663
G01 X190.680 Y139.694
G01 X190.700 Y139.725
G01 X190.719 Y139.758
G01 X190.736 Y139.792
G01 X190.751 Y139.827
G01 X190.765 Y139.862
G01 X190.777 Y139.899
G01 X190.787 Y139.937
G01 X190.795 Y139.976
G01 X190.799 Y139.997
G01 X190.774 Y140.036
G01 X190.746 Y140.071
G01 X190.717 Y140.104
G01 X190.687 Y140.134
G01 X190.655 Y140.162
G01 X190.622 Y140.187
G01 X190.589 Y140.209
G01 X190.555 Y140.228
G01 X190.521 Y140.244
G01 X190.486 Y140.258
G01 X190.451 Y140.269
G01 X190.417 Y140.277
G01 X190.383 Y140.282
G01 X190.349 Y140.285
G01 X190.316 Y140.285
G01 X190.284 Y140.282
G01 X190.253 Y140.277
G01 X190.223 Y140.270
G01 X190.195 Y140.261
G01 X190.168 Y140.250
G01 X190.143 Y140.236
G01 X190.119 Y140.221
G01 X190.097 Y140.204
G01 X190.078 Y140.185
G01 X190.060 Y140.166
G01 X190.044 Y140.145
G01 X190.031 Y140.122
G01 X190.020 Y140.099
G01 X190.011 Y140.076
G01 X190.005 Y140.051
G01 X190.001 Y140.027
G01 X190.000 Y140.002
G01 X190.000 Y140.000
G01 X189.998 Y140.037
G01 X189.993 Y140.074
G01 X189.984 Y140.110
G01 X189.971 Y140.146
G01 X189.955 Y140.180
G01 X189.935 Y140.214
G01 X189.912 Y140.245
G01 X189.886 Y140.275
G01 X189.857 Y140.303
G01 X189.825 Y140.328
G01 X189.790 Y140.351
G01 X189.752 Y140.371
G01 X189.712 Y140.388
G01 X189.670 Y140.402
G01 X189.625 Y140.413
G01 X189.579 Y140.421
G01 X189.532 Y140.425
G01 X189.483 Y140.425
G01 X189.433 Y140.421
G01 X189.382 Y140.413
G01 X189.330 Y140.401
G01 X189.279 Y140.386
G01 X189.227 Y140.366
G01 X189.175 Y140.342
G01 X189.125 Y140.313
G01 X189.075 Y140.281
G01 X189.026 Y140.244
G01 X188.979 Y140.203
G01 X188.933 Y140.158
G01 X188.890 Y140.109
G01 X188.849 Y140.057
G01 X188.810 Y140.000
G01 X188.799 Y139.982
G01 X188.795 Y139.922
G01 X188.794 Y139.863
G01 X188.796 Y139.803
G01 X188.801 Y139.742
G01 X188.809 Y139.682
G01 X188.820 Y139.622
G01 X188.834 Y139.563
G01 X188.851 Y139.504
G01 X188.871 Y139.445
G01 X188.895 Y139.387
G01 X188.921 Y139.330
G01 X188.950 Y139.275
G01 X188.982 Y139.220
G01 X189.016 Y139.167
G01 X189.054 Y139.116
G01 X189.094 Y139.066
G01 X189.137 Y139.018
G01 X189.182 Y138.972
G01 X189.230 Y138.928
G01 X189.280 Y138.886
G01 X189.332 Y138.847
G01 X189.387 Y138.810
G01 X189.443 Y138.775
G01 X189.502 Y138.744
G01 X189.562 Y138.715
G01 X189.624 Y138.689
G01 X189.687 Y138.666
G01 X189.752 Y138.646
G01 X189.818 Y138.629
G01 X189.885 Y138.616
G01 X189.953 Y138.606
G01 X190.021 Y138.599
G01 X190.090 Y138.595
G01 X190.160 Y138.595
G01 X190.230 Y138.599
G01 X190.300 Y138.605
G01 X190.369 Y138.616
G01 X190.439 Y138.630
G01 X190.508 Y138.647
G01 X190.576 Y138.668
G01 X190.643 Y138.692
G01 X190.710 Y138.720
G01 X190.775 Y138.751
G01 X190.839 Y138.785
G01 X190.901 Y138.823
G01 X190.962 Y138.864
G01 X191.021 Y138.908
G01 X191.078 Y138.955
G01 X191.132 Y139.005
G01 X191.185 Y139.058
G01 X191.235 Y139.113
G01 X191.282 Y139.171
G01 X191.326 Y139.232
G01 X191.368 Y139.295
G01 X191.407 Y139.361
G01 X191.442 Y139.428
G01 X191.474 Y139.498
G01 X191.503 Y139.569
G01 X191.529 Y139.642
G01 X191.550 Y139.716
G01 X191.569 Y139.792
G01 X191.583 Y139.868
G01 X191.594 Y139.946
G01 X191.598 Y139.990
G01 X193.198 Y140.044
G01 X193.192 Y140.201
G01 X193.179 Y140.357
G01 X193.157 Y140.513
G01 X193.128 Y140.667
G01 X193.092 Y140.820
G01 X193.048 Y140.970
G01 X192.997 Y141.119
G01 X192.938 Y141.265
G01 X192.873 Y141.407
G01 X192.800 Y141.546
G01 X192.721 Y141.682
G01 X192.635 Y141.813
G01 X192.543 Y141.941
G01 X192.445 Y142.063
G01 X192.340 Y142.180
G01 X192.231 Y142.293
G01 X192.115 Y142.399
G01 X191.995 Y142.500
G01 X191.870 Y142.595
G01 X191.740 Y142.684
G01 X191.607 Y142.766
G01 X191.469 Y142.841
G01 X191.328 Y142.910
G01 X191.183 Y142.972
G01 X191.036 Y143.026
G01 X190.886 Y143.073
G01 X190.735 Y143.113
G01 X190.581 Y143.146
G01 X190.426 Y143.170
G01 X190.270 Y143.187
G01 X190.113 Y143.197
G01 X189.956 Y143.198
G01 X189.799 Y143.192
G01 X189.643 Y143.179
G01 X189.487 Y143.157
G01 X189.333 Y143.128
G01 X189.180 Y143.092
G01 X189.030 Y143.048
G01 X188.881 Y142.997
G01 X188.735 Y142.938
G01 X188.593 Y142.873
G01 X188.454 Y142.800
G01 X188.318 Y142.721
G01 X188.187 Y142.635
G01 X188.059 Y142.543
G01 X187.937 Y142.445
G01 X187.820 Y142.340
G01 X187.707 Y142.231
G01 X187.601 Y142.115
G01 X187.500 Y141.995
G01 X187.405 Y141.870
G01 X187.316 Y141.740
G01 X187.234 Y141.607
G01 X187.159 Y141.469
G01 X187.090 Y141.328
G01 X187.028 Y141.183
G01 X186.974 Y141.036
G01 X186.927 Y140.886
G01 X186.887 Y140.735
G01 X186.854 Y140.581
G01 X186.830 Y140.426
G01 X186.813 Y140.270
G01 X186.803 Y140.113
G01 X186.802 Y139.961
G01 X187.998 Y139.935
G01 X187.997 Y139.837
G01 X188.001 Y139.738
G01 X188.010 Y139.639
G01 X188.024 Y139.540
G01 X188.043 Y139.442
G01 X188.067 Y139.345
G01 X188.096 Y139.249
G01 X188.129 Y139.154
G01 X188.168 Y139.060
G01 X188.210 Y138.968
G01 X188.258 Y138.878
G01 X188.310 Y138.790
G01 X188.367 Y138.705
G01 X188.427 Y138.622
G01 X188.492 Y138.542
G01 X188.561 Y138.466
G01 X188.634 Y138.392
G01 X188.711 Y138.322
G01 X188.791 Y138.256
G01 X188.875 Y138.193
G01 X188.962 Y138.135
G01 X189.052 Y138.081
G01 X189.145 Y138.031
G01 X189.240 Y137.985
G01 X189.338 Y137.944
G01 X189.438 Y137.908
G01 X189.540 Y137.877
G01 X189.644 Y137.851
G01 X189.749 Y137.830
G01 X189.856 Y137.814
G01 X189.963 Y137.803
G01 X190.071 Y137.798
G01 X190.179 Y137.798
G01 X190.288 Y137.803
G01 X190.397 Y137.814
G01 X190.505 Y137.830
G01 X190.612 Y137.851
G01 X190.719 Y137.878
G01 X190.825 Y137.910
G01 X190.929 Y137.947
G01 X191.031 Y137.990
G01 X191.132 Y138.037
G01 X191.230 Y138.090
G01 X191.326 Y138.147
G01 X191.419 Y138.210
G01 X191.509 Y138.277
G01 X191.597 Y138.349
G01 X191.680 Y138.425
G01 X191.760 Y138.505
G01 X191.836 Y138.589
G01 X191.909 Y138.678
G01 X191.976 Y138.770
G01 X192.040 Y138.865
G01 X192.099 Y138.964
G01 X192.153 Y139.065
G01 X192.202 Y139.170
G01 X192.246 Y139.277
G01 X192.285 Y139.387
G01 X192.318 Y139.498
G01 X192.346 Y139.611
G01 X192.369 Y139.726
G01 X192.385 Y139.842
G01 X192.397 Y139.960
G01 X192.400 Y140.026
G01 X193.197 Y140.098
G01 X193.189 Y140.255
G01 X193.172 Y140.411
G01 X193.148 Y140.566
G01 X193.117 Y140.720
G01 X193.078 Y140.872
G01 X193.031 Y141.022
G01 X192.977 Y141.170
G01 X192.916 Y141.314
G01 X192.848 Y141.456
G01 X192.773 Y141.594
G01 X192.692 Y141.728
G01 X192.604 Y141.858
G01 X192.510 Y141.983
G01 X192.409 Y142.104
G01 X192.303 Y142.220
G01 X192.191 Y142.330
G01 X192.074 Y142.435
G01 X191.952 Y142.534
G01 X191.826 Y142.626
G01 X191.695 Y142.713
G01 X191.560 Y142.793
G01 X191.421 Y142.866
G01 X191.278 Y142.932
G01 X191.133 Y142.991
G01 X190.985 Y143.043
G01 X190.834 Y143.088
G01 X190.682 Y143.125
G01 X190.527 Y143.155
G01 X190.372 Y143.177
G01 X190.216 Y143.191
G01 X190.059 Y143.198
G01 X189.902 Y143.197
G01 X189.745 Y143.189
G01 X189.589 Y143.172
G01 X189.434 Y143.148
G01 X189.280 Y143.117
G01 X189.128 Y143.078
G01 X188.978 Y143.031
G01 X188.830 Y142.977
G01 X188.686 Y142.916
G01 X188.544 Y142.848
G01 X188.406 Y142.773
G01 X188.272 Y142.692
G01 X188.142 Y142.604
G01 X188.017 Y142.510
G01 X187.896 Y142.409
G01 X187.780 Y142.303
G01 X187.670 Y142.191
G01 X187.565 Y142.074
G01 X187.466 Y141.952
G01 X187.374 Y141.826
G01 X187.287 Y141.695
G01 X187.207 Y141.560
G01 X187.134 Y141.421
G01 X187.068 Y141.278
G01 X187.009 Y141.133
G01 X186.957 Y140.985
G01 X186.912 Y140.834
G01 X186.875 Y140.682
G01 X186.845 Y140.527
G01 X186.823 Y140.372
G01 X186.809 Y140.216
G01 X186.802 Y140.059
G01 X186.801 Y139.971
G01 X187.199 Y139.918
G01 X187.200 Y139.780
G01 X187.208 Y139.643
G01 X187.223 Y139.505
G01 X187.244 Y139.368
G01 X187.272 Y139.232
G01 X187.307 Y139.097
G01 X187.349 Y138.963
G01 X187.398 Y138.832
G01 X187.452 Y138.703
G01 X187.514 Y138.576
G01 X187.581 Y138.453
G01 X187.655 Y138.332
G01 X187.735 Y138.215
G01 X187.820 Y138.102
G01 X187.912 Y137.993
G01 X188.008 Y137.889
G01 X188.110 Y137.789
G01 X188.217 Y137.694
G01 X188.329 Y137.604
G01 X188.445 Y137.519
G01 X188.566 Y137.441
G01 X188.690 Y137.368
G01 X188.819 Y137.301
G01 X188.950 Y137.240
G01 X189.085 Y137.186
G01 X189.222 Y137.139
G01 X189.362 Y137.098
G01 X189.505 Y137.064
G01 X189.648 Y137.037
G01 X189.794 Y137.017
G01 X189.940 Y137.004
G01 X190.088 Y136.999
G01 X190.235 Y137.000
G01 X190.383 Y137.009
G01 X190.530 Y137.026
G01 X190.677 Y137.049
G01 X190.823 Y137.080
G01 X190.967 Y137.118
G01 X191.109 Y137.163
G01 X191.250 Y137.215
G01 X191.388 Y137.274
G01 X191.523 Y137.340
G01 X191.655 Y137.413
G01 X191.784 Y137.492
G01 X191.908 Y137.578
G01 X192.029 Y137.670
G01 X192.145 Y137.767
G01 X192.257 Y137.871
G01 X192.363 Y137.980
G01 X192.464 Y138.095
G01 X192.560 Y138.215
G01 X192.650 Y138.339
G01 X192.734 Y138.468
G01 X192.811 Y138.601
G01 X192.882 Y138.738
G01 X192.946 Y138.879
G01 X193.004 Y139.023
G01 X193.054 Y139.170
G01 X193.097 Y139.319
G01 X193.133 Y139.471
G01 X193.162 Y139.625
G01 X193.182 Y139.780
G01 X193.196 Y139.936
G01 X193.200 Y140.024
G01 X193.197 Y140.088
G01 X193.189 Y140.245
G01 X193.173 Y140.401
G01 X193.150 Y140.557
G01 X193.119 Y140.711
G01 X193.080 Y140.863
G01 X193.034 Y141.013
G01 X192.981 Y141.160
G01 X192.920 Y141.305
G01 X192.853 Y141.447
G01 X192.778 Y141.585
G01 X192.697 Y141.720
G01 X192.610 Y141.850
G01 X192.516 Y141.976
G01 X192.416 Y142.097
G01 X192.310 Y142.213
G01 X192.198 Y142.323
G01 X192.082 Y142.429
G01 X191.960 Y142.528
G01 X191.834 Y142.621
G01 X191.703 Y142.708
G01 X191.568 Y142.788
G01 X191.429 Y142.862
G01 X191.287 Y142.928
G01 X191.142 Y142.988
G01 X190.994 Y143.040
G01 X190.844 Y143.085
G01 X190.691 Y143.123
G01 X190.537 Y143.153
G01 X190.382 Y143.176
G01 X190.225 Y143.191
G01 X190.069 Y143.198
G01 X189.912 Y143.197
G01 X189.755 Y143.189
G01 X189.599 Y143.173
G01 X189.443 Y143.150
G01 X189.289 Y143.119
G01 X189.137 Y143.080
G01 X188.987 Y143.034
G01 X188.840 Y142.981
G01 X188.695 Y142.920
G01 X188.553 Y142.853
G01 X188.415 Y142.778
G01 X188.280 Y142.697
G01 X188.150 Y142.610
G01 X188.024 Y142.516
G01 X187.903 Y142.416
G01 X187.787 Y142.310
G01 X187.677 Y142.198
G01 X187.571 Y142.082
G01 X187.472 Y141.960
G01 X187.379 Y141.834
G01 X187.292 Y141.703
G01 X187.212 Y141.568
G01 X187.138 Y141.429
G01 X187.072 Y141.287
G01 X187.012 Y141.142
G01 X186.960 Y140.994
G01 X186.915 Y140.844
G01 X186.877 Y140.691
G01 X186.847 Y140.537
G01 X186.824 Y140.382
G01 X186.809 Y140.225
G01 X186.802 Y140.069
G01 X186.801 Y139.980
G01 X186.399 Y139.906
G01 X186.402 Y139.729
G01 X186.413 Y139.552
G01 X186.434 Y139.375
G01 X186.462 Y139.200
G01 X186.500 Y139.025
G01 X186.546 Y138.853
G01 X186.601 Y138.683
G01 X186.664 Y138.515
G01 X186.735 Y138.350
G01 X186.815 Y138.189
G01 X186.902 Y138.031
G01 X186.997 Y137.878
G01 X187.100 Y137.729
G01 X187.210 Y137.586
G01 X187.327 Y137.448
G01 X187.452 Y137.315
G01 X187.582 Y137.188
G01 X187.719 Y137.068
G01 X187.862 Y136.955
G01 X188.011 Y136.848
G01 X188.165 Y136.749
G01 X188.324 Y136.657
G01 X188.488 Y136.573
G01 X188.655 Y136.497
G01 X188.827 Y136.430
G01 X189.002 Y136.370
G01 X189.180 Y136.320
G01 X189.360 Y136.278
G01 X189.543 Y136.245
G01 X189.727 Y136.221
G01 X189.913 Y136.205
G01 X190.099 Y136.200
G01 X190.286 Y136.203
G01 X190.473 Y136.215
G01 X190.659 Y136.237
G01 X190.844 Y136.268
G01 X191.028 Y136.307
G01 X191.210 Y136.356
G01 X191.390 Y136.414
G01 X191.566 Y136.481
G01 X191.740 Y136.557
G01 X191.910 Y136.641
G01 X192.076 Y136.733
G01 X192.237 Y136.834
G01 X192.394 Y136.943
G01 X192.545 Y137.059
G01 X192.691 Y137.183
G01 X192.830 Y137.314
G01 X192.963 Y137.452
G01 X193.090 Y137.597
G01 X193.209 Y137.748
G01 X193.321 Y137.904
G01 X193.425 Y138.067
G01 X193.521 Y138.234
G01 X193.609 Y138.407
G01 X193.689 Y138.584
G01 X193.760 Y138.764
G01 X193.822 Y138.949
G01 X193.875 Y139.136
G01 X193.919 Y139.326
G01 X193.954 Y139.519
G01 X193.979 Y139.713
G01 X193.994 Y139.908
G01 X194.000 Y140.098
G01 X193.196 Y140.143
G01 X193.185 Y140.299
G01 X193.166 Y140.455
G01 X193.140 Y140.610
G01 X193.106 Y140.763
G01 X193.065 Y140.915
G01 X193.017 Y141.064
G01 X192.961 Y141.211
G01 X192.898 Y141.355
G01 X192.828 Y141.495
G01 X192.751 Y141.632
G01 X192.668 Y141.765
G01 X192.578 Y141.894
G01 X192.482 Y142.018
G01 X192.380 Y142.137
G01 X192.272 Y142.252
G01 X192.159 Y142.360
G01 X192.040 Y142.464
G01 X191.917 Y142.561
G01 X191.789 Y142.652
G01 X191.657 Y142.736
G01 X191.521 Y142.814
G01 X191.381 Y142.885
G01 X191.237 Y142.950
G01 X191.091 Y143.007
G01 X190.942 Y143.057
G01 X190.791 Y143.099
G01 X190.638 Y143.134
G01 X190.484 Y143.162
G01 X190.328 Y143.182
G01 X190.171 Y143.194
G01 X190.014 Y143.199
G01 X189.857 Y143.196
G01 X189.701 Y143.185
G01 X189.545 Y143.166
G01 X189.390 Y143.140
G01 X189.237 Y143.106
G01 X189.085 Y143.065
G01 X188.936 Y143.017
G01 X188.789 Y142.961
G01 X188.645 Y142.898
G01 X188.505 Y142.828
G01 X188.368 Y142.751
G01 X188.235 Y142.668
G01 X188.106 Y142.578
G01 X187.982 Y142.482
G01 X187.863 Y142.380
G01 X187.748 Y142.272
G01 X187.640 Y142.159
G01 X187.536 Y142.040
G01 X187.439 Y141.917
G01 X187.348 Y141.789
G01 X187.264 Y141.657
G01 X187.186 Y141.521
G01 X187.115 Y141.381
G01 X187.050 Y141.237
G01 X186.993 Y141.091
G01 X186.943 Y140.942
G01 X186.901 Y140.791
G01 X186.866 Y140.638
G01 X186.838 Y140.484
G01 X186.818 Y140.328
G01 X186.806 Y140.171
G01 X186.801 Y140.014
G01 X186.802 Y139.926
G01 X185.600 Y139.810
G01 X185.609 Y139.594
G01 X185.628 Y139.378
G01 X185.657 Y139.163
G01 X185.698 Y138.950
G01 X185.748 Y138.738
G01 X185.810 Y138.529
G01 X185.881 Y138.323
G01 X185.963 Y138.120
G01 X186.054 Y137.921
G01 X186.156 Y137.727
G01 X186.266 Y137.538
G01 X186.387 Y137.354
G01 X186.516 Y137.176
G01 X186.654 Y137.004
G01 X186.801 Y136.839
G01 X186.956 Y136.681
G01 X187.118 Y136.531
G01 X187.288 Y136.389
G01 X187.465 Y136.255
G01 X187.649 Y136.130
G01 X187.838 Y136.013
G01 X188.034 Y135.907
G01 X188.235 Y135.809
G01 X188.440 Y135.722
G01 X188.650 Y135.644
G01 X188.864 Y135.577
G01 X189.081 Y135.521
G01 X189.301 Y135.475
G01 X189.523 Y135.440
G01 X189.747 Y135.416
G01 X189.972 Y135.403
G01 X190.198 Y135.401
G01 X190.424 Y135.410
G01 X190.650 Y135.430
G01 X190.875 Y135.461
G01 X191.098 Y135.503
G01 X191.319 Y135.557
G01 X191.537 Y135.621
G01 X191.753 Y135.696
G01 X191.964 Y135.781
G01 X192.172 Y135.877
G01 X192.375 Y135.983
G01 X192.572 Y136.100
G01 X192.764 Y136.225
G01 X192.950 Y136.361
G01 X193.129 Y136.505
G01 X193.302 Y136.659
G01 X193.466 Y136.820
G01 X193.623 Y136.990
G01 X193.771 Y137.168
G01 X193.911 Y137.353
G01 X194.041 Y137.545
G01 X194.162 Y137.743
G01 X194.274 Y137.947
G01 X194.375 Y138.157
G01 X194.466 Y138.372
G01 X194.547 Y138.591
G01 X194.616 Y138.814
G01 X194.675 Y139.041
G01 X194.723 Y139.270
G01 X194.759 Y139.502
G01 X194.784 Y139.736
G01 X194.797 Y139.971
G01 X194.800 Y140.104
G01 X196.392 Y140.266
G01 X196.371 Y140.579
G01 X196.335 Y140.891
G01 X196.284 Y141.201
G01 X196.217 Y141.508
G01 X196.136 Y141.811
G01 X196.040 Y142.110
G01 X195.929 Y142.404
G01 X195.804 Y142.692
G01 X195.665 Y142.973
G01 X195.512 Y143.248
G01 X195.346 Y143.514
G01 X195.167 Y143.772
G01 X194.976 Y144.021
G01 X194.772 Y144.260
G01 X194.558 Y144.489
G01 X194.332 Y144.708
G01 X194.096 Y144.915
G01 X193.850 Y145.110
G01 X193.594 Y145.292
G01 X193.330 Y145.462
G01 X193.058 Y145.619
G01 X192.779 Y145.762
G01 X192.493 Y145.892
G01 X192.201 Y146.007
G01 X191.903 Y146.108
G01 X191.601 Y146.194
G01 X191.295 Y146.265
G01 X190.986 Y146.321
G01 X190.675 Y146.362
G01 X190.362 Y146.387
G01 X190.048 Y146.397
G01 X189.734 Y146.392
G01 X189.421 Y146.371
G01 X189.109 Y146.335
G01 X188.799 Y146.284
G01 X188.492 Y146.217
G01 X188.189 Y146.136
G01 X187.890 Y146.040
G01 X187.596 Y145.929
G01 X187.308 Y145.804
G01 X187.027 Y145.665
G01 X186.752 Y145.512
G01 X186.486 Y145.346
G01 X186.228 Y145.167
G01 X185.979 Y144.976
G01 X185.740 Y144.772
G01 X185.511 Y144.558
G01 X185.292 Y144.332
G01 X185.085 Y144.096
G01 X184.890 Y143.850
G01 X184.708 Y143.594
G01 X184.538 Y143.330
G01 X184.381 Y143.058
G01 X184.238 Y142.779
G01 X184.108 Y142.493
G01 X183.993 Y142.201
G01 X183.892 Y141.903
G01 X183.806 Y141.601
G01 X183.735 Y141.295
G01 X183.679 Y140.986
G01 X183.638 Y140.675
G01 X183.613 Y140.362
G01 X183.603 Y140.048
G01 X183.604 Y139.872
G01 X184.801 Y139.792
G01 X184.811 Y139.536
G01 X184.834 Y139.281
G01 X184.870 Y139.028
G01 X184.917 Y138.776
G01 X184.978 Y138.526
G01 X185.050 Y138.279
G01 X185.135 Y138.036
G01 X185.231 Y137.797
G01 X185.340 Y137.563
G01 X185.459 Y137.334
G01 X185.590 Y137.111
G01 X185.732 Y136.894
G01 X185.885 Y136.685
G01 X186.048 Y136.483
G01 X186.221 Y136.289
G01 X186.403 Y136.103
G01 X186.595 Y135.927
G01 X186.795 Y135.759
G01 X187.004 Y135.602
G01 X187.220 Y135.455
G01 X187.443 Y135.319
G01 X187.673 Y135.193
G01 X187.909 Y135.079
G01 X188.151 Y134.977
G01 X188.398 Y134.886
G01 X188.649 Y134.807
G01 X188.904 Y134.741
G01 X189.163 Y134.688
G01 X189.424 Y134.647
G01 X189.687 Y134.619
G01 X189.951 Y134.604
G01 X190.216 Y134.601
G01 X190.481 Y134.612
G01 X190.746 Y134.636
G01 X191.010 Y134.673
G01 X191.271 Y134.723
G01 X191.530 Y134.786
G01 X191.786 Y134.861
G01 X192.039 Y134.949
G01 X192.287 Y135.050
G01 X192.530 Y135.162
G01 X192.767 Y135.287
G01 X192.999 Y135.423
G01 X193.223 Y135.571
G01 X193.441 Y135.729
G01 X193.650 Y135.899
G01 X193.851 Y136.078
G01 X194.044 Y136.268
G01 X194.227 Y136.467
G01 X194.400 Y136.675
G01 X194.563 Y136.891
G01 X194.716 Y137.115
G01 X194.857 Y137.347
G01 X194.987 Y137.586
G01 X195.105 Y137.831
G01 X195.211 Y138.082
G01 X195.305 Y138.338
G01 X195.386 Y138.599
G01 X195.454 Y138.864
G01 X195.510 Y139.132
G01 X195.552 Y139.402
G01 X195.581 Y139.675
G01 X195.596 Y139.949
G01 X195.599 Y140.216
G01 X196.386 Y140.374
G01 X196.360 Y140.687
G01 X196.319 Y140.998
G01 X196.262 Y141.307
G01 X196.191 Y141.613
G01 X196.104 Y141.915
G01 X196.003 Y142.212
G01 X195.887 Y142.504
G01 X195.757 Y142.790
G01 X195.613 Y143.069
G01 X195.456 Y143.341
G01 X195.286 Y143.604
G01 X195.102 Y143.859
G01 X194.907 Y144.105
G01 X194.699 Y144.341
G01 X194.481 Y144.566
G01 X194.251 Y144.781
G01 X194.012 Y144.983
G01 X193.762 Y145.174
G01 X193.504 Y145.353
G01 X193.237 Y145.518
G01 X192.962 Y145.670
G01 X192.681 Y145.809
G01 X192.392 Y145.933
G01 X192.098 Y146.044
G01 X191.799 Y146.139
G01 X191.496 Y146.220
G01 X191.189 Y146.286
G01 X190.879 Y146.337
G01 X190.567 Y146.372
G01 X190.254 Y146.392
G01 X189.940 Y146.397
G01 X189.626 Y146.386
G01 X189.313 Y146.360
G01 X189.002 Y146.319
G01 X188.693 Y146.262
G01 X188.387 Y146.191
G01 X188.085 Y146.104
G01 X187.788 Y146.003
G01 X187.496 Y145.887
G01 X187.210 Y145.757
G01 X186.931 Y145.613
G01 X186.659 Y145.456
G01 X186.396 Y145.286
G01 X186.141 Y145.102
G01 X185.895 Y144.907
G01 X185.659 Y144.699
G01 X185.434 Y144.481
G01 X185.219 Y144.251
G01 X185.017 Y144.012
G01 X184.826 Y143.762
G01 X184.647 Y143.504
G01 X184.482 Y143.237
G01 X184.330 Y142.962
G01 X184.191 Y142.681
G01 X184.067 Y142.392
G01 X183.956 Y142.098
G01 X183.861 Y141.799
G01 X183.780 Y141.496
G01 X183.714 Y141.189
G01 X183.663 Y140.879
G01 X183.628 Y140.567
G01 X183.608 Y140.254
G01 X183.603 Y139.940
G01 X183.607 Y139.763
G01 X184.005 Y139.658
G01 X184.023 Y139.363
G01 X184.055 Y139.070
G01 X184.102 Y138.778
G01 X184.163 Y138.489
G01 X184.238 Y138.202
G01 X184.327 Y137.919
G01 X184.430 Y137.641
G01 X184.547 Y137.368
G01 X184.677 Y137.101
G01 X184.821 Y136.840
G01 X184.977 Y136.586
G01 X185.145 Y136.340
G01 X185.326 Y136.102
G01 X185.518 Y135.873
G01 X185.722 Y135.654
G01 X185.936 Y135.444
G01 X186.161 Y135.246
G01 X186.395 Y135.058
G01 X186.638 Y134.882
G01 X186.890 Y134.718
G01 X187.150 Y134.566
G01 X187.418 Y134.427
G01 X187.692 Y134.301
G01 X187.972 Y134.189
G01 X188.258 Y134.090
G01 X188.549 Y134.006
G01 X188.844 Y133.936
G01 X189.142 Y133.880
G01 X189.442 Y133.839
G01 X189.745 Y133.813
G01 X190.049 Y133.802
G01 X190.353 Y133.805
G01 X190.658 Y133.824
G01 X190.961 Y133.857
G01 X191.262 Y133.906
G01 X191.561 Y133.969
G01 X191.857 Y134.047
G01 X192.149 Y134.139
G01 X192.437 Y134.246
G01 X192.719 Y134.367
G01 X192.995 Y134.502
G01 X193.264 Y134.650
G01 X193.527 Y134.812
G01 X193.781 Y134.986
G01 X194.026 Y135.173
G01 X194.262 Y135.371
G01 X194.489 Y135.582
G01 X194.705 Y135.803
G01 X194.910 Y136.035
G01 X195.104 Y136.277
G01 X195.285 Y136.529
G01 X195.455 Y136.789
G01 X195.611 Y137.058
G01 X195.755 Y137.334
G01 X195.884 Y137.617
G01 X196.000 Y137.907
G01 X196.101 Y138.202
G01 X196.188 Y138.502
G01 X196.261 Y138.806
G01 X196.318 Y139.114
G01 X196.360 Y139.424
G01 X196.387 Y139.737
G01 X196.398 Y140.051
G01 X196.398 Y140.227
G01 X196.388 Y140.355
G01 X196.362 Y140.668
G01 X196.322 Y140.979
G01 X196.266 Y141.288
G01 X196.196 Y141.594
G01 X196.110 Y141.896
G01 X196.010 Y142.194
G01 X195.895 Y142.486
G01 X195.766 Y142.772
G01 X195.623 Y143.052
G01 X195.466 Y143.324
G01 X195.296 Y143.588
G01 X195.114 Y143.844
G01 X194.919 Y144.090
G01 X194.713 Y144.326
G01 X194.495 Y144.552
G01 X194.266 Y144.768
G01 X194.027 Y144.971
G01 X193.778 Y145.163
G01 X193.520 Y145.342
G01 X193.254 Y145.508
G01 X192.980 Y145.661
G01 X192.698 Y145.801
G01 X192.410 Y145.926
G01 X192.117 Y146.037
G01 X191.818 Y146.134
G01 X191.515 Y146.216
G01 X191.208 Y146.282
G01 X190.898 Y146.334
G01 X190.586 Y146.371
G01 X190.273 Y146.392
G01 X189.959 Y146.397
G01 X189.645 Y146.388
G01 X189.332 Y146.362
G01 X189.021 Y146.322
G01 X188.712 Y146.266
G01 X188.406 Y146.196
G01 X188.104 Y146.110
G01 X187.806 Y146.010
G01 X187.514 Y145.895
G01 X187.228 Y145.766
G01 X186.948 Y145.623
G01 X186.676 Y145.466
G01 X186.412 Y145.296
G01 X186.156 Y145.114
G01 X185.910 Y144.919
G01 X185.674 Y144.713
G01 X185.448 Y144.495
G01 X185.232 Y144.266
G01 X185.029 Y144.027
G01 X184.837 Y143.778
G01 X184.658 Y143.520
G01 X184.492 Y143.254
G01 X184.339 Y142.980
G01 X184.199 Y142.698
G01 X184.074 Y142.410
G01 X183.963 Y142.117
G01 X183.866 Y141.818
G01 X183.784 Y141.515
G01 X183.718 Y141.208
G01 X183.666 Y140.898
G01 X183.629 Y140.586
G01 X183.608 Y140.273
G01 X183.603 Y139.959
G01 X183.606 Y139.783
G01 X183.206 Y139.633
G01 X183.226 Y139.299
G01 X183.262 Y138.967
G01 X183.315 Y138.636
G01 X183.384 Y138.308
G01 X183.469 Y137.984
G01 X183.570 Y137.664
G01 X183.686 Y137.349
G01 X183.818 Y137.039
G01 X183.966 Y136.737
G01 X184.128 Y136.441
G01 X184.304 Y136.154
G01 X184.495 Y135.875
G01 X184.699 Y135.606
G01 X184.916 Y135.347
G01 X185.146 Y135.099
G01 X185.388 Y134.862
G01 X185.642 Y134.637
G01 X185.907 Y134.425
G01 X186.182 Y134.225
G01 X186.467 Y134.039
G01 X186.761 Y133.868
G01 X187.063 Y133.710
G01 X187.372 Y133.568
G01 X187.689 Y133.441
G01 X188.012 Y133.330
G01 X188.340 Y133.234
G01 X188.673 Y133.155
G01 X189.010 Y133.092
G01 X189.349 Y133.045
G01 X189.691 Y133.015
G01 X190.034 Y133.002
G01 X190.378 Y133.006
G01 X190.721 Y133.027
G01 X191.063 Y133.064
G01 X191.404 Y133.119
G01 X191.741 Y133.190
G01 X192.075 Y133.278
G01 X192.404 Y133.382
G01 X192.729 Y133.502
G01 X193.047 Y133.638
G01 X193.358 Y133.790
G01 X193.662 Y133.957
G01 X193.958 Y134.138
G01 X194.245 Y134.335
G01 X194.521 Y134.545
G01 X194.788 Y134.769
G01 X195.043 Y135.006
G01 X195.287 Y135.255
G01 X195.518 Y135.516
G01 X195.737 Y135.789
G01 X195.942 Y136.072
G01 X196.133 Y136.365
G01 X196.309 Y136.667
G01 X196.471 Y136.978
G01 X196.617 Y137.297
G01 X196.747 Y137.623
G01 X196.862 Y137.955
G01 X196.960 Y138.293
G01 X197.042 Y138.635
G01 X197.106 Y138.981
G01 X197.154 Y139.331
G01 X197.184 Y139.682
G01 X197.198 Y140.035
G01 X197.195 Y140.356
G01 X196.382 Y140.440
G01 X196.353 Y140.753
G01 X196.308 Y141.064
G01 X196.249 Y141.372
G01 X196.174 Y141.677
G01 X196.084 Y141.978
G01 X195.980 Y142.274
G01 X195.861 Y142.565
G01 X195.728 Y142.849
G01 X195.581 Y143.127
G01 X195.421 Y143.397
G01 X195.248 Y143.659
G01 X195.062 Y143.912
G01 X194.864 Y144.156
G01 X194.654 Y144.389
G01 X194.433 Y144.612
G01 X194.202 Y144.824
G01 X193.960 Y145.025
G01 X193.708 Y145.213
G01 X193.448 Y145.389
G01 X193.180 Y145.551
G01 X192.903 Y145.701
G01 X192.620 Y145.836
G01 X192.331 Y145.958
G01 X192.035 Y146.065
G01 X191.735 Y146.158
G01 X191.431 Y146.235
G01 X191.124 Y146.298
G01 X190.813 Y146.346
G01 X190.501 Y146.378
G01 X190.187 Y146.395
G01 X189.873 Y146.396
G01 X189.560 Y146.382
G01 X189.247 Y146.353
G01 X188.936 Y146.308
G01 X188.628 Y146.249
G01 X188.323 Y146.174
G01 X188.022 Y146.084
G01 X187.726 Y145.980
G01 X187.435 Y145.861
G01 X187.151 Y145.728
G01 X186.873 Y145.581
G01 X186.603 Y145.421
G01 X186.341 Y145.248
G01 X186.088 Y145.062
G01 X185.844 Y144.864
G01 X185.611 Y144.654
G01 X185.388 Y144.433
G01 X185.176 Y144.202
G01 X184.975 Y143.960
G01 X184.787 Y143.708
G01 X184.611 Y143.448
G01 X184.449 Y143.180
G01 X184.299 Y142.903
G01 X184.164 Y142.620
G01 X184.042 Y142.331
G01 X183.935 Y142.035
G01 X183.842 Y141.735
G01 X183.765 Y141.431
G01 X183.702 Y141.124
G01 X183.654 Y140.813
G01 X183.622 Y140.501
G01 X183.605 Y140.187
G01 X183.604 Y139.873
G01 X183.610 Y139.696
G01 X182.411 Y139.498
G01 X182.439 Y139.126
G01 X182.485 Y138.755
G01 X182.549 Y138.386
G01 X182.631 Y138.021
G01 X182.731 Y137.660
G01 X182.849 Y137.304
G01 X182.984 Y136.954
G01 X183.136 Y136.610
G01 X183.305 Y136.275
G01 X183.491 Y135.947
G01 X183.692 Y135.629
G01 X183.909 Y135.321
G01 X184.142 Y135.024
G01 X184.388 Y134.738
G01 X184.649 Y134.465
G01 X184.923 Y134.204
G01 X185.209 Y133.957
G01 X185.508 Y133.724
G01 X185.818 Y133.506
G01 X186.139 Y133.303
G01 X186.469 Y133.116
G01 X186.808 Y132.946
G01 X187.156 Y132.792
G01 X187.511 Y132.655
G01 X187.873 Y132.536
G01 X188.240 Y132.434
G01 X188.613 Y132.351
G01 X188.989 Y132.286
G01 X189.368 Y132.239
G01 X189.749 Y132.211
G01 X190.132 Y132.202
G01 X190.515 Y132.212
G01 X190.897 Y132.240
G01 X191.278 Y132.287
G01 X191.656 Y132.353
G01 X192.031 Y132.438
G01 X192.401 Y132.540
G01 X192.767 Y132.661
G01 X193.126 Y132.800
G01 X193.478 Y132.957
G01 X193.823 Y133.130
G01 X194.158 Y133.321
G01 X194.485 Y133.528
G01 X194.801 Y133.751
G01 X195.106 Y133.989
G01 X195.399 Y134.242
G01 X195.679 Y134.510
G01 X195.946 Y134.791
G01 X196.200 Y135.085
G01 X196.438 Y135.392
G01 X196.662 Y135.710
G01 X196.870 Y136.039
G01 X197.062 Y136.378
G01 X197.237 Y136.726
G01 X197.394 Y137.083
G01 X197.534 Y137.447
G01 X197.657 Y137.818
G01 X197.761 Y138.195
G01 X197.846 Y138.577
G01 X197.912 Y138.963
G01 X197.960 Y139.352
G01 X197.989 Y139.743
G01 X197.998 Y140.135
G01 X197.994 Y140.371
G01 X199.577 Y140.612
G01 X199.535 Y141.081
G01 X199.471 Y141.548
G01 X199.383 Y142.011
G01 X199.273 Y142.469
G01 X199.141 Y142.921
G01 X198.987 Y143.366
G01 X198.811 Y143.803
G01 X198.613 Y144.230
G01 X198.395 Y144.648
G01 X198.157 Y145.054
G01 X197.899 Y145.448
G01 X197.623 Y145.829
G01 X197.327 Y146.196
G01 X197.014 Y146.549
G01 X196.685 Y146.885
G01 X196.339 Y147.205
G01 X195.978 Y147.507
G01 X195.602 Y147.791
G01 X195.213 Y148.057
G01 X194.812 Y148.303
G01 X194.398 Y148.529
G01 X193.975 Y148.734
G01 X193.541 Y148.919
G01 X193.099 Y149.082
G01 X192.650 Y149.223
G01 X192.194 Y149.342
G01 X191.733 Y149.438
G01 X191.268 Y149.512
G01 X190.800 Y149.563
G01 X190.329 Y149.591
G01 X189.859 Y149.595
G01 X189.388 Y149.577
G01 X188.919 Y149.535
G01 X188.452 Y149.471
G01 X187.989 Y149.383
G01 X187.531 Y149.273
G01 X187.079 Y149.141
G01 X186.634 Y148.987
G01 X186.197 Y148.811
G01 X185.770 Y148.613
G01 X185.352 Y148.395
G01 X184.946 Y148.157
G01 X184.552 Y147.899
G01 X184.171 Y147.623
G01 X183.804 Y147.327
G01 X183.451 Y147.014
G01 X183.115 Y146.685
G01 X182.795 Y146.339
G01 X182.493 Y145.978
G01 X182.209 Y145.602
G01 X181.943 Y145.213
G01 X181.697 Y144.812
G01 X181.471 Y144.398
G01 X181.266 Y143.975
G01 X181.081 Y143.541
G01 X180.918 Y143.099
G01 X180.777 Y142.650
G01 X180.658 Y142.194
G01 X180.562 Y141.733
G01 X180.488 Y141.268
G01 X180.437 Y140.800
G01 X180.409 Y140.329
G01 X180.405 Y139.859
G01 X180.414 Y139.562
G01 X181.612 Y139.477
G01 X181.641 Y139.065
G01 X181.691 Y138.655
G01 X181.761 Y138.248
G01 X181.851 Y137.844
G01 X181.961 Y137.445
G01 X182.090 Y137.051
G01 X182.238 Y136.664
G01 X182.406 Y136.285
G01 X182.592 Y135.913
G01 X182.796 Y135.552
G01 X183.018 Y135.200
G01 X183.257 Y134.859
G01 X183.512 Y134.531
G01 X183.784 Y134.214
G01 X184.071 Y133.912
G01 X184.373 Y133.624
G01 X184.688 Y133.350
G01 X185.017 Y133.093
G01 X185.359 Y132.851
G01 X185.712 Y132.627
G01 X186.076 Y132.420
G01 X186.450 Y132.231
G01 X186.833 Y132.060
G01 X187.225 Y131.908
G01 X187.623 Y131.776
G01 X188.028 Y131.663
G01 X188.439 Y131.570
G01 X188.853 Y131.498
G01 X189.271 Y131.445
G01 X189.692 Y131.414
G01 X190.114 Y131.403
G01 X190.536 Y131.412
G01 X190.957 Y131.443
G01 X191.377 Y131.494
G01 X191.794 Y131.565
G01 X192.207 Y131.658
G01 X192.616 Y131.770
G01 X193.019 Y131.902
G01 X193.415 Y132.055
G01 X193.803 Y132.226
G01 X194.183 Y132.417
G01 X194.554 Y132.626
G01 X194.913 Y132.853
G01 X195.262 Y133.098
G01 X195.598 Y133.359
G01 X195.922 Y133.637
G01 X196.231 Y133.931
G01 X196.526 Y134.240
G01 X196.806 Y134.563
G01 X197.070 Y134.900
G01 X197.316 Y135.250
G01 X197.546 Y135.611
G01 X197.758 Y135.984
G01 X197.951 Y136.367
G01 X198.126 Y136.759
G01 X198.281 Y137.160
G01 X198.416 Y137.568
G01 X198.532 Y137.982
G01 X198.626 Y138.402
G01 X198.701 Y138.827
G01 X198.754 Y139.254
G01 X198.786 Y139.685
G01 X198.797 Y140.116
G01 X198.788 Y140.540
G01 X199.568 Y140.741
G01 X199.520 Y141.210
G01 X199.449 Y141.675
G01 X199.355 Y142.137
G01 X199.239 Y142.593
G01 X199.101 Y143.043
G01 X198.940 Y143.486
G01 X198.759 Y143.921
G01 X198.556 Y144.346
G01 X198.332 Y144.760
G01 X198.088 Y145.164
G01 X197.825 Y145.554
G01 X197.543 Y145.932
G01 X197.243 Y146.295
G01 X196.926 Y146.642
G01 X196.591 Y146.974
G01 X196.241 Y147.289
G01 X195.876 Y147.587
G01 X195.497 Y147.866
G01 X195.104 Y148.126
G01 X194.699 Y148.367
G01 X194.283 Y148.587
G01 X193.857 Y148.787
G01 X193.421 Y148.966
G01 X192.977 Y149.123
G01 X192.526 Y149.258
G01 X192.068 Y149.371
G01 X191.606 Y149.461
G01 X191.140 Y149.528
G01 X190.671 Y149.573
G01 X190.200 Y149.594
G01 X189.729 Y149.592
G01 X189.259 Y149.568
G01 X188.790 Y149.520
G01 X188.325 Y149.449
G01 X187.863 Y149.355
G01 X187.407 Y149.239
G01 X186.957 Y149.101
G01 X186.514 Y148.940
G01 X186.079 Y148.759
G01 X185.654 Y148.556
G01 X185.240 Y148.332
G01 X184.836 Y148.088
G01 X184.446 Y147.825
G01 X184.068 Y147.543
G01 X183.705 Y147.243
G01 X183.358 Y146.926
G01 X183.026 Y146.591
G01 X182.711 Y146.241
G01 X182.413 Y145.876
G01 X182.134 Y145.497
G01 X181.874 Y145.104
G01 X181.633 Y144.699
G01 X181.413 Y144.283
G01 X181.213 Y143.857
G01 X181.034 Y143.421
G01 X180.877 Y142.977
G01 X180.742 Y142.526
G01 X180.629 Y142.068
G01 X180.539 Y141.606
G01 X180.472 Y141.140
G01 X180.427 Y140.671
G01 X180.406 Y140.200
G01 X180.408 Y139.729
G01 X180.422 Y139.416
G01 X180.821 Y139.300
G01 X180.860 Y138.850
G01 X180.921 Y138.401
G01 X181.004 Y137.956
G01 X181.110 Y137.516
G01 X181.236 Y137.081
G01 X181.384 Y136.652
G01 X181.553 Y136.231
G01 X181.743 Y135.818
G01 X181.952 Y135.415
G01 X182.182 Y135.022
G01 X182.430 Y134.641
G01 X182.698 Y134.272
G01 X182.983 Y133.916
G01 X183.285 Y133.575
G01 X183.604 Y133.249
G01 X183.939 Y132.938
G01 X184.289 Y132.645
G01 X184.653 Y132.368
G01 X185.031 Y132.110
G01 X185.421 Y131.870
G01 X185.823 Y131.649
G01 X186.235 Y131.449
G01 X186.657 Y131.268
G01 X187.087 Y131.109
G01 X187.525 Y130.971
G01 X187.970 Y130.854
G01 X188.420 Y130.759
G01 X188.875 Y130.687
G01 X189.333 Y130.637
G01 X189.793 Y130.609
G01 X190.254 Y130.604
G01 X190.715 Y130.621
G01 X191.175 Y130.662
G01 X191.633 Y130.724
G01 X192.088 Y130.810
G01 X192.538 Y130.917
G01 X192.983 Y131.047
G01 X193.421 Y131.198
G01 X193.851 Y131.371
G01 X194.272 Y131.564
G01 X194.684 Y131.779
G01 X195.085 Y132.013
G01 X195.475 Y132.267
G01 X195.852 Y132.540
G01 X196.215 Y132.832
G01 X196.563 Y133.141
G01 X196.896 Y133.467
G01 X197.213 Y133.809
G01 X197.513 Y134.167
G01 X197.796 Y134.539
G01 X198.060 Y134.924
G01 X198.304 Y135.323
G01 X198.529 Y135.733
G01 X198.734 Y136.154
G01 X198.918 Y136.585
G01 X199.081 Y137.025
G01 X199.222 Y137.473
G01 X199.341 Y137.927
G01 X199.438 Y138.387
G01 X199.512 Y138.851
G01 X199.563 Y139.319
G01 X199.591 Y139.788
G01 X199.596 Y140.259
G01 X199.586 Y140.584
G01 X199.569 Y140.723
G01 X199.522 Y141.192
G01 X199.452 Y141.658
G01 X199.359 Y142.119
G01 X199.244 Y142.576
G01 X199.106 Y143.027
G01 X198.947 Y143.470
G01 X198.766 Y143.905
G01 X198.564 Y144.330
G01 X198.341 Y144.745
G01 X198.098 Y145.149
G01 X197.836 Y145.540
G01 X197.554 Y145.918
G01 X197.255 Y146.281
G01 X196.938 Y146.629
G01 X196.604 Y146.962
G01 X196.255 Y147.278
G01 X195.890 Y147.576
G01 X195.511 Y147.856
G01 X195.119 Y148.117
G01 X194.715 Y148.358
G01 X194.299 Y148.579
G01 X193.873 Y148.780
G01 X193.437 Y148.959
G01 X192.994 Y149.117
G01 X192.543 Y149.253
G01 X192.086 Y149.367
G01 X191.624 Y149.458
G01 X191.157 Y149.526
G01 X190.689 Y149.571
G01 X190.218 Y149.594
G01 X189.747 Y149.593
G01 X189.277 Y149.569
G01 X188.808 Y149.522
G01 X188.342 Y149.452
G01 X187.881 Y149.359
G01 X187.424 Y149.244
G01 X186.973 Y149.106
G01 X186.530 Y148.947
G01 X186.095 Y148.766
G01 X185.670 Y148.564
G01 X185.255 Y148.341
G01 X184.851 Y148.098
G01 X184.460 Y147.836
G01 X184.082 Y147.554
G01 X183.719 Y147.255
G01 X183.371 Y146.938
G01 X183.038 Y146.604
G01 X182.722 Y146.255
G01 X182.424 Y145.890
G01 X182.144 Y145.511
G01 X181.883 Y145.119
G01 X181.642 Y144.715
G01 X181.421 Y144.299
G01 X181.220 Y143.873
G01 X181.041 Y143.437
G01 X180.883 Y142.994
G01 X180.747 Y142.543
G01 X180.633 Y142.086
G01 X180.542 Y141.624
G01 X180.474 Y141.157
G01 X180.429 Y140.689
G01 X180.406 Y140.218
G01 X180.407 Y139.747
G01 X180.422 Y139.413
G01 X180.023 Y139.248
G01 X180.065 Y138.759
G01 X180.132 Y138.272
G01 X180.223 Y137.788
G01 X180.337 Y137.309
G01 X180.475 Y136.836
G01 X180.636 Y136.371
G01 X180.819 Y135.913
G01 X181.025 Y135.465
G01 X181.253 Y135.027
G01 X181.503 Y134.600
G01 X181.773 Y134.186
G01 X182.063 Y133.785
G01 X182.373 Y133.399
G01 X182.701 Y133.029
G01 X183.048 Y132.675
G01 X183.412 Y132.337
G01 X183.792 Y132.019
G01 X184.187 Y131.718
G01 X184.597 Y131.438
G01 X185.021 Y131.178
G01 X185.457 Y130.938
G01 X185.904 Y130.721
G01 X186.362 Y130.525
G01 X186.830 Y130.352
G01 X187.305 Y130.202
G01 X187.788 Y130.076
G01 X188.277 Y129.973
G01 X188.770 Y129.894
G01 X189.267 Y129.840
G01 X189.766 Y129.810
G01 X190.267 Y129.804
G01 X190.767 Y129.823
G01 X191.266 Y129.867
G01 X191.763 Y129.935
G01 X192.256 Y130.028
G01 X192.744 Y130.145
G01 X193.227 Y130.285
G01 X193.702 Y130.449
G01 X194.168 Y130.637
G01 X194.626 Y130.847
G01 X195.072 Y131.080
G01 X195.507 Y131.334
G01 X195.929 Y131.609
G01 X196.338 Y131.906
G01 X196.731 Y132.222
G01 X197.109 Y132.557
G01 X197.470 Y132.910
G01 X197.814 Y133.281
G01 X198.139 Y133.669
G01 X198.445 Y134.072
G01 X198.731 Y134.491
G01 X198.996 Y134.923
G01 X199.240 Y135.367
G01 X199.462 Y135.824
G01 X199.662 Y136.291
G01 X199.838 Y136.767
G01 X199.991 Y137.252
G01 X200.120 Y137.745
G01 X200.224 Y138.243
G01 X200.304 Y138.746
G01 X200.360 Y139.252
G01 X200.390 Y139.762
G01 X200.396 Y140.272
G01 X200.384 Y140.644
G01 X199.569 Y140.722
G01 X199.522 Y141.191
G01 X199.452 Y141.657
G01 X199.359 Y142.119
G01 X199.244 Y142.575
G01 X199.107 Y143.026
G01 X198.947 Y143.469
G01 X198.766 Y143.904
G01 X198.564 Y144.329
G01 X198.341 Y144.744
G01 X198.098 Y145.148
G01 X197.836 Y145.539
G01 X197.555 Y145.917
G01 X197.255 Y146.280
G01 X196.939 Y146.629
G01 X196.605 Y146.961
G01 X196.255 Y147.277
G01 X195.891 Y147.575
G01 X195.512 Y147.855
G01 X195.120 Y148.116
G01 X194.716 Y148.358
G01 X194.300 Y148.579
G01 X193.874 Y148.780
G01 X193.438 Y148.959
G01 X192.994 Y149.117
G01 X192.543 Y149.253
G01 X192.086 Y149.367
G01 X191.624 Y149.458
G01 X191.158 Y149.526
G01 X190.689 Y149.571
G01 X190.219 Y149.594
G01 X189.748 Y149.593
G01 X189.278 Y149.569
G01 X188.809 Y149.522
G01 X188.343 Y149.452
G01 X187.881 Y149.359
G01 X187.425 Y149.244
G01 X186.974 Y149.107
G01 X186.531 Y148.947
G01 X186.096 Y148.766
G01 X185.671 Y148.564
G01 X185.256 Y148.341
G01 X184.852 Y148.098
G01 X184.461 Y147.836
G01 X184.083 Y147.555
G01 X183.720 Y147.255
G01 X183.371 Y146.939
G01 X183.039 Y146.605
G01 X182.723 Y146.255
G01 X182.425 Y145.891
G01 X182.145 Y145.512
G01 X181.884 Y145.120
G01 X181.642 Y144.716
G01 X181.421 Y144.300
G01 X181.220 Y143.874
G01 X181.041 Y143.438
G01 X180.883 Y142.994
G01 X180.747 Y142.543
G01 X180.633 Y142.086
G01 X180.542 Y141.624
G01 X180.474 Y141.158
G01 X180.429 Y140.689
G01 X180.406 Y140.219
G01 X180.407 Y139.748
G01 X180.431 Y139.278
G01 X180.431 Y139.273
G01 X179.236 Y139.042
G01 X179.289 Y138.514
G01 X179.369 Y137.989
G01 X179.474 Y137.468
G01 X179.605 Y136.953
G01 X179.761 Y136.445
G01 X179.942 Y135.944
G01 X180.148 Y135.453
G01 X180.377 Y134.972
G01 X180.630 Y134.503
G01 X180.906 Y134.046
G01 X181.204 Y133.604
G01 X181.524 Y133.176
G01 X181.864 Y132.764
G01 X182.224 Y132.369
G01 X182.604 Y131.992
G01 X183.002 Y131.634
G01 X183.417 Y131.296
G01 X183.848 Y130.978
G01 X184.295 Y130.682
G01 X184.756 Y130.408
G01 X185.231 Y130.156
G01 X185.717 Y129.928
G01 X186.214 Y129.725
G01 X186.721 Y129.545
G01 X187.236 Y129.391
G01 X187.759 Y129.262
G01 X188.288 Y129.159
G01 X188.821 Y129.082
G01 X189.358 Y129.031
G01 X189.897 Y129.006
G01 X190.437 Y129.008
G01 X190.976 Y129.036
G01 X191.514 Y129.091
G01 X192.048 Y129.173
G01 X192.578 Y129.280
G01 X193.103 Y129.414
G01 X193.621 Y129.573
G01 X194.130 Y129.757
G01 X194.631 Y129.966
G01 X195.120 Y130.200
G01 X195.598 Y130.458
G01 X196.063 Y130.739
G01 X196.514 Y131.042
G01 X196.949 Y131.368
G01 X197.369 Y131.715
G01 X197.771 Y132.082
G01 X198.155 Y132.468
G01 X198.519 Y132.874
G01 X198.864 Y133.296
G01 X199.187 Y133.736
G01 X199.489 Y134.191
G01 X199.768 Y134.661
G01 X200.023 Y135.144
G01 X200.255 Y135.639
G01 X200.463 Y136.145
G01 X200.645 Y136.661
G01 X200.803 Y137.186
G01 X200.934 Y137.718
G01 X201.039 Y138.256
G01 X201.117 Y138.800
G01 X201.169 Y139.346
G01 X201.194 Y139.895
G01 X201.192 Y140.444
G01 X201.172 Y140.857
G01 X202.744 Y141.138
G01 X202.673 Y141.762
G01 X202.571 Y142.382
G01 X202.439 Y142.996
G01 X202.277 Y143.603
G01 X202.086 Y144.201
G01 X201.865 Y144.789
G01 X201.616 Y145.365
G01 X201.338 Y145.929
G01 X201.034 Y146.478
G01 X200.703 Y147.011
G01 X200.346 Y147.528
G01 X199.964 Y148.027
G01 X199.558 Y148.506
G01 X199.129 Y148.965
G01 X198.678 Y149.402
G01 X198.207 Y149.816
G01 X197.715 Y150.207
G01 X197.205 Y150.573
G01 X196.677 Y150.914
G01 X196.134 Y151.229
G01 X195.576 Y151.516
G01 X195.004 Y151.776
G01 X194.420 Y152.007
G01 X193.825 Y152.210
G01 X193.222 Y152.383
G01 X192.610 Y152.526
G01 X191.993 Y152.639
G01 X191.370 Y152.721
G01 X190.744 Y152.773
G01 X190.116 Y152.794
G01 X189.489 Y152.785
G01 X188.862 Y152.744
G01 X188.238 Y152.673
G01 X187.618 Y152.571
G01 X187.004 Y152.439
G01 X186.397 Y152.277
G01 X185.799 Y152.086
G01 X185.211 Y151.865
G01 X184.635 Y151.616
G01 X184.071 Y151.338
G01 X183.522 Y151.034
G01 X182.989 Y150.703
G01 X182.472 Y150.346
G01 X181.973 Y149.964
G01 X181.494 Y149.558
G01 X181.035 Y149.129
G01 X180.598 Y148.678
G01 X180.184 Y148.207
G01 X179.793 Y147.715
G01 X179.427 Y147.205
G01 X179.086 Y146.677
G01 X178.771 Y146.134
G01 X178.484 Y145.576
G01 X178.224 Y145.004
G01 X177.993 Y144.420
G01 X177.790 Y143.825
G01 X177.617 Y143.222
G01 X177.474 Y142.610
G01 X177.361 Y141.993
G01 X177.279 Y141.370
G01 X177.227 Y140.744
G01 X177.206 Y140.116
G01 X177.215 Y139.489
G01 X177.244 Y139.008
G01 X178.440 Y138.961
G01 X178.499 Y138.394
G01 X178.585 Y137.830
G01 X178.699 Y137.271
G01 X178.841 Y136.718
G01 X179.009 Y136.173
G01 X179.205 Y135.636
G01 X179.426 Y135.108
G01 X179.673 Y134.593
G01 X179.946 Y134.089
G01 X180.243 Y133.600
G01 X180.563 Y133.125
G01 X180.907 Y132.666
G01 X181.273 Y132.225
G01 X181.661 Y131.802
G01 X182.069 Y131.398
G01 X182.497 Y131.014
G01 X182.943 Y130.652
G01 X183.407 Y130.312
G01 X183.887 Y129.994
G01 X184.382 Y129.701
G01 X184.891 Y129.432
G01 X185.414 Y129.188
G01 X185.948 Y128.970
G01 X186.492 Y128.779
G01 X187.045 Y128.614
G01 X187.606 Y128.477
G01 X188.173 Y128.367
G01 X188.746 Y128.285
G01 X189.322 Y128.232
G01 X189.900 Y128.206
G01 X190.479 Y128.209
G01 X191.057 Y128.241
G01 X191.634 Y128.301
G01 X192.207 Y128.389
G01 X192.776 Y128.505
G01 X193.338 Y128.649
G01 X193.893 Y128.821
G01 X194.439 Y129.019
G01 X194.976 Y129.245
G01 X195.500 Y129.496
G01 X196.012 Y129.773
G01 X196.510 Y130.075
G01 X196.993 Y130.402
G01 X197.459 Y130.752
G01 X197.908 Y131.124
G01 X198.339 Y131.518
G01 X198.749 Y131.934
G01 X199.139 Y132.369
G01 X199.508 Y132.822
G01 X199.854 Y133.294
G01 X200.176 Y133.782
G01 X200.475 Y134.286
G01 X200.748 Y134.804
G01 X200.996 Y135.336
G01 X201.217 Y135.879
G01 X201.412 Y136.432
G01 X201.579 Y136.995
G01 X201.719 Y137.565
G01 X201.830 Y138.142
G01 X201.914 Y138.724
G01 X201.968 Y139.310
G01 X201.994 Y139.898
G01 X201.991 Y140.487
G01 X201.968 Y140.946
G01 X202.742 Y141.157
G01 X202.670 Y141.781
G01 X202.568 Y142.400
G01 X202.435 Y143.014
G01 X202.272 Y143.621
G01 X202.079 Y144.219
G01 X201.858 Y144.806
G01 X201.608 Y145.382
G01 X201.330 Y145.945
G01 X201.024 Y146.494
G01 X200.692 Y147.027
G01 X200.335 Y147.543
G01 X199.952 Y148.041
G01 X199.546 Y148.520
G01 X199.116 Y148.978
G01 X198.664 Y149.415
G01 X198.192 Y149.828
G01 X197.700 Y150.219
G01 X197.189 Y150.584
G01 X196.661 Y150.924
G01 X196.117 Y151.238
G01 X195.558 Y151.524
G01 X194.986 Y151.783
G01 X194.402 Y152.014
G01 X193.807 Y152.215
G01 X193.203 Y152.387
G01 X192.592 Y152.530
G01 X191.974 Y152.642
G01 X191.351 Y152.723
G01 X190.725 Y152.774
G01 X190.097 Y152.795
G01 X189.470 Y152.784
G01 X188.843 Y152.742
G01 X188.219 Y152.670
G01 X187.600 Y152.568
G01 X186.986 Y152.435
G01 X186.379 Y152.272
G01 X185.781 Y152.079
G01 X185.194 Y151.858
G01 X184.618 Y151.608
G01 X184.055 Y151.330
G01 X183.506 Y151.024
G01 X182.973 Y150.692
G01 X182.457 Y150.335
G01 X181.959 Y149.952
G01 X181.480 Y149.546
G01 X181.022 Y149.116
G01 X180.585 Y148.664
G01 X180.172 Y148.192
G01 X179.781 Y147.700
G01 X179.416 Y147.189
G01 X179.076 Y146.661
G01 X178.762 Y146.117
G01 X178.476 Y145.558
G01 X178.217 Y144.986
G01 X177.986 Y144.402
G01 X177.785 Y143.807
G01 X177.613 Y143.203
G01 X177.470 Y142.592
G01 X177.358 Y141.974
G01 X177.277 Y141.351
G01 X177.226 Y140.725
G01 X177.205 Y140.097
G01 X177.216 Y139.470
G01 X177.246 Y138.972
G01 X177.645 Y138.864
G01 X177.710 Y138.258
G01 X177.804 Y137.656
G01 X177.928 Y137.059
G01 X178.080 Y136.469
G01 X178.262 Y135.886
G01 X178.472 Y135.313
G01 X178.711 Y134.750
G01 X178.976 Y134.199
G01 X179.269 Y133.662
G01 X179.588 Y133.140
G01 X179.932 Y132.634
G01 X180.300 Y132.145
G01 X180.693 Y131.674
G01 X181.108 Y131.223
G01 X181.545 Y130.792
G01 X182.003 Y130.384
G01 X182.481 Y129.998
G01 X182.977 Y129.636
G01 X183.491 Y129.299
G01 X184.021 Y128.987
G01 X184.566 Y128.701
G01 X185.124 Y128.442
G01 X185.695 Y128.211
G01 X186.277 Y128.008
G01 X186.868 Y127.834
G01 X187.468 Y127.689
G01 X188.074 Y127.573
G01 X188.686 Y127.487
G01 X189.301 Y127.432
G01 X189.918 Y127.406
G01 X190.537 Y127.411
G01 X191.154 Y127.446
G01 X191.770 Y127.512
G01 X192.382 Y127.608
G01 X192.988 Y127.733
G01 X193.588 Y127.889
G01 X194.180 Y128.074
G01 X194.763 Y128.287
G01 X195.334 Y128.529
G01 X195.894 Y128.799
G01 X196.439 Y129.097
G01 X196.970 Y129.421
G01 X197.484 Y129.770
G01 X197.981 Y130.145
G01 X198.459 Y130.544
G01 X198.918 Y130.966
G01 X199.355 Y131.410
G01 X199.770 Y131.876
G01 X200.162 Y132.361
G01 X200.529 Y132.865
G01 X200.872 Y133.387
G01 X201.189 Y133.926
G01 X201.479 Y134.479
G01 X201.742 Y135.047
G01 X201.977 Y135.627
G01 X202.183 Y136.218
G01 X202.360 Y136.819
G01 X202.507 Y137.428
G01 X202.625 Y138.044
G01 X202.712 Y138.665
G01 X202.768 Y139.290
G01 X202.794 Y139.917
G01 X202.789 Y140.545
G01 X202.762 Y141.050
G01 X202.740 Y141.189
G01 X202.666 Y141.813
G01 X202.562 Y142.432
G01 X202.427 Y143.045
G01 X202.263 Y143.652
G01 X202.069 Y144.249
G01 X201.846 Y144.836
G01 X201.594 Y145.411
G01 X201.315 Y145.974
G01 X201.008 Y146.522
G01 X200.675 Y147.054
G01 X200.316 Y147.569
G01 X199.932 Y148.066
G01 X199.524 Y148.544
G01 X199.093 Y149.001
G01 X198.641 Y149.436
G01 X198.167 Y149.849
G01 X197.674 Y150.238
G01 X197.163 Y150.602
G01 X196.634 Y150.941
G01 X196.089 Y151.253
G01 X195.530 Y151.538
G01 X194.957 Y151.796
G01 X194.372 Y152.025
G01 X193.777 Y152.225
G01 X193.172 Y152.395
G01 X192.560 Y152.536
G01 X191.942 Y152.647
G01 X191.319 Y152.727
G01 X190.693 Y152.776
G01 X190.065 Y152.795
G01 X189.438 Y152.783
G01 X188.811 Y152.740
G01 X188.187 Y152.666
G01 X187.568 Y152.562
G01 X186.955 Y152.427
G01 X186.348 Y152.263
G01 X185.751 Y152.069
G01 X185.164 Y151.846
G01 X184.589 Y151.594
G01 X184.026 Y151.315
G01 X183.478 Y151.008
G01 X182.946 Y150.675
G01 X182.431 Y150.316
G01 X181.934 Y149.932
G01 X181.456 Y149.524
G01 X180.999 Y149.093
G01 X180.564 Y148.641
G01 X180.151 Y148.167
G01 X179.762 Y147.674
G01 X179.398 Y147.163
G01 X179.059 Y146.634
G01 X178.747 Y146.089
G01 X178.462 Y145.530
G01 X178.204 Y144.957
G01 X177.975 Y144.372
G01 X177.775 Y143.777
G01 X177.605 Y143.172
G01 X177.464 Y142.560
G01 X177.353 Y141.942
G01 X177.273 Y141.319
G01 X177.224 Y140.693
G01 X177.205 Y140.065
G01 X177.217 Y139.438
G01 X177.250 Y138.926
G01 X176.852 Y138.752
G01 X176.923 Y138.108
G01 X177.026 Y137.467
G01 X177.160 Y136.832
G01 X177.324 Y136.204
G01 X177.520 Y135.584
G01 X177.746 Y134.975
G01 X178.002 Y134.377
G01 X178.287 Y133.792
G01 X178.600 Y133.222
G01 X178.941 Y132.667
G01 X179.309 Y132.130
G01 X179.703 Y131.611
G01 X180.123 Y131.111
G01 X180.566 Y130.633
G01 X181.033 Y130.177
G01 X181.522 Y129.744
G01 X182.032 Y129.335
G01 X182.561 Y128.952
G01 X183.109 Y128.595
G01 X183.674 Y128.265
G01 X184.255 Y127.963
G01 X184.850 Y127.690
G01 X185.458 Y127.446
G01 X186.078 Y127.232
G01 X186.707 Y127.049
G01 X187.345 Y126.897
G01 X187.991 Y126.776
G01 X188.641 Y126.688
G01 X189.296 Y126.631
G01 X189.953 Y126.606
G01 X190.610 Y126.614
G01 X191.267 Y126.653
G01 X191.921 Y126.725
G01 X192.571 Y126.830
G01 X193.216 Y126.965
G01 X193.853 Y127.133
G01 X194.482 Y127.332
G01 X195.101 Y127.561
G01 X195.708 Y127.821
G01 X196.301 Y128.110
G01 X196.880 Y128.428
G01 X197.443 Y128.774
G01 X197.989 Y129.148
G01 X198.516 Y129.548
G01 X199.022 Y129.974
G01 X199.508 Y130.425
G01 X199.971 Y130.898
G01 X200.410 Y131.395
G01 X200.825 Y131.912
G01 X201.214 Y132.449
G01 X201.576 Y133.006
G01 X201.911 Y133.579
G01 X202.217 Y134.169
G01 X202.495 Y134.773
G01 X202.742 Y135.390
G01 X202.959 Y136.019
G01 X203.145 Y136.658
G01 X203.299 Y137.306
G01 X203.421 Y137.961
G01 X203.511 Y138.621
G01 X203.569 Y139.285
G01 X203.594 Y139.952
G01 X203.586 Y140.619
G01 X203.546 Y141.286
G01 X203.544 Y141.310
G01 X202.722 Y141.362
G01 X202.640 Y141.985
G01 X202.527 Y142.603
G01 X202.385 Y143.214
G01 X202.212 Y143.818
G01 X202.010 Y144.413
G01 X201.779 Y144.997
G01 X201.519 Y145.569
G01 X201.232 Y146.127
G01 X200.918 Y146.671
G01 X200.578 Y147.199
G01 X200.212 Y147.709
G01 X199.821 Y148.201
G01 X199.407 Y148.673
G01 X198.970 Y149.124
G01 X198.512 Y149.553
G01 X198.033 Y149.959
G01 X197.534 Y150.341
G01 X197.018 Y150.699
G01 X196.484 Y151.030
G01 X195.935 Y151.335
G01 X195.372 Y151.613
G01 X194.796 Y151.862
G01 X194.208 Y152.083
G01 X193.610 Y152.275
G01 X193.003 Y152.437
G01 X192.389 Y152.570
G01 X191.770 Y152.672
G01 X191.146 Y152.743
G01 X190.519 Y152.784
G01 X189.891 Y152.794
G01 X189.263 Y152.774
G01 X188.638 Y152.722
G01 X188.015 Y152.640
G01 X187.397 Y152.527
G01 X186.786 Y152.385
G01 X186.182 Y152.212
G01 X185.587 Y152.010
G01 X185.003 Y151.779
G01 X184.431 Y151.519
G01 X183.873 Y151.232
G01 X183.329 Y150.918
G01 X182.801 Y150.578
G01 X182.291 Y150.212
G01 X181.799 Y149.821
G01 X181.327 Y149.407
G01 X180.876 Y148.970
G01 X180.447 Y148.512
G01 X180.041 Y148.033
G01 X179.659 Y147.534
G01 X179.301 Y147.018
G01 X178.970 Y146.484
G01 X178.665 Y145.935
G01 X178.387 Y145.372
G01 X178.138 Y144.796
G01 X177.917 Y144.208
G01 X177.725 Y143.610
G01 X177.563 Y143.003
G01 X177.430 Y142.389
G01 X177.328 Y141.770
G01 X177.257 Y141.146
G01 X177.216 Y140.519
G01 X177.206 Y139.891
G01 X177.226 Y139.263
G01 X177.267 Y138.744
G01 X176.074 Y138.486
G01 X176.159 Y137.803
G01 X176.277 Y137.125
G01 X176.429 Y136.454
G01 X176.613 Y135.790
G01 X176.830 Y135.136
G01 X177.079 Y134.494
G01 X177.359 Y133.864
G01 X177.670 Y133.248
G01 X178.011 Y132.648
G01 X178.381 Y132.065
G01 X178.779 Y131.500
G01 X179.205 Y130.956
G01 X179.657 Y130.433
G01 X180.135 Y129.932
G01 X180.636 Y129.456
G01 X181.161 Y129.004
G01 X181.708 Y128.579
G01 X182.274 Y128.180
G01 X182.861 Y127.810
G01 X183.464 Y127.469
G01 X184.085 Y127.158
G01 X184.720 Y126.877
G01 X185.368 Y126.628
G01 X186.028 Y126.411
G01 X186.698 Y126.226
G01 X187.377 Y126.074
G01 X188.062 Y125.956
G01 X188.753 Y125.872
G01 X189.448 Y125.821
G01 X190.144 Y125.805
G01 X190.841 Y125.823
G01 X191.536 Y125.875
G01 X192.228 Y125.961
G01 X192.916 Y126.082
G01 X193.597 Y126.235
G01 X194.270 Y126.422
G01 X194.933 Y126.642
G01 X195.585 Y126.895
G01 X196.224 Y127.179
G01 X196.848 Y127.494
G01 X197.457 Y127.840
G01 X198.048 Y128.216
G01 X198.621 Y128.620
G01 X199.173 Y129.052
G01 X199.703 Y129.510
G01 X200.210 Y129.995
G01 X200.694 Y130.503
G01 X201.152 Y131.036
G01 X201.583 Y131.590
G01 X201.987 Y132.165
G01 X202.363 Y132.760
G01 X202.708 Y133.372
G01 X203.024 Y134.001
G01 X203.309 Y134.645
G01 X203.561 Y135.302
G01 X203.781 Y135.972
G01 X203.968 Y136.651
G01 X204.122 Y137.340
G01 X204.242 Y138.035
G01 X204.327 Y138.735
G01 X204.378 Y139.440
G01 X204.395 Y140.146
G01 X204.376 Y140.853
G01 X204.334 Y141.444
G01 X205.897 Y141.758
G01 X205.791 Y142.536
G01 X205.648 Y143.308
G01 X205.467 Y144.071
G01 X205.248 Y144.825
G01 X204.993 Y145.568
G01 X204.702 Y146.297
G01 X204.375 Y147.011
G01 X204.014 Y147.707
G01 X203.619 Y148.386
G01 X203.191 Y149.044
G01 X202.731 Y149.680
G01 X202.241 Y150.293
G01 X201.721 Y150.882
G01 X201.173 Y151.444
G01 X200.598 Y151.978
G01 X199.998 Y152.484
G01 X199.373 Y152.959
G01 X198.726 Y153.404
G01 X198.058 Y153.816
G01 X197.370 Y154.194
G01 X196.665 Y154.539
G01 X195.943 Y154.848
G01 X195.208 Y155.122
G01 X194.459 Y155.359
G01 X193.700 Y155.560
G01 X192.932 Y155.722
G01 X192.157 Y155.847
G01 X191.377 Y155.934
G01 X190.594 Y155.983
G01 X189.809 Y155.992
G01 X189.024 Y155.964
G01 X188.242 Y155.897
G01 X187.464 Y155.791
G01 X186.692 Y155.648
G01 X185.929 Y155.467
G01 X185.175 Y155.248
G01 X184.432 Y154.993
G01 X183.703 Y154.702
G01 X182.989 Y154.375
G01 X182.293 Y154.014
G01 X181.614 Y153.619
G01 X180.956 Y153.191
G01 X180.320 Y152.731
G01 X179.707 Y152.241
G01 X179.118 Y151.721
G01 X178.556 Y151.173
G01 X178.022 Y150.598
G01 X177.516 Y149.998
G01 X177.041 Y149.373
G01 X176.596 Y148.726
G01 X176.184 Y148.058
G01 X175.806 Y147.370
G01 X175.461 Y146.665
G01 X175.152 Y145.943
G01 X174.878 Y145.208
G01 X174.641 Y144.459
G01 X174.440 Y143.700
G01 X174.278 Y142.932
G01 X174.153 Y142.157
G01 X174.066 Y141.377
G01 X174.017 Y140.594
G01 X174.008 Y139.809
G01 X174.036 Y139.024
G01 X174.091 Y138.361
G01 X175.285 Y138.344
G01 X175.377 Y137.622
G01 X175.506 Y136.907
G01 X175.669 Y136.197
G01 X175.867 Y135.497
G01 X176.099 Y134.807
G01 X176.365 Y134.128
G01 X176.664 Y133.464
G01 X176.995 Y132.814
G01 X177.358 Y132.181
G01 X177.752 Y131.567
G01 X178.175 Y130.972
G01 X178.628 Y130.399
G01 X179.108 Y129.848
G01 X179.615 Y129.321
G01 X180.147 Y128.820
G01 X180.704 Y128.345
G01 X181.283 Y127.898
G01 X181.884 Y127.480
G01 X182.505 Y127.091
G01 X183.145 Y126.733
G01 X183.801 Y126.407
G01 X184.473 Y126.114
G01 X185.159 Y125.853
G01 X185.858 Y125.627
G01 X186.566 Y125.435
G01 X187.284 Y125.278
G01 X188.009 Y125.156
G01 X188.739 Y125.070
G01 X189.473 Y125.020
G01 X190.209 Y125.006
G01 X190.945 Y125.028
G01 X191.679 Y125.086
G01 X192.410 Y125.180
G01 X193.135 Y125.310
G01 X193.854 Y125.476
G01 X194.564 Y125.676
G01 X195.263 Y125.912
G01 X195.951 Y126.181
G01 X196.624 Y126.484
G01 X197.283 Y126.820
G01 X197.924 Y127.188
G01 X198.546 Y127.587
G01 X199.149 Y128.016
G01 X199.730 Y128.475
G01 X200.288 Y128.962
G01 X200.822 Y129.475
G01 X201.330 Y130.015
G01 X201.811 Y130.579
G01 X202.264 Y131.166
G01 X202.688 Y131.775
G01 X203.082 Y132.405
G01 X203.444 Y133.053
G01 X203.775 Y133.718
G01 X204.072 Y134.399
G01 X204.336 Y135.095
G01 X204.565 Y135.802
G01 X204.760 Y136.520
G01 X204.919 Y137.248
G01 X205.042 Y137.982
G01 X205.129 Y138.722
G01 X205.180 Y139.466
G01 X205.194 Y140.212
G01 X205.172 Y140.957
G01 X205.123 Y141.594
G01 X205.889 Y141.823
G01 X205.781 Y142.600
G01 X205.634 Y143.371
G01 X205.450 Y144.134
G01 X205.229 Y144.888
G01 X204.970 Y145.629
G01 X204.676 Y146.357
G01 X204.347 Y147.069
G01 X203.982 Y147.765
G01 X203.585 Y148.441
G01 X203.154 Y149.098
G01 X202.692 Y149.732
G01 X202.199 Y150.343
G01 X201.677 Y150.929
G01 X201.126 Y151.489
G01 X200.549 Y152.021
G01 X199.947 Y152.524
G01 X199.320 Y152.997
G01 X198.671 Y153.439
G01 X198.001 Y153.848
G01 X197.312 Y154.224
G01 X196.605 Y154.566
G01 X195.883 Y154.872
G01 X195.146 Y155.143
G01 X194.397 Y155.377
G01 X193.637 Y155.575
G01 X192.868 Y155.734
G01 X192.093 Y155.856
G01 X191.312 Y155.940
G01 X190.529 Y155.985
G01 X189.744 Y155.992
G01 X188.959 Y155.960
G01 X188.177 Y155.889
G01 X187.400 Y155.781
G01 X186.629 Y155.634
G01 X185.866 Y155.450
G01 X185.112 Y155.229
G01 X184.371 Y154.970
G01 X183.643 Y154.676
G01 X182.931 Y154.347
G01 X182.235 Y153.982
G01 X181.559 Y153.585
G01 X180.902 Y153.154
G01 X180.268 Y152.692
G01 X179.657 Y152.199
G01 X179.071 Y151.677
G01 X178.511 Y151.126
G01 X177.979 Y150.549
G01 X177.476 Y149.947
G01 X177.003 Y149.320
G01 X176.561 Y148.671
G01 X176.152 Y148.001
G01 X175.776 Y147.312
G01 X175.434 Y146.605
G01 X175.128 Y145.883
G01 X174.857 Y145.146
G01 X174.623 Y144.397
G01 X174.425 Y143.637
G01 X174.266 Y142.868
G01 X174.144 Y142.093
G01 X174.060 Y141.312
G01 X174.015 Y140.529
G01 X174.008 Y139.744
G01 X174.040 Y138.959
G01 X174.099 Y138.285
G01 X174.497 Y138.187
G01 X174.599 Y137.427
G01 X174.737 Y136.673
G01 X174.913 Y135.927
G01 X175.125 Y135.189
G01 X175.373 Y134.463
G01 X175.657 Y133.749
G01 X175.975 Y133.050
G01 X176.327 Y132.368
G01 X176.713 Y131.703
G01 X177.131 Y131.057
G01 X177.581 Y130.433
G01 X178.060 Y129.831
G01 X178.569 Y129.253
G01 X179.106 Y128.700
G01 X179.669 Y128.175
G01 X180.258 Y127.677
G01 X180.871 Y127.209
G01 X181.506 Y126.771
G01 X182.162 Y126.365
G01 X182.838 Y125.991
G01 X183.531 Y125.651
G01 X184.241 Y125.345
G01 X184.965 Y125.074
G01 X185.702 Y124.839
G01 X186.449 Y124.640
G01 X187.206 Y124.478
G01 X187.970 Y124.354
G01 X188.740 Y124.267
G01 X189.513 Y124.218
G01 X190.288 Y124.207
G01 X191.064 Y124.234
G01 X191.837 Y124.299
G01 X192.606 Y124.401
G01 X193.369 Y124.542
G01 X194.125 Y124.720
G01 X194.872 Y124.935
G01 X195.608 Y125.186
G01 X196.330 Y125.473
G01 X197.038 Y125.796
G01 X197.730 Y126.153
G01 X198.403 Y126.544
G01 X199.057 Y126.967
G01 X199.689 Y127.422
G01 X200.299 Y127.908
G01 X200.884 Y128.423
G01 X201.444 Y128.967
G01 X201.976 Y129.538
G01 X202.480 Y130.134
G01 X202.954 Y130.755
G01 X203.397 Y131.398
G01 X203.808 Y132.063
G01 X204.187 Y132.747
G01 X204.531 Y133.449
G01 X204.841 Y134.168
G01 X205.115 Y134.901
G01 X205.353 Y135.647
G01 X205.555 Y136.404
G01 X205.718 Y137.171
G01 X205.844 Y137.945
G01 X205.932 Y138.724
G01 X205.982 Y139.507
G01 X205.993 Y140.292
G01 X205.966 Y141.077
G01 X205.911 Y141.758
G01 X205.881 Y141.896
G01 X205.769 Y142.672
G01 X205.619 Y143.443
G01 X205.431 Y144.205
G01 X205.206 Y144.957
G01 X204.944 Y145.697
G01 X204.647 Y146.424
G01 X204.314 Y147.135
G01 X203.947 Y147.829
G01 X203.546 Y148.504
G01 X203.112 Y149.158
G01 X202.647 Y149.790
G01 X202.151 Y150.399
G01 X201.626 Y150.983
G01 X201.074 Y151.540
G01 X200.494 Y152.069
G01 X199.889 Y152.570
G01 X199.260 Y153.040
G01 X198.609 Y153.479
G01 X197.938 Y153.885
G01 X197.247 Y154.258
G01 X196.539 Y154.596
G01 X195.814 Y154.899
G01 X195.076 Y155.167
G01 X194.326 Y155.397
G01 X193.565 Y155.591
G01 X192.796 Y155.747
G01 X192.020 Y155.866
G01 X191.239 Y155.946
G01 X190.455 Y155.987
G01 X189.670 Y155.990
G01 X188.886 Y155.955
G01 X188.104 Y155.881
G01 X187.328 Y155.769
G01 X186.557 Y155.619
G01 X185.795 Y155.431
G01 X185.043 Y155.206
G01 X184.303 Y154.944
G01 X183.576 Y154.647
G01 X182.865 Y154.314
G01 X182.171 Y153.947
G01 X181.496 Y153.546
G01 X180.842 Y153.112
G01 X180.210 Y152.647
G01 X179.601 Y152.151
G01 X179.017 Y151.626
G01 X178.460 Y151.074
G01 X177.931 Y150.494
G01 X177.430 Y149.889
G01 X176.960 Y149.260
G01 X176.521 Y148.609
G01 X176.115 Y147.938
G01 X175.742 Y147.247
G01 X175.404 Y146.539
G01 X175.101 Y145.814
G01 X174.833 Y145.076
G01 X174.603 Y144.326
G01 X174.409 Y143.565
G01 X174.253 Y142.796
G01 X174.134 Y142.020
G01 X174.054 Y141.239
G01 X174.013 Y140.455
G01 X174.010 Y139.670
G01 X174.045 Y138.886
G01 X174.108 Y138.201
G01 X173.712 Y138.015
G01 X173.823 Y137.217
G01 X173.973 Y136.425
G01 X174.161 Y135.641
G01 X174.388 Y134.867
G01 X174.653 Y134.105
G01 X174.955 Y133.357
G01 X175.294 Y132.624
G01 X175.668 Y131.908
G01 X176.077 Y131.211
G01 X176.520 Y130.535
G01 X176.995 Y129.881
G01 X177.503 Y129.251
G01 X178.041 Y128.647
G01 X178.608 Y128.069
G01 X179.203 Y127.520
G01 X179.825 Y127.000
G01 X180.471 Y126.511
G01 X181.141 Y126.055
G01 X181.833 Y125.631
G01 X182.545 Y125.242
G01 X183.276 Y124.889
G01 X184.023 Y124.571
G01 X184.785 Y124.290
G01 X185.561 Y124.047
G01 X186.347 Y123.843
G01 X187.143 Y123.677
G01 X187.947 Y123.550
G01 X188.756 Y123.463
G01 X189.569 Y123.416
G01 X190.383 Y123.408
G01 X191.198 Y123.441
G01 X192.009 Y123.513
G01 X192.817 Y123.626
G01 X193.618 Y123.777
G01 X194.412 Y123.968
G01 X195.195 Y124.198
G01 X195.966 Y124.466
G01 X196.724 Y124.772
G01 X197.466 Y125.115
G01 X198.190 Y125.494
G01 X198.895 Y125.908
G01 X199.580 Y126.356
G01 X200.242 Y126.838
G01 X200.879 Y127.351
G01 X201.491 Y127.896
G01 X202.076 Y128.470
G01 X202.632 Y129.072
G01 X203.157 Y129.701
G01 X203.652 Y130.356
G01 X204.114 Y131.034
G01 X204.542 Y131.734
G01 X204.936 Y132.455
G01 X205.294 Y133.194
G01 X205.615 Y133.951
G01 X205.899 Y134.722
G01 X206.145 Y135.507
G01 X206.352 Y136.303
G01 X206.520 Y137.109
G01 X206.648 Y137.922
G01 X206.736 Y138.741
G01 X206.784 Y139.564
G01 X206.792 Y140.388
G01 X206.759 Y141.212
G01 X206.696 Y141.938
G01 X205.871 Y141.976
G01 X205.755 Y142.753
G01 X205.601 Y143.522
G01 X205.409 Y144.284
G01 X205.180 Y145.035
G01 X204.915 Y145.773
G01 X204.614 Y146.498
G01 X204.277 Y147.208
G01 X203.907 Y147.900
G01 X203.502 Y148.572
G01 X203.065 Y149.225
G01 X202.597 Y149.855
G01 X202.098 Y150.461
G01 X201.570 Y151.042
G01 X201.015 Y151.596
G01 X200.432 Y152.123
G01 X199.825 Y152.620
G01 X199.194 Y153.087
G01 X198.541 Y153.522
G01 X197.867 Y153.925
G01 X197.174 Y154.294
G01 X196.464 Y154.629
G01 X195.739 Y154.929
G01 X194.999 Y155.192
G01 X194.248 Y155.419
G01 X193.486 Y155.609
G01 X192.716 Y155.761
G01 X191.939 Y155.876
G01 X191.158 Y155.952
G01 X190.374 Y155.989
G01 X189.589 Y155.988
G01 X188.805 Y155.949
G01 X188.024 Y155.871
G01 X187.247 Y155.755
G01 X186.478 Y155.601
G01 X185.716 Y155.409
G01 X184.965 Y155.180
G01 X184.227 Y154.915
G01 X183.502 Y154.614
G01 X182.792 Y154.277
G01 X182.100 Y153.907
G01 X181.428 Y153.502
G01 X180.775 Y153.065
G01 X180.145 Y152.597
G01 X179.539 Y152.098
G01 X178.958 Y151.570
G01 X178.404 Y151.015
G01 X177.877 Y150.432
G01 X177.380 Y149.825
G01 X176.913 Y149.194
G01 X176.478 Y148.541
G01 X176.075 Y147.867
G01 X175.706 Y147.174
G01 X175.371 Y146.464
G01 X175.071 Y145.739
G01 X174.808 Y144.999
G01 X174.581 Y144.248
G01 X174.391 Y143.486
G01 X174.239 Y142.716
G01 X174.124 Y141.939
G01 X174.048 Y141.158
G01 X174.011 Y140.374
G01 X174.012 Y139.589
G01 X174.051 Y138.805
G01 X174.118 Y138.110
G01 X172.928 Y137.827
G01 X173.049 Y136.991
G01 X173.211 Y136.162
G01 X173.414 Y135.341
G01 X173.657 Y134.531
G01 X173.939 Y133.733
G01 X174.260 Y132.950
G01 X174.619 Y132.183
G01 X175.016 Y131.435
G01 X175.449 Y130.707
G01 X175.917 Y130.000
G01 X176.420 Y129.317
G01 X176.956 Y128.660
G01 X177.524 Y128.029
G01 X178.122 Y127.427
G01 X178.749 Y126.854
G01 X179.404 Y126.313
G01 X180.084 Y125.805
G01 X180.790 Y125.330
G01 X181.517 Y124.890
G01 X182.266 Y124.487
G01 X183.034 Y124.120
G01 X183.820 Y123.792
G01 X184.620 Y123.502
G01 X185.435 Y123.252
G01 X186.261 Y123.042
G01 X187.096 Y122.873
G01 X187.939 Y122.745
G01 X188.788 Y122.658
G01 X189.640 Y122.613
G01 X190.494 Y122.610
G01 X191.347 Y122.649
G01 X192.198 Y122.730
G01 X193.044 Y122.853
G01 X193.883 Y123.017
G01 X194.713 Y123.222
G01 X195.533 Y123.467
G01 X196.340 Y123.753
G01 X197.132 Y124.078
G01 X197.907 Y124.441
G01 X198.664 Y124.842
G01 X199.401 Y125.281
G01 X200.115 Y125.754
G01 X200.806 Y126.263
G01 X201.471 Y126.805
G01 X202.109 Y127.379
G01 X202.718 Y127.984
G01 X203.297 Y128.619
G01 X203.845 Y129.281
G01 X204.359 Y129.970
G01 X204.839 Y130.683
G01 X205.284 Y131.420
G01 X205.692 Y132.177
G01 X206.063 Y132.954
G01 X206.395 Y133.748
G01 X206.688 Y134.558
G01 X206.941 Y135.382
G01 X207.153 Y136.218
G01 X207.324 Y137.063
G01 X207.454 Y137.916
G01 X207.541 Y138.774
G01 X207.587 Y139.636
G01 X207.589 Y140.500
G01 X207.550 Y141.363
G01 X207.479 Y142.133
G01 X209.032 Y142.476
G01 X208.887 Y143.407
G01 X208.698 Y144.330
G01 X208.463 Y145.242
G01 X208.183 Y146.142
G01 X207.860 Y147.026
G01 X207.494 Y147.894
G01 X207.085 Y148.743
G01 X206.636 Y149.571
G01 X206.146 Y150.376
G01 X205.617 Y151.155
G01 X205.051 Y151.908
G01 X204.449 Y152.633
G01 X203.811 Y153.326
G01 X203.141 Y153.988
G01 X202.439 Y154.616
G01 X201.707 Y155.209
G01 X200.946 Y155.765
G01 X200.160 Y156.283
G01 X199.348 Y156.762
G01 X198.515 Y157.200
G01 X197.660 Y157.597
G01 X196.788 Y157.952
G01 X195.899 Y158.263
G01 X194.995 Y158.531
G01 X194.080 Y158.754
G01 X193.155 Y158.931
G01 X192.222 Y159.063
G01 X191.284 Y159.149
G01 X190.343 Y159.189
G01 X189.401 Y159.183
G01 X188.461 Y159.130
G01 X187.524 Y159.032
G01 X186.593 Y158.887
G01 X185.670 Y158.698
G01 X184.758 Y158.463
G01 X183.858 Y158.183
G01 X182.974 Y157.860
G01 X182.106 Y157.494
G01 X181.257 Y157.085
G01 X180.429 Y156.636
G01 X179.624 Y156.146
G01 X178.845 Y155.617
G01 X178.092 Y155.051
G01 X177.367 Y154.449
G01 X176.674 Y153.811
G01 X176.012 Y153.141
G01 X175.384 Y152.439
G01 X174.791 Y151.707
G01 X174.235 Y150.946
G01 X173.717 Y150.160
G01 X173.238 Y149.348
G01 X172.800 Y148.515
G01 X172.403 Y147.660
G01 X172.048 Y146.788
G01 X171.737 Y145.899
G01 X171.469 Y144.995
G01 X171.246 Y144.080
G01 X171.069 Y143.155
G01 X170.937 Y142.222
G01 X170.851 Y141.284
G01 X170.811 Y140.343
G01 X170.817 Y139.401
G01 X170.870 Y138.461
G01 X170.956 Y137.615
G01 X172.148 Y137.623
G01 X172.280 Y136.749
G01 X172.455 Y135.882
G01 X172.672 Y135.024
G01 X172.931 Y134.178
G01 X173.231 Y133.345
G01 X173.572 Y132.528
G01 X173.953 Y131.728
G01 X174.373 Y130.947
G01 X174.831 Y130.188
G01 X175.326 Y129.452
G01 X175.856 Y128.741
G01 X176.421 Y128.056
G01 X177.019 Y127.400
G01 X177.648 Y126.774
G01 X178.308 Y126.179
G01 X178.997 Y125.617
G01 X179.712 Y125.089
G01 X180.453 Y124.597
G01 X181.217 Y124.141
G01 X182.003 Y123.724
G01 X182.809 Y123.345
G01 X183.632 Y123.007
G01 X184.472 Y122.709
G01 X185.325 Y122.452
G01 X186.191 Y122.238
G01 X187.066 Y122.066
G01 X187.949 Y121.938
G01 X188.837 Y121.853
G01 X189.729 Y121.811
G01 X190.622 Y121.814
G01 X191.514 Y121.860
G01 X192.403 Y121.950
G01 X193.287 Y122.083
G01 X194.164 Y122.260
G01 X195.031 Y122.480
G01 X195.886 Y122.742
G01 X196.728 Y123.046
G01 X197.555 Y123.390
G01 X198.364 Y123.776
G01 X199.153 Y124.200
G01 X199.920 Y124.663
G01 X200.665 Y125.163
G01 X201.384 Y125.699
G01 X202.076 Y126.271
G01 X202.739 Y126.875
G01 X203.373 Y127.512
G01 X203.974 Y128.179
G01 X204.542 Y128.875
G01 X205.076 Y129.598
G01 X205.573 Y130.347
G01 X206.033 Y131.120
G01 X206.455 Y131.915
G01 X206.838 Y132.729
G01 X207.180 Y133.562
G01 X207.482 Y134.411
G01 X207.741 Y135.274
G01 X207.957 Y136.149
G01 X208.131 Y137.034
G01 X208.261 Y137.926
G01 X208.347 Y138.824
G01 X208.389 Y139.726
G01 X208.386 Y140.629
G01 X208.339 Y141.531
G01 X208.259 Y142.345
G01 X209.017 Y142.589
G01 X208.867 Y143.519
G01 X208.672 Y144.440
G01 X208.431 Y145.351
G01 X208.146 Y146.249
G01 X207.818 Y147.132
G01 X207.447 Y147.998
G01 X207.033 Y148.844
G01 X206.579 Y149.669
G01 X206.084 Y150.471
G01 X205.551 Y151.248
G01 X204.980 Y151.997
G01 X204.374 Y152.718
G01 X203.732 Y153.408
G01 X203.058 Y154.065
G01 X202.352 Y154.689
G01 X201.616 Y155.278
G01 X200.853 Y155.829
G01 X200.063 Y156.343
G01 X199.249 Y156.817
G01 X198.413 Y157.250
G01 X197.556 Y157.642
G01 X196.681 Y157.992
G01 X195.790 Y158.298
G01 X194.886 Y158.560
G01 X193.969 Y158.777
G01 X193.043 Y158.950
G01 X192.109 Y159.076
G01 X191.171 Y159.157
G01 X190.229 Y159.191
G01 X189.287 Y159.179
G01 X188.347 Y159.121
G01 X187.411 Y159.017
G01 X186.481 Y158.867
G01 X185.560 Y158.672
G01 X184.649 Y158.431
G01 X183.751 Y158.146
G01 X182.868 Y157.818
G01 X182.002 Y157.447
G01 X181.156 Y157.033
G01 X180.331 Y156.579
G01 X179.529 Y156.084
G01 X178.752 Y155.551
G01 X178.003 Y154.980
G01 X177.282 Y154.374
G01 X176.592 Y153.732
G01 X175.935 Y153.058
G01 X175.311 Y152.352
G01 X174.722 Y151.616
G01 X174.171 Y150.853
G01 X173.657 Y150.063
G01 X173.183 Y149.249
G01 X172.750 Y148.413
G01 X172.358 Y147.556
G01 X172.008 Y146.681
G01 X171.702 Y145.790
G01 X171.440 Y144.886
G01 X171.223 Y143.969
G01 X171.050 Y143.043
G01 X170.924 Y142.109
G01 X170.843 Y141.171
G01 X170.809 Y140.229
G01 X170.821 Y139.287
G01 X170.879 Y138.347
G01 X170.972 Y137.495
G01 X171.370 Y137.406
G01 X171.513 Y136.494
G01 X171.701 Y135.590
G01 X171.934 Y134.696
G01 X172.210 Y133.813
G01 X172.529 Y132.946
G01 X172.891 Y132.094
G01 X173.294 Y131.261
G01 X173.737 Y130.449
G01 X174.220 Y129.659
G01 X174.742 Y128.894
G01 X175.300 Y128.154
G01 X175.894 Y127.443
G01 X176.523 Y126.762
G01 X177.185 Y126.112
G01 X177.877 Y125.495
G01 X178.600 Y124.913
G01 X179.351 Y124.366
G01 X180.127 Y123.857
G01 X180.928 Y123.387
G01 X181.752 Y122.956
G01 X182.595 Y122.566
G01 X183.458 Y122.218
G01 X184.336 Y121.912
G01 X185.229 Y121.650
G01 X186.134 Y121.432
G01 X187.049 Y121.259
G01 X187.971 Y121.130
G01 X188.899 Y121.047
G01 X189.830 Y121.010
G01 X190.763 Y121.018
G01 X191.694 Y121.072
G01 X192.621 Y121.172
G01 X193.543 Y121.317
G01 X194.457 Y121.507
G01 X195.361 Y121.742
G01 X196.252 Y122.021
G01 X197.129 Y122.344
G01 X197.990 Y122.709
G01 X198.831 Y123.117
G01 X199.652 Y123.565
G01 X200.450 Y124.053
G01 X201.224 Y124.580
G01 X201.971 Y125.144
G01 X202.690 Y125.745
G01 X203.378 Y126.380
G01 X204.035 Y127.049
G01 X204.658 Y127.749
G01 X205.247 Y128.479
G01 X205.799 Y129.238
G01 X206.313 Y130.023
G01 X206.789 Y130.832
G01 X207.224 Y131.664
G01 X207.618 Y132.517
G01 X207.970 Y133.389
G01 X208.279 Y134.276
G01 X208.543 Y135.179
G01 X208.764 Y136.093
G01 X208.939 Y137.017
G01 X209.069 Y137.950
G01 X209.153 Y138.887
G01 X209.190 Y139.828
G01 X209.182 Y140.771
G01 X209.127 Y141.711
G01 X209.037 Y142.570
G01 X209.001 Y142.706
G01 X208.845 Y143.636
G01 X208.644 Y144.556
G01 X208.398 Y145.465
G01 X208.107 Y146.361
G01 X207.773 Y147.242
G01 X207.397 Y148.106
G01 X206.978 Y148.949
G01 X206.518 Y149.772
G01 X206.019 Y150.570
G01 X205.481 Y151.344
G01 X204.906 Y152.090
G01 X204.295 Y152.806
G01 X203.649 Y153.492
G01 X202.971 Y154.146
G01 X202.261 Y154.765
G01 X201.522 Y155.349
G01 X200.755 Y155.896
G01 X199.962 Y156.405
G01 X199.145 Y156.874
G01 X198.306 Y157.302
G01 X197.447 Y157.689
G01 X196.570 Y158.033
G01 X195.677 Y158.333
G01 X194.771 Y158.590
G01 X193.853 Y158.802
G01 X192.926 Y158.968
G01 X191.991 Y159.089
G01 X191.052 Y159.163
G01 X190.111 Y159.192
G01 X189.169 Y159.174
G01 X188.229 Y159.110
G01 X187.294 Y159.001
G01 X186.364 Y158.845
G01 X185.444 Y158.644
G01 X184.535 Y158.398
G01 X183.639 Y158.107
G01 X182.758 Y157.773
G01 X181.894 Y157.397
G01 X181.051 Y156.978
G01 X180.228 Y156.518
G01 X179.430 Y156.019
G01 X178.656 Y155.481
G01 X177.910 Y154.906
G01 X177.194 Y154.295
G01 X176.508 Y153.649
G01 X175.854 Y152.971
G01 X175.235 Y152.261
G01 X174.651 Y151.522
G01 X174.104 Y150.755
G01 X173.595 Y149.962
G01 X173.126 Y149.145
G01 X172.698 Y148.306
G01 X172.311 Y147.447
G01 X171.967 Y146.570
G01 X171.667 Y145.677
G01 X171.410 Y144.771
G01 X171.198 Y143.853
G01 X171.032 Y142.926
G01 X170.911 Y141.991
G01 X170.837 Y141.052
G01 X170.808 Y140.111
G01 X170.826 Y139.169
G01 X170.890 Y138.229
G01 X170.989 Y137.369
G01 X170.594 Y137.173
G01 X170.750 Y136.223
G01 X170.953 Y135.282
G01 X171.201 Y134.351
G01 X171.495 Y133.433
G01 X171.834 Y132.531
G01 X172.216 Y131.646
G01 X172.642 Y130.780
G01 X173.110 Y129.937
G01 X173.619 Y129.117
G01 X174.168 Y128.322
G01 X174.755 Y127.556
G01 X175.379 Y126.818
G01 X176.039 Y126.112
G01 X176.733 Y125.439
G01 X177.460 Y124.801
G01 X178.217 Y124.199
G01 X179.003 Y123.635
G01 X179.816 Y123.110
G01 X180.654 Y122.625
G01 X181.515 Y122.182
G01 X182.397 Y121.781
G01 X183.298 Y121.424
G01 X184.216 Y121.111
G01 X185.148 Y120.844
G01 X186.093 Y120.623
G01 X187.047 Y120.449
G01 X188.010 Y120.321
G01 X188.977 Y120.241
G01 X189.948 Y120.208
G01 X190.920 Y120.223
G01 X191.890 Y120.286
G01 X192.855 Y120.396
G01 X193.815 Y120.554
G01 X194.766 Y120.759
G01 X195.706 Y121.010
G01 X196.633 Y121.307
G01 X197.545 Y121.649
G01 X198.439 Y122.036
G01 X199.313 Y122.466
G01 X200.166 Y122.938
G01 X200.994 Y123.453
G01 X201.796 Y124.007
G01 X202.571 Y124.600
G01 X203.316 Y125.231
G01 X204.029 Y125.898
G01 X204.708 Y126.599
G01 X205.353 Y127.333
G01 X205.961 Y128.098
G01 X206.531 Y128.892
G01 X207.062 Y129.713
G01 X207.551 Y130.559
G01 X207.999 Y131.429
G01 X208.404 Y132.320
G01 X208.764 Y133.231
G01 X209.080 Y134.158
G01 X209.349 Y135.099
G01 X209.573 Y136.053
G01 X209.749 Y137.018
G01 X209.878 Y137.990
G01 X209.959 Y138.967
G01 X209.992 Y139.948
G01 X209.976 Y140.929
G01 X209.913 Y141.909
G01 X209.811 Y142.811
G01 X208.983 Y142.829
G01 X208.821 Y143.757
G01 X208.614 Y144.676
G01 X208.362 Y145.584
G01 X208.066 Y146.478
G01 X207.726 Y147.357
G01 X207.344 Y148.218
G01 X206.920 Y149.059
G01 X206.455 Y149.878
G01 X205.950 Y150.674
G01 X205.407 Y151.444
G01 X204.827 Y152.186
G01 X204.212 Y152.899
G01 X203.562 Y153.581
G01 X202.879 Y154.230
G01 X202.165 Y154.844
G01 X201.422 Y155.423
G01 X200.652 Y155.965
G01 X199.855 Y156.469
G01 X199.035 Y156.932
G01 X198.194 Y157.355
G01 X197.332 Y157.737
G01 X196.453 Y158.075
G01 X195.558 Y158.370
G01 X194.650 Y158.620
G01 X193.731 Y158.826
G01 X192.803 Y158.987
G01 X191.868 Y159.101
G01 X190.928 Y159.170
G01 X189.987 Y159.192
G01 X189.045 Y159.169
G01 X188.105 Y159.099
G01 X187.171 Y158.983
G01 X186.243 Y158.821
G01 X185.324 Y158.614
G01 X184.416 Y158.362
G01 X183.522 Y158.066
G01 X182.643 Y157.726
G01 X181.782 Y157.344
G01 X180.941 Y156.920
G01 X180.122 Y156.455
G01 X179.326 Y155.950
G01 X178.556 Y155.407
G01 X177.814 Y154.827
G01 X177.101 Y154.212
G01 X176.419 Y153.562
G01 X175.770 Y152.879
G01 X175.156 Y152.165
G01 X174.577 Y151.422
G01 X174.035 Y150.652
G01 X173.531 Y149.855
G01 X173.068 Y149.035
G01 X172.645 Y148.194
G01 X172.263 Y147.332
G01 X171.925 Y146.453
G01 X171.630 Y145.558
G01 X171.380 Y144.650
G01 X171.174 Y143.731
G01 X171.013 Y142.803
G01 X170.899 Y141.868
G01 X170.830 Y140.928
G01 X170.808 Y139.987
G01 X170.831 Y139.045
G01 X170.901 Y138.105
G01 X171.007 Y137.238
G01 X169.822 Y136.924
G01 X169.991 Y135.937
G01 X170.209 Y134.958
G01 X170.474 Y133.991
G01 X170.786 Y133.038
G01 X171.145 Y132.101
G01 X171.550 Y131.183
G01 X171.999 Y130.286
G01 X172.492 Y129.411
G01 X173.028 Y128.561
G01 X173.605 Y127.738
G01 X174.221 Y126.944
G01 X174.876 Y126.182
G01 X175.568 Y125.452
G01 X176.295 Y124.757
G01 X177.056 Y124.098
G01 X177.848 Y123.477
G01 X178.670 Y122.895
G01 X179.519 Y122.354
G01 X180.395 Y121.856
G01 X181.294 Y121.401
G01 X182.215 Y120.990
G01 X183.155 Y120.625
G01 X184.112 Y120.307
G01 X185.084 Y120.035
G01 X186.068 Y119.812
G01 X187.063 Y119.637
G01 X188.065 Y119.511
G01 X189.072 Y119.435
G01 X190.082 Y119.408
G01 X191.093 Y119.431
G01 X192.102 Y119.503
G01 X193.106 Y119.624
G01 X194.103 Y119.795
G01 X195.091 Y120.015
G01 X196.068 Y120.283
G01 X197.030 Y120.598
G01 X197.976 Y120.961
G01 X198.903 Y121.370
G01 X199.809 Y121.823
G01 X200.693 Y122.321
G01 X201.551 Y122.862
G01 X202.382 Y123.444
G01 X203.183 Y124.067
G01 X203.953 Y124.729
G01 X204.690 Y125.427
G01 X205.392 Y126.161
G01 X206.057 Y126.929
G01 X206.684 Y127.729
G01 X207.272 Y128.559
G01 X207.818 Y129.417
G01 X208.321 Y130.301
G01 X208.780 Y131.209
G01 X209.195 Y132.139
G01 X209.563 Y133.088
G01 X209.885 Y134.055
G01 X210.159 Y135.036
G01 X210.384 Y136.030
G01 X210.561 Y137.034
G01 X210.688 Y138.046
G01 X210.765 Y139.063
G01 X210.792 Y140.083
G01 X210.769 Y141.104
G01 X210.696 Y142.122
G01 X210.583 Y143.065
G01 X212.124 Y143.447
G01 X211.928 Y144.528
G01 X211.680 Y145.599
G01 X211.379 Y146.656
G01 X211.027 Y147.697
G01 X210.624 Y148.719
G01 X210.171 Y149.721
G01 X209.670 Y150.699
G01 X209.121 Y151.651
G01 X208.526 Y152.575
G01 X207.887 Y153.469
G01 X207.204 Y154.331
G01 X206.481 Y155.158
G01 X205.717 Y155.948
G01 X204.915 Y156.700
G01 X204.078 Y157.412
G01 X203.207 Y158.081
G01 X202.304 Y158.708
G01 X201.371 Y159.289
G01 X200.411 Y159.824
G01 X199.425 Y160.311
G01 X198.418 Y160.749
G01 X197.389 Y161.137
G01 X196.343 Y161.474
G01 X195.282 Y161.759
G01 X194.208 Y161.992
G01 X193.124 Y162.172
G01 X192.032 Y162.299
G01 X190.935 Y162.371
G01 X189.837 Y162.390
G01 X188.738 Y162.355
G01 X187.643 Y162.267
G01 X186.553 Y162.124
G01 X185.472 Y161.928
G01 X184.401 Y161.680
G01 X183.344 Y161.379
G01 X182.303 Y161.027
G01 X181.281 Y160.624
G01 X180.279 Y160.171
G01 X179.301 Y159.670
G01 X178.349 Y159.121
G01 X177.425 Y158.526
G01 X176.531 Y157.887
G01 X175.669 Y157.204
G01 X174.842 Y156.481
G01 X174.052 Y155.717
G01 X173.300 Y154.915
G01 X172.588 Y154.078
G01 X171.919 Y153.207
G01 X171.292 Y152.304
G01 X170.711 Y151.371
G01 X170.176 Y150.411
G01 X169.689 Y149.425
G01 X169.251 Y148.418
G01 X168.863 Y147.389
G01 X168.526 Y146.343
G01 X168.241 Y145.282
G01 X168.008 Y144.208
G01 X167.828 Y143.124
G01 X167.701 Y142.032
G01 X167.629 Y140.935
G01 X167.610 Y139.837
G01 X167.645 Y138.738
G01 X167.733 Y137.643
G01 X167.865 Y136.622
G01 X169.053 Y136.662
G01 X169.236 Y135.636
G01 X169.469 Y134.621
G01 X169.752 Y133.618
G01 X170.083 Y132.630
G01 X170.463 Y131.660
G01 X170.890 Y130.708
G01 X171.364 Y129.779
G01 X171.882 Y128.873
G01 X172.445 Y127.994
G01 X173.050 Y127.144
G01 X173.697 Y126.323
G01 X174.383 Y125.536
G01 X175.107 Y124.782
G01 X175.867 Y124.065
G01 X176.662 Y123.386
G01 X177.490 Y122.747
G01 X178.348 Y122.148
G01 X179.235 Y121.593
G01 X180.148 Y121.081
G01 X181.086 Y120.615
G01 X182.046 Y120.195
G01 X183.025 Y119.823
G01 X184.022 Y119.499
G01 X185.033 Y119.224
G01 X186.058 Y118.999
G01 X187.092 Y118.825
G01 X188.134 Y118.701
G01 X189.181 Y118.629
G01 X190.231 Y118.608
G01 X191.280 Y118.639
G01 X192.328 Y118.722
G01 X193.370 Y118.855
G01 X194.405 Y119.040
G01 X195.429 Y119.275
G01 X196.442 Y119.561
G01 X197.439 Y119.896
G01 X198.419 Y120.279
G01 X199.379 Y120.710
G01 X200.317 Y121.188
G01 X201.231 Y121.712
G01 X202.119 Y122.280
G01 X202.977 Y122.891
G01 X203.805 Y123.543
G01 X204.600 Y124.236
G01 X205.361 Y124.967
G01 X206.084 Y125.735
G01 X206.770 Y126.537
G01 X207.415 Y127.373
G01 X208.019 Y128.239
G01 X208.580 Y129.134
G01 X209.096 Y130.056
G01 X209.567 Y131.002
G01 X209.991 Y131.971
G01 X210.366 Y132.960
G01 X210.693 Y133.966
G01 X210.971 Y134.987
G01 X211.197 Y136.021
G01 X211.373 Y137.065
G01 X211.498 Y138.116
G01 X211.571 Y139.173
G01 X211.591 Y140.233
G01 X211.560 Y141.292
G01 X211.477 Y142.349
G01 X211.372 Y143.198
G01 X212.123 Y143.457
G01 X211.926 Y144.538
G01 X211.677 Y145.609
G01 X211.376 Y146.666
G01 X211.023 Y147.707
G01 X210.620 Y148.729
G01 X210.166 Y149.730
G01 X209.665 Y150.708
G01 X209.116 Y151.660
G01 X208.520 Y152.584
G01 X207.881 Y153.477
G01 X207.198 Y154.339
G01 X206.474 Y155.165
G01 X205.710 Y155.955
G01 X204.908 Y156.707
G01 X204.070 Y157.418
G01 X203.198 Y158.088
G01 X202.295 Y158.713
G01 X201.362 Y159.294
G01 X200.402 Y159.828
G01 X199.416 Y160.315
G01 X198.408 Y160.752
G01 X197.380 Y161.140
G01 X196.333 Y161.477
G01 X195.272 Y161.762
G01 X194.198 Y161.994
G01 X193.114 Y162.174
G01 X192.022 Y162.300
G01 X190.925 Y162.372
G01 X189.826 Y162.390
G01 X188.728 Y162.355
G01 X187.633 Y162.266
G01 X186.543 Y162.123
G01 X185.462 Y161.926
G01 X184.391 Y161.677
G01 X183.334 Y161.376
G01 X182.293 Y161.023
G01 X181.271 Y160.620
G01 X180.270 Y160.166
G01 X179.292 Y159.665
G01 X178.340 Y159.116
G01 X177.416 Y158.520
G01 X176.523 Y157.881
G01 X175.661 Y157.198
G01 X174.835 Y156.474
G01 X174.045 Y155.710
G01 X173.293 Y154.908
G01 X172.582 Y154.070
G01 X171.912 Y153.198
G01 X171.287 Y152.295
G01 X170.706 Y151.362
G01 X170.172 Y150.402
G01 X169.685 Y149.416
G01 X169.248 Y148.408
G01 X168.860 Y147.380
G01 X168.523 Y146.333
G01 X168.238 Y145.272
G01 X168.006 Y144.198
G01 X167.826 Y143.114
G01 X167.700 Y142.022
G01 X167.628 Y140.925
G01 X167.610 Y139.826
G01 X167.645 Y138.728
G01 X167.734 Y137.633
G01 X167.868 Y136.605
G01 X168.265 Y136.524
G01 X168.455 Y135.461
G01 X168.698 Y134.407
G01 X168.992 Y133.367
G01 X169.337 Y132.342
G01 X169.732 Y131.335
G01 X170.176 Y130.348
G01 X170.668 Y129.384
G01 X171.207 Y128.445
G01 X171.791 Y127.533
G01 X172.420 Y126.651
G01 X173.091 Y125.800
G01 X173.804 Y124.984
G01 X174.556 Y124.203
G01 X175.345 Y123.459
G01 X176.171 Y122.755
G01 X177.030 Y122.092
G01 X177.921 Y121.472
G01 X178.841 Y120.896
G01 X179.789 Y120.366
G01 X180.762 Y119.883
G01 X181.758 Y119.448
G01 X182.774 Y119.063
G01 X183.809 Y118.728
G01 X184.859 Y118.443
G01 X185.921 Y118.211
G01 X186.995 Y118.031
G01 X188.076 Y117.904
G01 X189.162 Y117.830
G01 X190.251 Y117.809
G01 X191.340 Y117.842
G01 X192.426 Y117.928
G01 X193.507 Y118.067
G01 X194.580 Y118.260
G01 X195.643 Y118.505
G01 X196.693 Y118.801
G01 X197.727 Y119.150
G01 X198.744 Y119.548
G01 X199.739 Y119.996
G01 X200.712 Y120.493
G01 X201.660 Y121.036
G01 X202.580 Y121.626
G01 X203.470 Y122.261
G01 X204.328 Y122.938
G01 X205.152 Y123.657
G01 X205.940 Y124.416
G01 X206.691 Y125.213
G01 X207.401 Y126.046
G01 X208.070 Y126.913
G01 X208.695 Y127.812
G01 X209.276 Y128.740
G01 X209.811 Y129.697
G01 X210.298 Y130.679
G01 X210.737 Y131.684
G01 X211.126 Y132.709
G01 X211.464 Y133.753
G01 X211.751 Y134.812
G01 X211.986 Y135.885
G01 X212.167 Y136.967
G01 X212.296 Y138.058
G01 X212.370 Y139.154
G01 X212.391 Y140.253
G01 X212.358 Y141.352
G01 X212.271 Y142.448
G01 X212.138 Y143.484
G01 X212.097 Y143.619
G01 X211.892 Y144.699
G01 X211.636 Y145.767
G01 X211.327 Y146.822
G01 X210.966 Y147.860
G01 X210.555 Y148.879
G01 X210.095 Y149.877
G01 X209.586 Y150.851
G01 X209.030 Y151.799
G01 X208.428 Y152.719
G01 X207.782 Y153.608
G01 X207.093 Y154.464
G01 X206.362 Y155.285
G01 X205.593 Y156.070
G01 X204.785 Y156.815
G01 X203.942 Y157.521
G01 X203.066 Y158.184
G01 X202.158 Y158.803
G01 X201.221 Y159.377
G01 X200.256 Y159.904
G01 X199.267 Y160.383
G01 X198.256 Y160.813
G01 X197.225 Y161.193
G01 X196.176 Y161.522
G01 X195.113 Y161.800
G01 X194.037 Y162.024
G01 X192.951 Y162.196
G01 X191.859 Y162.314
G01 X190.762 Y162.378
G01 X189.663 Y162.388
G01 X188.565 Y162.345
G01 X187.470 Y162.248
G01 X186.381 Y162.097
G01 X185.301 Y161.892
G01 X184.233 Y161.636
G01 X183.178 Y161.327
G01 X182.140 Y160.966
G01 X181.121 Y160.555
G01 X180.123 Y160.095
G01 X179.149 Y159.586
G01 X178.201 Y159.030
G01 X177.281 Y158.428
G01 X176.392 Y157.782
G01 X175.536 Y157.093
G01 X174.715 Y156.362
G01 X173.930 Y155.593
G01 X173.185 Y154.785
G01 X172.479 Y153.942
G01 X171.816 Y153.066
G01 X171.197 Y152.158
G01 X170.623 Y151.221
G01 X170.096 Y150.256
G01 X169.617 Y149.267
G01 X169.187 Y148.256
G01 X168.807 Y147.225
G01 X168.478 Y146.176
G01 X168.200 Y145.113
G01 X167.976 Y144.037
G01 X167.804 Y142.951
G01 X167.686 Y141.859
G01 X167.622 Y140.762
G01 X167.612 Y139.663
G01 X167.655 Y138.565
G01 X167.752 Y137.470
G01 X167.894 Y136.436
G01 X167.502 Y136.231
G01 X167.707 Y135.130
G01 X167.967 Y134.041
G01 X168.280 Y132.965
G01 X168.646 Y131.905
G01 X169.063 Y130.865
G01 X169.531 Y129.846
G01 X170.048 Y128.850
G01 X170.614 Y127.882
G01 X171.227 Y126.941
G01 X171.885 Y126.032
G01 X172.588 Y125.156
G01 X173.333 Y124.315
G01 X174.118 Y123.512
G01 X174.942 Y122.748
G01 X175.803 Y122.025
G01 X176.698 Y121.345
G01 X177.626 Y120.709
G01 X178.585 Y120.120
G01 X179.571 Y119.578
G01 X180.583 Y119.085
G01 X181.618 Y118.643
G01 X182.674 Y118.251
G01 X183.749 Y117.912
G01 X184.839 Y117.626
G01 X185.942 Y117.393
G01 X187.055 Y117.215
G01 X188.176 Y117.092
G01 X189.302 Y117.024
G01 X190.430 Y117.011
G01 X191.558 Y117.053
G01 X192.683 Y117.151
G01 X193.802 Y117.304
G01 X194.913 Y117.512
G01 X196.012 Y117.774
G01 X197.097 Y118.090
G01 X198.166 Y118.459
G01 X199.215 Y118.880
G01 X200.243 Y119.352
G01 X201.247 Y119.874
G01 X202.224 Y120.445
G01 X203.173 Y121.063
G01 X204.090 Y121.727
G01 X204.974 Y122.436
G01 X205.822 Y123.187
G01 X206.632 Y123.979
G01 X207.403 Y124.811
G01 X208.132 Y125.679
G01 X208.818 Y126.582
G01 X209.459 Y127.518
G01 X210.054 Y128.485
G01 X210.600 Y129.480
G01 X211.097 Y130.501
G01 X211.544 Y131.545
G01 X211.938 Y132.611
G01 X212.281 Y133.694
G01 X212.569 Y134.794
G01 X212.804 Y135.906
G01 X212.983 Y137.029
G01 X213.108 Y138.160
G01 X213.176 Y139.296
G01 X213.189 Y140.434
G01 X213.146 Y141.572
G01 X213.047 Y142.707
G01 X212.901 Y143.784
G01 X212.069 Y143.783
G01 X211.857 Y144.862
G01 X211.592 Y145.928
G01 X211.275 Y146.981
G01 X210.907 Y148.016
G01 X210.488 Y149.032
G01 X210.021 Y150.027
G01 X209.504 Y150.997
G01 X208.941 Y151.941
G01 X208.333 Y152.856
G01 X207.680 Y153.740
G01 X206.984 Y154.591
G01 X206.248 Y155.407
G01 X205.472 Y156.185
G01 X204.660 Y156.925
G01 X203.811 Y157.624
G01 X202.930 Y158.280
G01 X202.017 Y158.893
G01 X201.076 Y159.460
G01 X200.108 Y159.980
G01 X199.115 Y160.452
G01 X198.101 Y160.874
G01 X197.067 Y161.247
G01 X196.016 Y161.568
G01 X194.950 Y161.837
G01 X193.873 Y162.054
G01 X192.786 Y162.217
G01 X191.692 Y162.327
G01 X190.595 Y162.383
G01 X189.496 Y162.385
G01 X188.398 Y162.334
G01 X187.304 Y162.228
G01 X186.217 Y162.069
G01 X185.138 Y161.857
G01 X184.072 Y161.592
G01 X183.019 Y161.275
G01 X181.984 Y160.907
G01 X180.968 Y160.488
G01 X179.973 Y160.021
G01 X179.003 Y159.504
G01 X178.059 Y158.941
G01 X177.144 Y158.333
G01 X176.260 Y157.680
G01 X175.409 Y156.984
G01 X174.593 Y156.248
G01 X173.815 Y155.472
G01 X173.075 Y154.660
G01 X172.376 Y153.811
G01 X171.720 Y152.930
G01 X171.107 Y152.017
G01 X170.540 Y151.076
G01 X170.020 Y150.108
G01 X169.548 Y149.115
G01 X169.126 Y148.101
G01 X168.753 Y147.067
G01 X168.432 Y146.016
G01 X168.163 Y144.950
G01 X167.946 Y143.873
G01 X167.783 Y142.786
G01 X167.673 Y141.692
G01 X167.617 Y140.595
G01 X167.615 Y139.496
G01 X167.666 Y138.398
G01 X167.772 Y137.304
G01 X167.923 Y136.263
G01 X166.743 Y135.921
G01 X166.965 Y134.783
G01 X167.242 Y133.657
G01 X167.575 Y132.546
G01 X167.962 Y131.453
G01 X168.402 Y130.379
G01 X168.895 Y129.328
G01 X169.438 Y128.302
G01 X170.032 Y127.304
G01 X170.674 Y126.336
G01 X171.363 Y125.400
G01 X172.097 Y124.499
G01 X172.874 Y123.635
G01 X173.694 Y122.810
G01 X174.553 Y122.026
G01 X175.449 Y121.285
G01 X176.382 Y120.588
G01 X177.347 Y119.938
G01 X178.344 Y119.336
G01 X179.369 Y118.783
G01 X180.420 Y118.281
G01 X181.495 Y117.832
G01 X182.591 Y117.435
G01 X183.706 Y117.093
G01 X184.836 Y116.805
G01 X185.979 Y116.574
G01 X187.133 Y116.399
G01 X188.294 Y116.280
G01 X189.460 Y116.219
G01 X190.627 Y116.215
G01 X191.794 Y116.268
G01 X192.957 Y116.378
G01 X194.114 Y116.546
G01 X195.261 Y116.770
G01 X196.396 Y117.050
G01 X197.517 Y117.385
G01 X198.620 Y117.776
G01 X199.702 Y118.220
G01 X200.762 Y118.716
G01 X201.797 Y119.265
G01 X202.803 Y119.863
G01 X203.779 Y120.510
G01 X204.723 Y121.205
G01 X205.632 Y121.945
G01 X206.503 Y122.730
G01 X207.335 Y123.556
G01 X208.126 Y124.422
G01 X208.873 Y125.327
G01 X209.576 Y126.267
G01 X210.231 Y127.240
G01 X210.838 Y128.245
G01 X211.395 Y129.279
G01 X211.901 Y130.340
G01 X212.355 Y131.424
G01 X212.755 Y132.529
G01 X213.100 Y133.653
G01 X213.390 Y134.793
G01 X213.623 Y135.945
G01 X213.800 Y137.109
G01 X213.919 Y138.280
G01 X213.981 Y139.455
G01 X213.985 Y140.633
G01 X213.932 Y141.809
G01 X213.820 Y142.982
G01 X213.660 Y144.099
G01 X215.188 Y144.515
G01 X214.936 Y145.745
G01 X214.624 Y146.962
G01 X214.253 Y148.162
G01 X213.824 Y149.342
G01 X213.336 Y150.500
G01 X212.793 Y151.632
G01 X212.195 Y152.737
G01 X211.543 Y153.810
G01 X210.840 Y154.851
G01 X210.086 Y155.856
G01 X209.284 Y156.822
G01 X208.435 Y157.748
G01 X207.542 Y158.631
G01 X206.607 Y159.469
G01 X205.631 Y160.261
G01 X204.618 Y161.003
G01 X203.570 Y161.695
G01 X202.489 Y162.335
G01 X201.378 Y162.921
G01 X200.240 Y163.452
G01 X199.077 Y163.926
G01 X197.892 Y164.342
G01 X196.688 Y164.700
G01 X195.468 Y164.999
G01 X194.235 Y165.237
G01 X192.991 Y165.414
G01 X191.741 Y165.530
G01 X190.486 Y165.585
G01 X189.230 Y165.578
G01 X187.976 Y165.510
G01 X186.726 Y165.380
G01 X185.485 Y165.188
G01 X184.255 Y164.936
G01 X183.038 Y164.624
G01 X181.838 Y164.253
G01 X180.658 Y163.824
G01 X179.500 Y163.336
G01 X178.368 Y162.793
G01 X177.263 Y162.195
G01 X176.190 Y161.543
G01 X175.149 Y160.840
G01 X174.144 Y160.086
G01 X173.178 Y159.284
G01 X172.252 Y158.435
G01 X171.369 Y157.542
G01 X170.531 Y156.607
G01 X169.739 Y155.631
G01 X168.997 Y154.618
G01 X168.305 Y153.570
G01 X167.665 Y152.489
G01 X167.079 Y151.378
G01 X166.548 Y150.240
G01 X166.074 Y149.077
G01 X165.658 Y147.892
G01 X165.300 Y146.688
G01 X165.001 Y145.468
G01 X164.763 Y144.235
G01 X164.586 Y142.991
G01 X164.470 Y141.741
G01 X164.415 Y140.486
G01 X164.422 Y139.230
G01 X164.490 Y137.976
G01 X164.620 Y136.726
G01 X164.778 Y135.677
G01 X165.962 Y135.738
G01 X166.194 Y134.562
G01 X166.484 Y133.399
G01 X166.830 Y132.251
G01 X167.233 Y131.121
G01 X167.690 Y130.012
G01 X168.201 Y128.926
G01 X168.766 Y127.867
G01 X169.381 Y126.836
G01 X170.047 Y125.837
G01 X170.761 Y124.871
G01 X171.522 Y123.941
G01 X172.327 Y123.050
G01 X173.176 Y122.198
G01 X174.066 Y121.389
G01 X174.994 Y120.625
G01 X175.960 Y119.907
G01 X176.959 Y119.237
G01 X177.991 Y118.617
G01 X179.051 Y118.048
G01 X180.139 Y117.531
G01 X181.251 Y117.068
G01 X182.385 Y116.661
G01 X183.538 Y116.309
G01 X184.707 Y116.015
G01 X185.889 Y115.778
G01 X187.082 Y115.599
G01 X188.282 Y115.479
G01 X189.487 Y115.418
G01 X190.694 Y115.416
G01 X191.900 Y115.474
G01 X193.102 Y115.590
G01 X194.297 Y115.766
G01 X195.483 Y116.000
G01 X196.655 Y116.291
G01 X197.813 Y116.641
G01 X198.952 Y117.046
G01 X200.070 Y117.508
G01 X201.164 Y118.023
G01 X202.232 Y118.592
G01 X203.271 Y119.213
G01 X204.279 Y119.884
G01 X205.252 Y120.604
G01 X206.190 Y121.371
G01 X207.089 Y122.183
G01 X207.947 Y123.039
G01 X208.762 Y123.936
G01 X209.533 Y124.872
G01 X210.257 Y125.845
G01 X210.932 Y126.853
G01 X211.558 Y127.893
G01 X212.131 Y128.962
G01 X212.652 Y130.059
G01 X213.118 Y131.180
G01 X213.529 Y132.323
G01 X213.884 Y133.485
G01 X214.181 Y134.664
G01 X214.419 Y135.856
G01 X214.600 Y137.058
G01 X214.721 Y138.268
G01 X214.782 Y139.483
G01 X214.784 Y140.700
G01 X214.726 Y141.916
G01 X214.608 Y143.127
G01 X214.438 Y144.292
G01 X215.179 Y144.568
G01 X214.924 Y145.798
G01 X214.610 Y147.014
G01 X214.236 Y148.213
G01 X213.804 Y149.393
G01 X213.314 Y150.549
G01 X212.768 Y151.681
G01 X212.168 Y152.784
G01 X211.514 Y153.856
G01 X210.808 Y154.895
G01 X210.052 Y155.898
G01 X209.248 Y156.863
G01 X208.397 Y157.787
G01 X207.502 Y158.668
G01 X206.565 Y159.505
G01 X205.588 Y160.294
G01 X204.574 Y161.034
G01 X203.524 Y161.724
G01 X202.442 Y162.362
G01 X201.330 Y162.945
G01 X200.190 Y163.473
G01 X199.026 Y163.945
G01 X197.840 Y164.359
G01 X196.635 Y164.715
G01 X195.415 Y165.010
G01 X194.181 Y165.246
G01 X192.937 Y165.421
G01 X191.686 Y165.534
G01 X190.431 Y165.586
G01 X189.175 Y165.576
G01 X187.922 Y165.505
G01 X186.673 Y165.373
G01 X185.432 Y165.179
G01 X184.202 Y164.924
G01 X182.986 Y164.610
G01 X181.787 Y164.236
G01 X180.607 Y163.804
G01 X179.451 Y163.314
G01 X178.319 Y162.768
G01 X177.216 Y162.168
G01 X176.144 Y161.514
G01 X175.105 Y160.808
G01 X174.102 Y160.052
G01 X173.137 Y159.248
G01 X172.213 Y158.397
G01 X171.332 Y157.502
G01 X170.495 Y156.565
G01 X169.706 Y155.588
G01 X168.966 Y154.574
G01 X168.276 Y153.524
G01 X167.638 Y152.442
G01 X167.055 Y151.330
G01 X166.527 Y150.190
G01 X166.055 Y149.026
G01 X165.641 Y147.840
G01 X165.285 Y146.635
G01 X164.990 Y145.415
G01 X164.754 Y144.181
G01 X164.579 Y142.937
G01 X164.466 Y141.686
G01 X164.414 Y140.431
G01 X164.424 Y139.175
G01 X164.495 Y137.922
G01 X164.627 Y136.673
G01 X164.814 Y135.471
G01 X165.210 Y135.400
G01 X165.460 Y134.188
G01 X165.768 Y132.989
G01 X166.136 Y131.806
G01 X166.561 Y130.643
G01 X167.042 Y129.501
G01 X167.580 Y128.385
G01 X168.171 Y127.295
G01 X168.816 Y126.236
G01 X169.511 Y125.210
G01 X170.257 Y124.218
G01 X171.050 Y123.264
G01 X171.890 Y122.350
G01 X172.774 Y121.478
G01 X173.699 Y120.651
G01 X174.664 Y119.869
G01 X175.667 Y119.136
G01 X176.705 Y118.452
G01 X177.775 Y117.820
G01 X178.875 Y117.242
G01 X180.003 Y116.717
G01 X181.155 Y116.249
G01 X182.329 Y115.838
G01 X183.523 Y115.484
G01 X184.732 Y115.190
G01 X185.955 Y114.955
G01 X187.188 Y114.781
G01 X188.428 Y114.667
G01 X189.673 Y114.614
G01 X190.920 Y114.622
G01 X192.164 Y114.692
G01 X193.404 Y114.822
G01 X194.637 Y115.013
G01 X195.859 Y115.265
G01 X197.067 Y115.576
G01 X198.259 Y115.947
G01 X199.431 Y116.375
G01 X200.582 Y116.860
G01 X201.707 Y117.402
G01 X202.805 Y117.998
G01 X203.873 Y118.648
G01 X204.908 Y119.349
G01 X205.907 Y120.101
G01 X206.868 Y120.901
G01 X207.789 Y121.747
G01 X208.668 Y122.637
G01 X209.502 Y123.570
G01 X210.290 Y124.543
G01 X211.029 Y125.554
G01 X211.718 Y126.600
G01 X212.355 Y127.679
G01 X212.938 Y128.788
G01 X213.466 Y129.924
G01 X213.938 Y131.086
G01 X214.353 Y132.269
G01 X214.709 Y133.472
G01 X215.006 Y134.691
G01 X215.242 Y135.923
G01 X215.418 Y137.166
G01 X215.533 Y138.416
G01 X215.586 Y139.671
G01 X215.578 Y140.927
G01 X215.507 Y142.181
G01 X215.376 Y143.431
G01 X215.189 Y144.638
G01 X215.141 Y144.771
G01 X214.877 Y145.999
G01 X214.552 Y147.212
G01 X214.169 Y148.408
G01 X213.727 Y149.584
G01 X213.228 Y150.737
G01 X212.673 Y151.864
G01 X212.064 Y152.962
G01 X211.401 Y154.029
G01 X210.687 Y155.062
G01 X209.923 Y156.059
G01 X209.111 Y157.017
G01 X208.253 Y157.935
G01 X207.351 Y158.809
G01 X206.407 Y159.637
G01 X205.424 Y160.419
G01 X204.404 Y161.151
G01 X203.348 Y161.832
G01 X202.261 Y162.461
G01 X201.144 Y163.036
G01 X200.001 Y163.555
G01 X198.833 Y164.017
G01 X197.644 Y164.422
G01 X196.436 Y164.767
G01 X195.213 Y165.053
G01 X193.977 Y165.279
G01 X192.732 Y165.443
G01 X191.481 Y165.547
G01 X190.225 Y165.589
G01 X188.969 Y165.569
G01 X187.716 Y165.488
G01 X186.468 Y165.345
G01 X185.229 Y165.141
G01 X184.001 Y164.877
G01 X182.788 Y164.552
G01 X181.592 Y164.169
G01 X180.416 Y163.727
G01 X179.263 Y163.228
G01 X178.136 Y162.673
G01 X177.038 Y162.064
G01 X175.971 Y161.401
G01 X174.938 Y160.687
G01 X173.941 Y159.923
G01 X172.983 Y159.111
G01 X172.065 Y158.253
G01 X171.191 Y157.351
G01 X170.363 Y156.407
G01 X169.581 Y155.424
G01 X168.849 Y154.404
G01 X168.168 Y153.348
G01 X167.539 Y152.261
G01 X166.964 Y151.144
G01 X166.445 Y150.001
G01 X165.983 Y148.833
G01 X165.578 Y147.644
G01 X165.233 Y146.436
G01 X164.947 Y145.213
G01 X164.721 Y143.977
G01 X164.557 Y142.732
G01 X164.453 Y141.481
G01 X164.411 Y140.225
G01 X164.431 Y138.969
G01 X164.512 Y137.716
G01 X164.655 Y136.468
G01 X164.853 Y135.261
G01 X164.462 Y135.045
G01 X164.730 Y133.796
G01 X165.059 Y132.562
G01 X165.448 Y131.345
G01 X165.897 Y130.149
G01 X166.403 Y128.975
G01 X166.967 Y127.828
G01 X167.587 Y126.709
G01 X168.261 Y125.622
G01 X168.987 Y124.569
G01 X169.765 Y123.552
G01 X170.592 Y122.575
G01 X171.466 Y121.639
G01 X172.385 Y120.747
G01 X173.347 Y119.901
G01 X174.349 Y119.104
G01 X175.390 Y118.356
G01 X176.466 Y117.659
G01 X177.576 Y117.017
G01 X178.716 Y116.429
G01 X179.884 Y115.898
G01 X181.076 Y115.425
G01 X182.291 Y115.011
G01 X183.525 Y114.656
G01 X184.775 Y114.363
G01 X186.038 Y114.131
G01 X187.312 Y113.962
G01 X188.592 Y113.855
G01 X189.877 Y113.811
G01 X191.162 Y113.831
G01 X192.445 Y113.913
G01 X193.723 Y114.058
G01 X194.993 Y114.266
G01 X196.251 Y114.536
G01 X197.495 Y114.867
G01 X198.721 Y115.260
G01 X199.927 Y115.711
G01 X201.109 Y116.222
G01 X202.266 Y116.790
G01 X203.393 Y117.415
G01 X204.489 Y118.094
G01 X205.550 Y118.826
G01 X206.574 Y119.610
G01 X207.558 Y120.443
G01 X208.501 Y121.324
G01 X209.400 Y122.250
G01 X210.252 Y123.219
G01 X211.056 Y124.229
G01 X211.810 Y125.278
G01 X212.512 Y126.363
G01 X213.159 Y127.481
G01 X213.751 Y128.630
G01 X214.286 Y129.806
G01 X214.763 Y131.008
G01 X215.180 Y132.232
G01 X215.537 Y133.475
G01 X215.833 Y134.735
G01 X216.066 Y136.008
G01 X216.237 Y137.291
G01 X216.344 Y138.582
G01 X216.389 Y139.876
G01 X216.369 Y141.171
G01 X216.286 Y142.464
G01 X216.140 Y143.752
G01 X215.961 Y144.863
G01 X215.127 Y144.845
G01 X214.859 Y146.072
G01 X214.531 Y147.284
G01 X214.144 Y148.479
G01 X213.699 Y149.653
G01 X213.197 Y150.805
G01 X212.639 Y151.930
G01 X212.026 Y153.026
G01 X211.360 Y154.091
G01 X210.643 Y155.123
G01 X209.876 Y156.117
G01 X209.062 Y157.073
G01 X208.201 Y157.988
G01 X207.296 Y158.859
G01 X206.350 Y159.685
G01 X205.365 Y160.464
G01 X204.342 Y161.193
G01 X203.285 Y161.871
G01 X202.196 Y162.497
G01 X201.077 Y163.068
G01 X199.932 Y163.584
G01 X198.763 Y164.043
G01 X197.572 Y164.444
G01 X196.364 Y164.786
G01 X195.140 Y165.068
G01 X193.904 Y165.290
G01 X192.658 Y165.451
G01 X191.406 Y165.551
G01 X190.151 Y165.589
G01 X188.895 Y165.566
G01 X187.642 Y165.481
G01 X186.394 Y165.334
G01 X185.155 Y165.127
G01 X183.928 Y164.859
G01 X182.716 Y164.531
G01 X181.521 Y164.144
G01 X180.347 Y163.699
G01 X179.195 Y163.197
G01 X178.070 Y162.639
G01 X176.974 Y162.026
G01 X175.909 Y161.360
G01 X174.877 Y160.643
G01 X173.883 Y159.876
G01 X172.927 Y159.062
G01 X172.012 Y158.201
G01 X171.141 Y157.296
G01 X170.315 Y156.350
G01 X169.536 Y155.365
G01 X168.807 Y154.342
G01 X168.129 Y153.285
G01 X167.503 Y152.196
G01 X166.932 Y151.077
G01 X166.416 Y149.932
G01 X165.957 Y148.763
G01 X165.556 Y147.572
G01 X165.214 Y146.364
G01 X164.932 Y145.140
G01 X164.710 Y143.904
G01 X164.549 Y142.658
G01 X164.449 Y141.406
G01 X164.411 Y140.151
G01 X164.434 Y138.895
G01 X164.519 Y137.642
G01 X164.666 Y136.394
G01 X164.868 Y135.184
G01 X163.692 Y134.816
G01 X163.972 Y133.530
G01 X164.315 Y132.259
G01 X164.720 Y131.006
G01 X165.186 Y129.774
G01 X165.712 Y128.566
G01 X166.297 Y127.385
G01 X166.939 Y126.234
G01 X167.637 Y125.115
G01 X168.389 Y124.032
G01 X169.194 Y122.987
G01 X170.049 Y121.982
G01 X170.953 Y121.021
G01 X171.903 Y120.104
G01 X172.897 Y119.235
G01 X173.933 Y118.416
G01 X175.007 Y117.649
G01 X176.119 Y116.935
G01 X177.265 Y116.276
G01 X178.441 Y115.674
G01 X179.646 Y115.130
G01 X180.877 Y114.646
G01 X182.130 Y114.223
G01 X183.403 Y113.862
G01 X184.692 Y113.564
G01 X185.995 Y113.329
G01 X187.308 Y113.158
G01 X188.628 Y113.052
G01 X189.952 Y113.011
G01 X191.276 Y113.035
G01 X192.599 Y113.124
G01 X193.915 Y113.278
G01 X195.223 Y113.496
G01 X196.519 Y113.778
G01 X197.799 Y114.123
G01 X199.062 Y114.531
G01 X200.303 Y115.001
G01 X201.520 Y115.531
G01 X202.709 Y116.120
G01 X203.869 Y116.767
G01 X204.996 Y117.470
G01 X206.087 Y118.228
G01 X207.140 Y119.039
G01 X208.152 Y119.901
G01 X209.120 Y120.811
G01 X210.044 Y121.768
G01 X210.919 Y122.770
G01 X211.744 Y123.813
G01 X212.517 Y124.896
G01 X213.237 Y126.016
G01 X213.900 Y127.170
G01 X214.507 Y128.355
G01 X215.054 Y129.570
G01 X215.542 Y130.809
G01 X215.968 Y132.072
G01 X216.332 Y133.354
G01 X216.632 Y134.653
G01 X216.869 Y135.965
G01 X217.041 Y137.288
G01 X217.147 Y138.618
G01 X217.189 Y139.951
G01 X217.165 Y141.286
G01 X217.075 Y142.618
G01 X216.920 Y143.944
G01 X216.705 Y145.236
G01 X218.222 Y145.684
G01 X217.909 Y147.062
G01 X217.529 Y148.423
G01 X217.082 Y149.763
G01 X216.571 Y151.080
G01 X215.995 Y152.371
G01 X215.357 Y153.631
G01 X214.657 Y154.859
G01 X213.898 Y156.051
G01 X213.082 Y157.204
G01 X212.210 Y158.316
G01 X211.285 Y159.384
G01 X210.308 Y160.405
G01 X209.282 Y161.377
G01 X208.210 Y162.297
G01 X207.094 Y163.164
G01 X205.937 Y163.975
G01 X204.741 Y164.728
G01 X203.510 Y165.421
G01 X202.246 Y166.054
G01 X200.953 Y166.623
G01 X199.634 Y167.129
G01 X198.291 Y167.569
G01 X196.928 Y167.942
G01 X195.549 Y168.249
G01 X194.156 Y168.487
G01 X192.753 Y168.657
G01 X191.344 Y168.757
G01 X189.931 Y168.788
G01 X188.519 Y168.750
G01 X187.110 Y168.643
G01 X185.708 Y168.467
G01 X184.316 Y168.222
G01 X182.938 Y167.909
G01 X181.577 Y167.529
G01 X180.237 Y167.082
G01 X178.920 Y166.571
G01 X177.629 Y165.995
G01 X176.369 Y165.357
G01 X175.141 Y164.657
G01 X173.949 Y163.898
G01 X172.796 Y163.082
G01 X171.684 Y162.210
G01 X170.616 Y161.285
G01 X169.595 Y160.308
G01 X168.623 Y159.282
G01 X167.703 Y158.210
G01 X166.836 Y157.094
G01 X166.025 Y155.937
G01 X165.272 Y154.741
G01 X164.579 Y153.510
G01 X163.946 Y152.246
G01 X163.377 Y150.953
G01 X162.871 Y149.634
G01 X162.431 Y148.291
G01 X162.058 Y146.928
G01 X161.751 Y145.549
G01 X161.513 Y144.156
G01 X161.343 Y142.753
G01 X161.243 Y141.344
G01 X161.212 Y139.931
G01 X161.250 Y138.519
G01 X161.357 Y137.110
G01 X161.533 Y135.708
G01 X161.774 Y134.338
G01 X162.952 Y134.432
G01 X163.252 Y133.110
G01 X163.616 Y131.804
G01 X164.045 Y130.517
G01 X164.535 Y129.253
G01 X165.088 Y128.013
G01 X165.700 Y126.803
G01 X166.372 Y125.623
G01 X167.101 Y124.477
G01 X167.885 Y123.369
G01 X168.723 Y122.299
G01 X169.612 Y121.273
G01 X170.551 Y120.290
G01 X171.538 Y119.355
G01 X172.569 Y118.469
G01 X173.643 Y117.635
G01 X174.757 Y116.854
G01 X175.907 Y116.128
G01 X177.093 Y115.460
G01 X178.310 Y114.851
G01 X179.556 Y114.302
G01 X180.827 Y113.814
G01 X182.121 Y113.390
G01 X183.435 Y113.029
G01 X184.765 Y112.733
G01 X186.108 Y112.503
G01 X187.462 Y112.339
G01 X188.822 Y112.242
G01 X190.185 Y112.211
G01 X191.549 Y112.247
G01 X192.910 Y112.351
G01 X194.264 Y112.520
G01 X195.608 Y112.757
G01 X196.940 Y113.059
G01 X198.255 Y113.426
G01 X199.551 Y113.857
G01 X200.825 Y114.351
G01 X202.073 Y114.908
G01 X203.293 Y115.525
G01 X204.481 Y116.201
G01 X205.635 Y116.935
G01 X206.752 Y117.725
G01 X207.828 Y118.569
G01 X208.863 Y119.465
G01 X209.852 Y120.411
G01 X210.794 Y121.405
G01 X211.686 Y122.443
G01 X212.527 Y123.525
G01 X213.313 Y124.647
G01 X214.044 Y125.806
G01 X214.717 Y127.000
G01 X215.331 Y128.226
G01 X215.884 Y129.480
G01 X216.374 Y130.761
G01 X216.802 Y132.064
G01 X217.165 Y133.388
G01 X217.463 Y134.727
G01 X217.695 Y136.080
