;  Created by Sandify
;  https://sandify.org
;  Version: 0.2.4
;
;  Machine type: Rectangular
;    Min X (mm): 0
;    Max X (mm): 380
;    Min Y (mm): 0
;    Max Y (mm): 280
;  Content type: shape
;  Layer:
;    Shape: FileImport
;    Name: dither_cells.thr
;    From file:: dither_cells.thr
;    Aspect Ratio: true
;    Comments: 
;    Visible: true
;    Initial width: 10
;    Initial height: 10
;    X offset: 0
;    Y offset: 0
;    Rotate (degrees): 0
;    Reverse path: false
;    Fine tuning:
;      Connect to next layer: line
;      Draw portion of path (%): 100
;      Backtrack at end (%): 0
;      Rotate starting point (%): 0
;  Reverse export path: false
;
; File name: 'dither_cells'
;

G01 X190.000 Y140.000
G01 X190.000 Y140.280
G01 X190.014 Y140.284
G01 X190.028 Y140.288
G01 X190.043 Y140.290
G01 X190.058 Y140.292
G01 X190.073 Y140.293
G01 X190.089 Y140.294
G01 X190.090 Y140.294
G01 X190.000 Y140.001
G01 X190.190 Y140.277
G01 X190.206 Y140.272
G01 X190.222 Y140.265
G01 X190.238 Y140.257
G01 X190.254 Y140.249
G01 X190.270 Y140.239
G01 X190.285 Y140.229
G01 X190.004 Y140.004
G01 X190.369 Y140.145
G01 X190.381 Y140.128
G01 X190.392 Y140.111
G01 X190.402 Y140.093
G01 X190.412 Y140.074
G01 X190.420 Y140.054
G01 X190.427 Y140.034
G01 X190.428 Y140.032
G01 X190.016 Y140.001
G01 X190.017 Y140.000
G01 X190.018 Y140.000
G01 X190.019 Y139.999
G01 X190.020 Y139.997
G01 X190.021 Y139.996
G01 X190.022 Y139.995
G01 X190.451 Y139.896
G01 X190.451 Y139.873
G01 X190.450 Y139.849
G01 X190.447 Y139.825
G01 X190.443 Y139.801
G01 X190.438 Y139.777
G01 X190.432 Y139.753
G01 X190.027 Y139.984
G01 X190.027 Y139.982
G01 X190.028 Y139.980
G01 X190.028 Y139.978
G01 X190.028 Y139.975
G01 X190.028 Y139.973
G01 X190.028 Y139.970
G01 X190.363 Y139.608
G01 X190.347 Y139.586
G01 X190.330 Y139.565
G01 X190.312 Y139.544
G01 X190.293 Y139.524
G01 X190.272 Y139.505
G01 X190.250 Y139.487
G01 X190.248 Y139.485
G01 X190.022 Y139.954
G01 X190.021 Y139.951
G01 X190.019 Y139.948
G01 X190.017 Y139.945
G01 X190.015 Y139.942
G01 X190.012 Y139.940
G01 X190.010 Y139.937
G01 X190.090 Y139.396
G01 X190.061 Y139.386
G01 X190.031 Y139.377
G01 X190.000 Y139.370
G01 X189.969 Y139.364
G01 X189.937 Y139.360
G01 X189.905 Y139.357
G01 X189.988 Y139.924
G01 X189.984 Y139.922
G01 X189.980 Y139.921
G01 X189.975 Y139.920
G01 X189.971 Y139.919
G01 X189.966 Y139.918
G01 X189.961 Y139.918
G01 X189.700 Y139.377
G01 X189.666 Y139.387
G01 X189.633 Y139.398
G01 X189.600 Y139.411
G01 X189.567 Y139.425
G01 X189.535 Y139.442
G01 X189.503 Y139.460
G01 X189.501 Y139.462
G01 X189.927 Y139.921
G01 X189.921 Y139.923
G01 X189.915 Y139.925
G01 X189.909 Y139.928
G01 X189.904 Y139.931
G01 X189.898 Y139.934
G01 X189.892 Y139.938
G01 X189.325 Y139.612
G01 X189.301 Y139.643
G01 X189.277 Y139.674
G01 X189.255 Y139.707
G01 X189.235 Y139.742
G01 X189.216 Y139.778
G01 X189.199 Y139.815
G01 X189.861 Y139.968
G01 X189.856 Y139.975
G01 X189.852 Y139.981
G01 X189.848 Y139.988
G01 X189.844 Y139.996
G01 X189.841 Y140.004
G01 X189.838 Y140.012
G01 X189.133 Y140.066
G01 X189.130 Y140.109
G01 X189.128 Y140.153
G01 X189.129 Y140.197
G01 X189.132 Y140.242
G01 X189.138 Y140.287
G01 X189.146 Y140.331
G01 X189.146 Y140.335
G01 X189.829 Y140.068
G01 X189.829 Y140.077
G01 X189.830 Y140.087
G01 X189.832 Y140.097
G01 X189.833 Y140.108
G01 X189.836 Y140.118
G01 X189.839 Y140.128
G01 X189.246 Y140.604
G01 X189.270 Y140.646
G01 X189.297 Y140.687
G01 X189.326 Y140.726
G01 X189.357 Y140.765
G01 X189.391 Y140.802
G01 X189.426 Y140.838
G01 X189.871 Y140.190
G01 X189.878 Y140.199
G01 X189.886 Y140.209
G01 X189.895 Y140.218
G01 X189.904 Y140.226
G01 X189.914 Y140.234
G01 X189.924 Y140.242
G01 X189.686 Y141.020
G01 X189.735 Y141.043
G01 X189.784 Y141.063
G01 X189.835 Y141.081
G01 X189.888 Y141.096
G01 X189.941 Y141.109
G01 X189.996 Y141.119
G01 X190.000 Y140.280
G01 X190.014 Y140.284
G01 X190.028 Y140.288
G01 X190.043 Y140.290
G01 X190.058 Y140.292
G01 X190.074 Y140.293
G01 X190.089 Y140.294
G01 X190.090 Y140.294
G01 X190.349 Y141.121
G01 X190.407 Y141.111
G01 X190.464 Y141.098
G01 X190.522 Y141.083
G01 X190.578 Y141.064
G01 X190.635 Y141.042
G01 X190.690 Y141.017
G01 X190.190 Y140.277
G01 X190.206 Y140.272
G01 X190.222 Y140.265
G01 X190.238 Y140.257
G01 X190.254 Y140.249
G01 X190.270 Y140.239
G01 X190.285 Y140.229
G01 X191.006 Y140.801
G01 X191.052 Y140.756
G01 X191.096 Y140.709
G01 X191.137 Y140.659
G01 X191.177 Y140.606
G01 X191.214 Y140.552
G01 X191.248 Y140.495
G01 X191.249 Y140.494
G01 X190.369 Y140.145
G01 X190.381 Y140.128
G01 X190.392 Y140.111
G01 X190.402 Y140.093
G01 X190.412 Y140.074
G01 X190.420 Y140.054
G01 X190.427 Y140.034
G01 X190.428 Y140.032
G01 X191.399 Y140.101
G01 X191.413 Y140.033
G01 X191.422 Y139.963
G01 X191.429 Y139.893
G01 X191.432 Y139.821
G01 X191.431 Y139.750
G01 X191.426 Y139.678
G01 X191.426 Y139.676
G01 X190.451 Y139.896
G01 X190.451 Y139.873
G01 X190.450 Y139.849
G01 X190.447 Y139.825
G01 X190.443 Y139.801
G01 X190.438 Y139.777
G01 X190.432 Y139.753
G01 X191.320 Y139.236
G01 X191.289 Y139.167
G01 X191.255 Y139.099
G01 X191.217 Y139.032
G01 X191.176 Y138.966
G01 X191.131 Y138.903
G01 X191.083 Y138.841
G01 X191.083 Y138.840
G01 X190.363 Y139.608
G01 X190.347 Y139.586
G01 X190.330 Y139.565
G01 X190.312 Y139.544
G01 X190.293 Y139.524
G01 X190.272 Y139.505
G01 X190.250 Y139.487
G01 X190.248 Y139.485
G01 X190.713 Y138.510
G01 X190.643 Y138.467
G01 X190.571 Y138.427
G01 X190.496 Y138.390
G01 X190.419 Y138.358
G01 X190.340 Y138.329
G01 X190.259 Y138.303
G01 X190.258 Y138.303
G01 X190.090 Y139.396
G01 X190.061 Y139.386
G01 X190.031 Y139.377
G01 X190.000 Y139.370
G01 X189.969 Y139.364
G01 X189.937 Y139.360
G01 X189.905 Y139.357
G01 X189.732 Y138.236
G01 X189.644 Y138.241
G01 X189.555 Y138.250
G01 X189.467 Y138.263
G01 X189.378 Y138.281
G01 X189.290 Y138.303
G01 X189.203 Y138.330
G01 X189.202 Y138.330
G01 X189.700 Y139.377
G01 X189.666 Y139.386
G01 X189.633 Y139.398
G01 X189.600 Y139.411
G01 X189.567 Y139.425
G01 X189.535 Y139.442
G01 X189.504 Y139.460
G01 X189.501 Y139.462
G01 X188.689 Y138.595
G01 X188.614 Y138.653
G01 X188.541 Y138.715
G01 X188.470 Y138.781
G01 X188.403 Y138.851
G01 X188.339 Y138.924
G01 X188.278 Y139.001
G01 X188.277 Y139.002
G01 X189.325 Y139.612
G01 X189.301 Y139.642
G01 X189.277 Y139.674
G01 X189.255 Y139.707
G01 X189.235 Y139.742
G01 X189.216 Y139.778
G01 X189.199 Y139.815
G01 X187.988 Y139.543
G01 X187.956 Y139.640
G01 X187.929 Y139.740
G01 X187.907 Y139.841
G01 X187.890 Y139.943
G01 X187.878 Y140.047
G01 X187.870 Y140.152
G01 X187.870 Y140.154
G01 X189.133 Y140.065
G01 X189.130 Y140.109
G01 X189.128 Y140.153
G01 X189.129 Y140.197
G01 X189.133 Y140.242
G01 X189.138 Y140.286
G01 X189.146 Y140.331
G01 X189.147 Y140.335
G01 X187.944 Y140.813
G01 X187.975 Y140.918
G01 X188.012 Y141.022
G01 X188.054 Y141.125
G01 X188.101 Y141.226
G01 X188.153 Y141.325
G01 X188.211 Y141.421
G01 X188.212 Y141.423
G01 X189.246 Y140.604
G01 X189.270 Y140.646
G01 X189.297 Y140.686
G01 X189.326 Y140.726
G01 X189.357 Y140.765
G01 X189.390 Y140.802
G01 X189.426 Y140.837
G01 X188.671 Y141.954
G01 X188.762 Y142.028
G01 X188.857 Y142.097
G01 X188.956 Y142.162
G01 X189.058 Y142.223
G01 X189.164 Y142.278
G01 X189.273 Y142.329
G01 X189.275 Y142.330
G01 X189.686 Y141.020
G01 X189.734 Y141.043
G01 X189.784 Y141.063
G01 X189.835 Y141.081
G01 X189.887 Y141.096
G01 X189.941 Y141.109
G01 X189.995 Y141.119
G01 X190.000 Y141.120
G01 X190.007 Y142.521
G01 X190.131 Y142.531
G01 X190.257 Y142.534
G01 X190.383 Y142.532
G01 X190.509 Y142.523
G01 X190.636 Y142.508
G01 X190.762 Y142.486
G01 X190.764 Y142.486
G01 X190.348 Y141.121
G01 X190.406 Y141.112
G01 X190.464 Y141.099
G01 X190.521 Y141.083
G01 X190.578 Y141.064
G01 X190.634 Y141.042
G01 X190.690 Y141.017
G01 X191.514 Y142.215
G01 X191.629 Y142.149
G01 X191.741 Y142.077
G01 X191.851 Y141.999
G01 X191.956 Y141.915
G01 X192.058 Y141.826
G01 X192.156 Y141.731
G01 X192.157 Y141.730
G01 X191.006 Y140.801
G01 X191.051 Y140.756
G01 X191.095 Y140.709
G01 X191.137 Y140.659
G01 X191.176 Y140.607
G01 X191.213 Y140.552
G01 X191.248 Y140.496
G01 X191.250 Y140.491
G01 X192.657 Y141.034
G01 X192.718 Y140.907
G01 X192.772 Y140.776
G01 X192.821 Y140.642
G01 X192.863 Y140.506
G01 X192.898 Y140.366
G01 X192.927 Y140.225
G01 X192.927 Y140.222
G01 X191.399 Y140.102
G01 X191.412 Y140.033
G01 X191.422 Y139.964
G01 X191.429 Y139.893
G01 X191.431 Y139.822
G01 X191.431 Y139.750
G01 X191.426 Y139.678
G01 X191.426 Y139.677
G01 X192.947 Y139.323
G01 X192.924 Y139.176
G01 X192.894 Y139.029
G01 X192.856 Y138.882
G01 X192.811 Y138.738
G01 X192.758 Y138.595
G01 X192.699 Y138.454
G01 X192.698 Y138.452
G01 X191.320 Y139.237
G01 X191.290 Y139.168
G01 X191.256 Y139.099
G01 X191.218 Y139.032
G01 X191.177 Y138.967
G01 X191.132 Y138.903
G01 X191.084 Y138.841
G01 X191.080 Y138.837
G01 X192.171 Y137.647
G01 X192.062 Y137.532
G01 X191.948 Y137.422
G01 X191.827 Y137.317
G01 X191.701 Y137.218
G01 X191.570 Y137.124
G01 X191.433 Y137.038
G01 X191.431 Y137.036
G01 X190.713 Y138.510
G01 X190.644 Y138.467
G01 X190.571 Y138.427
G01 X190.497 Y138.391
G01 X190.420 Y138.358
G01 X190.341 Y138.329
G01 X190.260 Y138.304
G01 X190.259 Y138.303
G01 X190.500 Y136.653
G01 X190.336 Y136.617
G01 X190.171 Y136.590
G01 X190.003 Y136.570
G01 X189.834 Y136.559
G01 X189.664 Y136.556
G01 X189.493 Y136.561
G01 X189.491 Y136.561
G01 X189.733 Y138.236
G01 X189.645 Y138.241
G01 X189.556 Y138.250
G01 X189.467 Y138.263
G01 X189.379 Y138.281
G01 X189.291 Y138.303
G01 X189.204 Y138.330
G01 X189.197 Y138.332
G01 X188.440 Y136.786
G01 X188.277 Y136.853
G01 X188.116 Y136.928
G01 X187.959 Y137.011
G01 X187.805 Y137.102
G01 X187.656 Y137.201
G01 X187.510 Y137.308
G01 X187.508 Y137.310
G01 X188.690 Y138.595
G01 X188.614 Y138.652
G01 X188.541 Y138.714
G01 X188.471 Y138.780
G01 X188.404 Y138.850
G01 X188.339 Y138.924
G01 X188.279 Y139.001
G01 X188.278 Y139.002
G01 X186.737 Y138.122
G01 X186.634 Y138.277
G01 X186.539 Y138.438
G01 X186.452 Y138.604
G01 X186.372 Y138.774
G01 X186.301 Y138.949
G01 X186.238 Y139.129
G01 X186.237 Y139.131
G01 X187.988 Y139.542
G01 X187.957 Y139.639
G01 X187.929 Y139.739
G01 X187.907 Y139.840
G01 X187.890 Y139.942
G01 X187.878 Y140.046
G01 X187.870 Y140.151
G01 X187.870 Y140.159
G01 X186.048 Y140.308
G01 X186.052 Y140.504
G01 X186.065 Y140.700
G01 X186.088 Y140.896
G01 X186.121 Y141.091
G01 X186.163 Y141.285
G01 X186.215 Y141.478
G01 X186.216 Y141.481
G01 X187.944 Y140.812
G01 X187.975 Y140.917
G01 X188.011 Y141.021
G01 X188.053 Y141.124
G01 X188.100 Y141.225
G01 X188.153 Y141.324
G01 X188.210 Y141.421
G01 X188.211 Y141.422
G01 X186.747 Y142.603
G01 X186.866 Y142.770
G01 X186.993 Y142.933
G01 X187.129 Y143.089
G01 X187.273 Y143.239
G01 X187.425 Y143.383
G01 X187.585 Y143.519
G01 X187.587 Y143.521
G01 X188.670 Y141.953
G01 X188.761 Y142.027
G01 X188.856 Y142.097
G01 X188.955 Y142.162
G01 X189.057 Y142.222
G01 X189.163 Y142.278
G01 X189.272 Y142.328
G01 X189.281 Y142.332
G01 X188.723 Y144.185
G01 X188.926 Y144.259
G01 X189.133 Y144.324
G01 X189.344 Y144.378
G01 X189.557 Y144.423
G01 X189.774 Y144.456
G01 X189.993 Y144.479
G01 X189.996 Y144.480
G01 X190.006 Y142.521
G01 X190.130 Y142.531
G01 X190.256 Y142.534
G01 X190.382 Y142.532
G01 X190.508 Y142.523
G01 X190.634 Y142.508
G01 X190.761 Y142.486
G01 X190.763 Y142.486
G01 X191.359 Y144.382
G01 X191.579 Y144.327
G01 X191.796 Y144.260
G01 X192.011 Y144.183
G01 X192.222 Y144.095
G01 X192.429 Y143.996
G01 X192.633 Y143.887
G01 X192.636 Y143.885
G01 X191.513 Y142.215
G01 X191.628 Y142.149
G01 X191.740 Y142.077
G01 X191.850 Y141.999
G01 X191.955 Y141.916
G01 X192.057 Y141.827
G01 X192.155 Y141.732
G01 X192.156 Y141.731
G01 X193.757 Y142.996
G01 X193.915 Y142.819
G01 X194.064 Y142.633
G01 X194.204 Y142.440
G01 X194.334 Y142.239
G01 X194.456 Y142.031
G01 X194.567 Y141.817
G01 X194.575 Y141.800
G01 X192.656 Y141.035
G01 X192.717 Y140.908
G01 X192.772 Y140.777
G01 X192.821 Y140.644
G01 X192.863 Y140.507
G01 X192.898 Y140.368
G01 X192.926 Y140.226
G01 X192.927 Y140.224
G01 X195.016 Y140.368
G01 X195.047 Y140.122
G01 X195.065 Y139.873
G01 X195.072 Y139.623
G01 X195.066 Y139.373
G01 X195.047 Y139.122
G01 X195.016 Y138.871
G01 X195.016 Y138.867
G01 X192.947 Y139.325
G01 X192.924 Y139.177
G01 X192.894 Y139.030
G01 X192.856 Y138.884
G01 X192.811 Y138.739
G01 X192.759 Y138.596
G01 X192.699 Y138.455
G01 X192.698 Y138.453
G01 X194.553 Y137.371
G01 X194.435 Y137.140
G01 X194.304 Y136.915
G01 X194.163 Y136.695
G01 X194.010 Y136.483
G01 X193.846 Y136.277
G01 X193.672 Y136.079
G01 X193.658 Y136.063
G01 X192.172 Y137.648
G01 X192.063 Y137.533
G01 X191.949 Y137.423
G01 X191.828 Y137.318
G01 X191.702 Y137.219
G01 X191.571 Y137.125
G01 X191.434 Y137.038
G01 X191.432 Y137.037
G01 X192.374 Y135.048
G01 X192.136 Y134.919
G01 X191.891 Y134.802
G01 X191.639 Y134.697
G01 X191.382 Y134.604
G01 X191.120 Y134.524
G01 X190.852 Y134.456
G01 X190.848 Y134.455
G01 X190.501 Y136.654
G01 X190.338 Y136.618
G01 X190.172 Y136.590
G01 X190.005 Y136.570
G01 X189.836 Y136.559
G01 X189.666 Y136.556
G01 X189.495 Y136.561
G01 X189.492 Y136.561
G01 X189.145 Y134.334
G01 X188.864 Y134.363
G01 X188.584 Y134.406
G01 X188.305 Y134.464
G01 X188.029 Y134.535
G01 X187.756 Y134.620
G01 X187.486 Y134.718
G01 X187.464 Y134.727
G01 X188.442 Y136.785
G01 X188.278 Y136.852
G01 X188.118 Y136.927
G01 X187.960 Y137.010
G01 X187.807 Y137.101
G01 X187.657 Y137.200
G01 X187.512 Y137.307
G01 X187.510 Y137.309
G01 X185.928 Y135.627
G01 X185.704 Y135.818
G01 X185.489 Y136.021
G01 X185.283 Y136.234
G01 X185.088 Y136.458
G01 X184.903 Y136.693
G01 X184.729 Y136.936
G01 X184.727 Y136.940
G01 X186.738 Y138.121
G01 X186.635 Y138.276
G01 X186.540 Y138.436
G01 X186.452 Y138.602
G01 X186.373 Y138.773
G01 X186.301 Y138.948
G01 X186.238 Y139.127
G01 X186.237 Y139.130
G01 X183.933 Y138.617
G01 X183.852 Y138.912
G01 X183.785 Y139.213
G01 X183.733 Y139.517
G01 X183.697 Y139.825
G01 X183.675 Y140.135
G01 X183.668 Y140.446
G01 X183.668 Y140.471
G01 X186.048 Y140.306
G01 X186.052 Y140.502
G01 X186.065 Y140.698
G01 X186.088 Y140.894
G01 X186.120 Y141.089
G01 X186.163 Y141.284
G01 X186.215 Y141.476
G01 X186.216 Y141.479
G01 X183.974 Y142.378
G01 X184.079 Y142.679
G01 X184.199 Y142.976
G01 X184.334 Y143.268
G01 X184.483 Y143.553
G01 X184.647 Y143.832
G01 X184.825 Y144.103
G01 X184.828 Y144.107
G01 X186.746 Y142.601
G01 X186.864 Y142.769
G01 X186.992 Y142.931
G01 X187.128 Y143.088
G01 X187.272 Y143.238
G01 X187.424 Y143.381
G01 X187.583 Y143.518
G01 X187.586 Y143.520
G01 X186.207 Y145.567
G01 X186.474 Y145.764
G01 X186.750 Y145.949
G01 X187.037 Y146.121
G01 X187.332 Y146.279
G01 X187.636 Y146.423
G01 X187.948 Y146.551
G01 X187.973 Y146.561
G01 X188.722 Y144.184
G01 X188.924 Y144.258
G01 X189.131 Y144.323
G01 X189.342 Y144.378
G01 X189.555 Y144.422
G01 X189.772 Y144.456
G01 X189.991 Y144.479
G01 X189.994 Y144.480
G01 X190.013 Y147.001
G01 X190.358 Y147.014
G01 X190.704 Y147.010
G01 X191.050 Y146.988
G01 X191.396 Y146.950
G01 X191.741 Y146.894
G01 X192.083 Y146.822
G01 X192.090 Y146.820
G01 X191.358 Y144.382
G01 X191.577 Y144.327
G01 X191.795 Y144.261
G01 X192.009 Y144.184
G01 X192.221 Y144.096
G01 X192.428 Y143.997
G01 X192.631 Y143.888
G01 X192.635 Y143.886
G01 X194.099 Y146.004
G01 X194.402 Y145.813
G01 X194.696 Y145.607
G01 X194.981 Y145.387
G01 X195.255 Y145.151
G01 X195.519 Y144.902
G01 X195.770 Y144.640
G01 X195.774 Y144.635
G01 X193.757 Y142.996
G01 X193.915 Y142.819
G01 X194.064 Y142.633
G01 X194.204 Y142.440
G01 X194.334 Y142.239
G01 X194.456 Y142.031
G01 X194.567 Y141.817
G01 X194.576 Y141.799
G01 X197.030 Y142.739
G01 X197.178 Y142.398
G01 X197.309 Y142.049
G01 X197.423 Y141.693
G01 X197.519 Y141.330
G01 X197.598 Y140.963
G01 X197.659 Y140.590
G01 X197.660 Y140.584
G01 X195.017 Y140.366
G01 X195.047 Y140.120
G01 X195.066 Y139.872
G01 X195.072 Y139.622
G01 X195.066 Y139.371
G01 X195.047 Y139.120
G01 X195.016 Y138.870
G01 X195.015 Y138.865
G01 X197.625 Y138.249
G01 X197.552 Y137.871
G01 X197.461 Y137.496
G01 X197.351 Y137.124
G01 X197.222 Y136.757
G01 X197.075 Y136.396
G01 X196.909 Y136.042
G01 X196.906 Y136.036
G01 X194.552 Y137.368
G01 X194.433 Y137.138
G01 X194.303 Y136.912
G01 X194.161 Y136.693
G01 X194.008 Y136.480
G01 X193.844 Y136.275
G01 X193.670 Y136.076
G01 X193.667 Y136.073
G01 X195.514 Y134.057
G01 X195.231 Y133.775
G01 X194.934 Y133.507
G01 X194.623 Y133.254
G01 X194.298 Y133.015
G01 X193.962 Y132.791
G01 X193.614 Y132.584
G01 X193.585 Y132.568
G01 X192.371 Y135.045
G01 X192.132 Y134.917
G01 X191.887 Y134.800
G01 X191.635 Y134.695
G01 X191.378 Y134.603
G01 X191.115 Y134.523
G01 X190.848 Y134.455
G01 X190.843 Y134.454
G01 X191.236 Y131.694
G01 X190.829 Y131.619
G01 X190.418 Y131.564
G01 X190.004 Y131.530
G01 X189.587 Y131.516
G01 X189.169 Y131.523
G01 X188.750 Y131.550
G01 X188.743 Y131.551
G01 X189.139 Y134.334
G01 X188.858 Y134.364
G01 X188.578 Y134.408
G01 X188.299 Y134.465
G01 X188.023 Y134.536
G01 X187.749 Y134.622
G01 X187.480 Y134.721
G01 X187.475 Y134.723
G01 X186.224 Y132.171
G01 X185.832 Y132.345
G01 X185.449 Y132.538
G01 X185.075 Y132.750
G01 X184.710 Y132.980
G01 X184.356 Y133.230
G01 X184.014 Y133.497
G01 X184.008 Y133.502
G01 X185.937 Y135.621
G01 X185.712 Y135.811
G01 X185.496 Y136.013
G01 X185.290 Y136.226
G01 X185.094 Y136.450
G01 X184.909 Y136.684
G01 X184.735 Y136.928
G01 X184.721 Y136.948
G01 X182.201 Y135.524
G01 X181.969 Y135.900
G01 X181.754 Y136.289
G01 X181.559 Y136.689
G01 X181.383 Y137.099
G01 X181.227 Y137.519
G01 X181.092 Y137.947
G01 X181.089 Y137.955
G01 X183.930 Y138.627
G01 X183.849 Y138.923
G01 X183.783 Y139.223
G01 X183.732 Y139.528
G01 X183.696 Y139.835
G01 X183.674 Y140.145
G01 X183.668 Y140.457
G01 X183.668 Y140.463
G01 X180.730 Y140.707
G01 X180.751 Y141.164
G01 X180.794 Y141.621
G01 X180.860 Y142.076
G01 X180.949 Y142.529
G01 X181.060 Y142.978
G01 X181.193 Y143.422
G01 X181.196 Y143.430
G01 X183.972 Y142.370
G01 X184.076 Y142.672
G01 X184.196 Y142.969
G01 X184.330 Y143.261
G01 X184.479 Y143.546
G01 X184.643 Y143.825
G01 X184.820 Y144.097
G01 X184.824 Y144.102
G01 X182.490 Y145.989
G01 X182.774 Y146.368
G01 X183.076 Y146.732
G01 X183.398 Y147.083
G01 X183.736 Y147.418
G01 X184.092 Y147.737
G01 X184.465 Y148.039
G01 X184.496 Y148.063
G01 X186.219 Y145.576
G01 X186.486 Y145.773
G01 X186.763 Y145.958
G01 X187.050 Y146.129
G01 X187.346 Y146.286
G01 X187.650 Y146.429
G01 X187.962 Y146.557
G01 X187.968 Y146.559
G01 X187.094 Y149.486
G01 X187.556 Y149.643
G01 X188.027 Y149.777
G01 X188.505 Y149.888
G01 X188.990 Y149.975
G01 X189.479 Y150.039
G01 X189.972 Y150.078
G01 X189.981 Y150.079
G01 X190.009 Y147.001
G01 X190.354 Y147.014
G01 X190.700 Y147.010
G01 X191.046 Y146.989
G01 X191.392 Y146.950
G01 X191.737 Y146.895
G01 X192.079 Y146.823
G01 X192.086 Y146.821
G01 X193.025 Y149.784
G01 X193.511 Y149.649
G01 X193.990 Y149.489
G01 X194.462 Y149.306
G01 X194.926 Y149.099
G01 X195.381 Y148.869
G01 X195.824 Y148.617
G01 X195.832 Y148.612
G01 X194.095 Y146.006
G01 X194.398 Y145.816
G01 X194.693 Y145.610
G01 X194.978 Y145.389
G01 X195.252 Y145.154
G01 X195.515 Y144.905
G01 X195.767 Y144.643
G01 X195.787 Y144.621
G01 X198.278 Y146.567
G01 X198.613 Y146.169
G01 X198.928 Y145.754
G01 X199.223 Y145.322
G01 X199.497 Y144.875
G01 X199.749 Y144.415
G01 X199.979 Y143.941
G01 X199.983 Y143.932
G01 X197.028 Y142.743
G01 X197.176 Y142.402
G01 X197.307 Y142.053
G01 X197.421 Y141.697
G01 X197.518 Y141.335
G01 X197.597 Y140.967
G01 X197.658 Y140.595
G01 X197.659 Y140.588
G01 X200.867 Y140.800
G01 X200.921 Y140.267
G01 X200.948 Y139.730
G01 X200.949 Y139.191
G01 X200.923 Y138.651
G01 X200.871 Y138.112
G01 X200.792 Y137.575
G01 X200.790 Y137.565
G01 X197.626 Y138.254
G01 X197.553 Y137.876
G01 X197.462 Y137.500
G01 X197.352 Y137.129
G01 X197.223 Y136.762
G01 X197.077 Y136.401
G01 X196.912 Y136.046
G01 X196.908 Y136.040
G01 X199.726 Y134.384
G01 X199.462 Y133.898
G01 X199.174 Y133.425
G01 X198.862 Y132.966
G01 X198.527 Y132.521
G01 X198.170 Y132.092
G01 X197.791 Y131.681
G01 X197.759 Y131.647
G01 X195.500 Y134.042
G01 X195.216 Y133.761
G01 X194.918 Y133.494
G01 X194.606 Y133.241
G01 X194.281 Y133.003
G01 X193.944 Y132.780
G01 X193.595 Y132.574
G01 X193.589 Y132.571
G01 X195.001 Y129.564
G01 X194.494 Y129.305
G01 X193.973 Y129.071
G01 X193.441 Y128.862
G01 X192.897 Y128.679
G01 X192.344 Y128.523
G01 X191.782 Y128.394
G01 X191.771 Y128.392
G01 X191.241 Y131.695
G01 X190.834 Y131.620
G01 X190.423 Y131.565
G01 X190.009 Y131.530
G01 X189.592 Y131.516
G01 X189.174 Y131.522
G01 X188.755 Y131.549
G01 X188.748 Y131.550
G01 X188.216 Y128.217
G01 X187.634 Y128.291
G01 X187.055 Y128.393
G01 X186.481 Y128.524
G01 X185.913 Y128.684
G01 X185.351 Y128.872
G01 X184.798 Y129.087
G01 X184.788 Y129.091
G01 X186.229 Y132.169
G01 X185.837 Y132.342
G01 X185.454 Y132.535
G01 X185.079 Y132.747
G01 X184.714 Y132.977
G01 X184.361 Y133.226
G01 X184.018 Y133.493
G01 X183.991 Y133.516
G01 X181.632 Y131.028
G01 X181.181 Y131.429
G01 X180.749 Y131.853
G01 X180.338 Y132.298
G01 X179.948 Y132.765
G01 X179.581 Y133.251
G01 X179.237 Y133.756
G01 X179.231 Y133.765
G01 X182.204 Y135.519
G01 X181.971 Y135.896
G01 X181.757 Y136.284
G01 X181.561 Y136.684
G01 X181.385 Y137.094
G01 X181.229 Y137.514
G01 X181.093 Y137.941
G01 X181.091 Y137.949
G01 X177.689 Y137.207
G01 X177.538 Y137.809
G01 X177.416 Y138.420
G01 X177.324 Y139.037
G01 X177.263 Y139.659
G01 X177.232 Y140.285
G01 X177.232 Y140.914
G01 X177.232 Y140.925
G01 X180.730 Y140.701
G01 X180.751 Y141.158
G01 X180.794 Y141.615
G01 X180.859 Y142.070
G01 X180.948 Y142.523
G01 X181.058 Y142.972
G01 X181.191 Y143.417
G01 X181.194 Y143.425
G01 X177.914 Y144.744
G01 X178.134 Y145.344
G01 X178.384 Y145.933
G01 X178.663 Y146.511
G01 X178.971 Y147.075
G01 X179.307 Y147.625
G01 X179.671 Y148.159
G01 X179.702 Y148.203
G01 X182.504 Y146.009
G01 X182.789 Y146.387
G01 X183.093 Y146.751
G01 X183.415 Y147.101
G01 X183.754 Y147.435
G01 X184.111 Y147.753
G01 X184.484 Y148.054
G01 X184.491 Y148.059
G01 X182.501 Y151.045
G01 X183.036 Y151.426
G01 X183.591 Y151.780
G01 X184.163 Y152.108
G01 X184.753 Y152.408
G01 X185.357 Y152.679
G01 X185.976 Y152.920
G01 X185.988 Y152.924
G01 X187.088 Y149.484
G01 X187.551 Y149.641
G01 X188.021 Y149.775
G01 X188.500 Y149.887
G01 X188.984 Y149.974
G01 X189.473 Y150.038
G01 X189.966 Y150.078
G01 X189.975 Y150.079
G01 X190.009 Y153.720
G01 X190.684 Y153.734
G01 X191.360 Y153.715
G01 X192.036 Y153.662
G01 X192.710 Y153.575
G01 X193.380 Y153.456
G01 X194.046 Y153.303
G01 X194.058 Y153.300
G01 X193.019 Y149.786
G01 X193.505 Y149.651
G01 X193.984 Y149.492
G01 X194.457 Y149.309
G01 X194.921 Y149.102
G01 X195.375 Y148.872
G01 X195.819 Y148.620
G01 X195.855 Y148.598
G01 X197.971 Y151.627
G01 X198.551 Y151.247
G01 X199.113 Y150.838
G01 X199.655 Y150.400
G01 X200.176 Y149.936
G01 X200.674 Y149.445
G01 X201.149 Y148.930
G01 X201.158 Y148.920
G01 X198.274 Y146.572
G01 X198.609 Y146.174
G01 X198.924 Y145.759
G01 X199.219 Y145.327
G01 X199.493 Y144.881
G01 X199.746 Y144.420
G01 X199.976 Y143.947
G01 X199.980 Y143.938
G01 X203.484 Y145.271
G01 X203.756 Y144.614
G01 X203.996 Y143.942
G01 X204.204 Y143.257
G01 X204.378 Y142.562
G01 X204.517 Y141.857
G01 X204.622 Y141.145
G01 X204.624 Y141.132
G01 X200.866 Y140.807
G01 X200.920 Y140.273
G01 X200.948 Y139.736
G01 X200.949 Y139.198
G01 X200.924 Y138.658
G01 X200.872 Y138.119
G01 X200.793 Y137.582
G01 X200.791 Y137.572
G01 X204.490 Y136.692
G01 X204.341 Y135.976
G01 X204.157 Y135.267
G01 X203.937 Y134.567
G01 X203.683 Y133.876
G01 X203.395 Y133.198
G01 X203.072 Y132.533
G01 X203.044 Y132.479
G01 X199.713 Y134.359
G01 X199.448 Y133.874
G01 X199.159 Y133.401
G01 X198.845 Y132.942
G01 X198.509 Y132.499
G01 X198.151 Y132.071
G01 X197.771 Y131.660
G01 X197.764 Y131.652
G01 X200.354 Y128.797
G01 X199.813 Y128.277
G01 X199.245 Y127.784
G01 X198.653 Y127.319
G01 X198.037 Y126.882
G01 X197.400 Y126.475
G01 X196.741 Y126.099
G01 X196.729 Y126.092
G01 X195.007 Y129.567
G01 X194.500 Y129.308
G01 X193.980 Y129.074
G01 X193.447 Y128.864
G01 X192.904 Y128.681
G01 X192.350 Y128.525
G01 X191.789 Y128.396
G01 X191.778 Y128.393
G01 X192.322 Y124.523
G01 X191.563 Y124.395
G01 X190.797 Y124.304
G01 X190.026 Y124.251
G01 X189.251 Y124.236
G01 X188.476 Y124.259
G01 X187.700 Y124.320
G01 X187.686 Y124.322
G01 X188.223 Y128.216
G01 X187.641 Y128.290
G01 X187.063 Y128.392
G01 X186.488 Y128.523
G01 X185.919 Y128.682
G01 X185.358 Y128.869
G01 X184.805 Y129.084
G01 X184.760 Y129.103
G01 X182.997 Y125.555
G01 X182.281 Y125.886
G01 X181.580 Y126.254
G01 X180.897 Y126.656
G01 X180.234 Y127.092
G01 X179.591 Y127.562
G01 X178.970 Y128.063
G01 X178.959 Y128.073
G01 X181.638 Y131.023
G01 X181.186 Y131.424
G01 X180.754 Y131.847
G01 X180.343 Y132.293
G01 X179.953 Y132.759
G01 X179.585 Y133.245
G01 X179.241 Y133.749
G01 X179.235 Y133.759
G01 X175.735 Y131.790
G01 X175.320 Y132.484
G01 X174.938 Y133.200
G01 X174.591 Y133.935
G01 X174.280 Y134.687
G01 X174.006 Y135.456
G01 X173.770 Y136.238
G01 X173.766 Y136.253
G01 X177.691 Y137.200
G01 X177.540 Y137.802
G01 X177.418 Y138.412
G01 X177.325 Y139.029
G01 X177.264 Y139.652
G01 X177.232 Y140.278
G01 X177.232 Y140.906
G01 X177.232 Y140.918
G01 X173.178 Y141.262
G01 X173.226 Y142.090
G01 X173.316 Y142.917
G01 X173.446 Y143.739
G01 X173.616 Y144.556
G01 X173.827 Y145.365
G01 X174.078 Y146.165
G01 X174.101 Y146.230
G01 X177.925 Y144.775
G01 X178.147 Y145.374
G01 X178.398 Y145.963
G01 X178.679 Y146.540
G01 X178.988 Y147.104
G01 X179.326 Y147.653
G01 X179.691 Y148.187
G01 X179.698 Y148.196
G01 X176.506 Y150.805
G01 X177.026 Y151.477
G01 X177.580 Y152.124
G01 X178.167 Y152.744
G01 X178.784 Y153.335
G01 X179.431 Y153.897
G01 X180.106 Y154.427
G01 X180.119 Y154.437
G01 X182.494 Y151.040
G01 X183.029 Y151.421
G01 X183.584 Y151.776
G01 X184.156 Y152.104
G01 X184.745 Y152.404
G01 X185.350 Y152.675
G01 X185.968 Y152.917
G01 X185.980 Y152.921
G01 X184.793 Y156.925
G01 X185.621 Y157.194
G01 X186.463 Y157.422
G01 X187.317 Y157.609
G01 X188.180 Y157.754
G01 X189.052 Y157.857
G01 X189.929 Y157.917
G01 X189.945 Y157.918
G01 X190.001 Y153.720
G01 X190.676 Y153.734
G01 X191.352 Y153.715
G01 X192.028 Y153.663
G01 X192.702 Y153.577
G01 X193.372 Y153.458
G01 X194.037 Y153.305
G01 X194.092 Y153.291
G01 X194.741 Y155.304
G01 X195.391 Y157.316
G01 X196.246 Y157.064
G01 X197.090 Y156.769
G01 X197.919 Y156.433
G01 X198.733 Y156.056
G01 X199.529 Y155.638
G01 X200.304 Y155.181
G01 X200.318 Y155.172
G01 X199.141 Y153.402
G01 X197.964 Y151.632
G01 X198.544 Y151.252
G01 X199.106 Y150.843
G01 X199.648 Y150.406
G01 X200.170 Y149.942
G01 X200.668 Y149.451
G01 X201.144 Y148.936
G01 X201.152 Y148.926
G01 X202.842 Y150.241
G01 X204.532 Y151.557
G01 X205.110 Y150.850
G01 X205.654 Y150.115
G01 X206.163 Y149.353
G01 X206.634 Y148.565
G01 X207.067 Y147.753
G01 X207.460 Y146.920
G01 X207.467 Y146.904
G01 X205.474 Y146.092
G01 X203.480 Y145.279
G01 X203.753 Y144.622
G01 X203.994 Y143.950
G01 X204.201 Y143.266
G01 X204.376 Y142.570
G01 X204.516 Y141.866
G01 X204.621 Y141.154
G01 X204.623 Y141.141
G01 X206.786 Y141.280
G01 X208.950 Y141.418
G01 X209.033 Y140.488
G01 X209.070 Y139.552
G01 X209.061 Y138.615
G01 X209.006 Y137.677
G01 X208.904 Y136.741
G01 X208.757 Y135.809
G01 X208.743 Y135.733
G01 X206.613 Y136.194
G01 X204.483 Y136.655
G01 X204.332 Y135.939
G01 X204.146 Y135.231
G01 X203.925 Y134.531
G01 X203.669 Y133.841
G01 X203.379 Y133.163
G01 X203.055 Y132.499
G01 X203.048 Y132.487
G01 X204.935 Y131.365
G01 X206.821 Y130.244
G01 X206.353 Y129.410
G01 X205.843 Y128.599
G01 X205.293 Y127.813
G01 X204.705 Y127.053
G01 X204.078 Y126.321
G01 X203.415 Y125.620
G01 X203.402 Y125.608
G01 X201.881 Y127.206
G01 X200.361 Y128.803
G01 X199.820 Y128.284
G01 X199.253 Y127.790
G01 X198.661 Y127.324
G01 X198.045 Y126.887
G01 X197.408 Y126.479
G01 X196.749 Y126.103
G01 X196.737 Y126.096
G01 X197.677 Y124.084
G01 X198.618 Y122.072
G01 X197.742 Y121.636
G01 X196.844 Y121.244
G01 X195.927 Y120.895
G01 X194.991 Y120.592
G01 X194.040 Y120.334
G01 X193.076 Y120.123
G01 X193.058 Y120.119
G01 X192.695 Y122.322
G01 X192.331 Y124.524
G01 X191.572 Y124.396
G01 X190.806 Y124.305
G01 X190.035 Y124.251
G01 X189.261 Y124.236
G01 X188.485 Y124.258
G01 X187.710 Y124.319
G01 X187.646 Y124.326
G01 X187.281 Y122.108
G01 X186.915 Y119.890
G01 X185.925 Y120.029
G01 X184.940 Y120.216
G01 X183.965 Y120.453
G01 X183.000 Y120.737
G01 X182.049 Y121.070
G01 X181.113 Y121.449
G01 X181.096 Y121.456
G01 X182.051 Y123.504
G01 X183.006 Y125.551
G01 X182.290 Y125.882
G01 X181.589 Y126.249
G01 X180.906 Y126.651
G01 X180.242 Y127.087
G01 X179.598 Y127.556
G01 X178.978 Y128.057
G01 X178.967 Y128.066
G01 X177.399 Y126.418
G01 X175.831 Y124.771
G01 X175.073 Y125.458
G01 X174.349 Y126.183
G01 X173.661 Y126.944
G01 X173.009 Y127.739
G01 X172.396 Y128.567
G01 X171.824 Y129.425
G01 X171.814 Y129.442
G01 X173.777 Y130.611
G01 X175.741 Y131.781
G01 X175.325 Y132.476
G01 X174.942 Y133.191
G01 X174.595 Y133.926
G01 X174.284 Y134.678
G01 X174.009 Y135.446
G01 X173.772 Y136.229
G01 X173.768 Y136.243
G01 X171.519 Y135.757
G01 X169.270 Y135.271
G01 X169.025 Y136.287
G01 X168.830 Y137.316
G01 X168.686 Y138.355
G01 X168.593 Y139.402
G01 X168.551 Y140.454
G01 X168.561 Y141.508
G01 X168.564 Y141.595
G01 X170.872 Y141.450
G01 X173.180 Y141.305
G01 X173.230 Y142.133
G01 X173.321 Y142.959
G01 X173.453 Y143.782
G01 X173.626 Y144.598
G01 X173.839 Y145.407
G01 X174.092 Y146.206
G01 X174.097 Y146.220
G01 X171.942 Y147.100
G01 X169.786 Y147.980
G01 X170.167 Y148.978
G01 X170.597 Y149.958
G01 X171.076 Y150.917
G01 X171.602 Y151.854
G01 X172.174 Y152.765
G01 X172.792 Y153.648
G01 X172.803 Y153.664
G01 X174.651 Y152.230
G01 X176.500 Y150.797
G01 X177.020 Y151.469
G01 X177.573 Y152.116
G01 X178.159 Y152.736
G01 X178.776 Y153.328
G01 X179.423 Y153.890
G01 X180.098 Y154.421
G01 X180.110 Y154.431
G01 X178.808 Y156.393
G01 X177.506 Y158.354
G01 X178.401 Y158.979
G01 X179.328 Y159.559
G01 X180.283 Y160.094
G01 X181.266 Y160.583
G01 X182.273 Y161.023
G01 X183.302 Y161.414
G01 X183.321 Y161.421
G01 X184.052 Y159.171
G01 X184.783 Y156.921
G01 X185.611 Y157.191
G01 X186.452 Y157.420
G01 X187.306 Y157.607
G01 X188.170 Y157.753
G01 X189.041 Y157.856
G01 X189.918 Y157.917
G01 X189.991 Y157.920
G01 X190.025 Y160.301
G01 X190.060 Y162.682
G01 X191.174 Y162.691
G01 X192.290 Y162.646
G01 X193.405 Y162.545
G01 X194.515 Y162.389
G01 X195.618 Y162.179
G01 X196.711 Y161.915
G01 X196.724 Y161.911
G01 X196.050 Y159.616
G01 X195.375 Y157.320
G01 X196.231 Y157.069
G01 X197.074 Y156.775
G01 X197.904 Y156.440
G01 X198.718 Y156.063
G01 X199.514 Y155.646
G01 X200.290 Y155.190
G01 X200.300 Y155.184
G01 X201.682 Y157.156
G01 X203.064 Y159.128
G01 X204.010 Y158.496
G01 X204.927 Y157.816
G01 X205.810 Y157.092
G01 X206.658 Y156.323
G01 X207.469 Y155.513
G01 X208.240 Y154.662
G01 X208.298 Y154.595
G01 X206.425 Y153.064
G01 X204.552 Y151.533
G01 X205.129 Y150.826
G01 X205.672 Y150.090
G01 X206.180 Y149.326
G01 X206.649 Y148.538
G01 X207.081 Y147.725
G01 X207.473 Y146.891
G01 X207.477 Y146.880
G01 X209.756 Y147.737
G01 X212.035 Y148.594
G01 X212.469 Y147.516
G01 X212.849 Y146.415
G01 X213.176 Y145.295
G01 X213.447 Y144.159
G01 X213.663 Y143.008
G01 X213.822 Y141.847
G01 X213.824 Y141.832
G01 X211.388 Y141.614
G01 X208.952 Y141.397
G01 X209.034 Y140.467
G01 X209.070 Y139.531
G01 X209.060 Y138.593
G01 X209.004 Y137.655
G01 X208.902 Y136.720
G01 X208.753 Y135.788
G01 X208.751 Y135.776
G01 X211.144 Y135.199
G01 X213.536 Y134.621
G01 X213.283 Y133.461
G01 X212.973 Y132.314
G01 X212.606 Y131.181
G01 X212.183 Y130.066
G01 X211.705 Y128.971
G01 X211.173 Y127.899
G01 X211.130 Y127.818
G01 X208.973 Y129.026
G01 X206.816 Y130.234
G01 X206.348 Y129.401
G01 X205.838 Y128.590
G01 X205.287 Y127.804
G01 X204.698 Y127.045
G01 X204.071 Y126.313
G01 X203.407 Y125.613
G01 X203.398 Y125.604
G01 X205.065 Y123.757
G01 X206.732 Y121.909
G01 X205.850 Y121.078
G01 X204.928 Y120.291
G01 X203.966 Y119.548
G01 X202.967 Y118.852
G01 X201.933 Y118.205
G01 X200.868 Y117.609
G01 X200.854 Y117.602
G01 X199.736 Y119.837
G01 X198.618 Y122.072
G01 X197.743 Y121.637
G01 X196.845 Y121.244
G01 X195.927 Y120.896
G01 X194.992 Y120.592
G01 X194.041 Y120.334
G01 X193.077 Y120.123
G01 X193.003 Y120.109
G01 X193.339 Y117.616
G01 X193.675 Y115.124
G01 X192.454 Y114.932
G01 X191.223 Y114.801
G01 X189.985 Y114.729
G01 X188.743 Y114.719
G01 X187.500 Y114.770
G01 X186.259 Y114.882
G01 X186.243 Y114.884
G01 X186.585 Y117.386
G01 X186.927 Y119.888
G01 X185.937 Y120.027
G01 X184.952 Y120.214
G01 X183.976 Y120.450
G01 X183.012 Y120.734
G01 X182.060 Y121.065
G01 X181.125 Y121.444
G01 X181.113 Y121.449
G01 X179.979 Y119.175
G01 X178.844 Y116.900
G01 X177.704 Y117.439
G01 X176.590 Y118.033
G01 X175.505 Y118.683
G01 X174.451 Y119.386
G01 X173.431 Y120.142
G01 X172.449 Y120.948
G01 X172.436 Y120.959
G01 X174.143 Y122.857
G01 X175.849 Y124.755
G01 X175.091 Y125.441
G01 X174.366 Y126.165
G01 X173.677 Y126.925
G01 X173.024 Y127.720
G01 X172.410 Y128.547
G01 X171.837 Y129.405
G01 X171.795 Y129.472
G01 X169.551 Y128.221
G01 X167.308 Y126.971
G01 X166.658 Y128.081
G01 X166.062 Y129.224
G01 X165.523 Y130.396
G01 X165.041 Y131.595
G01 X164.618 Y132.818
G01 X164.255 Y134.063
G01 X164.251 Y134.079
G01 X166.756 Y134.689
G01 X169.262 Y135.300
G01 X169.019 Y136.316
G01 X168.825 Y137.345
G01 X168.682 Y138.385
G01 X168.591 Y139.432
G01 X168.550 Y140.484
G01 X168.562 Y141.538
G01 X168.562 Y141.552
G01 X165.978 Y141.781
G01 X163.393 Y142.010
G01 X163.481 Y143.318
G01 X163.634 Y144.623
G01 X163.850 Y145.921
G01 X164.131 Y147.208
G01 X164.475 Y148.482
G01 X164.882 Y149.740
G01 X164.916 Y149.835
G01 X167.354 Y148.916
G01 X169.792 Y147.997
G01 X170.174 Y148.995
G01 X170.605 Y149.974
G01 X171.084 Y150.933
G01 X171.611 Y151.869
G01 X172.184 Y152.780
G01 X172.802 Y153.663
G01 X172.810 Y153.674
G01 X170.786 Y155.339
G01 X168.761 Y157.004
G01 X169.588 Y158.054
G01 X170.468 Y159.064
G01 X171.397 Y160.032
G01 X172.375 Y160.953
G01 X173.398 Y161.827
G01 X174.465 Y162.651
G01 X174.479 Y162.661
G01 X175.995 Y160.510
G01 X177.511 Y158.358
G01 X178.406 Y158.982
G01 X179.333 Y159.562
G01 X180.289 Y160.097
G01 X181.271 Y160.585
G01 X182.278 Y161.026
G01 X183.308 Y161.416
G01 X183.321 Y161.421
G01 X182.574 Y163.962
G01 X181.828 Y166.503
G01 X183.127 Y166.914
G01 X184.447 Y167.262
G01 X185.785 Y167.544
G01 X187.137 Y167.761
G01 X188.500 Y167.912
G01 X189.872 Y167.996
G01 X189.977 Y167.999
G01 X190.015 Y165.341
G01 X190.052 Y162.682
G01 X191.167 Y162.691
G01 X192.283 Y162.646
G01 X193.398 Y162.546
G01 X194.508 Y162.391
G01 X195.611 Y162.181
G01 X196.704 Y161.916
G01 X196.717 Y161.913
G01 X197.544 Y164.457
G01 X198.370 Y167.001
G01 X199.700 Y166.599
G01 X201.011 Y166.132
G01 X202.299 Y165.600
G01 X203.561 Y165.004
G01 X204.794 Y164.346
G01 X205.996 Y163.628
G01 X206.011 Y163.618
G01 X204.534 Y161.375
G01 X203.058 Y159.132
G01 X204.005 Y158.500
G01 X204.921 Y157.821
G01 X205.805 Y157.097
G01 X206.653 Y156.328
G01 X207.464 Y155.518
G01 X208.235 Y154.668
G01 X208.293 Y154.601
G01 X210.432 Y156.251
G01 X212.572 Y157.900
G01 X213.459 Y156.797
G01 X214.293 Y155.650
G01 X215.070 Y154.461
G01 X215.789 Y153.234
G01 X216.447 Y151.971
G01 X217.044 Y150.675
G01 X217.052 Y150.659
G01 X214.542 Y149.630
G01 X212.032 Y148.601
G01 X212.466 Y147.523
G01 X212.847 Y146.422
G01 X213.174 Y145.302
G01 X213.446 Y144.166
G01 X213.662 Y143.016
G01 X213.822 Y141.854
G01 X213.823 Y141.839
G01 X216.547 Y142.003
G01 X219.270 Y142.167
G01 X219.386 Y140.729
G01 X219.431 Y139.286
G01 X219.405 Y137.839
G01 X219.309 Y136.393
G01 X219.141 Y134.952
G01 X218.902 Y133.518
G01 X218.880 Y133.409
G01 X216.202 Y133.981
G01 X213.523 Y134.554
G01 X213.267 Y133.395
G01 X212.953 Y132.248
G01 X212.583 Y131.116
G01 X212.157 Y130.002
G01 X211.676 Y128.908
G01 X211.141 Y127.838
G01 X211.134 Y127.824
G01 X213.497 Y126.409
G01 X215.861 Y124.993
G01 X215.131 Y123.717
G01 X214.339 Y122.477
G01 X213.485 Y121.276
G01 X212.572 Y120.116
G01 X211.602 Y119.001
G01 X210.576 Y117.933
G01 X210.563 Y117.920
G01 X208.650 Y119.917
G01 X206.737 Y121.915
G01 X205.856 Y121.084
G01 X204.934 Y120.296
G01 X203.972 Y119.553
G01 X202.973 Y118.857
G01 X201.940 Y118.209
G01 X200.874 Y117.613
G01 X200.861 Y117.606
G01 X202.031 Y115.082
G01 X203.202 Y112.559
G01 X201.857 Y111.902
G01 X200.480 Y111.311
G01 X199.073 Y110.788
G01 X197.640 Y110.333
G01 X196.185 Y109.949
G01 X194.710 Y109.637
G01 X194.596 Y109.616
G01 X194.139 Y112.371
G01 X193.683 Y115.125
G01 X192.462 Y114.933
G01 X191.231 Y114.801
G01 X189.993 Y114.730
G01 X188.751 Y114.719
G01 X187.508 Y114.769
G01 X186.267 Y114.881
G01 X186.251 Y114.883
G01 X185.789 Y112.113
G01 X185.326 Y109.343
G01 X183.818 Y109.564
G01 X182.321 Y109.859
G01 X180.837 Y110.228
G01 X179.372 Y110.670
G01 X177.928 Y111.184
G01 X176.508 Y111.770
G01 X176.490 Y111.778
G01 X177.671 Y114.337
G01 X178.852 Y116.897
G01 X177.712 Y117.435
G01 X176.597 Y118.029
G01 X175.512 Y118.679
G01 X174.458 Y119.382
G01 X173.438 Y120.137
G01 X172.455 Y120.943
G01 X172.381 Y121.007
G01 X170.417 Y118.962
G01 X168.453 Y116.917
G01 X167.312 Y117.970
G01 X166.224 Y119.079
G01 X165.190 Y120.242
G01 X164.212 Y121.456
G01 X163.294 Y122.718
G01 X162.438 Y124.026
G01 X162.428 Y124.043
G01 X164.870 Y125.504
G01 X167.312 Y126.965
G01 X166.662 Y128.074
G01 X166.066 Y129.216
G01 X165.526 Y130.388
G01 X165.044 Y131.587
G01 X164.620 Y132.810
G01 X164.257 Y134.055
G01 X164.253 Y134.071
G01 X161.453 Y133.478
G01 X158.653 Y132.885
G01 X158.296 Y134.423
G01 X158.014 Y135.980
G01 X157.808 Y137.550
G01 X157.680 Y139.132
G01 X157.629 Y140.720
G01 X157.657 Y142.311
G01 X157.657 Y142.331
G01 X160.525 Y142.166
G01 X163.392 Y142.002
G01 X163.480 Y143.310
G01 X163.632 Y144.615
G01 X163.849 Y145.912
G01 X164.129 Y147.200
G01 X164.473 Y148.474
G01 X164.880 Y149.732
G01 X164.913 Y149.828
G01 X162.243 Y150.929
G01 X159.573 Y152.030
G01 X160.156 Y153.528
G01 X160.814 Y154.998
G01 X161.544 Y156.436
G01 X162.345 Y157.838
G01 X163.215 Y159.201
G01 X164.152 Y160.521
G01 X164.165 Y160.538
G01 X166.460 Y158.768
G01 X168.756 Y156.997
G01 X169.583 Y158.048
G01 X170.462 Y159.058
G01 X171.391 Y160.026
G01 X172.369 Y160.948
G01 X173.392 Y161.822
G01 X174.458 Y162.646
G01 X174.472 Y162.656
G01 X172.867 Y165.090
G01 X171.262 Y167.524
G01 X172.610 Y168.451
G01 X174.004 Y169.312
G01 X175.441 Y170.104
G01 X176.917 Y170.826
G01 X178.429 Y171.476
G01 X179.973 Y172.052
G01 X180.093 Y172.093
G01 X180.997 Y169.310
G01 X181.902 Y166.528
G01 X183.203 Y166.936
G01 X184.524 Y167.280
G01 X185.862 Y167.559
G01 X187.215 Y167.772
G01 X188.579 Y167.919
G01 X189.951 Y167.998
G01 X189.968 Y167.999
G01 X190.018 Y170.940
G01 X190.068 Y173.882
G01 X191.733 Y173.886
G01 X193.398 Y173.808
G01 X195.060 Y173.648
G01 X196.715 Y173.407
G01 X198.357 Y173.084
G01 X199.985 Y172.680
G01 X200.005 Y172.674
G01 X199.184 Y169.839
G01 X198.362 Y167.003
G01 X199.692 Y166.602
G01 X201.002 Y166.135
G01 X202.291 Y165.603
G01 X203.553 Y165.008
G01 X204.787 Y164.351
G01 X205.988 Y163.632
G01 X206.003 Y163.623
G01 X207.713 Y166.050
G01 X209.422 Y168.477
G01 X210.826 Y167.528
G01 X212.182 Y166.510
G01 X213.489 Y165.426
G01 X214.743 Y164.276
G01 X215.941 Y163.065
G01 X217.080 Y161.795
G01 X217.164 Y161.696
G01 X214.865 Y159.801
G01 X212.566 Y157.907
G01 X213.454 Y156.804
G01 X214.287 Y155.657
G01 X215.065 Y154.469
G01 X215.784 Y153.242
G01 X216.443 Y151.979
G01 X217.041 Y150.684
G01 X217.048 Y150.667
G01 X219.854 Y151.715
G01 X222.660 Y152.762
G01 X223.294 Y151.160
G01 X223.848 Y149.526
G01 X224.323 Y147.864
G01 X224.716 Y146.179
G01 X225.026 Y144.475
G01 X225.252 Y142.755
G01 X225.254 Y142.733
G01 X222.262 Y142.455
G01 X219.269 Y142.176
G01 X219.385 Y140.739
G01 X219.431 Y139.295
G01 X219.406 Y137.848
G01 X219.309 Y136.403
G01 X219.142 Y134.961
G01 X218.903 Y133.527
G01 X218.882 Y133.418
G01 X221.816 Y132.692
G01 X224.749 Y131.966
G01 X224.361 Y130.257
G01 X223.888 Y128.567
G01 X223.332 Y126.900
G01 X222.694 Y125.260
G01 X221.976 Y123.651
G01 X221.178 Y122.077
G01 X221.167 Y122.057
G01 X218.516 Y123.529
G01 X215.865 Y125.001
G01 X215.136 Y123.725
G01 X214.344 Y122.485
G01 X213.491 Y121.284
G01 X212.578 Y120.123
G01 X211.608 Y119.008
G01 X210.583 Y117.940
G01 X210.570 Y117.927
G01 X212.606 Y115.658
G01 X214.642 Y113.389
G01 X213.339 Y112.174
G01 X211.976 Y111.022
G01 X210.556 Y109.938
G01 X209.082 Y108.923
G01 X207.558 Y107.980
G01 X205.988 Y107.112
G01 X205.967 Y107.102
G01 X204.589 Y109.833
G01 X203.210 Y112.563
G01 X201.866 Y111.906
G01 X200.489 Y111.315
G01 X199.082 Y110.791
G01 X197.650 Y110.336
G01 X196.194 Y109.952
G01 X194.719 Y109.639
G01 X194.606 Y109.618
G01 X195.009 Y106.569
G01 X195.413 Y103.520
G01 X193.621 Y103.248
G01 X191.816 Y103.065
G01 X190.001 Y102.970
G01 X188.182 Y102.964
G01 X186.362 Y103.048
G01 X184.546 Y103.221
G01 X184.523 Y103.224
G01 X184.929 Y106.283
G01 X185.335 Y109.341
G01 X183.827 Y109.562
G01 X182.330 Y109.857
G01 X180.847 Y110.225
G01 X179.381 Y110.667
G01 X177.937 Y111.181
G01 X176.517 Y111.766
G01 X176.499 Y111.774
G01 X175.108 Y109.001
G01 X173.717 Y106.229
G01 X172.055 Y107.024
G01 X170.432 Y107.901
G01 X168.852 Y108.858
G01 X167.319 Y109.892
G01 X165.837 Y111.002
G01 X164.409 Y112.186
G01 X164.301 Y112.279
G01 X166.381 Y114.595
G01 X168.460 Y116.911
G01 X167.320 Y117.963
G01 X166.231 Y119.072
G01 X165.196 Y120.234
G01 X164.218 Y121.448
G01 X163.300 Y122.710
G01 X162.443 Y124.018
G01 X162.433 Y124.035
G01 X159.696 Y122.519
G01 X156.959 Y121.003
G01 X156.021 Y122.624
G01 X155.163 Y124.291
G01 X154.386 Y126.000
G01 X153.694 Y127.748
G01 X153.087 Y129.531
G01 X152.568 Y131.343
G01 X152.562 Y131.366
G01 X155.609 Y132.121
G01 X158.656 Y132.875
G01 X158.298 Y134.413
G01 X158.015 Y135.970
G01 X157.809 Y137.540
G01 X157.680 Y139.122
G01 X157.629 Y140.710
G01 X157.656 Y142.300
G01 X157.661 Y142.422
G01 X154.520 Y142.719
G01 X151.378 Y143.015
G01 X151.522 Y144.913
G01 X151.758 Y146.804
G01 X152.088 Y148.684
G01 X152.510 Y150.548
G01 X153.024 Y152.391
G01 X153.628 Y154.209
G01 X153.637 Y154.232
G01 X156.603 Y153.126
G01 X159.569 Y152.021
G01 X160.152 Y153.519
G01 X160.810 Y154.989
G01 X161.539 Y156.427
G01 X162.340 Y157.829
G01 X163.209 Y159.192
G01 X164.146 Y160.513
G01 X164.158 Y160.530
G01 X161.706 Y162.557
G01 X159.253 Y164.585
G01 X160.458 Y166.098
G01 X161.737 Y167.552
G01 X163.087 Y168.944
G01 X164.506 Y170.270
G01 X165.991 Y171.525
G01 X167.537 Y172.708
G01 X167.557 Y172.723
G01 X169.405 Y170.120
G01 X171.254 Y167.518
G01 X172.602 Y168.445
G01 X173.995 Y169.307
G01 X175.432 Y170.100
G01 X176.908 Y170.822
G01 X178.419 Y171.472
G01 X179.963 Y172.048
G01 X180.083 Y172.089
G01 X179.196 Y175.173
G01 X178.308 Y178.257
G01 X180.187 Y178.835
G01 X182.094 Y179.321
G01 X184.025 Y179.714
G01 X185.976 Y180.011
G01 X187.941 Y180.213
G01 X189.916 Y180.318
G01 X189.941 Y180.318
G01 X189.999 Y177.100
G01 X190.057 Y173.882
G01 X191.722 Y173.886
G01 X193.388 Y173.809
G01 X195.050 Y173.650
G01 X196.704 Y173.409
G01 X198.347 Y173.086
G01 X199.975 Y172.683
G01 X199.995 Y172.677
G01 X201.002 Y175.752
G01 X202.009 Y178.827
G01 X203.918 Y178.240
G01 X205.798 Y177.560
G01 X207.645 Y176.787
G01 X209.454 Y175.923
G01 X211.221 Y174.971
G01 X212.941 Y173.931
G01 X213.070 Y173.848
G01 X211.287 Y171.136
G01 X209.504 Y168.424
G01 X210.905 Y167.471
G01 X212.259 Y166.449
G01 X213.563 Y165.361
G01 X214.814 Y164.208
G01 X216.009 Y162.994
G01 X217.143 Y161.720
G01 X217.157 Y161.704
G01 X219.746 Y163.689
G01 X222.334 Y165.675
G01 X223.598 Y164.088
G01 X224.784 Y162.440
G01 X225.890 Y160.733
G01 X226.911 Y158.971
G01 X227.846 Y157.159
G01 X228.692 Y155.301
G01 X228.702 Y155.277
G01 X225.679 Y154.025
G01 X222.656 Y152.772
G01 X223.290 Y151.170
G01 X223.845 Y149.536
G01 X224.320 Y147.875
G01 X224.713 Y146.190
G01 X225.024 Y144.486
G01 X225.251 Y142.765
G01 X225.253 Y142.744
G01 X228.536 Y142.933
G01 X231.820 Y143.123
G01 X231.976 Y141.068
G01 X232.032 Y139.006
G01 X231.986 Y136.941
G01 X231.838 Y134.878
G01 X231.590 Y132.822
G01 X231.240 Y130.778
G01 X231.209 Y130.622
G01 X227.980 Y131.299
G01 X224.751 Y131.977
G01 X224.363 Y130.268
G01 X223.891 Y128.578
G01 X223.336 Y126.910
G01 X222.699 Y125.270
G01 X221.981 Y123.661
G01 X221.183 Y122.087
G01 X221.173 Y122.067
G01 X224.013 Y120.356
G01 X226.853 Y118.645
G01 X225.806 Y116.833
G01 X224.670 Y115.073
G01 X223.447 Y113.368
G01 X222.141 Y111.723
G01 X220.753 Y110.142
G01 X219.288 Y108.630
G01 X219.269 Y108.611
G01 X216.960 Y111.004
G01 X214.651 Y113.397
G01 X213.348 Y112.181
G01 X211.985 Y111.029
G01 X210.565 Y109.944
G01 X209.091 Y108.929
G01 X207.568 Y107.986
G01 X205.998 Y107.118
G01 X205.876 Y107.054
G01 X207.265 Y104.014
G01 X208.654 Y100.975
G01 X206.738 Y100.056
G01 X204.776 Y99.232
G01 X202.774 Y98.504
G01 X200.736 Y97.874
G01 X198.667 Y97.344
G01 X196.572 Y96.917
G01 X196.545 Y96.912
G01 X195.984 Y100.217
G01 X195.424 Y103.522
G01 X193.632 Y103.250
G01 X191.827 Y103.066
G01 X190.013 Y102.970
G01 X188.193 Y102.964
G01 X186.373 Y103.047
G01 X184.557 Y103.220
G01 X184.534 Y103.223
G01 X183.971 Y99.901
G01 X183.407 Y96.580
G01 X181.274 Y96.902
G01 X179.156 Y97.328
G01 X177.059 Y97.859
G01 X174.989 Y98.494
G01 X172.949 Y99.229
G01 X170.945 Y100.066
G01 X170.920 Y100.077
G01 X172.324 Y103.150
G01 X173.727 Y106.224
G01 X172.065 Y107.019
G01 X170.442 Y107.895
G01 X168.862 Y108.851
G01 X167.329 Y109.885
G01 X165.846 Y110.995
G01 X164.417 Y112.178
G01 X164.310 Y112.272
G01 X161.952 Y109.829
G01 X159.593 Y107.386
G01 X157.989 Y108.879
G01 X156.460 Y110.450
G01 X155.007 Y112.097
G01 X153.635 Y113.816
G01 X152.347 Y115.601
G01 X151.148 Y117.451
G01 X151.133 Y117.474
G01 X154.049 Y119.233
G01 X156.965 Y120.993
G01 X156.027 Y122.613
G01 X155.168 Y124.280
G01 X154.391 Y125.989
G01 X153.698 Y127.737
G01 X153.091 Y129.519
G01 X152.571 Y131.331
G01 X152.565 Y131.354
G01 X149.215 Y130.654
G01 X145.866 Y129.953
G01 X145.371 Y132.121
G01 X144.983 Y134.314
G01 X144.702 Y136.525
G01 X144.531 Y138.750
G01 X144.468 Y140.984
G01 X144.516 Y143.221
G01 X144.524 Y143.392
G01 X147.951 Y143.198
G01 X151.378 Y143.003
G01 X151.520 Y144.901
G01 X151.757 Y146.792
G01 X152.086 Y148.672
G01 X152.507 Y150.536
G01 X153.020 Y152.379
G01 X153.624 Y154.198
G01 X153.633 Y154.221
G01 X150.447 Y155.544
G01 X147.262 Y156.867
G01 X148.090 Y158.966
G01 X149.021 Y161.026
G01 X150.054 Y163.039
G01 X151.185 Y165.002
G01 X152.413 Y166.909
G01 X153.735 Y168.756
G01 X153.752 Y168.779
G01 X156.499 Y166.677
G01 X159.246 Y164.575
G01 X160.450 Y166.089
G01 X161.728 Y167.543
G01 X163.078 Y168.936
G01 X164.497 Y170.261
G01 X165.981 Y171.518
G01 X167.527 Y172.701
G01 X167.547 Y172.716
G01 X165.641 Y175.622
G01 X163.735 Y178.529
G01 X165.628 Y179.819
G01 X167.584 Y181.017
G01 X169.599 Y182.118
G01 X171.668 Y183.120
G01 X173.786 Y184.021
G01 X175.949 Y184.818
G01 X176.116 Y184.874
G01 X177.206 Y181.563
G01 X178.296 Y178.253
G01 X180.175 Y178.832
G01 X182.081 Y179.318
G01 X184.012 Y179.711
G01 X185.963 Y180.010
G01 X187.928 Y180.212
G01 X189.904 Y180.317
G01 X189.929 Y180.318
G01 X189.997 Y183.820
G01 X190.065 Y187.321
G01 X192.390 Y187.318
G01 X194.715 Y187.201
G01 X197.033 Y186.969
G01 X199.341 Y186.623
G01 X201.631 Y186.164
G01 X203.899 Y185.592
G01 X203.927 Y185.584
G01 X202.963 Y182.207
G01 X201.997 Y178.830
G01 X203.906 Y178.244
G01 X205.787 Y177.564
G01 X207.634 Y176.792
G01 X209.443 Y175.929
G01 X211.210 Y174.977
G01 X212.930 Y173.938
G01 X213.060 Y173.855
G01 X215.108 Y176.728
G01 X217.157 Y179.602
G01 X219.102 Y178.268
G01 X220.982 Y176.838
G01 X222.791 Y175.315
G01 X224.525 Y173.704
G01 X226.180 Y172.007
G01 X227.752 Y170.229
G01 X227.772 Y170.206
G01 X225.049 Y167.945
G01 X222.326 Y165.685
G01 X223.591 Y164.099
G01 X224.777 Y162.450
G01 X225.883 Y160.743
G01 X226.905 Y158.982
G01 X227.840 Y157.170
G01 X228.687 Y155.313
G01 X228.697 Y155.289
G01 X232.031 Y156.524
G01 X235.366 Y157.759
G01 X236.237 Y155.530
G01 X236.999 Y153.258
G01 X237.650 Y150.949
G01 X238.186 Y148.608
G01 X238.608 Y146.241
G01 X238.913 Y143.853
G01 X238.932 Y143.669
G01 X235.382 Y143.337
G01 X231.831 Y143.005
G01 X231.982 Y140.950
G01 X232.032 Y138.887
G01 X231.980 Y136.822
G01 X231.827 Y134.759
G01 X231.572 Y132.704
G01 X231.216 Y130.661
G01 X231.211 Y130.635
G01 X234.687 Y129.766
G01 X238.162 Y128.897
G01 X237.615 Y126.531
G01 X236.952 Y124.192
G01 X236.174 Y121.886
G01 X235.283 Y119.618
G01 X234.280 Y117.395
G01 X233.168 Y115.220
G01 X233.153 Y115.193
G01 X230.006 Y116.925
G01 X226.859 Y118.657
G01 X225.813 Y116.844
G01 X224.677 Y115.084
G01 X223.455 Y113.378
G01 X222.149 Y111.733
G01 X220.762 Y110.152
G01 X219.298 Y108.639
G01 X219.279 Y108.620
G01 X221.683 Y105.928
G01 X224.087 Y103.236
G01 X222.279 Y101.563
G01 X220.390 Y99.979
G01 X218.423 Y98.488
G01 X216.382 Y97.093
G01 X214.273 Y95.799
G01 X212.101 Y94.608
G01 X211.932 Y94.521
G01 X210.299 Y97.751
G01 X208.666 Y100.981
G01 X206.750 Y100.062
G01 X204.789 Y99.237
G01 X202.787 Y98.508
G01 X200.749 Y97.878
G01 X198.680 Y97.348
G01 X196.585 Y96.919
G01 X196.558 Y96.914
G01 X197.027 Y93.309
G01 X197.495 Y89.703
G01 X195.024 Y89.337
G01 X192.535 Y89.093
G01 X190.034 Y88.971
G01 X187.527 Y88.971
G01 X185.020 Y89.095
G01 X182.520 Y89.343
G01 X182.488 Y89.347
G01 X182.955 Y92.962
G01 X183.421 Y96.578
G01 X181.287 Y96.899
G01 X179.170 Y97.325
G01 X177.073 Y97.856
G01 X175.002 Y98.489
G01 X172.962 Y99.224
G01 X170.958 Y100.060
G01 X170.806 Y100.128
G01 X169.145 Y96.864
G01 X167.483 Y93.600
G01 X165.205 Y94.708
G01 X162.982 Y95.929
G01 X160.818 Y97.258
G01 X158.720 Y98.694
G01 X156.693 Y100.233
G01 X154.741 Y101.872
G01 X154.717 Y101.893
G01 X157.160 Y104.635
G01 X159.603 Y107.377
G01 X158.000 Y108.869
G01 X156.469 Y110.440
G01 X155.016 Y112.086
G01 X153.644 Y113.804
G01 X152.356 Y115.590
G01 X151.155 Y117.438
G01 X151.141 Y117.462
G01 X147.909 Y115.683
G01 X144.677 Y113.903
G01 X143.398 Y116.131
G01 X142.228 Y118.422
G01 X141.171 Y120.770
G01 X140.230 Y123.170
G01 X139.406 Y125.616
G01 X138.703 Y128.102
G01 X138.695 Y128.134
G01 X142.282 Y129.037
G01 X145.869 Y129.940
G01 X145.374 Y132.107
G01 X144.985 Y134.300
G01 X144.704 Y136.511
G01 X144.532 Y138.736
G01 X144.469 Y140.970
G01 X144.515 Y143.207
G01 X144.524 Y143.378
G01 X140.825 Y143.736
G01 X137.126 Y144.094
G01 X137.331 Y146.692
G01 X137.663 Y149.278
G01 X138.123 Y151.849
G01 X138.709 Y154.396
G01 X139.420 Y156.915
G01 X140.254 Y159.398
G01 X140.266 Y159.430
G01 X143.761 Y158.141
G01 X147.257 Y156.853
G01 X148.084 Y158.953
G01 X149.015 Y161.013
G01 X150.047 Y163.026
G01 X151.177 Y164.989
G01 X152.405 Y166.897
G01 X153.726 Y168.744
G01 X153.743 Y168.767
G01 X150.864 Y171.159
G01 X147.986 Y173.551
G01 X149.637 Y175.612
G01 X151.390 Y177.592
G01 X153.239 Y179.486
G01 X155.182 Y181.288
G01 X157.213 Y182.995
G01 X159.328 Y184.602
G01 X159.493 Y184.721
G01 X161.668 Y181.663
G01 X163.842 Y178.605
G01 X165.739 Y179.891
G01 X167.698 Y181.083
G01 X169.716 Y182.179
G01 X171.789 Y183.175
G01 X173.910 Y184.070
G01 X176.075 Y184.860
G01 X176.103 Y184.870
G01 X175.069 Y188.495
G01 X174.036 Y192.120
G01 X176.598 Y192.899
G01 X179.197 Y193.553
G01 X181.829 Y194.079
G01 X184.486 Y194.476
G01 X187.163 Y194.742
G01 X189.852 Y194.876
G01 X189.886 Y194.877
G01 X189.968 Y191.099
G01 X190.050 Y187.321
G01 X192.375 Y187.319
G01 X194.700 Y187.202
G01 X197.018 Y186.971
G01 X199.326 Y186.626
G01 X201.616 Y186.167
G01 X203.884 Y185.596
G01 X203.913 Y185.588
G01 X205.104 Y189.192
G01 X206.295 Y192.797
G01 X208.887 Y191.992
G01 X211.439 Y191.059
G01 X213.945 Y190.001
G01 X216.399 Y188.820
G01 X218.795 Y187.519
G01 X221.126 Y186.099
G01 X221.302 Y185.986
G01 X219.223 Y182.798
G01 X217.144 Y179.610
G01 X219.090 Y178.276
G01 X220.970 Y176.847
G01 X222.780 Y175.325
G01 X224.514 Y173.714
G01 X226.170 Y172.018
G01 X227.742 Y170.240
G01 X227.762 Y170.217
G01 X230.801 Y172.536
G01 X233.840 Y174.856
G01 X235.548 Y172.699
G01 X237.149 Y170.458
G01 X238.641 Y168.139
G01 X240.018 Y165.747
G01 X241.277 Y163.287
G01 X242.416 Y160.766
G01 X242.430 Y160.733
G01 X238.895 Y159.253
G01 X235.360 Y157.773
G01 X236.232 Y155.545
G01 X236.995 Y153.273
G01 X237.646 Y150.964
G01 X238.183 Y148.623
G01 X238.606 Y146.256
G01 X238.912 Y143.868
G01 X238.930 Y143.684
G01 X242.775 Y143.884
G01 X246.619 Y144.084
G01 X246.814 Y141.303
G01 X246.871 Y138.512
G01 X246.792 Y135.718
G01 X246.576 Y132.929
G01 X246.222 Y130.151
G01 X245.732 Y127.390
G01 X245.725 Y127.355
G01 X241.945 Y128.133
G01 X238.165 Y128.912
G01 X237.619 Y126.546
G01 X236.957 Y124.207
G01 X236.180 Y121.901
G01 X235.289 Y119.633
G01 X234.287 Y117.409
G01 X233.176 Y115.234
G01 X233.161 Y115.206
G01 X236.476 Y113.198
G01 X239.791 Y111.189
G01 X238.370 Y108.747
G01 X236.829 Y106.374
G01 X235.172 Y104.078
G01 X233.402 Y101.863
G01 X231.524 Y99.736
G01 X229.541 Y97.701
G01 X229.515 Y97.676
G01 X226.807 Y100.462
G01 X224.098 Y103.247
G01 X222.291 Y101.574
G01 X220.402 Y99.989
G01 X218.435 Y98.497
G01 X216.395 Y97.102
G01 X214.287 Y95.807
G01 X212.115 Y94.615
G01 X211.946 Y94.529
G01 X213.560 Y90.975
G01 X215.173 Y87.421
G01 X212.588 Y86.191
G01 X209.942 Y85.088
G01 X207.242 Y84.115
G01 X204.495 Y83.275
G01 X201.706 Y82.570
G01 X198.884 Y82.003
G01 X198.848 Y81.996
G01 X198.179 Y85.851
G01 X197.510 Y89.706
G01 X195.039 Y89.339
G01 X192.550 Y89.094
G01 X190.050 Y88.971
G01 X187.543 Y88.971
G01 X185.036 Y89.094
G01 X182.536 Y89.341
G01 X182.504 Y89.345
G01 X181.837 Y85.472
G01 X181.171 Y81.600
G01 X178.303 Y82.041
G01 X175.458 Y82.623
G01 X172.641 Y83.345
G01 X169.860 Y84.205
G01 X167.122 Y85.201
G01 X164.434 Y86.333
G01 X164.230 Y86.425
G01 X165.864 Y90.009
G01 X167.498 Y93.593
G01 X165.219 Y94.701
G01 X162.996 Y95.921
G01 X160.832 Y97.250
G01 X158.733 Y98.685
G01 X156.706 Y100.223
G01 X154.754 Y101.861
G01 X154.729 Y101.883
G01 X151.974 Y99.043
G01 X149.219 Y96.204
G01 X147.073 Y98.213
G01 X145.026 Y100.327
G01 X143.084 Y102.542
G01 X141.250 Y104.852
G01 X139.531 Y107.251
G01 X137.929 Y109.735
G01 X137.910 Y109.767
G01 X141.298 Y111.828
G01 X144.686 Y113.889
G01 X143.406 Y116.117
G01 X142.235 Y118.407
G01 X141.178 Y120.755
G01 X140.235 Y123.155
G01 X139.411 Y125.600
G01 X138.707 Y128.087
G01 X138.658 Y128.279
G01 X134.755 Y127.485
G01 X130.852 Y126.692
G01 X130.207 Y129.599
G01 X129.704 Y132.538
G01 X129.346 Y135.500
G01 X129.134 Y138.480
G01 X129.068 Y141.470
G01 X129.150 Y144.463
G01 X129.152 Y144.501
G01 X133.138 Y144.290
G01 X137.125 Y144.078
G01 X137.329 Y146.675
G01 X137.661 Y149.262
G01 X138.119 Y151.832
G01 X138.704 Y154.380
G01 X139.415 Y156.899
G01 X140.249 Y159.383
G01 X140.260 Y159.414
G01 X136.561 Y160.961
G01 X132.862 Y162.508
G01 X133.976 Y165.312
G01 X135.227 Y168.060
G01 X136.614 Y170.746
G01 X138.132 Y173.363
G01 X139.779 Y175.906
G01 X141.551 Y178.367
G01 X141.574 Y178.398
G01 X144.775 Y175.968
G01 X147.976 Y173.537
G01 X149.626 Y175.599
G01 X151.378 Y177.580
G01 X153.227 Y179.474
G01 X155.169 Y181.277
G01 X157.200 Y182.985
G01 X159.314 Y184.592
G01 X159.479 Y184.711
G01 X157.285 Y188.099
G01 X155.091 Y191.487
G01 X157.625 Y193.194
G01 X160.243 Y194.776
G01 X162.938 Y196.229
G01 X165.705 Y197.549
G01 X168.535 Y198.733
G01 X171.424 Y199.778
G01 X171.461 Y199.790
G01 X172.740 Y195.952
G01 X174.020 Y192.114
G01 X176.581 Y192.895
G01 X179.181 Y193.550
G01 X181.812 Y194.076
G01 X184.469 Y194.474
G01 X187.146 Y194.741
G01 X189.835 Y194.876
G01 X189.869 Y194.877
G01 X189.958 Y198.939
G01 X190.047 Y203.001
G01 X193.142 Y202.988
G01 X196.235 Y202.824
G01 X199.320 Y202.507
G01 X202.389 Y202.039
G01 X205.434 Y201.420
G01 X208.448 Y200.652
G01 X208.678 Y200.587
G01 X207.562 Y196.670
G01 X206.445 Y192.754
G01 X209.035 Y191.941
G01 X211.585 Y191.001
G01 X214.088 Y189.936
G01 X216.538 Y188.748
G01 X218.931 Y187.440
G01 X221.258 Y186.014
G01 X221.287 Y185.995
G01 X223.670 Y189.320
G01 X226.052 Y192.644
G01 X228.632 Y190.864
G01 X231.123 Y188.958
G01 X233.521 Y186.930
G01 X235.819 Y184.784
G01 X238.010 Y182.526
G01 X240.091 Y180.160
G01 X240.117 Y180.129
G01 X236.973 Y177.499
G01 X233.829 Y174.869
G01 X235.537 Y172.713
G01 X237.139 Y170.473
G01 X238.631 Y168.154
G01 X240.009 Y165.762
G01 X241.270 Y163.303
G01 X242.409 Y160.782
G01 X242.423 Y160.749
G01 X246.286 Y162.170
G01 X250.150 Y163.590
G01 X251.298 Y160.632
G01 X252.301 Y157.617
G01 X253.155 Y154.554
G01 X253.859 Y151.449
G01 X254.409 Y148.311
G01 X254.806 Y145.145
G01 X254.830 Y144.902
G01 X250.724 Y144.502
G01 X246.617 Y144.102
G01 X246.813 Y141.320
G01 X246.871 Y138.530
G01 X246.793 Y135.736
G01 X246.577 Y132.947
G01 X246.225 Y130.168
G01 X245.735 Y127.408
G01 X245.728 Y127.373
G01 X249.745 Y126.357
G01 X253.762 Y125.342
G01 X253.030 Y122.213
G01 X252.145 Y119.120
G01 X251.108 Y116.071
G01 X249.921 Y113.074
G01 X248.588 Y110.136
G01 X247.110 Y107.264
G01 X247.090 Y107.228
G01 X243.445 Y109.216
G01 X239.800 Y111.205
G01 X238.380 Y108.762
G01 X236.840 Y106.389
G01 X235.183 Y104.092
G01 X233.414 Y101.877
G01 X231.536 Y99.749
G01 X229.554 Y97.714
G01 X229.398 Y97.562
G01 X232.158 Y94.436
G01 X234.918 Y91.310
G01 X232.518 Y89.113
G01 X230.010 Y87.034
G01 X227.401 Y85.079
G01 X224.696 Y83.252
G01 X221.902 Y81.559
G01 X219.026 Y80.003
G01 X218.989 Y79.985
G01 X217.089 Y83.707
G01 X215.189 Y87.429
G01 X212.604 Y86.198
G01 X209.959 Y85.095
G01 X207.259 Y84.121
G01 X204.512 Y83.280
G01 X201.724 Y82.575
G01 X198.902 Y82.006
G01 X198.866 Y82.000
G01 X199.396 Y77.837
G01 X199.926 Y73.674
G01 X196.666 Y73.199
G01 X193.383 Y72.885
G01 X190.086 Y72.732
G01 X186.782 Y72.741
G01 X183.479 Y72.912
G01 X180.185 Y73.246
G01 X180.144 Y73.251
G01 X180.405 Y75.338
G01 X180.666 Y77.424
G01 X180.927 Y79.511
G01 X181.189 Y81.597
G01 X178.321 Y82.038
G01 X175.475 Y82.619
G01 X172.659 Y83.340
G01 X169.878 Y84.199
G01 X167.140 Y85.195
G01 X164.451 Y86.325
G01 X164.247 Y86.417
G01 X163.284 Y84.538
G01 X162.321 Y82.658
G01 X161.359 Y80.779
G01 X160.397 Y78.899
G01 X157.401 Y80.365
G01 X154.479 Y81.979
G01 X151.636 Y83.735
G01 X148.881 Y85.631
G01 X146.218 Y87.661
G01 X143.657 Y89.823
G01 X143.625 Y89.851
G01 X145.027 Y91.436
G01 X146.429 Y93.021
G01 X147.831 Y94.606
G01 X149.233 Y96.192
G01 X147.086 Y98.200
G01 X145.039 Y100.314
G01 X143.096 Y102.528
G01 X141.262 Y104.837
G01 X139.541 Y107.236
G01 X137.939 Y109.719
G01 X137.919 Y109.751
G01 X136.055 Y108.731
G01 X134.191 Y107.711
G01 X132.327 Y106.690
G01 X130.463 Y105.670
G01 X128.790 Y108.601
G01 X127.260 Y111.614
G01 X125.879 Y114.702
G01 X124.650 Y117.856
G01 X123.576 Y121.071
G01 X122.660 Y124.337
G01 X122.597 Y124.590
G01 X124.662 Y125.111
G01 X126.727 Y125.631
G01 X128.791 Y126.153
G01 X130.856 Y126.673
G01 X130.210 Y129.581
G01 X129.707 Y132.519
G01 X129.348 Y135.482
G01 X129.135 Y138.461
G01 X129.068 Y141.451
G01 X129.149 Y144.444
G01 X129.151 Y144.482
G01 X127.023 Y144.693
G01 X124.895 Y144.905
G01 X122.767 Y145.116
G01 X120.639 Y145.328
G01 X120.916 Y148.734
G01 X121.359 Y152.125
G01 X121.970 Y155.494
G01 X122.745 Y158.832
G01 X123.685 Y162.131
G01 X124.786 Y165.383
G01 X124.801 Y165.424
G01 X126.815 Y164.691
G01 X128.828 Y163.957
G01 X130.842 Y163.224
G01 X132.855 Y162.490
G01 X133.968 Y165.294
G01 X135.219 Y168.042
G01 X136.605 Y170.729
G01 X138.122 Y173.347
G01 X139.768 Y175.890
G01 X141.539 Y178.352
G01 X141.562 Y178.383
G01 X139.911 Y179.762
G01 X138.259 Y181.141
G01 X136.608 Y182.520
G01 X134.956 Y183.899
G01 X137.124 Y186.593
G01 X139.425 Y189.180
G01 X141.851 Y191.653
G01 X144.399 Y194.007
G01 X147.062 Y196.234
G01 X149.833 Y198.331
G01 X150.050 Y198.486
G01 X151.306 Y196.733
G01 X152.563 Y194.981
G01 X153.819 Y193.229
G01 X155.075 Y191.476
G01 X157.609 Y193.183
G01 X160.226 Y194.766
G01 X162.921 Y196.220
G01 X165.687 Y197.541
G01 X168.517 Y198.726
G01 X171.405 Y199.772
G01 X171.442 Y199.784
G01 X170.854 Y201.868
G01 X170.265 Y203.951
G01 X169.678 Y206.035
G01 X169.089 Y208.119
G01 X172.440 Y209.130
G01 X175.839 Y209.977
G01 X179.279 Y210.657
G01 X182.752 Y211.167
G01 X186.249 Y211.507
G01 X189.762 Y211.675
G01 X189.807 Y211.676
G01 X189.862 Y209.507
G01 X189.917 Y207.338
G01 X189.973 Y205.169
G01 X190.028 Y203.001
G01 X193.122 Y202.989
G01 X196.216 Y202.825
G01 X199.301 Y202.510
G01 X202.370 Y202.042
G01 X205.415 Y201.425
G01 X208.429 Y200.657
G01 X208.659 Y200.592
G01 X209.354 Y202.657
G01 X210.049 Y204.721
G01 X210.744 Y206.786
G01 X211.439 Y208.850
G01 X214.816 Y207.781
G01 X218.139 Y206.547
G01 X221.401 Y205.149
G01 X224.594 Y203.592
G01 X227.709 Y201.878
G01 X230.739 Y200.011
G01 X230.777 Y199.987
G01 X229.591 Y198.154
G01 X228.406 Y196.321
G01 X227.221 Y194.488
G01 X226.035 Y192.655
G01 X228.616 Y190.876
G01 X231.108 Y188.970
G01 X233.506 Y186.943
G01 X235.805 Y184.798
G01 X237.997 Y182.540
G01 X240.078 Y180.175
G01 X240.104 Y180.145
G01 X241.849 Y181.470
G01 X243.595 Y182.795
G01 X245.341 Y184.120
G01 X247.086 Y185.446
G01 X249.305 Y182.631
G01 X251.385 Y179.708
G01 X253.320 Y176.684
G01 X255.107 Y173.565
G01 X256.740 Y170.359
G01 X258.215 Y167.074
G01 X258.321 Y166.819
G01 X256.296 Y165.970
G01 X254.271 Y165.120
G01 X252.245 Y164.270
G01 X250.220 Y163.421
G01 X251.360 Y160.459
G01 X252.354 Y157.441
G01 X253.200 Y154.376
G01 X253.895 Y151.269
G01 X254.437 Y148.128
G01 X254.824 Y144.962
G01 X254.828 Y144.922
G01 X257.030 Y145.031
G01 X259.233 Y145.140
G01 X261.435 Y145.249
G01 X263.638 Y145.358
G01 X263.883 Y141.740
G01 X263.951 Y138.111
G01 X263.840 Y134.479
G01 X263.550 Y130.854
G01 X263.083 Y127.244
G01 X262.439 Y123.658
G01 X262.429 Y123.613
G01 X260.263 Y124.050
G01 X258.098 Y124.487
G01 X255.932 Y124.924
G01 X253.766 Y125.362
G01 X253.035 Y122.232
G01 X252.151 Y119.139
G01 X251.115 Y116.091
G01 X249.929 Y113.093
G01 X248.597 Y110.155
G01 X247.120 Y107.282
G01 X247.100 Y107.246
G01 X248.995 Y106.092
G01 X250.889 Y104.938
G01 X252.784 Y103.783
G01 X254.678 Y102.629
G01 X252.826 Y99.462
G01 X250.820 Y96.386
G01 X248.663 Y93.410
G01 X246.360 Y90.540
G01 X243.916 Y87.785
G01 X241.338 Y85.150
G01 X241.135 Y84.953
G01 X239.584 Y86.545
G01 X238.034 Y88.138
G01 X236.483 Y89.731
G01 X234.933 Y91.324
G01 X232.533 Y89.126
G01 X230.026 Y87.047
G01 X227.418 Y85.091
G01 X224.714 Y83.263
G01 X221.920 Y81.569
G01 X219.044 Y80.013
G01 X219.007 Y79.994
G01 X219.925 Y77.960
G01 X220.842 Y75.925
G01 X221.760 Y73.891
G01 X222.677 Y71.856
G01 X219.322 Y70.268
G01 X215.890 Y68.846
G01 X212.389 Y67.593
G01 X208.827 Y66.512
G01 X205.213 Y65.606
G01 X201.555 Y64.878
G01 X201.509 Y64.870
G01 X201.118 Y67.072
G01 X200.727 Y69.273
G01 X200.337 Y71.475
G01 X199.946 Y73.677
G01 X196.687 Y73.202
G01 X193.404 Y72.886
G01 X190.107 Y72.732
G01 X186.803 Y72.740
G01 X183.500 Y72.911
G01 X180.206 Y73.243
G01 X179.954 Y73.275
G01 X179.561 Y71.065
G01 X179.167 Y68.855
G01 X178.774 Y66.644
G01 X178.380 Y64.434
G01 X174.672 Y65.024
G01 X170.993 Y65.796
G01 X167.354 Y66.749
G01 X163.762 Y67.880
G01 X160.227 Y69.188
G01 X156.757 Y70.669
G01 X156.714 Y70.689
G01 X157.639 Y72.739
G01 X158.565 Y74.789
G01 X159.490 Y76.840
G01 X160.416 Y78.890
G01 X157.420 Y80.356
G01 X154.497 Y81.968
G01 X151.654 Y83.723
G01 X148.898 Y85.618
G01 X146.235 Y87.648
G01 X143.673 Y89.809
G01 X143.641 Y89.837
G01 X142.064 Y88.220
G01 X140.487 Y86.603
G01 X138.910 Y84.986
G01 X137.333 Y83.369
G01 X134.566 Y85.971
G01 X131.927 Y88.708
G01 X129.423 Y91.574
G01 X127.061 Y94.562
G01 X124.846 Y97.665
G01 X122.785 Y100.876
G01 X122.760 Y100.918
G01 X124.688 Y102.101
G01 X126.617 Y103.285
G01 X128.546 Y104.468
G01 X130.475 Y105.652
G01 X128.800 Y108.582
G01 X127.269 Y111.595
G01 X125.887 Y114.682
G01 X124.657 Y117.836
G01 X123.582 Y121.050
G01 X122.666 Y124.317
G01 X122.602 Y124.569
G01 X120.375 Y124.122
G01 X118.147 Y123.675
G01 X115.920 Y123.228
G01 X113.692 Y122.781
G01 X112.867 Y126.533
G01 X112.226 Y130.325
G01 X111.772 Y134.148
G01 X111.506 Y137.991
G01 X111.429 Y141.847
G01 X111.541 Y145.705
G01 X111.544 Y145.754
G01 X113.817 Y145.642
G01 X116.091 Y145.530
G01 X118.364 Y145.418
G01 X120.638 Y145.306
G01 X120.913 Y148.712
G01 X121.356 Y152.103
G01 X121.965 Y155.472
G01 X122.740 Y158.811
G01 X123.678 Y162.110
G01 X124.779 Y165.363
G01 X124.794 Y165.403
G01 X122.688 Y166.291
G01 X120.582 Y167.178
G01 X118.476 Y168.065
G01 X116.370 Y168.952
G01 X117.812 Y172.560
G01 X119.431 Y176.097
G01 X121.223 Y179.553
G01 X123.185 Y182.920
G01 X125.312 Y186.189
G01 X127.598 Y189.353
G01 X127.780 Y189.591
G01 X129.604 Y188.208
G01 X131.429 Y186.824
G01 X133.253 Y185.441
G01 X135.078 Y184.058
G01 X137.254 Y186.746
G01 X139.561 Y189.326
G01 X141.995 Y191.792
G01 X144.550 Y194.139
G01 X147.219 Y196.359
G01 X149.996 Y198.448
G01 X150.032 Y198.473
G01 X148.788 Y200.406
G01 X147.543 Y202.338
G01 X146.298 Y204.270
G01 X145.053 Y206.203
G01 X148.317 Y208.392
G01 X151.688 Y210.420
G01 X155.157 Y212.281
G01 X158.717 Y213.972
G01 X162.359 Y215.488
G01 X166.074 Y216.824
G01 X166.122 Y216.839
G01 X166.858 Y214.657
G01 X167.595 Y212.475
G01 X168.331 Y210.294
G01 X169.068 Y208.112
G01 X172.418 Y209.125
G01 X175.817 Y209.972
G01 X179.257 Y210.653
G01 X182.730 Y211.165
G01 X186.227 Y211.505
G01 X189.740 Y211.674
G01 X189.784 Y211.675
G01 X189.841 Y213.987
G01 X189.897 Y216.298
G01 X189.954 Y218.609
G01 X190.011 Y220.920
G01 X193.985 Y220.897
G01 X197.957 Y220.678
G01 X201.917 Y220.264
G01 X205.855 Y219.655
G01 X209.763 Y218.854
G01 X213.630 Y217.860
G01 X213.924 Y217.776
G01 X213.298 Y215.546
G01 X212.671 Y213.316
G01 X212.044 Y211.087
G01 X211.418 Y208.857
G01 X214.795 Y207.789
G01 X218.118 Y206.555
G01 X221.381 Y205.159
G01 X224.574 Y203.602
G01 X227.690 Y201.889
G01 X230.720 Y200.024
G01 X230.758 Y199.999
G01 X232.117 Y201.886
G01 X233.476 Y203.772
G01 X234.836 Y205.659
G01 X236.195 Y207.545
G01 X239.499 Y205.257
G01 X242.690 Y202.807
G01 X245.759 Y200.201
G01 X248.699 Y197.445
G01 X251.503 Y194.545
G01 X254.164 Y191.508
G01 X254.197 Y191.469
G01 X252.415 Y189.968
G01 X250.634 Y188.466
G01 X248.853 Y186.965
G01 X247.072 Y185.463
G01 X249.291 Y182.649
G01 X251.372 Y179.727
G01 X253.309 Y176.703
G01 X255.096 Y173.585
G01 X256.730 Y170.380
G01 X258.206 Y167.095
G01 X258.313 Y166.840
G01 X260.512 Y167.635
G01 X262.712 Y168.429
G01 X264.911 Y169.224
G01 X267.111 Y170.018
G01 X268.562 Y166.222
G01 X269.827 Y162.356
G01 X270.901 Y158.429
G01 X271.782 Y154.450
G01 X272.467 Y150.430
G01 X272.955 Y146.376
G01 X272.960 Y146.324
G01 X270.629 Y146.089
G01 X268.298 Y145.853
G01 X265.967 Y145.617
G01 X263.636 Y145.381
G01 X263.882 Y141.763
G01 X263.951 Y138.134
G01 X263.841 Y134.502
G01 X263.553 Y130.877
G01 X263.087 Y127.267
G01 X262.443 Y123.680
G01 X262.434 Y123.635
G01 X264.713 Y123.053
G01 X266.992 Y122.471
G01 X269.270 Y121.888
G01 X271.549 Y121.306
G01 X270.606 Y117.307
G01 X269.468 Y113.355
G01 X268.135 Y109.460
G01 X266.612 Y105.632
G01 X264.900 Y101.880
G01 X263.005 Y98.213
G01 X262.980 Y98.167
G01 X260.908 Y99.288
G01 X258.835 Y100.408
G01 X256.762 Y101.528
G01 X254.689 Y102.649
G01 X252.839 Y99.481
G01 X250.833 Y96.405
G01 X248.677 Y93.428
G01 X246.375 Y90.558
G01 X243.932 Y87.802
G01 X241.355 Y85.166
G01 X241.152 Y84.969
G01 X242.713 Y83.192
G01 X244.274 Y81.415
G01 X245.835 Y79.638
G01 X247.396 Y77.861
G01 X244.327 Y75.061
G01 X241.121 Y72.413
G01 X237.786 Y69.923
G01 X234.329 Y67.598
G01 X230.760 Y65.443
G01 X227.086 Y63.464
G01 X227.039 Y63.440
G01 X225.954 Y65.547
G01 X224.868 Y67.653
G01 X223.783 Y69.760
G01 X222.698 Y71.867
G01 X219.344 Y70.278
G01 X215.912 Y68.854
G01 X212.411 Y67.600
G01 X208.849 Y66.518
G01 X205.236 Y65.611
G01 X201.578 Y64.882
G01 X201.532 Y64.874
G01 X201.826 Y62.513
G01 X202.120 Y60.153
G01 X202.415 Y57.793
G01 X202.709 Y55.432
G01 X198.552 Y54.834
G01 X194.367 Y54.441
G01 X190.163 Y54.253
G01 X185.952 Y54.272
G01 X181.743 Y54.498
G01 X177.546 Y54.930
G01 X177.226 Y54.972
G01 X177.520 Y57.336
G01 X177.815 Y59.701
G01 X178.110 Y62.066
G01 X178.404 Y64.430
G01 X174.696 Y65.019
G01 X171.017 Y65.791
G01 X167.377 Y66.742
G01 X163.785 Y67.872
G01 X160.250 Y69.179
G01 X156.779 Y70.659
G01 X156.735 Y70.679
G01 X155.640 Y68.552
G01 X154.544 Y66.426
G01 X153.448 Y64.300
G01 X152.353 Y62.173
G01 X148.542 Y64.047
G01 X144.825 Y66.107
G01 X141.211 Y68.349
G01 X137.707 Y70.768
G01 X134.324 Y73.358
G01 X131.069 Y76.113
G01 X131.028 Y76.149
G01 X132.609 Y77.950
G01 X134.190 Y79.751
G01 X135.770 Y81.553
G01 X137.351 Y83.353
G01 X134.583 Y85.954
G01 X131.943 Y88.690
G01 X129.439 Y91.555
G01 X127.076 Y94.543
G01 X124.860 Y97.645
G01 X122.797 Y100.856
G01 X122.645 Y101.106
G01 X120.529 Y99.963
G01 X118.413 Y98.820
G01 X116.296 Y97.677
G01 X114.179 Y96.534
G01 X112.069 Y100.271
G01 X110.143 Y104.111
G01 X108.406 Y108.045
G01 X106.863 Y112.062
G01 X105.518 Y116.154
G01 X104.374 Y120.311
G01 X104.361 Y120.364
G01 X106.695 Y120.963
G01 X109.029 Y121.561
G01 X111.364 Y122.159
G01 X113.698 Y122.757
G01 X112.872 Y126.509
G01 X112.230 Y130.301
G01 X111.775 Y134.123
G01 X111.507 Y137.966
G01 X111.429 Y141.822
G01 X111.540 Y145.680
G01 X111.543 Y145.730
G01 X109.136 Y145.975
G01 X106.730 Y146.220
G01 X104.324 Y146.466
G01 X101.917 Y146.711
G01 X102.276 Y151.035
G01 X102.846 Y155.339
G01 X103.628 Y159.614
G01 X104.619 Y163.850
G01 X105.819 Y168.035
G01 X107.223 Y172.160
G01 X107.242 Y172.212
G01 X109.522 Y171.391
G01 X111.802 Y170.570
G01 X114.082 Y169.750
G01 X116.361 Y168.929
G01 X117.802 Y172.538
G01 X119.420 Y176.075
G01 X121.212 Y179.531
G01 X123.172 Y182.899
G01 X125.298 Y186.169
G01 X127.583 Y189.334
G01 X127.765 Y189.572
G01 X125.907 Y191.141
G01 X124.049 Y192.710
G01 X122.191 Y194.280
G01 X120.333 Y195.849
G01 X123.099 Y199.252
G01 X126.031 Y202.518
G01 X129.122 Y205.639
G01 X132.366 Y208.607
G01 X135.754 Y211.415
G01 X139.280 Y214.055
G01 X139.325 Y214.088
G01 X140.752 Y212.113
G01 X142.179 Y210.138
G01 X143.606 Y208.163
G01 X145.033 Y206.188
G01 X148.296 Y208.378
G01 X151.666 Y210.407
G01 X155.135 Y212.270
G01 X158.694 Y213.962
G01 X162.335 Y215.478
G01 X166.050 Y216.816
G01 X166.098 Y216.832
G01 X165.439 Y219.187
G01 X164.781 Y221.542
G01 X164.123 Y223.897
G01 X163.464 Y226.252
G01 X167.709 Y227.526
G01 X172.015 Y228.592
G01 X176.372 Y229.445
G01 X180.769 Y230.085
G01 X185.196 Y230.508
G01 X189.643 Y230.713
G01 X189.984 Y230.720
G01 X190.048 Y228.271
G01 X190.112 Y225.822
G01 X190.175 Y223.373
G01 X190.239 Y220.924
G01 X194.214 Y220.889
G01 X198.185 Y220.659
G01 X202.144 Y220.234
G01 X206.081 Y219.615
G01 X209.987 Y218.802
G01 X213.851 Y217.797
G01 X213.900 Y217.783
G01 X214.690 Y220.112
G01 X215.480 Y222.440
G01 X216.271 Y224.768
G01 X217.061 Y227.097
G01 X221.329 Y225.738
G01 X225.529 Y224.171
G01 X229.651 Y222.397
G01 X233.684 Y220.422
G01 X237.618 Y218.249
G01 X241.445 Y215.884
G01 X241.493 Y215.852
G01 X240.163 Y213.779
G01 X238.833 Y211.706
G01 X237.504 Y209.633
G01 X236.174 Y207.559
G01 X239.479 Y205.272
G01 X242.670 Y202.823
G01 X245.740 Y200.218
G01 X248.681 Y197.463
G01 X251.486 Y194.564
G01 X254.148 Y191.528
G01 X254.180 Y191.489
G01 X256.153 Y192.979
G01 X258.126 Y194.468
G01 X260.099 Y195.958
G01 X262.071 Y197.448
G01 X264.868 Y193.889
G01 X267.489 Y190.194
G01 X269.927 Y186.371
G01 X272.177 Y182.430
G01 X274.232 Y178.379
G01 X276.088 Y174.230
G01 X276.221 Y173.908
G01 X273.941 Y172.941
G01 X271.661 Y171.975
G01 X269.381 Y171.009
G01 X267.101 Y170.042
G01 X268.554 Y166.247
G01 X269.819 Y162.381
G01 X270.895 Y158.454
G01 X271.777 Y154.476
G01 X272.464 Y150.455
G01 X272.952 Y146.402
G01 X272.957 Y146.350
G01 X275.440 Y146.467
G01 X277.923 Y146.584
G01 X280.406 Y146.701
G01 X282.889 Y146.817
G01 X283.191 Y142.253
G01 X283.269 Y137.676
G01 X283.122 Y133.096
G01 X282.751 Y128.526
G01 X282.155 Y123.975
G01 X281.335 Y119.455
G01 X281.324 Y119.397
G01 X278.881 Y119.880
G01 X276.439 Y120.365
G01 X273.997 Y120.848
G01 X271.554 Y121.331
G01 X270.613 Y117.332
G01 X269.476 Y113.380
G01 X268.144 Y109.484
G01 X266.622 Y105.656
G01 X264.912 Y101.903
G01 X263.018 Y98.236
G01 X262.865 Y97.958
G01 X264.992 Y96.646
G01 X267.119 Y95.334
G01 X269.245 Y94.022
G01 X271.372 Y92.710
G01 X269.021 Y88.730
G01 X266.475 Y84.868
G01 X263.741 Y81.131
G01 X260.824 Y77.531
G01 X257.731 Y74.075
G01 X254.469 Y70.772
G01 X254.426 Y70.731
G01 X252.674 Y72.518
G01 X250.921 Y74.305
G01 X249.168 Y76.092
G01 X247.416 Y77.879
G01 X244.347 Y75.078
G01 X241.142 Y72.429
G01 X237.808 Y69.938
G01 X234.352 Y67.612
G01 X230.784 Y65.456
G01 X227.110 Y63.476
G01 X227.062 Y63.452
G01 X228.089 Y61.159
G01 X229.117 Y58.867
G01 X230.144 Y56.574
G01 X231.171 Y54.282
G01 X226.947 Y52.290
G01 X222.626 Y50.507
G01 X218.220 Y48.937
G01 X213.738 Y47.584
G01 X209.191 Y46.451
G01 X204.590 Y45.543
G01 X204.531 Y45.532
G01 X204.082 Y48.008
G01 X203.633 Y50.484
G01 X203.184 Y52.961
G01 X202.735 Y55.437
G01 X198.578 Y54.837
G01 X194.393 Y54.443
G01 X190.190 Y54.253
G01 X185.979 Y54.271
G01 X181.770 Y54.495
G01 X177.573 Y54.926
G01 X177.252 Y54.968
G01 X176.803 Y52.483
G01 X176.354 Y49.997
G01 X175.905 Y47.512
G01 X175.457 Y45.026
G01 X170.798 Y45.775
G01 X166.178 Y46.752
G01 X161.607 Y47.955
G01 X157.097 Y49.383
G01 X152.659 Y51.032
G01 X148.304 Y52.898
G01 X148.249 Y52.923
G01 X149.281 Y55.233
G01 X150.313 Y57.543
G01 X151.346 Y59.852
G01 X152.378 Y62.162
G01 X148.567 Y64.034
G01 X144.849 Y66.093
G01 X141.234 Y68.334
G01 X137.730 Y70.751
G01 X134.345 Y73.341
G01 X131.089 Y76.095
G01 X131.049 Y76.131
G01 X129.272 Y74.318
G01 X127.494 Y72.505
G01 X125.717 Y70.692
G01 X123.940 Y68.878
G01 X120.471 Y72.149
G01 X117.165 Y75.588
G01 X114.028 Y79.188
G01 X111.070 Y82.942
G01 X108.297 Y86.839
G01 X105.716 Y90.871
G01 X105.526 Y91.186
G01 X107.693 Y92.517
G01 X109.860 Y93.848
G01 X112.026 Y95.180
G01 X114.193 Y96.511
G01 X112.082 Y100.248
G01 X110.155 Y104.087
G01 X108.417 Y108.020
G01 X106.872 Y112.037
G01 X105.526 Y116.128
G01 X104.381 Y120.285
G01 X104.368 Y120.338
G01 X101.864 Y119.842
G01 X99.360 Y119.346
G01 X96.857 Y118.850
G01 X94.353 Y118.354
G01 X93.325 Y123.059
G01 X92.529 Y127.813
G01 X91.967 Y132.604
G01 X91.640 Y137.421
G01 X91.550 Y142.253
G01 X91.697 Y147.086
G01 X91.701 Y147.148
G01 X94.254 Y147.032
G01 X96.808 Y146.915
G01 X99.362 Y146.800
G01 X101.916 Y146.683
G01 X102.273 Y151.007
G01 X102.842 Y155.311
G01 X103.622 Y159.587
G01 X104.612 Y163.823
G01 X105.810 Y168.008
G01 X107.213 Y172.134
G01 X107.233 Y172.186
G01 X104.871 Y173.188
G01 X102.509 Y174.190
G01 X100.147 Y175.192
G01 X97.785 Y176.194
G01 X99.597 Y180.709
G01 X101.630 Y185.133
G01 X103.880 Y189.456
G01 X106.341 Y193.667
G01 X109.008 Y197.755
G01 X111.874 Y201.710
G01 X112.102 Y202.008
G01 X114.156 Y200.463
G01 X116.209 Y198.917
G01 X118.263 Y197.373
G01 X120.316 Y195.827
G01 X123.081 Y199.231
G01 X126.012 Y202.498
G01 X129.102 Y205.620
G01 X132.345 Y208.589
G01 X135.733 Y211.398
G01 X139.257 Y214.039
G01 X139.303 Y214.071
G01 X137.911 Y216.243
G01 X136.521 Y218.415
G01 X135.129 Y220.586
G01 X133.738 Y222.758
G01 X137.823 Y225.489
G01 X142.041 Y228.019
G01 X146.382 Y230.341
G01 X150.835 Y232.449
G01 X155.390 Y234.337
G01 X160.036 Y236.001
G01 X160.096 Y236.020
G01 X160.931 Y233.576
G01 X161.766 Y231.132
G01 X162.602 Y228.688
G01 X163.437 Y226.243
G01 X167.681 Y227.519
G01 X171.987 Y228.586
G01 X176.343 Y229.441
G01 X180.740 Y230.081
G01 X185.167 Y230.506
G01 X189.614 Y230.712
G01 X189.956 Y230.719
G01 X190.033 Y233.310
G01 X190.112 Y235.902
G01 X190.189 Y238.493
G01 X190.268 Y241.084
G01 X195.232 Y241.032
G01 X200.191 Y240.737
G01 X205.134 Y240.198
G01 X210.049 Y239.416
G01 X214.923 Y238.393
G01 X219.746 Y237.131
G01 X219.807 Y237.114
G01 X219.114 Y234.611
G01 X218.420 Y232.109
G01 X217.727 Y229.607
G01 X217.034 Y227.105
G01 X221.302 Y225.748
G01 X225.503 Y224.181
G01 X229.625 Y222.409
G01 X233.659 Y220.435
G01 X237.594 Y218.263
G01 X241.421 Y215.899
G01 X241.469 Y215.868
G01 X242.997 Y217.978
G01 X244.526 Y220.089
G01 X246.054 Y222.199
G01 X247.583 Y224.309
G01 X251.701 Y221.449
G01 X255.677 Y218.388
G01 X259.501 Y215.132
G01 X263.163 Y211.690
G01 X266.655 Y208.069
G01 X269.968 Y204.278
G01 X270.214 Y203.981
G01 X268.220 Y202.297
G01 X266.226 Y200.614
G01 X264.232 Y198.930
G01 X262.237 Y197.247
G01 X265.024 Y193.680
G01 X267.634 Y189.977
G01 X270.062 Y186.147
G01 X272.300 Y182.200
G01 X274.344 Y178.143
G01 X276.188 Y173.988
G01 X276.210 Y173.934
G01 X278.676 Y174.818
G01 X281.141 Y175.702
G01 X283.607 Y176.585
G01 X286.073 Y177.469
G01 X287.875 Y172.736
G01 X289.444 Y167.917
G01 X290.776 Y163.023
G01 X291.867 Y158.065
G01 X292.714 Y153.055
G01 X293.315 Y148.006
G01 X293.321 Y147.941
G01 X290.712 Y147.667
G01 X288.104 Y147.393
G01 X285.495 Y147.120
G01 X282.886 Y146.846
G01 X283.190 Y142.282
G01 X283.269 Y137.705
G01 X283.124 Y133.125
G01 X282.754 Y128.554
G01 X282.159 Y124.003
G01 X281.341 Y119.483
G01 X281.330 Y119.426
G01 X283.878 Y118.768
G01 X286.427 Y118.110
G01 X288.976 Y117.452
G01 X291.525 Y116.794
G01 X290.345 Y111.818
G01 X288.922 Y106.901
G01 X287.257 Y102.056
G01 X285.355 Y97.295
G01 X283.220 Y92.630
G01 X280.857 Y88.071
G01 X280.666 Y87.725
G01 X278.346 Y88.978
G01 X276.026 Y90.230
G01 X273.706 Y91.483
G01 X271.386 Y92.735
G01 X269.036 Y88.755
G01 X266.492 Y84.892
G01 X263.758 Y81.155
G01 X260.842 Y77.553
G01 X257.751 Y74.096
G01 X254.490 Y70.793
G01 X254.447 Y70.752
G01 X256.189 Y68.759
G01 X257.930 Y66.768
G01 X259.671 Y64.775
G01 X261.413 Y62.783
G01 X257.592 Y59.307
G01 X253.603 Y56.020
G01 X249.453 Y52.930
G01 X245.154 Y50.046
G01 X240.714 Y47.373
G01 X236.145 Y44.920
G01 X236.086 Y44.890
G01 X234.864 Y47.241
G01 X233.642 Y49.592
G01 X232.420 Y51.944
G01 X231.198 Y54.295
G01 X226.974 Y52.302
G01 X222.654 Y50.518
G01 X218.248 Y48.946
G01 X213.766 Y47.592
G01 X209.220 Y46.458
G01 X204.619 Y45.548
G01 X204.264 Y45.487
G01 X204.579 Y42.847
G01 X204.892 Y40.206
G01 X205.207 Y37.565
G01 X205.521 Y34.925
G01 X200.355 Y34.205
G01 X195.155 Y33.739
G01 X189.935 Y33.529
G01 X184.706 Y33.575
G01 X179.482 Y33.878
G01 X174.275 Y34.438
G01 X174.209 Y34.446
G01 X174.528 Y37.090
G01 X174.848 Y39.734
G01 X175.167 Y42.378
G01 X175.487 Y45.022
G01 X170.828 Y45.769
G01 X166.207 Y46.745
G01 X161.636 Y47.947
G01 X157.126 Y49.374
G01 X152.687 Y51.021
G01 X148.331 Y52.886
G01 X148.276 Y52.911
G01 X147.046 Y50.538
G01 X145.816 Y48.166
G01 X144.586 Y45.793
G01 X143.356 Y43.420
G01 X138.632 Y45.750
G01 X134.025 Y48.311
G01 X129.545 Y51.097
G01 X125.204 Y54.102
G01 X121.012 Y57.319
G01 X116.980 Y60.741
G01 X116.930 Y60.786
G01 X118.688 Y62.804
G01 X120.446 Y64.822
G01 X122.204 Y66.840
G01 X123.962 Y68.858
G01 X120.493 Y72.127
G01 X117.185 Y75.566
G01 X114.047 Y79.165
G01 X111.088 Y82.917
G01 X108.313 Y86.814
G01 X105.732 Y90.845
G01 X105.542 Y91.159
G01 X103.176 Y89.889
G01 X100.809 Y88.619
G01 X98.442 Y87.348
G01 X96.076 Y86.078
G01 X93.466 Y90.713
G01 X91.086 Y95.473
G01 X88.940 Y100.349
G01 X87.034 Y105.328
G01 X85.374 Y110.399
G01 X83.964 Y115.549
G01 X83.947 Y115.615
G01 X86.550 Y116.292
G01 X89.154 Y116.970
G01 X91.757 Y117.647
G01 X94.360 Y118.325
G01 X93.331 Y123.029
G01 X92.533 Y127.783
G01 X91.970 Y132.574
G01 X91.641 Y137.391
G01 X91.550 Y142.222
G01 X91.696 Y147.056
G01 X91.699 Y147.118
G01 X89.014 Y147.398
G01 X86.330 Y147.678
G01 X83.645 Y147.959
G01 X80.960 Y148.239
G01 X81.410 Y153.590
G01 X82.123 Y158.917
G01 X83.096 Y164.206
G01 X84.329 Y169.446
G01 X85.819 Y174.623
G01 X87.563 Y179.724
G01 X87.707 Y180.112
G01 X90.251 Y179.198
G01 X92.795 Y178.284
G01 X95.339 Y177.370
G01 X97.883 Y176.456
G01 X99.708 Y180.966
G01 X101.754 Y185.385
G01 X104.016 Y189.701
G01 X106.489 Y193.905
G01 X109.167 Y197.986
G01 X112.045 Y201.934
G01 X112.083 Y201.983
G01 X110.015 Y203.738
G01 X107.948 Y205.494
G01 X105.880 Y207.250
G01 X103.812 Y209.006
G01 X107.236 Y213.209
G01 X110.866 Y217.243
G01 X114.692 Y221.096
G01 X118.706 Y224.760
G01 X122.899 Y228.226
G01 X127.259 Y231.484
G01 X127.316 Y231.524
G01 X128.915 Y229.328
G01 X130.514 Y227.132
G01 X132.113 Y224.936
G01 X133.712 Y222.740
G01 X137.797 Y225.473
G01 X142.014 Y228.004
G01 X146.354 Y230.327
G01 X150.806 Y232.436
G01 X155.361 Y234.326
G01 X160.006 Y235.991
G01 X160.066 Y236.011
G01 X159.338 Y238.638
G01 X158.611 Y241.265
G01 X157.883 Y243.892
G01 X157.156 Y246.519
G01 X162.400 Y248.087
G01 X167.720 Y249.396
G01 X173.101 Y250.444
G01 X178.532 Y251.227
G01 X183.999 Y251.743
G01 X189.488 Y251.991
G01 X189.910 Y251.999
G01 X189.991 Y249.270
G01 X190.073 Y246.541
G01 X190.155 Y243.812
G01 X190.236 Y241.084
G01 X195.200 Y241.033
G01 X200.160 Y240.739
G01 X205.103 Y240.202
G01 X210.018 Y239.422
G01 X214.893 Y238.400
G01 X219.715 Y237.140
G01 X219.776 Y237.122
G01 X220.663 Y239.714
G01 X221.550 Y242.306
G01 X222.437 Y244.898
G01 X223.324 Y247.489
G01 X228.588 Y245.807
G01 X233.767 Y243.867
G01 X238.849 Y241.674
G01 X243.821 Y239.232
G01 X248.671 Y236.546
G01 X253.387 Y233.624
G01 X253.446 Y233.585
G01 X251.974 Y231.271
G01 X250.501 Y228.956
G01 X249.029 Y226.642
G01 X247.556 Y224.327
G01 X251.675 Y221.468
G01 X255.652 Y218.408
G01 X259.477 Y215.153
G01 X263.141 Y211.712
G01 X266.634 Y208.092
G01 X269.948 Y204.303
G01 X270.194 Y204.005
G01 X272.400 Y205.652
G01 X274.606 Y207.299
G01 X276.812 Y208.945
G01 X279.018 Y210.591
G01 X282.446 Y206.190
G01 X285.657 Y201.622
G01 X288.642 Y196.898
G01 X291.393 Y192.029
G01 X293.905 Y187.028
G01 X296.169 Y181.905
G01 X296.196 Y181.840
G01 X293.662 Y180.755
G01 X291.128 Y179.669
G01 X288.594 Y178.584
G01 X286.060 Y177.498
G01 X287.864 Y172.766
G01 X289.435 Y167.948
G01 X290.769 Y163.054
G01 X291.861 Y158.096
G01 X292.710 Y153.087
G01 X293.312 Y148.038
G01 X293.318 Y147.973
G01 X296.082 Y148.096
G01 X298.845 Y148.219
G01 X301.608 Y148.342
G01 X304.371 Y148.466
G01 X304.738 Y142.846
G01 X304.828 Y137.210
G01 X304.641 Y131.573
G01 X304.177 Y125.947
G01 X303.437 Y120.346
G01 X302.423 Y114.784
G01 X302.408 Y114.714
G01 X299.689 Y115.242
G01 X296.970 Y115.770
G01 X294.251 Y116.298
G01 X291.532 Y116.826
G01 X290.354 Y111.849
G01 X288.932 Y106.932
G01 X287.269 Y102.087
G01 X285.368 Y97.325
G01 X283.235 Y92.659
G01 X280.873 Y88.099
G01 X280.682 Y87.754
G01 X283.044 Y86.289
G01 X285.406 Y84.823
G01 X287.767 Y83.357
G01 X290.129 Y81.892
G01 X287.232 Y77.000
G01 X284.096 Y72.253
G01 X280.728 Y67.662
G01 X277.136 Y63.239
G01 X273.328 Y58.994
G01 X269.314 Y54.937
G01 X269.262 Y54.887
G01 X267.306 Y56.867
G01 X265.349 Y58.846
G01 X263.393 Y60.826
G01 X261.436 Y62.806
G01 X257.617 Y59.329
G01 X253.628 Y56.040
G01 X249.480 Y52.949
G01 X245.181 Y50.063
G01 X240.743 Y47.390
G01 X236.174 Y44.935
G01 X236.115 Y44.905
G01 X237.251 Y42.353
G01 X238.386 Y39.802
G01 X239.522 Y37.251
G01 X240.657 Y34.699
G01 X235.464 Y32.258
G01 X230.153 Y30.073
G01 X224.738 Y28.150
G01 X219.230 Y26.493
G01 X213.643 Y25.108
G01 X207.991 Y23.998
G01 X207.556 Y23.924
G01 X207.055 Y26.676
G01 X206.554 Y29.427
G01 X206.054 Y32.179
G01 X205.553 Y34.930
G01 X200.387 Y34.209
G01 X195.188 Y33.741
G01 X189.968 Y33.529
G01 X184.739 Y33.574
G01 X179.515 Y33.875
G01 X174.308 Y34.433
G01 X174.243 Y34.442
G01 X173.737 Y31.682
G01 X173.231 Y28.922
G01 X172.725 Y26.162
G01 X172.220 Y23.401
G01 X166.502 Y24.326
G01 X160.832 Y25.531
G01 X155.224 Y27.014
G01 X149.692 Y28.772
G01 X144.248 Y30.801
G01 X138.906 Y33.097
G01 X138.839 Y33.127
G01 X139.976 Y35.697
G01 X141.112 Y38.267
G01 X142.250 Y40.837
G01 X143.386 Y43.406
G01 X138.662 Y45.735
G01 X134.054 Y48.294
G01 X129.573 Y51.079
G01 X125.231 Y54.082
G01 X121.038 Y57.298
G01 X117.005 Y60.718
G01 X116.703 Y60.989
G01 X114.718 Y58.987
G01 X112.733 Y56.984
G01 X110.748 Y54.982
G01 X108.763 Y52.980
G01 X104.526 Y57.008
G01 X100.489 Y61.242
G01 X96.662 Y65.673
G01 X93.054 Y70.290
G01 X89.674 Y75.081
G01 X86.531 Y80.037
G01 X86.493 Y80.100
G01 X88.893 Y81.588
G01 X91.293 Y83.075
G01 X93.693 Y84.562
G01 X96.093 Y86.049
G01 X93.482 Y90.683
G01 X91.100 Y95.443
G01 X88.953 Y100.318
G01 X87.046 Y105.296
G01 X85.384 Y110.366
G01 X83.972 Y115.516
G01 X83.956 Y115.581
G01 X81.175 Y115.038
G01 X78.395 Y114.494
G01 X75.615 Y113.951
G01 X72.835 Y113.408
G01 X71.582 Y119.173
G01 X70.612 Y124.997
G01 X69.930 Y130.867
G01 X69.535 Y136.767
G01 X69.431 Y142.684
G01 X69.618 Y148.603
G01 X69.622 Y148.679
G01 X72.456 Y148.560
G01 X75.290 Y148.441
G01 X78.124 Y148.323
G01 X80.958 Y148.205
G01 X81.407 Y153.556
G01 X82.117 Y158.883
G01 X83.089 Y164.173
G01 X84.321 Y169.413
G01 X85.809 Y174.590
G01 X87.551 Y179.692
G01 X87.695 Y180.080
G01 X85.081 Y181.206
G01 X82.467 Y182.333
G01 X79.853 Y183.459
G01 X77.240 Y184.585
G01 X79.480 Y190.102
G01 X81.991 Y195.506
G01 X84.765 Y200.785
G01 X87.798 Y205.925
G01 X91.082 Y210.913
G01 X94.609 Y215.738
G01 X94.655 Y215.798
G01 X96.939 Y214.093
G01 X99.223 Y212.388
G01 X101.507 Y210.683
G01 X103.791 Y208.979
G01 X107.214 Y213.183
G01 X110.843 Y217.218
G01 X114.668 Y221.073
G01 X118.680 Y224.738
G01 X122.872 Y228.205
G01 X127.231 Y231.464
G01 X127.287 Y231.504
G01 X125.751 Y233.915
G01 X124.214 Y236.327
G01 X122.678 Y238.739
G01 X121.142 Y241.151
G01 X126.140 Y244.486
G01 X131.300 Y247.574
G01 X136.609 Y250.407
G01 X142.055 Y252.978
G01 X147.625 Y255.280
G01 X153.305 Y257.308
G01 X153.745 Y257.452
G01 X154.673 Y254.743
G01 X155.601 Y252.034
G01 X156.528 Y249.325
G01 X157.456 Y246.616
G01 X162.705 Y248.169
G01 X168.029 Y249.464
G01 X173.413 Y250.497
G01 X178.846 Y251.264
G01 X184.315 Y251.765
G01 X189.806 Y251.997
G01 X189.875 Y251.998
G01 X189.969 Y254.869
G01 X190.063 Y257.741
G01 X190.156 Y260.612
G01 X190.250 Y263.484
G01 X196.314 Y263.414
G01 X202.371 Y263.047
G01 X208.407 Y262.383
G01 X214.408 Y261.423
G01 X220.359 Y260.168
G01 X226.246 Y258.621
G01 X226.320 Y258.600
G01 X225.563 Y255.825
G01 X224.805 Y253.050
G01 X224.048 Y250.275
G01 X223.290 Y247.499
G01 X228.555 Y245.819
G01 X233.735 Y243.880
G01 X238.818 Y241.689
G01 X243.790 Y239.248
G01 X248.641 Y236.564
G01 X253.358 Y233.643
G01 X253.416 Y233.605
G01 X255.115 Y235.938
G01 X256.814 Y238.271
G01 X258.513 Y240.605
G01 X260.212 Y242.938
G01 X265.234 Y239.442
G01 X270.082 Y235.702
G01 X274.744 Y231.725
G01 X279.209 Y227.521
G01 X283.465 Y223.100
G01 X287.502 Y218.471
G01 X287.802 Y218.108
G01 X285.601 Y216.236
G01 X283.399 Y214.363
G01 X281.197 Y212.491
G01 X278.996 Y210.619
G01 X282.426 Y206.218
G01 X285.638 Y201.651
G01 X288.624 Y196.928
G01 X291.377 Y192.061
G01 X293.890 Y187.060
G01 X296.156 Y181.938
G01 X296.183 Y181.873
G01 X298.915 Y182.844
G01 X301.647 Y183.815
G01 X304.379 Y184.787
G01 X307.111 Y185.758
G01 X309.303 Y179.986
G01 X311.211 Y174.109
G01 X312.829 Y168.141
G01 X314.153 Y162.096
G01 X315.180 Y155.989
G01 X315.906 Y149.835
G01 X315.914 Y149.757
G01 X313.027 Y149.443
G01 X310.141 Y149.129
G01 X307.255 Y148.815
G01 X304.368 Y148.501
G01 X304.736 Y142.881
G01 X304.828 Y137.246
G01 X304.643 Y131.608
G01 X304.181 Y125.982
G01 X303.443 Y120.381
G01 X302.430 Y114.819
G01 X302.341 Y114.395
G01 X305.158 Y113.651
G01 X307.974 Y112.907
G01 X310.791 Y112.163
G01 X313.607 Y111.418
G01 X312.145 Y105.362
G01 X310.387 Y99.381
G01 X308.335 Y93.489
G01 X305.996 Y87.700
G01 X303.373 Y82.029
G01 X300.473 Y76.489
G01 X300.434 Y76.420
G01 X297.862 Y77.796
G01 X295.290 Y79.172
G01 X292.719 Y80.548
G01 X290.146 Y81.923
G01 X287.251 Y77.031
G01 X284.116 Y72.283
G01 X280.750 Y67.691
G01 X277.159 Y63.266
G01 X273.353 Y59.020
G01 X269.340 Y54.962
G01 X269.287 Y54.912
G01 X271.208 Y52.704
G01 X273.129 Y50.497
G01 X275.050 Y48.289
G01 X276.970 Y46.080
G01 X272.317 Y41.854
G01 X267.458 Y37.859
G01 X262.406 Y34.104
G01 X257.172 Y30.599
G01 X251.768 Y27.352
G01 X246.207 Y24.373
G01 X246.135 Y24.337
G01 X244.773 Y26.931
G01 X243.412 Y29.526
G01 X242.051 Y32.121
G01 X240.690 Y34.715
G01 X235.497 Y32.273
G01 X230.187 Y30.086
G01 X224.772 Y28.161
G01 X219.265 Y26.503
G01 X213.679 Y25.116
G01 X208.027 Y24.004
G01 X207.591 Y23.930
G01 X207.931 Y21.010
G01 X208.272 Y18.090
G01 X208.612 Y15.170
G01 X208.952 Y12.250
G01 X202.670 Y11.381
G01 X196.348 Y10.820
G01 X190.002 Y10.570
G01 X183.647 Y10.632
G01 X177.297 Y11.006
G01 X170.969 Y11.691
G01 X170.889 Y11.702
G01 X171.230 Y14.626
G01 X171.573 Y17.549
G01 X171.914 Y20.473
G01 X172.256 Y23.396
G01 X166.538 Y24.319
G01 X160.868 Y25.523
G01 X155.259 Y27.004
G01 X149.726 Y28.760
G01 X144.282 Y30.788
G01 X138.939 Y33.081
G01 X138.872 Y33.112
G01 X137.506 Y30.494
G01 X136.142 Y27.875
G01 X134.776 Y25.257
G01 X133.410 Y22.639
G01 X127.674 Y25.474
G01 X122.081 Y28.589
G01 X116.643 Y31.978
G01 X111.374 Y35.632
G01 X106.287 Y39.543
G01 X101.395 Y43.702
G01 X101.027 Y44.032
G01 X102.968 Y46.263
G01 X104.909 Y48.493
G01 X106.849 Y50.724
G01 X108.790 Y52.955
G01 X104.552 Y56.982
G01 X100.514 Y61.215
G01 X96.685 Y65.644
G01 X93.076 Y70.260
G01 X89.695 Y75.051
G01 X86.550 Y80.005
G01 X86.512 Y80.069
G01 X83.895 Y78.673
G01 X81.278 Y77.275
G01 X78.661 Y75.879
G01 X76.044 Y74.482
G01 X72.882 Y80.110
G01 X69.998 Y85.890
G01 X67.399 Y91.808
G01 X65.092 Y97.852
G01 X63.083 Y104.006
G01 X61.377 Y110.255
G01 X61.358 Y110.335
G01 X64.229 Y111.095
G01 X67.101 Y111.853
G01 X69.972 Y112.613
G01 X72.844 Y113.372
G01 X71.589 Y119.137
G01 X70.618 Y124.961
G01 X69.933 Y130.830
G01 X69.537 Y136.730
G01 X69.431 Y142.646
G01 X69.615 Y148.566
G01 X69.642 Y149.018
G01 X66.680 Y149.344
G01 X63.718 Y149.671
G01 X60.756 Y149.997
G01 X57.794 Y150.324
G01 X58.365 Y156.810
G01 X59.255 Y163.266
G01 X60.461 Y169.674
G01 X61.981 Y176.021
G01 X63.812 Y182.289
G01 X65.951 Y188.465
G01 X65.980 Y188.543
G01 X68.792 Y187.545
G01 X71.603 Y186.546
G01 X74.415 Y185.549
G01 X77.226 Y184.550
G01 X79.465 Y190.068
G01 X81.974 Y195.473
G01 X84.747 Y200.752
G01 X87.778 Y205.893
G01 X91.060 Y210.882
G01 X94.586 Y215.708
G01 X94.633 Y215.769
G01 X92.356 Y217.712
G01 X90.078 Y219.654
G01 X87.801 Y221.596
G01 X85.525 Y223.540
G01 X89.678 Y228.629
G01 X94.079 Y233.511
G01 X98.718 Y238.175
G01 X103.583 Y242.609
G01 X108.664 Y246.802
G01 X113.948 Y250.743
G01 X114.017 Y250.792
G01 X115.791 Y248.376
G01 X117.564 Y245.960
G01 X119.338 Y243.545
G01 X121.111 Y241.129
G01 X126.108 Y244.465
G01 X131.267 Y247.555
G01 X136.575 Y250.390
G01 X142.020 Y252.962
G01 X147.589 Y255.267
G01 X153.269 Y257.296
G01 X153.708 Y257.440
G01 X152.921 Y260.342
G01 X152.136 Y263.244
G01 X151.350 Y266.146
G01 X150.564 Y269.048
G01 X156.920 Y270.921
G01 X163.365 Y272.480
G01 X169.883 Y273.723
G01 X176.459 Y274.645
G01 X183.078 Y275.243
G01 X189.722 Y275.516
G01 X189.807 Y275.517
G01 X189.908 Y272.509
G01 X190.009 Y269.500
G01 X190.111 Y266.491
G01 X190.212 Y263.483
G01 X196.275 Y263.416
G01 X202.333 Y263.051
G01 X208.369 Y262.388
G01 X214.371 Y261.430
G01 X220.322 Y260.177
G01 X226.209 Y258.632
G01 X226.284 Y258.611
G01 X227.269 Y261.465
G01 X228.253 Y264.320
G01 X229.237 Y267.175
G01 X230.222 Y270.030
G01 X236.587 Y267.990
G01 X242.849 Y265.639
G01 X248.992 Y262.982
G01 X255.001 Y260.024
G01 X260.862 Y256.773
G01 X266.561 Y253.235
G01 X266.991 Y252.952
G01 X265.370 Y250.399
G01 X263.748 Y247.847
G01 X262.128 Y245.295
G01 X260.506 Y242.743
G01 X265.519 Y239.233
G01 X270.356 Y235.478
G01 X275.008 Y231.488
G01 X279.460 Y227.271
G01 X283.704 Y222.838
G01 X287.728 Y218.198
G01 X287.777 Y218.139
G01 X290.212 Y219.947
G01 X292.648 Y221.755
G01 X295.083 Y223.563
G01 X297.518 Y225.372
G01 X301.657 Y220.050
G01 X305.531 Y214.527
G01 X309.133 Y208.817
G01 X312.453 Y202.933
G01 X315.481 Y196.889
G01 X318.212 Y190.699
G01 X318.245 Y190.619
G01 X315.458 Y189.413
G01 X312.670 Y188.207
G01 X309.884 Y187.000
G01 X307.096 Y185.794
G01 X309.290 Y180.022
G01 X311.200 Y174.146
G01 X312.820 Y168.179
G01 X314.146 Y162.135
G01 X315.174 Y156.028
G01 X315.903 Y149.874
G01 X315.910 Y149.795
G01 X318.954 Y149.923
G01 X321.998 Y150.052
G01 X325.042 Y150.180
G01 X328.086 Y150.308
G01 X328.522 Y143.523
G01 X328.626 Y136.719
G01 X328.395 Y129.914
G01 X327.830 Y123.124
G01 X326.932 Y116.364
G01 X325.702 Y109.653
G01 X325.594 Y109.140
G01 X322.599 Y109.719
G01 X319.605 Y110.299
G01 X316.610 Y110.877
G01 X313.615 Y111.457
G01 X312.155 Y105.400
G01 X310.399 Y99.418
G01 X308.349 Y93.525
G01 X306.011 Y87.736
G01 X303.390 Y82.064
G01 X300.492 Y76.524
G01 X300.454 Y76.456
G01 X303.050 Y74.836
G01 X305.646 Y73.215
G01 X308.242 Y71.595
G01 X310.838 Y69.975
G01 X307.338 Y64.077
G01 X303.551 Y58.354
G01 X299.485 Y52.820
G01 X297.548 Y50.373

