;  Created by Sandify
;  https://sandify.org
;  Version: 0.2.4
;
;  Machine type: Rectangular
;    Min X (mm): 0
;    Max X (mm): 380
;    Min Y (mm): 0
;    Max Y (mm): 280
;  Content type: shape
;  Layer:
;    Shape: FileImport
;    Name: dither_tri4.thr
;    From file:: dither_tri4.thr
;    Aspect Ratio: true
;    Comments: 
;    Visible: true
;    Initial width: 10
;    Initial height: 10
;    X offset: 0
;    Y offset: 0
;    Rotate (degrees): 0
;    Reverse path: false
;    Fine tuning:
;      Connect to next layer: line
;      Draw portion of path (%): 100
;      Backtrack at end (%): 0
;      Rotate starting point (%): 0
;  Reverse export path: false
;
; File name: 'dither_tri4'
;

G01 X330.000 Y140.000
G01 X326.719 Y141.894
G01 X323.437 Y143.789
G01 X320.156 Y145.683
G01 X316.875 Y147.578
G01 X313.594 Y149.472
G01 X310.313 Y151.367
G01 X307.031 Y153.261
G01 X303.750 Y155.155
G01 X300.469 Y157.050
G01 X297.188 Y158.944
G01 X293.906 Y160.839
G01 X290.625 Y162.733
G01 X287.344 Y164.628
G01 X284.062 Y166.522
G01 X280.781 Y168.416
G01 X277.500 Y170.311
G01 X274.219 Y172.205
G01 X270.937 Y174.100
G01 X267.656 Y175.994
G01 X264.375 Y177.889
G01 X261.094 Y179.783
G01 X257.813 Y181.677
G01 X254.531 Y183.572
G01 X251.250 Y185.466
G01 X247.969 Y187.361
G01 X244.687 Y189.255
G01 X241.448 Y191.127
G01 X241.406 Y191.150
G01 X238.255 Y192.974
G01 X238.125 Y193.044
G01 X235.044 Y194.830
G01 X234.844 Y194.938
G01 X231.816 Y196.695
G01 X231.562 Y196.833
G01 X228.570 Y198.570
G01 X228.281 Y198.727
G01 X225.307 Y200.455
G01 X225.000 Y200.622
G01 X222.026 Y202.349
G01 X221.719 Y202.516
G01 X218.727 Y204.253
G01 X218.438 Y204.411
G01 X215.411 Y206.166
G01 X215.156 Y206.305
G01 X212.077 Y208.090
G01 X211.875 Y208.200
G01 X208.725 Y210.023
G01 X208.594 Y210.094
G01 X205.355 Y211.965
G01 X205.312 Y211.988
G01 X202.031 Y213.883
G01 X198.750 Y215.777
G01 X195.469 Y217.672
G01 X192.188 Y219.566
G01 X188.906 Y221.460
G01 X185.625 Y223.355
G01 X182.344 Y225.249
G01 X179.063 Y227.144
G01 X175.781 Y229.038
G01 X172.500 Y230.933
G01 X169.219 Y232.827
G01 X165.937 Y234.722
G01 X162.656 Y236.616
G01 X159.375 Y238.510
G01 X156.094 Y240.405
G01 X152.813 Y242.299
G01 X149.531 Y244.194
G01 X146.250 Y246.088
G01 X142.969 Y247.983
G01 X139.687 Y249.877
G01 X136.406 Y251.771
G01 X133.125 Y253.666
G01 X129.844 Y255.560
G01 X126.563 Y257.455
G01 X123.281 Y259.349
G01 X120.000 Y261.244
G01 X120.000 Y257.455
G01 X120.000 Y253.666
G01 X120.000 Y249.877
G01 X120.000 Y246.088
G01 X120.000 Y242.299
G01 X120.000 Y238.510
G01 X120.000 Y234.722
G01 X120.000 Y230.933
G01 X120.000 Y227.144
G01 X120.000 Y223.355
G01 X120.000 Y219.566
G01 X120.000 Y215.777
G01 X120.000 Y211.988
G01 X120.000 Y208.199
G01 X120.000 Y204.411
G01 X120.000 Y200.622
G01 X120.000 Y196.833
G01 X120.000 Y193.044
G01 X120.000 Y189.255
G01 X120.000 Y185.466
G01 X120.000 Y181.677
G01 X120.000 Y177.889
G01 X120.000 Y174.100
G01 X120.000 Y170.311
G01 X120.000 Y166.522
G01 X120.000 Y162.733
G01 X119.999 Y158.992
G01 X120.000 Y158.944
G01 X119.996 Y155.303
G01 X120.000 Y155.155
G01 X119.994 Y151.594
G01 X120.000 Y151.367
G01 X119.993 Y147.866
G01 X120.000 Y147.578
G01 X119.992 Y144.117
G01 X120.000 Y143.789
G01 X119.991 Y140.349
G01 X120.000 Y140.000
G01 X119.991 Y136.561
G01 X120.000 Y136.211
G01 X119.992 Y132.752
G01 X120.000 Y132.422
G01 X119.993 Y128.923
G01 X120.000 Y128.633
G01 X119.994 Y125.074
G01 X120.000 Y124.845
G01 X119.996 Y121.205
G01 X120.000 Y121.056
G01 X119.999 Y117.315
G01 X120.000 Y117.267
G01 X120.000 Y113.478
G01 X120.000 Y109.689
G01 X120.000 Y105.900
G01 X120.000 Y102.111
G01 X120.000 Y98.323
G01 X120.000 Y94.534
G01 X120.000 Y90.745
G01 X120.000 Y86.956
G01 X120.000 Y83.167
G01 X120.000 Y79.378
G01 X120.000 Y75.589
G01 X120.000 Y71.801
G01 X120.000 Y68.012
G01 X120.000 Y64.223
G01 X120.000 Y60.434
G01 X120.000 Y56.645
G01 X120.000 Y52.856
G01 X120.000 Y49.067
G01 X120.000 Y45.278
G01 X120.000 Y41.490
G01 X120.000 Y37.701
G01 X120.000 Y33.912
G01 X120.000 Y30.123
G01 X120.000 Y26.334
G01 X120.000 Y22.545
G01 X120.000 Y18.756
G01 X123.281 Y20.651
G01 X126.563 Y22.545
G01 X129.844 Y24.440
G01 X133.125 Y26.334
G01 X136.406 Y28.229
G01 X139.688 Y30.123
G01 X142.969 Y32.017
G01 X146.250 Y33.912
G01 X149.531 Y35.806
G01 X152.812 Y37.701
G01 X156.094 Y39.595
G01 X159.375 Y41.490
G01 X162.656 Y43.384
G01 X165.938 Y45.278
G01 X169.219 Y47.173
G01 X172.500 Y49.067
G01 X175.781 Y50.962
G01 X179.063 Y52.856
G01 X182.344 Y54.751
G01 X185.625 Y56.645
G01 X188.906 Y58.540
G01 X192.188 Y60.434
G01 X195.469 Y62.328
G01 X198.750 Y64.223
G01 X202.031 Y66.117
G01 X205.312 Y68.012
G01 X208.553 Y69.881
G01 X208.594 Y69.906
G01 X211.749 Y71.723
G01 X211.875 Y71.800
G01 X214.962 Y73.576
G01 X215.156 Y73.695
G01 X218.192 Y75.439
G01 X218.437 Y75.589
G01 X221.438 Y77.312
G01 X221.719 Y77.484
G01 X224.702 Y79.196
G01 X225.000 Y79.378
G01 X227.983 Y81.090
G01 X228.281 Y81.273
G01 X231.281 Y82.995
G01 X231.563 Y83.167
G01 X234.596 Y84.910
G01 X234.844 Y85.061
G01 X237.929 Y86.836
G01 X238.125 Y86.956
G01 X241.279 Y88.773
G01 X241.406 Y88.850
G01 X244.647 Y90.720
G01 X244.687 Y90.745
G01 X247.969 Y92.639
G01 X251.250 Y94.534
G01 X254.531 Y96.428
G01 X257.812 Y98.323
G01 X261.094 Y100.217
G01 X264.375 Y102.111
G01 X267.656 Y104.006
G01 X270.937 Y105.900
G01 X274.219 Y107.795
G01 X277.500 Y109.689
G01 X280.781 Y111.584
G01 X284.062 Y113.478
G01 X287.344 Y115.372
G01 X290.625 Y117.267
G01 X293.906 Y119.161
G01 X297.188 Y121.056
G01 X300.469 Y122.950
G01 X303.750 Y124.845
G01 X307.031 Y126.739
G01 X310.313 Y128.633
G01 X313.594 Y130.528
G01 X316.875 Y132.422
G01 X320.156 Y134.317
G01 X323.437 Y136.211
G01 X326.719 Y138.106
G01 X330.000 Y140.000
G01 X326.719 Y141.894
G01 X323.437 Y143.789
G01 X320.156 Y145.683
G01 X316.875 Y147.578
G01 X313.594 Y149.472
G01 X310.313 Y151.367
G01 X307.031 Y153.261
G01 X303.750 Y155.155
G01 X300.469 Y157.050
G01 X297.188 Y158.944
G01 X293.906 Y160.839
G01 X290.625 Y162.733
G01 X287.344 Y164.628
G01 X284.062 Y166.522
G01 X280.781 Y168.416
G01 X277.500 Y170.311
G01 X274.219 Y172.205
G01 X270.937 Y174.100
G01 X267.656 Y175.994
G01 X264.375 Y177.889
G01 X261.094 Y179.783
G01 X257.812 Y181.677
G01 X254.531 Y183.572
G01 X251.250 Y185.466
G01 X247.969 Y187.361
G01 X244.687 Y189.255
G01 X241.448 Y191.127
G01 X241.406 Y191.150
G01 X238.255 Y192.974
G01 X238.125 Y193.044
G01 X235.044 Y194.830
G01 X234.844 Y194.939
G01 X231.816 Y196.695
G01 X231.563 Y196.833
G01 X228.570 Y198.570
G01 X228.281 Y198.727
G01 X225.307 Y200.455
G01 X225.000 Y200.622
G01 X221.719 Y198.727
G01 X218.437 Y196.833
G01 X215.156 Y194.939
G01 X211.875 Y193.044
G01 X208.594 Y191.150
G01 X205.313 Y189.255
G01 X202.245 Y187.495
G01 X202.031 Y187.361
G01 X199.267 Y185.790
G01 X198.750 Y185.466
G01 X196.256 Y184.064
G01 X195.469 Y183.572
G01 X193.212 Y182.315
G01 X192.188 Y181.677
G01 X190.136 Y180.545
G01 X188.906 Y179.783
G01 X187.027 Y178.754
G01 X185.625 Y177.889
G01 X183.885 Y176.942
G01 X182.344 Y175.994
G01 X180.710 Y175.110
G01 X179.144 Y174.153
G01 X179.062 Y174.100
G01 X177.502 Y173.258
G01 X175.997 Y172.345
G01 X175.781 Y172.205
G01 X174.260 Y171.386
G01 X172.785 Y170.494
G01 X172.500 Y170.311
G01 X170.983 Y169.494
G01 X169.505 Y168.601
G01 X169.219 Y168.417
G01 X167.672 Y167.582
G01 X166.157 Y166.664
G01 X165.938 Y166.522
G01 X164.325 Y165.650
G01 X162.740 Y164.682
G01 X162.656 Y164.628
G01 X160.942 Y163.696
G01 X159.375 Y162.733
G01 X157.523 Y161.720
G01 X156.094 Y160.839
G01 X154.069 Y159.722
G01 X152.813 Y158.944
G01 X150.580 Y157.702
G01 X149.531 Y157.050
G01 X147.057 Y155.659
G01 X146.250 Y155.155
G01 X143.499 Y153.593
G01 X142.969 Y153.261
G01 X139.907 Y151.504
G01 X139.688 Y151.367
G01 X136.406 Y149.472
G01 X133.125 Y147.578
G01 X129.844 Y145.683
G01 X126.563 Y143.789
G01 X123.281 Y141.894
G01 X120.000 Y140.000
G01 X123.281 Y138.106
G01 X126.563 Y136.211
G01 X129.844 Y134.317
G01 X133.125 Y132.422
G01 X136.406 Y130.528
G01 X139.688 Y128.633
G01 X142.746 Y126.857
G01 X142.969 Y126.739
G01 X145.711 Y125.130
G01 X146.250 Y124.845
G01 X148.712 Y123.386
G01 X149.531 Y122.950
G01 X151.748 Y121.624
G01 X152.812 Y121.056
G01 X154.819 Y119.845
G01 X156.094 Y119.161
G01 X157.925 Y118.048
G01 X159.375 Y117.267
G01 X161.065 Y116.233
G01 X162.656 Y115.372
G01 X164.239 Y114.400
G01 X165.851 Y113.522
G01 X165.938 Y113.478
G01 X167.447 Y112.548
G01 X168.990 Y111.701
G01 X169.219 Y111.583
G01 X170.689 Y110.676
G01 X172.199 Y109.844
G01 X172.500 Y109.689
G01 X173.966 Y108.784
G01 X175.478 Y107.950
G01 X175.781 Y107.795
G01 X177.277 Y106.872
G01 X178.830 Y106.019
G01 X179.063 Y105.900
G01 X180.625 Y104.940
G01 X182.255 Y104.051
G01 X182.344 Y104.006
G01 X184.008 Y102.987
G01 X185.625 Y102.111
G01 X187.428 Y101.014
G01 X188.906 Y100.217
G01 X190.885 Y99.022
G01 X192.187 Y98.323
G01 X194.380 Y97.011
G01 X195.469 Y96.428
G01 X197.911 Y94.981
G01 X198.750 Y94.534
G01 X201.479 Y92.932
G01 X202.031 Y92.639
G01 X205.084 Y90.866
G01 X205.312 Y90.745
G01 X208.594 Y88.850
G01 X211.875 Y86.956
G01 X215.156 Y85.061
G01 X218.437 Y83.167
G01 X221.719 Y81.273
G01 X225.000 Y79.378
G01 X225.000 Y83.167
G01 X225.000 Y86.956
G01 X225.000 Y90.745
G01 X225.000 Y94.534
G01 X225.000 Y98.322
G01 X225.000 Y102.111
G01 X225.009 Y105.648
G01 X225.000 Y105.900
G01 X225.022 Y109.079
G01 X225.000 Y109.689
G01 X225.032 Y112.550
G01 X225.000 Y113.478
G01 X225.040 Y116.060
G01 X225.000 Y117.267
G01 X225.045 Y119.610
G01 X225.000 Y121.056
G01 X225.049 Y123.198
G01 X225.000 Y124.845
G01 X225.050 Y126.825
G01 X225.000 Y128.633
G01 X225.051 Y130.491
G01 X225.005 Y132.325
G01 X225.000 Y132.422
G01 X225.051 Y134.195
G01 X225.013 Y135.954
G01 X225.000 Y136.211
G01 X225.051 Y137.939
G01 X225.017 Y139.662
G01 X225.000 Y140.000
G01 X225.051 Y141.722
G01 X225.017 Y143.449
G01 X225.000 Y143.789
G01 X225.051 Y145.546
G01 X225.013 Y147.317
G01 X225.000 Y147.578
G01 X225.051 Y149.411
G01 X225.005 Y151.267
G01 X225.000 Y151.367
G01 X225.050 Y153.317
G01 X225.000 Y155.155
G01 X225.049 Y157.266
G01 X225.000 Y158.944
G01 X225.045 Y161.256
G01 X225.000 Y162.733
G01 X225.040 Y165.287
G01 X225.000 Y166.522
G01 X225.032 Y169.361
G01 X225.000 Y170.311
G01 X225.022 Y173.475
G01 X225.000 Y174.100
G01 X225.010 Y177.630
G01 X225.000 Y177.889
G01 X225.000 Y181.677
G01 X225.000 Y185.466
G01 X225.000 Y189.255
G01 X225.000 Y193.044
G01 X225.000 Y196.833
G01 X225.000 Y200.622
G01 X221.810 Y198.675
G01 X218.620 Y196.728
G01 X215.430 Y194.781
G01 X212.240 Y192.834
G01 X209.049 Y190.887
G01 X205.859 Y188.939
G01 X202.728 Y187.031
G01 X202.669 Y186.992
G01 X199.856 Y185.295
G01 X199.479 Y185.045
G01 X196.951 Y183.535
G01 X196.289 Y183.098
G01 X194.013 Y181.753
G01 X193.099 Y181.151
G01 X191.042 Y179.947
G01 X189.909 Y179.204
G01 X188.038 Y178.119
G01 X186.719 Y177.257
G01 X185.002 Y176.269
G01 X183.529 Y175.310
G01 X181.934 Y174.397
G01 X180.412 Y173.414
G01 X180.339 Y173.363
G01 X178.832 Y172.504
G01 X177.385 Y171.578
G01 X177.148 Y171.416
G01 X175.696 Y170.590
G01 X174.294 Y169.697
G01 X173.958 Y169.469
G01 X172.526 Y168.655
G01 X171.136 Y167.772
G01 X170.768 Y167.522
G01 X169.322 Y166.699
G01 X167.910 Y165.800
G01 X167.578 Y165.575
G01 X166.081 Y164.722
G01 X164.615 Y163.783
G01 X164.388 Y163.628
G01 X162.805 Y162.722
G01 X161.251 Y161.717
G01 X161.198 Y161.681
G01 X159.494 Y160.699
G01 X158.008 Y159.734
G01 X156.146 Y158.654
G01 X154.818 Y157.787
G01 X152.764 Y156.584
G01 X151.628 Y155.840
G01 X149.347 Y154.490
G01 X148.438 Y153.892
G01 X145.895 Y152.372
G01 X145.247 Y151.945
G01 X142.409 Y150.231
G01 X142.057 Y149.998
G01 X138.889 Y148.066
G01 X138.867 Y148.051
G01 X135.677 Y146.104
G01 X132.487 Y144.157
G01 X129.297 Y142.210
G01 X126.107 Y140.263
G01 X122.917 Y138.316
G01 X126.107 Y136.579
G01 X129.297 Y134.843
G01 X132.487 Y133.106
G01 X135.677 Y131.370
G01 X138.867 Y129.633
G01 X142.057 Y127.897
G01 X145.031 Y126.268
G01 X145.247 Y126.160
G01 X147.914 Y124.685
G01 X148.437 Y124.424
G01 X150.832 Y123.085
G01 X151.628 Y122.687
G01 X153.784 Y121.470
G01 X154.818 Y120.950
G01 X156.770 Y119.839
G01 X158.008 Y119.214
G01 X159.789 Y118.191
G01 X161.198 Y117.477
G01 X162.842 Y116.527
G01 X164.388 Y115.741
G01 X165.928 Y114.847
G01 X167.494 Y114.044
G01 X167.578 Y114.004
G01 X169.047 Y113.149
G01 X170.546 Y112.374
G01 X170.768 Y112.268
G01 X172.199 Y111.433
G01 X173.666 Y110.672
G01 X173.958 Y110.531
G01 X175.385 Y109.699
G01 X176.854 Y108.936
G01 X177.148 Y108.795
G01 X178.604 Y107.946
G01 X180.113 Y107.167
G01 X180.339 Y107.058
G01 X181.859 Y106.175
G01 X183.442 Y105.363
G01 X183.529 Y105.321
G01 X185.148 Y104.385
G01 X186.719 Y103.585
G01 X188.473 Y102.577
G01 X189.909 Y101.848
G01 X191.834 Y100.751
G01 X193.099 Y100.112
G01 X195.231 Y98.907
G01 X196.289 Y98.375
G01 X198.664 Y97.047
G01 X199.479 Y96.639
G01 X202.133 Y95.170
G01 X202.669 Y94.902
G01 X205.637 Y93.276
G01 X205.859 Y93.165
G01 X209.049 Y91.429
G01 X212.240 Y89.692
G01 X215.430 Y87.956
G01 X218.620 Y86.219
G01 X221.810 Y84.483
G01 X225.000 Y82.746
G01 X224.909 Y86.377
G01 X224.818 Y90.008
G01 X224.727 Y93.639
G01 X224.635 Y97.270
G01 X224.544 Y100.901
G01 X224.453 Y104.532
G01 X224.377 Y107.921
G01 X224.362 Y108.163
G01 X224.307 Y111.210
G01 X224.271 Y111.794
G01 X224.233 Y114.537
G01 X224.180 Y115.425
G01 X224.156 Y117.901
G01 X224.089 Y119.056
G01 X224.075 Y121.302
G01 X223.997 Y122.687
G01 X223.992 Y124.741
G01 X223.906 Y126.318
G01 X223.907 Y128.217
G01 X223.815 Y129.949
G01 X223.819 Y131.730
G01 X223.731 Y133.487
G01 X223.724 Y133.580
G01 X223.730 Y135.280
G01 X223.651 Y136.965
G01 X223.633 Y137.211
G01 X223.640 Y138.868
G01 X223.566 Y140.518
G01 X223.542 Y140.842
G01 X223.549 Y142.493
G01 X223.475 Y144.148
G01 X223.451 Y144.473
G01 X223.457 Y146.158
G01 X223.378 Y147.854
G01 X223.359 Y148.104
G01 X223.364 Y149.862
G01 X223.276 Y151.639
G01 X223.268 Y151.735
G01 X223.270 Y153.606
G01 X223.177 Y155.366
G01 X223.173 Y157.389
G01 X223.086 Y158.997
G01 X223.074 Y161.213
G01 X222.995 Y162.628
G01 X222.972 Y165.077
G01 X222.904 Y166.259
G01 X222.866 Y168.980
G01 X222.813 Y169.890
G01 X222.758 Y172.922
G01 X222.721 Y173.521
G01 X222.646 Y176.904
G01 X222.630 Y177.152
G01 X222.539 Y180.783
G01 X222.448 Y184.414
G01 X222.357 Y188.045
G01 X222.266 Y191.676
G01 X222.174 Y195.307
G01 X222.083 Y198.938
G01 X219.076 Y196.991
G01 X216.068 Y195.044
G01 X213.060 Y193.097
G01 X210.052 Y191.150
G01 X207.044 Y189.203
G01 X204.036 Y187.256
G01 X201.079 Y185.344
G01 X201.029 Y185.308
G01 X198.372 Y183.608
G01 X198.021 Y183.361
G01 X195.634 Y181.848
G01 X195.013 Y181.414
G01 X192.864 Y180.066
G01 X192.005 Y179.467
G01 X190.064 Y178.261
G01 X188.997 Y177.520
G01 X187.233 Y176.433
G01 X185.990 Y175.573
G01 X184.371 Y174.583
G01 X182.982 Y173.626
G01 X181.478 Y172.712
G01 X180.047 Y171.732
G01 X179.974 Y171.679
G01 X178.554 Y170.819
G01 X177.194 Y169.897
G01 X176.966 Y169.732
G01 X175.598 Y168.906
G01 X174.280 Y168.017
G01 X173.958 Y167.785
G01 X172.610 Y166.971
G01 X171.303 Y166.092
G01 X170.950 Y165.838
G01 X169.589 Y165.015
G01 X168.262 Y164.121
G01 X167.943 Y163.891
G01 X166.534 Y163.038
G01 X165.156 Y162.104
G01 X164.935 Y161.944
G01 X163.445 Y161.039
G01 X161.985 Y160.039
G01 X161.927 Y159.997
G01 X160.323 Y159.016
G01 X158.919 Y158.050
G01 X157.167 Y156.970
G01 X155.911 Y156.103
G01 X153.978 Y154.901
G01 X152.904 Y154.156
G01 X150.756 Y152.807
G01 X149.896 Y152.209
G01 X147.501 Y150.690
G01 X146.888 Y150.262
G01 X144.214 Y148.549
G01 X143.880 Y148.314
G01 X140.895 Y146.384
G01 X140.872 Y146.367
G01 X137.865 Y144.420
G01 X134.857 Y142.473
G01 X131.849 Y140.526
G01 X128.841 Y138.579
G01 X125.833 Y136.632
G01 X128.932 Y135.053
G01 X132.031 Y133.475
G01 X135.130 Y131.896
G01 X138.229 Y130.317
G01 X141.328 Y128.739
G01 X144.427 Y127.160
G01 X147.316 Y125.679
G01 X147.526 Y125.581
G01 X150.117 Y124.239
G01 X150.625 Y124.003
G01 X152.952 Y122.784
G01 X153.724 Y122.424
G01 X155.820 Y121.315
G01 X156.823 Y120.845
G01 X158.720 Y119.832
G01 X159.922 Y119.267
G01 X161.654 Y118.334
G01 X163.021 Y117.688
G01 X164.620 Y116.821
G01 X166.120 Y116.109
G01 X167.618 Y115.294
G01 X169.137 Y114.567
G01 X169.219 Y114.530
G01 X170.647 Y113.750
G01 X172.102 Y113.048
G01 X172.318 Y112.952
G01 X173.709 Y112.190
G01 X175.133 Y111.500
G01 X175.417 Y111.373
G01 X176.804 Y110.614
G01 X178.231 Y109.922
G01 X178.516 Y109.794
G01 X179.931 Y109.021
G01 X181.396 Y108.314
G01 X181.615 Y108.216
G01 X183.093 Y107.410
G01 X184.630 Y106.674
G01 X184.714 Y106.637
G01 X186.288 Y105.783
G01 X187.813 Y105.058
G01 X189.518 Y104.139
G01 X190.911 Y103.480
G01 X192.783 Y102.479
G01 X194.010 Y101.901
G01 X196.083 Y100.804
G01 X197.109 Y100.322
G01 X199.418 Y99.113
G01 X200.208 Y98.744
G01 X202.787 Y97.407
G01 X203.307 Y97.165
G01 X206.191 Y95.686
G01 X206.406 Y95.586
G01 X209.505 Y94.007
G01 X212.604 Y92.429
G01 X215.703 Y90.850
G01 X218.802 Y89.271
G01 X221.901 Y87.693
G01 X225.000 Y86.114
G01 X224.818 Y89.587
G01 X224.635 Y93.060
G01 X224.453 Y96.533
G01 X224.271 Y100.006
G01 X224.089 Y103.480
G01 X223.906 Y106.953
G01 X223.745 Y110.195
G01 X223.724 Y110.426
G01 X223.591 Y113.341
G01 X223.542 Y113.899
G01 X223.433 Y116.523
G01 X223.359 Y117.372
G01 X223.272 Y119.741
G01 X223.177 Y120.845
G01 X223.106 Y122.995
G01 X222.995 Y124.318
G01 X222.936 Y126.284
G01 X222.812 Y127.791
G01 X222.763 Y129.609
G01 X222.630 Y131.265
G01 X222.588 Y132.969
G01 X222.457 Y134.649
G01 X222.448 Y134.738
G01 X222.409 Y136.365
G01 X222.290 Y137.976
G01 X222.266 Y138.211
G01 X222.229 Y139.797
G01 X222.115 Y141.375
G01 X222.083 Y141.684
G01 X222.047 Y143.265
G01 X221.933 Y144.846
G01 X221.901 Y145.157
G01 X221.863 Y146.770
G01 X221.743 Y148.392
G01 X221.719 Y148.630
G01 X221.677 Y150.313
G01 X221.546 Y152.012
G01 X221.536 Y152.103
G01 X221.489 Y153.894
G01 X221.354 Y155.576
G01 X221.297 Y157.513
G01 X221.172 Y159.050
G01 X221.102 Y161.171
G01 X220.990 Y162.523
G01 X220.903 Y164.866
G01 X220.807 Y165.996
G01 X220.700 Y168.599
G01 X220.625 Y169.469
G01 X220.493 Y172.370
G01 X220.443 Y172.942
G01 X220.282 Y176.179
G01 X220.260 Y176.415
G01 X220.078 Y179.888
G01 X219.896 Y183.361
G01 X219.714 Y186.835
G01 X219.531 Y190.308
G01 X219.349 Y193.781
G01 X219.167 Y197.254
G01 X216.341 Y195.307
G01 X213.516 Y193.360
G01 X210.690 Y191.413
G01 X207.865 Y189.466
G01 X205.039 Y187.519
G01 X202.213 Y185.572
G01 X199.431 Y183.657
G01 X199.388 Y183.624
G01 X196.889 Y181.921
G01 X196.563 Y181.677
G01 X194.317 Y180.162
G01 X193.737 Y179.730
G01 X191.716 Y178.380
G01 X190.911 Y177.783
G01 X189.087 Y176.575
G01 X188.086 Y175.836
G01 X186.428 Y174.747
G01 X185.260 Y173.889
G01 X183.740 Y172.898
G01 X182.435 Y171.942
G01 X181.023 Y171.027
G01 X179.682 Y170.051
G01 X179.609 Y169.995
G01 X178.277 Y169.135
G01 X177.003 Y168.216
G01 X176.784 Y168.048
G01 X175.500 Y167.221
G01 X174.266 Y166.337
G01 X173.958 Y166.101
G01 X172.694 Y165.287
G01 X171.470 Y164.412
G01 X171.133 Y164.154
G01 X169.856 Y163.332
G01 X168.615 Y162.442
G01 X168.307 Y162.207
G01 X166.986 Y161.355
G01 X165.698 Y160.426
G01 X165.482 Y160.260
G01 X164.085 Y159.355
G01 X162.719 Y158.361
G01 X162.656 Y158.313
G01 X161.152 Y157.333
G01 X159.831 Y156.366
G01 X158.187 Y155.287
G01 X157.005 Y154.419
G01 X155.191 Y153.218
G01 X154.180 Y152.472
G01 X152.165 Y151.124
G01 X151.354 Y150.525
G01 X149.107 Y149.007
G01 X148.529 Y148.578
G01 X146.020 Y146.866
G01 X145.703 Y146.630
G01 X142.902 Y144.701
G01 X142.878 Y144.683
G01 X140.052 Y142.736
G01 X137.227 Y140.789
G01 X134.401 Y138.842
G01 X131.575 Y136.895
G01 X128.750 Y134.948
G01 X131.758 Y133.527
G01 X134.766 Y132.106
G01 X137.773 Y130.686
G01 X140.781 Y129.265
G01 X143.789 Y127.844
G01 X146.797 Y126.423
G01 X149.601 Y125.089
G01 X149.805 Y125.002
G01 X152.320 Y123.793
G01 X152.812 Y123.582
G01 X155.072 Y122.483
G01 X155.820 Y122.161
G01 X157.856 Y121.161
G01 X158.828 Y120.740
G01 X160.671 Y119.826
G01 X161.836 Y119.319
G01 X163.518 Y118.477
G01 X164.844 Y117.898
G01 X166.397 Y117.116
G01 X167.852 Y116.478
G01 X169.307 Y115.741
G01 X170.780 Y115.089
G01 X170.859 Y115.057
G01 X172.248 Y114.351
G01 X173.658 Y113.722
G01 X173.867 Y113.636
G01 X175.219 Y112.948
G01 X176.600 Y112.329
G01 X176.875 Y112.215
G01 X178.223 Y111.529
G01 X179.607 Y110.908
G01 X179.883 Y110.794
G01 X181.258 Y110.095
G01 X182.679 Y109.461
G01 X182.891 Y109.373
G01 X184.327 Y108.645
G01 X185.817 Y107.986
G01 X185.898 Y107.952
G01 X187.428 Y107.181
G01 X188.906 Y106.532
G01 X190.563 Y105.702
G01 X191.914 Y105.111
G01 X193.732 Y104.208
G01 X194.922 Y103.690
G01 X196.935 Y102.700
G01 X197.930 Y102.269
G01 X200.171 Y101.179
G01 X200.937 Y100.848
G01 X203.441 Y99.644
G01 X203.945 Y99.428
G01 X206.744 Y98.096
G01 X206.953 Y98.007
G01 X209.961 Y96.586
G01 X212.969 Y95.165
G01 X215.977 Y93.744
G01 X218.984 Y92.323
G01 X221.992 Y90.903
G01 X225.000 Y89.482
G01 X224.727 Y92.797
G01 X224.453 Y96.112
G01 X224.180 Y99.428
G01 X223.906 Y102.743
G01 X223.633 Y106.058
G01 X223.359 Y109.373
G01 X223.112 Y112.469
G01 X223.086 Y112.689
G01 X222.876 Y115.472
G01 X222.813 Y116.004
G01 X222.634 Y118.510
G01 X222.539 Y119.319
G01 X222.387 Y121.582
G01 X222.266 Y122.634
G01 X222.136 Y124.688
G01 X221.992 Y125.950
G01 X221.880 Y127.828
G01 X221.719 Y129.265
G01 X221.620 Y131.001
G01 X221.445 Y132.580
G01 X221.356 Y134.209
G01 X221.183 Y135.811
G01 X221.172 Y135.895
G01 X221.089 Y137.450
G01 X220.928 Y138.987
G01 X220.898 Y139.211
G01 X220.818 Y140.726
G01 X220.664 Y142.231
G01 X220.625 Y142.526
G01 X220.545 Y144.036
G01 X220.391 Y145.545
G01 X220.352 Y145.841
G01 X220.269 Y147.382
G01 X220.108 Y148.929
G01 X220.078 Y149.156
G01 X219.990 Y150.764
G01 X219.816 Y152.385
G01 X219.805 Y152.472
G01 X219.708 Y154.182
G01 X219.531 Y155.787
G01 X219.422 Y157.637
G01 X219.258 Y159.102
G01 X219.131 Y161.128
G01 X218.984 Y162.417
G01 X218.835 Y164.655
G01 X218.711 Y165.733
G01 X218.534 Y168.219
G01 X218.438 Y169.048
G01 X218.229 Y171.818
G01 X218.164 Y172.363
G01 X217.918 Y175.453
G01 X217.891 Y175.678
G01 X217.617 Y178.994
G01 X217.344 Y182.309
G01 X217.070 Y185.624
G01 X216.797 Y188.940
G01 X216.523 Y192.255
G01 X216.250 Y195.570
G01 X213.607 Y193.623
G01 X210.964 Y191.676
G01 X208.320 Y189.729
G01 X205.677 Y187.782
G01 X203.034 Y185.835
G01 X200.391 Y183.888
G01 X197.784 Y181.970
G01 X197.747 Y181.941
G01 X195.407 Y180.234
G01 X195.104 Y179.994
G01 X193.001 Y178.475
G01 X192.461 Y178.046
G01 X190.569 Y176.693
G01 X189.818 Y176.099
G01 X188.109 Y174.889
G01 X187.174 Y174.152
G01 X185.623 Y173.062
G01 X184.531 Y172.205
G01 X183.109 Y171.213
G01 X181.888 Y170.258
G01 X180.568 Y169.343
G01 X179.318 Y168.371
G01 X179.245 Y168.311
G01 X177.999 Y167.451
G01 X176.812 Y166.537
G01 X176.602 Y166.364
G01 X175.403 Y165.538
G01 X174.252 Y164.657
G01 X173.958 Y164.417
G01 X172.777 Y163.604
G01 X171.638 Y162.733
G01 X171.315 Y162.470
G01 X170.123 Y161.648
G01 X168.966 Y160.763
G01 X168.672 Y160.523
G01 X167.439 Y159.671
G01 X166.238 Y158.748
G01 X166.029 Y158.576
G01 X164.725 Y157.672
G01 X163.453 Y156.684
G01 X163.385 Y156.629
G01 X161.981 Y155.650
G01 X160.742 Y154.682
G01 X159.207 Y153.604
G01 X158.099 Y152.735
G01 X156.404 Y151.535
G01 X155.456 Y150.788
G01 X153.573 Y149.441
G01 X152.812 Y148.841
G01 X150.713 Y147.324
G01 X150.169 Y146.894
G01 X147.824 Y145.183
G01 X147.526 Y144.947
G01 X144.907 Y143.019
G01 X144.883 Y143.000
G01 X142.240 Y141.052
G01 X139.596 Y139.105
G01 X136.953 Y137.158
G01 X134.310 Y135.211
G01 X131.667 Y133.264
G01 X134.583 Y132.001
G01 X137.500 Y130.738
G01 X140.417 Y129.475
G01 X143.333 Y128.212
G01 X146.250 Y126.949
G01 X149.167 Y125.686
G01 X151.886 Y124.500
G01 X152.083 Y124.424
G01 X154.523 Y123.347
G01 X155.000 Y123.161
G01 X157.192 Y122.182
G01 X157.917 Y121.898
G01 X159.891 Y121.006
G01 X160.833 Y120.635
G01 X162.622 Y119.819
G01 X163.750 Y119.372
G01 X165.383 Y118.620
G01 X166.667 Y118.109
G01 X168.174 Y117.410
G01 X169.583 Y116.846
G01 X170.996 Y116.188
G01 X172.423 Y115.611
G01 X172.500 Y115.583
G01 X173.848 Y114.953
G01 X175.215 Y114.396
G01 X175.417 Y114.320
G01 X176.730 Y113.705
G01 X178.067 Y113.157
G01 X178.333 Y113.057
G01 X179.642 Y112.444
G01 X180.983 Y111.894
G01 X181.250 Y111.794
G01 X182.585 Y111.169
G01 X183.961 Y110.608
G01 X184.167 Y110.531
G01 X185.561 Y109.881
G01 X187.005 Y109.297
G01 X187.083 Y109.268
G01 X188.568 Y108.579
G01 X190.000 Y108.005
G01 X191.608 Y107.264
G01 X192.917 Y106.742
G01 X194.681 Y105.937
G01 X195.833 Y105.479
G01 X197.786 Y104.597
G01 X198.750 Y104.216
G01 X200.924 Y103.245
G01 X201.667 Y102.953
G01 X204.095 Y101.882
G01 X204.583 Y101.690
G01 X207.298 Y100.506
G01 X207.500 Y100.427
G01 X210.417 Y99.164
G01 X213.333 Y97.902
G01 X216.250 Y96.639
G01 X219.167 Y95.376
G01 X222.083 Y94.113
G01 X225.000 Y92.850
G01 X224.635 Y96.007
G01 X224.271 Y99.164
G01 X223.906 Y102.322
G01 X223.542 Y105.479
G01 X223.177 Y108.637
G01 X222.813 Y111.794
G01 X222.480 Y114.742
G01 X222.448 Y114.951
G01 X222.160 Y117.603
G01 X222.083 Y118.109
G01 X221.835 Y120.496
G01 X221.719 Y121.266
G01 X221.503 Y123.422
G01 X221.354 Y124.424
G01 X221.166 Y126.380
G01 X220.990 Y127.581
G01 X220.824 Y129.371
G01 X220.625 Y130.738
G01 X220.476 Y132.393
G01 X220.260 Y133.896
G01 X220.124 Y135.448
G01 X219.910 Y136.972
G01 X219.896 Y137.053
G01 X219.768 Y138.535
G01 X219.567 Y139.998
G01 X219.531 Y140.211
G01 X219.407 Y141.655
G01 X219.213 Y143.088
G01 X219.167 Y143.368
G01 X219.043 Y144.808
G01 X218.849 Y146.243
G01 X218.802 Y146.525
G01 X218.676 Y147.994
G01 X218.474 Y149.466
G01 X218.438 Y149.683
G01 X218.304 Y151.215
G01 X218.087 Y152.757
G01 X218.073 Y152.840
G01 X217.927 Y154.470
G01 X217.708 Y155.997
G01 X217.546 Y157.761
G01 X217.344 Y159.155
G01 X217.159 Y161.085
G01 X216.979 Y162.312
G01 X216.767 Y164.445
G01 X216.615 Y165.470
G01 X216.368 Y167.838
G01 X216.250 Y168.627
G01 X215.964 Y171.266
G01 X215.885 Y171.784
G01 X215.554 Y174.727
G01 X215.521 Y174.942
G01 X215.156 Y178.099
G01 X214.792 Y181.257
G01 X214.427 Y184.414
G01 X214.062 Y187.571
G01 X213.698 Y190.729
G01 X213.333 Y193.886
G01 X210.872 Y191.939
G01 X208.411 Y189.992
G01 X205.950 Y188.045
G01 X203.490 Y186.098
G01 X201.029 Y184.151
G01 X198.568 Y182.204
G01 X196.138 Y180.283
G01 X196.107 Y180.257
G01 X193.924 Y178.547
G01 X193.646 Y178.310
G01 X191.686 Y176.789
G01 X191.185 Y176.363
G01 X189.422 Y175.008
G01 X188.724 Y174.416
G01 X187.132 Y173.204
G01 X186.263 Y172.468
G01 X184.818 Y171.377
G01 X183.802 Y170.521
G01 X182.478 Y169.528
G01 X181.341 Y168.574
G01 X180.113 Y167.658
G01 X178.953 Y166.692
G01 X178.880 Y166.627
G01 X177.722 Y165.767
G01 X176.621 Y164.857
G01 X176.419 Y164.680
G01 X175.305 Y163.854
G01 X174.238 Y162.978
G01 X173.958 Y162.733
G01 X172.861 Y161.920
G01 X171.804 Y161.055
G01 X171.497 Y160.786
G01 X170.390 Y159.965
G01 X169.318 Y159.086
G01 X169.036 Y158.839
G01 X167.891 Y157.988
G01 X166.778 Y157.070
G01 X166.575 Y156.892
G01 X165.364 Y155.989
G01 X164.185 Y155.007
G01 X164.115 Y154.945
G01 X162.809 Y153.967
G01 X161.654 Y152.998
G01 X160.227 Y151.921
G01 X159.193 Y151.051
G01 X157.617 Y149.852
G01 X156.732 Y149.104
G01 X154.981 Y147.758
G01 X154.271 Y147.157
G01 X152.317 Y145.641
G01 X151.810 Y145.210
G01 X149.628 Y143.501
G01 X149.349 Y143.263
G01 X146.912 Y141.336
G01 X146.888 Y141.316
G01 X144.427 Y139.369
G01 X141.966 Y137.421
G01 X139.505 Y135.474
G01 X137.044 Y133.527
G01 X134.583 Y131.580
G01 X137.409 Y130.475
G01 X140.234 Y129.370
G01 X143.060 Y128.265
G01 X145.885 Y127.160
G01 X148.711 Y126.055
G01 X151.536 Y124.950
G01 X154.171 Y123.911
G01 X154.362 Y123.845
G01 X156.726 Y122.901
G01 X157.187 Y122.740
G01 X159.312 Y121.881
G01 X160.013 Y121.634
G01 X161.927 Y120.852
G01 X162.839 Y120.529
G01 X164.573 Y119.812
G01 X165.664 Y119.424
G01 X167.248 Y118.763
G01 X168.490 Y118.319
G01 X169.952 Y117.704
G01 X171.315 Y117.214
G01 X172.685 Y116.635
G01 X174.067 Y116.134
G01 X174.141 Y116.109
G01 X175.448 Y115.554
G01 X176.771 Y115.069
G01 X176.966 Y115.004
G01 X178.240 Y114.462
G01 X179.535 Y113.985
G01 X179.792 Y113.899
G01 X181.061 Y113.359
G01 X182.359 Y112.880
G01 X182.617 Y112.794
G01 X183.913 Y112.243
G01 X185.244 Y111.755
G01 X185.443 Y111.689
G01 X186.795 Y111.116
G01 X188.192 Y110.609
G01 X188.268 Y110.584
G01 X189.708 Y109.977
G01 X191.094 Y109.479
G01 X192.653 Y108.827
G01 X193.919 Y108.374
G01 X195.630 Y107.666
G01 X196.745 Y107.268
G01 X198.638 Y106.494
G01 X199.570 Y106.163
G01 X201.678 Y105.311
G01 X202.396 Y105.058
G01 X204.749 Y104.119
G01 X205.221 Y103.953
G01 X207.851 Y102.916
G01 X208.047 Y102.848
G01 X210.872 Y101.743
G01 X213.698 Y100.638
G01 X216.523 Y99.533
G01 X219.349 Y98.428
G01 X222.174 Y97.323
G01 X225.000 Y96.218
G01 X224.544 Y99.217
G01 X224.088 Y102.217
G01 X223.633 Y105.216
G01 X223.177 Y108.216
G01 X222.721 Y111.215
G01 X222.266 Y114.215
G01 X221.848 Y117.016
G01 X221.810 Y117.214
G01 X221.445 Y119.734
G01 X221.354 Y120.214
G01 X221.035 Y122.483
G01 X220.898 Y123.213
G01 X220.619 Y125.263
G01 X220.443 Y126.213
G01 X220.197 Y128.073
G01 X219.987 Y129.212
G01 X219.768 Y130.914
G01 X219.531 Y132.212
G01 X219.333 Y133.786
G01 X219.075 Y135.211
G01 X218.892 Y136.688
G01 X218.636 Y138.134
G01 X218.620 Y138.211
G01 X218.447 Y139.620
G01 X218.205 Y141.009
G01 X218.164 Y141.210
G01 X217.997 Y142.584
G01 X217.762 Y143.944
G01 X217.708 Y144.210
G01 X217.541 Y145.579
G01 X217.307 Y146.942
G01 X217.253 Y147.209
G01 X217.082 Y148.606
G01 X216.839 Y150.004
G01 X216.797 Y150.209
G01 X216.617 Y151.666
G01 X216.357 Y153.130
G01 X216.341 Y153.208
G01 X216.146 Y154.759
G01 X215.885 Y156.208
G01 X215.670 Y157.884
G01 X215.430 Y159.207
G01 X215.188 Y161.043
G01 X214.974 Y162.207
G01 X214.698 Y164.234
G01 X214.518 Y165.206
G01 X214.202 Y167.458
G01 X214.063 Y168.206
G01 X213.700 Y170.713
G01 X213.607 Y171.205
G01 X213.190 Y174.001
G01 X213.151 Y174.205
G01 X212.695 Y177.205
G01 X212.240 Y180.204
G01 X211.784 Y183.203
G01 X211.328 Y186.203
G01 X210.872 Y189.203
G01 X210.417 Y192.202
G01 X208.138 Y190.255
G01 X205.859 Y188.308
G01 X203.581 Y186.361
G01 X201.302 Y184.414
G01 X199.023 Y182.467
G01 X196.745 Y180.520
G01 X194.492 Y178.596
G01 X194.466 Y178.573
G01 X192.443 Y176.861
G01 X192.188 Y176.626
G01 X190.371 Y175.103
G01 X189.909 Y174.679
G01 X188.275 Y173.322
G01 X187.630 Y172.732
G01 X186.156 Y171.518
G01 X185.352 Y170.785
G01 X184.013 Y169.692
G01 X183.073 Y168.837
G01 X181.847 Y167.844
G01 X180.794 Y166.890
G01 X179.658 Y165.975
G01 X178.589 Y165.013
G01 X178.516 Y164.943
G01 X177.444 Y164.083
G01 X176.430 Y163.179
G01 X176.237 Y162.996
G01 X175.207 Y162.171
G01 X174.224 Y161.300
G01 X173.958 Y161.049
G01 X172.944 Y160.237
G01 X171.971 Y159.377
G01 X171.680 Y159.102
G01 X170.656 Y158.283
G01 X169.669 Y157.408
G01 X169.401 Y157.155
G01 X168.342 Y156.306
G01 X167.318 Y155.393
G01 X167.122 Y155.208
G01 X166.003 Y154.306
G01 X164.917 Y153.331
G01 X164.844 Y153.261
G01 X163.637 Y152.284
G01 X162.565 Y151.314
G01 X161.246 Y150.238
G01 X160.286 Y149.367
G01 X158.829 Y148.168
G01 X158.008 Y147.420
G01 X156.388 Y146.075
G01 X155.729 Y145.473
G01 X153.922 Y143.958
G01 X153.450 Y143.526
G01 X151.431 Y141.817
G01 X151.172 Y141.579
G01 X148.916 Y139.653
G01 X148.893 Y139.632
G01 X146.615 Y137.685
G01 X144.336 Y135.738
G01 X142.057 Y133.790
G01 X139.779 Y131.843
G01 X137.500 Y129.896
G01 X140.234 Y128.949
G01 X142.969 Y128.002
G01 X145.703 Y127.055
G01 X148.438 Y126.107
G01 X151.172 Y125.160
G01 X153.906 Y124.213
G01 X156.456 Y123.322
G01 X156.641 Y123.266
G01 X158.929 Y122.455
G01 X159.375 Y122.319
G01 X161.432 Y121.580
G01 X162.109 Y121.371
G01 X163.963 Y120.697
G01 X164.844 Y120.424
G01 X166.523 Y119.806
G01 X167.578 Y119.477
G01 X169.112 Y118.906
G01 X170.312 Y118.530
G01 X171.729 Y117.998
G01 X173.047 Y117.583
G01 X174.374 Y117.082
G01 X175.710 Y116.656
G01 X175.781 Y116.635
G01 X177.048 Y116.155
G01 X178.327 Y115.743
G01 X178.516 Y115.688
G01 X179.750 Y115.220
G01 X181.002 Y114.813
G01 X181.250 Y114.741
G01 X182.480 Y114.274
G01 X183.735 Y113.867
G01 X183.984 Y113.794
G01 X185.240 Y113.318
G01 X186.527 Y112.902
G01 X186.719 Y112.846
G01 X188.029 Y112.351
G01 X189.380 Y111.921
G01 X189.453 Y111.899
G01 X190.848 Y111.375
G01 X192.188 Y110.952
G01 X193.698 Y110.389
G01 X194.922 Y110.005
G01 X196.579 Y109.394
G01 X197.656 Y109.058
G01 X199.490 Y108.390
G01 X200.391 Y108.110
G01 X202.431 Y107.377
G01 X203.125 Y107.163
G01 X205.403 Y106.356
G01 X205.859 Y106.216
G01 X208.405 Y105.327
G01 X208.594 Y105.269
G01 X211.328 Y104.322
G01 X214.062 Y103.374
G01 X216.797 Y102.427
G01 X219.531 Y101.480
G01 X222.266 Y100.533
G01 X225.000 Y99.586
G01 X224.453 Y102.427
G01 X223.906 Y105.269
G01 X223.359 Y108.110
G01 X222.812 Y110.952
G01 X222.266 Y113.794
G01 X221.719 Y116.635
G01 X221.215 Y119.289
G01 X221.172 Y119.477
G01 X220.730 Y121.864
G01 X220.625 Y122.319
G01 X220.236 Y124.469
G01 X220.078 Y125.160
G01 X219.735 Y127.103
G01 X219.531 Y128.002
G01 X219.227 Y129.766
G01 X218.984 Y130.844
G01 X218.712 Y132.457
G01 X218.438 Y133.685
G01 X218.189 Y135.178
G01 X217.891 Y136.527
G01 X217.661 Y137.927
G01 X217.362 Y139.296
G01 X217.344 Y139.369
G01 X217.126 Y140.705
G01 X216.844 Y142.019
G01 X216.797 Y142.210
G01 X216.586 Y143.513
G01 X216.311 Y144.801
G01 X216.250 Y145.052
G01 X216.040 Y146.351
G01 X215.765 Y147.641
G01 X215.703 Y147.893
G01 X215.488 Y149.219
G01 X215.204 Y150.541
G01 X215.156 Y150.735
G01 X214.930 Y152.117
G01 X214.628 Y153.503
G01 X214.609 Y153.577
G01 X214.366 Y155.047
G01 X214.063 Y156.418
G01 X213.794 Y158.008
G01 X213.516 Y159.260
G01 X213.216 Y161.000
G01 X212.969 Y162.102
G01 X212.630 Y164.023
G01 X212.422 Y164.943
G01 X212.036 Y167.077
G01 X211.875 Y167.785
G01 X211.435 Y170.161
G01 X211.328 Y170.627
G01 X210.826 Y173.276
G01 X210.781 Y173.468
G01 X210.234 Y176.310
G01 X209.688 Y179.151
G01 X209.141 Y181.993
G01 X208.594 Y184.835
G01 X208.047 Y187.676
G01 X207.500 Y190.518
G01 X205.404 Y188.571
G01 X203.307 Y186.624
G01 X201.211 Y184.677
G01 X199.115 Y182.730
G01 X197.018 Y180.783
G01 X194.922 Y178.836
G01 X192.847 Y176.910
G01 X192.825 Y176.889
G01 X190.963 Y175.175
G01 X190.729 Y174.942
G01 X189.057 Y173.418
G01 X188.633 Y172.995
G01 X187.129 Y171.637
G01 X186.536 Y171.048
G01 X185.180 Y169.834
G01 X184.440 Y169.101
G01 X183.209 Y168.008
G01 X182.344 Y167.153
G01 X181.217 Y166.161
G01 X180.247 Y165.206
G01 X179.203 Y164.291
G01 X178.224 Y163.335
G01 X178.151 Y163.259
G01 X177.167 Y162.400
G01 X176.238 Y161.501
G01 X176.055 Y161.312
G01 X175.109 Y160.488
G01 X174.210 Y159.623
G01 X173.958 Y159.365
G01 X173.027 Y158.555
G01 X172.137 Y157.700
G01 X171.862 Y157.418
G01 X170.922 Y156.600
G01 X170.020 Y155.732
G01 X169.766 Y155.471
G01 X168.794 Y154.623
G01 X167.857 Y153.717
G01 X167.669 Y153.524
G01 X166.641 Y152.624
G01 X165.648 Y151.655
G01 X165.573 Y151.577
G01 X164.464 Y150.601
G01 X163.477 Y149.630
G01 X162.264 Y148.555
G01 X161.380 Y147.683
G01 X160.040 Y146.485
G01 X159.284 Y145.736
G01 X157.794 Y144.392
G01 X157.188 Y143.789
G01 X155.525 Y142.274
G01 X155.091 Y141.842
G01 X153.233 Y140.133
G01 X152.995 Y139.895
G01 X150.919 Y137.969
G01 X150.898 Y137.948
G01 X148.802 Y136.001
G01 X146.706 Y134.054
G01 X144.609 Y132.107
G01 X142.513 Y130.160
G01 X140.417 Y128.212
G01 X143.060 Y127.423
G01 X145.703 Y126.634
G01 X148.346 Y125.844
G01 X150.990 Y125.055
G01 X153.633 Y124.266
G01 X156.276 Y123.476
G01 X158.741 Y122.733
G01 X158.919 Y122.687
G01 X161.132 Y122.009
G01 X161.563 Y121.898
G01 X163.552 Y121.279
G01 X164.206 Y121.108
G01 X165.999 Y120.543
G01 X166.849 Y120.319
G01 X168.474 Y119.799
G01 X169.492 Y119.530
G01 X170.977 Y119.049
G01 X172.135 Y118.740
G01 X173.506 Y118.293
G01 X174.779 Y117.951
G01 X176.064 Y117.528
G01 X177.353 Y117.178
G01 X177.422 Y117.162
G01 X178.648 Y116.757
G01 X179.883 Y116.417
G01 X180.065 Y116.372
G01 X181.260 Y115.977
G01 X182.469 Y115.642
G01 X182.708 Y115.583
G01 X183.899 Y115.189
G01 X185.111 Y114.853
G01 X185.352 Y114.794
G01 X186.567 Y114.392
G01 X187.810 Y114.049
G01 X187.995 Y114.004
G01 X189.263 Y113.587
G01 X190.567 Y113.232
G01 X190.638 Y113.215
G01 X191.988 Y112.773
G01 X193.281 Y112.426
G01 X194.743 Y111.952
G01 X195.924 Y111.636
G01 X197.528 Y111.123
G01 X198.568 Y110.847
G01 X200.341 Y110.287
G01 X201.211 Y110.057
G01 X203.184 Y109.444
G01 X203.854 Y109.268
G01 X206.057 Y108.594
G01 X206.497 Y108.479
G01 X208.958 Y107.737
G01 X209.141 Y107.689
G01 X211.784 Y106.900
G01 X214.427 Y106.111
G01 X217.070 Y105.321
G01 X219.714 Y104.532
G01 X222.357 Y103.743
G01 X225.000 Y102.953
G01 X224.362 Y105.637
G01 X223.724 Y108.321
G01 X223.086 Y111.005
G01 X222.448 Y113.688
G01 X221.810 Y116.372
G01 X221.172 Y119.056
G01 X220.583 Y121.563
G01 X220.534 Y121.740
G01 X220.014 Y123.995
G01 X219.896 Y124.424
G01 X219.437 Y126.456
G01 X219.258 Y127.107
G01 X218.851 Y128.943
G01 X218.620 Y129.791
G01 X218.257 Y131.458
G01 X217.982 Y132.475
G01 X217.655 Y134.001
G01 X217.344 Y135.159
G01 X217.046 Y136.570
G01 X216.706 Y137.842
G01 X216.429 Y139.166
G01 X216.088 Y140.458
G01 X216.068 Y140.526
G01 X215.805 Y141.790
G01 X215.482 Y143.030
G01 X215.430 Y143.210
G01 X215.175 Y144.442
G01 X214.860 Y145.657
G01 X214.792 Y145.894
G01 X214.538 Y147.122
G01 X214.223 Y148.340
G01 X214.154 Y148.578
G01 X213.894 Y149.831
G01 X213.569 Y151.079
G01 X213.516 Y151.261
G01 X213.243 Y152.568
G01 X212.898 Y153.875
G01 X212.878 Y153.945
G01 X212.585 Y155.335
G01 X212.240 Y156.629
G01 X211.919 Y158.132
G01 X211.602 Y159.313
G01 X211.244 Y160.958
G01 X210.964 Y161.996
G01 X210.562 Y163.812
G01 X210.325 Y164.680
G01 X209.870 Y166.696
G01 X209.688 Y167.364
G01 X209.170 Y169.609
G01 X209.049 Y170.048
G01 X208.462 Y172.550
G01 X208.411 Y172.732
G01 X207.774 Y175.415
G01 X207.135 Y178.099
G01 X206.497 Y180.783
G01 X205.859 Y183.467
G01 X205.221 Y186.150
G01 X204.583 Y188.834
G01 X202.669 Y186.887
G01 X200.755 Y184.940
G01 X198.841 Y182.993
G01 X196.927 Y181.046
G01 X195.013 Y179.099
G01 X193.099 Y177.152
G01 X191.203 Y175.224
G01 X191.185 Y175.205
G01 X189.483 Y173.490
G01 X189.271 Y173.258
G01 X187.743 Y171.733
G01 X187.357 Y171.311
G01 X185.983 Y169.953
G01 X185.443 Y169.364
G01 X184.204 Y168.150
G01 X183.529 Y167.417
G01 X182.405 Y166.325
G01 X181.615 Y165.470
G01 X180.586 Y164.478
G01 X179.701 Y163.522
G01 X178.748 Y162.609
G01 X177.860 Y161.659
G01 X177.786 Y161.575
G01 X176.889 Y160.718
G01 X176.047 Y159.825
G01 X175.872 Y159.628
G01 X175.010 Y158.806
G01 X174.195 Y157.947
G01 X173.958 Y157.681
G01 X173.110 Y156.873
G01 X172.302 Y156.024
G01 X172.044 Y155.734
G01 X171.188 Y154.918
G01 X170.369 Y154.056
G01 X170.130 Y153.787
G01 X169.244 Y152.941
G01 X168.394 Y152.041
G01 X168.216 Y151.840
G01 X167.279 Y150.941
G01 X166.378 Y149.979
G01 X166.302 Y149.893
G01 X165.291 Y148.918
G01 X164.388 Y147.946
G01 X163.282 Y146.872
G01 X162.474 Y145.999
G01 X161.251 Y144.802
G01 X160.560 Y144.052
G01 X159.200 Y142.708
G01 X158.646 Y142.105
G01 X157.128 Y140.590
G01 X156.732 Y140.158
G01 X155.035 Y138.449
G01 X154.818 Y138.211
G01 X152.922 Y136.283
G01 X152.904 Y136.264
G01 X150.990 Y134.317
G01 X149.076 Y132.370
G01 X147.161 Y130.423
G01 X145.247 Y128.476
G01 X143.333 Y126.529
G01 X145.885 Y125.897
G01 X148.437 Y125.265
G01 X150.990 Y124.634
G01 X153.542 Y124.003
G01 X156.094 Y123.371
G01 X158.646 Y122.740
G01 X161.026 Y122.144
G01 X161.198 Y122.108
G01 X163.336 Y121.564
G01 X163.750 Y121.477
G01 X165.672 Y120.978
G01 X166.302 Y120.845
G01 X168.035 Y120.388
G01 X168.854 Y120.214
G01 X170.425 Y119.793
G01 X171.406 Y119.582
G01 X172.841 Y119.192
G01 X173.958 Y118.951
G01 X175.284 Y118.587
G01 X176.510 Y118.319
G01 X177.753 Y117.975
G01 X178.996 Y117.701
G01 X179.063 Y117.688
G01 X180.248 Y117.358
G01 X181.439 Y117.090
G01 X181.615 Y117.056
G01 X182.770 Y116.734
G01 X183.936 Y116.470
G01 X184.167 Y116.425
G01 X185.318 Y116.104
G01 X186.487 Y115.839
G01 X186.719 Y115.793
G01 X187.894 Y115.466
G01 X189.093 Y115.197
G01 X189.271 Y115.162
G01 X190.497 Y114.822
G01 X191.755 Y114.544
G01 X191.823 Y114.530
G01 X193.128 Y114.171
G01 X194.375 Y113.899
G01 X195.788 Y113.514
G01 X196.927 Y113.267
G01 X198.476 Y112.852
G01 X199.479 Y112.636
G01 X201.193 Y112.183
G01 X202.031 Y112.005
G01 X203.938 Y111.510
G01 X204.583 Y111.373
G01 X206.711 Y110.831
G01 X207.135 Y110.742
G01 X209.512 Y110.147
G01 X209.688 Y110.110
G01 X212.240 Y109.479
G01 X214.792 Y108.847
G01 X217.344 Y108.216
G01 X219.896 Y107.584
G01 X222.448 Y106.953
G01 X225.000 Y106.321
G01 X224.271 Y108.847
G01 X223.542 Y111.373
G01 X222.812 Y113.899
G01 X222.083 Y116.425
G01 X221.354 Y118.951
G01 X220.625 Y121.477
G01 X219.951 Y123.836
G01 X219.896 Y124.003
G01 X219.299 Y126.126
G01 X219.167 Y126.528
G01 X218.637 Y128.442
G01 X218.438 Y129.054
G01 X217.967 Y130.784
G01 X217.708 Y131.580
G01 X217.288 Y133.151
G01 X216.979 Y134.106
G01 X216.599 Y135.544
G01 X216.250 Y136.632
G01 X215.902 Y137.962
G01 X215.521 Y139.158
G01 X215.197 Y140.406
G01 X214.814 Y141.620
G01 X214.792 Y141.684
G01 X214.485 Y142.876
G01 X214.121 Y144.041
G01 X214.063 Y144.210
G01 X213.764 Y145.371
G01 X213.410 Y146.513
G01 X213.333 Y146.736
G01 X213.036 Y147.893
G01 X212.681 Y149.038
G01 X212.604 Y149.262
G01 X212.300 Y150.443
G01 X211.934 Y151.616
G01 X211.875 Y151.788
G01 X211.556 Y153.019
G01 X211.169 Y154.248
G01 X211.146 Y154.313
G01 X210.804 Y155.624
G01 X210.417 Y156.839
G01 X210.043 Y158.256
G01 X209.688 Y159.365
G01 X209.273 Y160.915
G01 X208.958 Y161.891
G01 X208.493 Y163.602
G01 X208.229 Y164.417
G01 X207.704 Y166.316
G01 X207.500 Y166.943
G01 X206.906 Y169.057
G01 X206.771 Y169.469
G01 X206.098 Y171.824
G01 X206.042 Y171.995
G01 X205.312 Y174.521
G01 X204.583 Y177.047
G01 X203.854 Y179.573
G01 X203.125 Y182.098
G01 X202.396 Y184.624
G01 X201.667 Y187.150
G01 X199.935 Y185.203
G01 X198.203 Y183.256
G01 X196.471 Y181.309
G01 X194.740 Y179.362
G01 X193.008 Y177.415
G01 X191.276 Y175.468
G01 X189.560 Y173.540
G01 X189.544 Y173.521
G01 X188.004 Y171.806
G01 X187.813 Y171.574
G01 X186.430 Y170.049
G01 X186.081 Y169.627
G01 X184.838 Y168.269
G01 X184.349 Y167.680
G01 X183.228 Y166.467
G01 X182.617 Y165.733
G01 X181.601 Y164.642
G01 X180.885 Y163.786
G01 X179.956 Y162.795
G01 X179.154 Y161.839
G01 X178.293 Y160.927
G01 X177.495 Y159.984
G01 X177.422 Y159.892
G01 X176.612 Y159.036
G01 X175.855 Y158.150
G01 X175.690 Y157.944
G01 X174.912 Y157.125
G01 X174.179 Y156.272
G01 X173.958 Y155.997
G01 X173.192 Y155.191
G01 X172.467 Y154.349
G01 X172.227 Y154.050
G01 X171.453 Y153.236
G01 X170.718 Y152.380
G01 X170.495 Y152.103
G01 X169.694 Y151.259
G01 X168.931 Y150.365
G01 X168.763 Y150.156
G01 X167.916 Y149.259
G01 X167.106 Y148.303
G01 X167.031 Y148.209
G01 X166.117 Y147.236
G01 X165.299 Y146.262
G01 X164.298 Y145.189
G01 X163.568 Y144.315
G01 X162.461 Y143.118
G01 X161.836 Y142.368
G01 X160.604 Y141.023
G01 X160.104 Y140.421
G01 X158.729 Y138.905
G01 X158.372 Y138.474
G01 X156.835 Y136.763
G01 X156.641 Y136.527
G01 X154.923 Y134.597
G01 X154.909 Y134.580
G01 X153.177 Y132.633
G01 X151.445 Y130.686
G01 X149.714 Y128.739
G01 X147.982 Y126.792
G01 X146.250 Y124.845
G01 X148.711 Y124.371
G01 X151.172 Y123.897
G01 X153.633 Y123.424
G01 X156.094 Y122.950
G01 X158.555 Y122.476
G01 X161.016 Y122.003
G01 X163.312 Y121.555
G01 X163.476 Y121.529
G01 X165.539 Y121.118
G01 X165.937 Y121.056
G01 X167.792 Y120.677
G01 X168.398 Y120.582
G01 X170.071 Y120.233
G01 X170.859 Y120.108
G01 X172.376 Y119.786
G01 X173.320 Y119.635
G01 X174.706 Y119.336
G01 X175.781 Y119.161
G01 X177.061 Y118.881
G01 X178.242 Y118.688
G01 X179.442 Y118.422
G01 X180.639 Y118.223
G01 X180.703 Y118.214
G01 X181.848 Y117.959
G01 X182.996 Y117.764
G01 X183.164 Y117.740
G01 X184.280 Y117.492
G01 X185.403 Y117.298
G01 X185.625 Y117.267
G01 X186.737 Y117.019
G01 X187.863 Y116.825
G01 X188.086 Y116.793
G01 X189.221 Y116.540
G01 X190.376 Y116.344
G01 X190.547 Y116.320
G01 X191.731 Y116.057
G01 X192.942 Y115.855
G01 X193.008 Y115.846
G01 X194.269 Y115.569
G01 X195.469 Y115.372
G01 X196.833 Y115.077
G01 X197.930 Y114.899
G01 X199.425 Y114.580
G01 X200.391 Y114.425
G01 X202.045 Y114.080
G01 X202.852 Y113.952
G01 X204.691 Y113.576
G01 X205.313 Y113.478
G01 X207.365 Y113.068
G01 X207.773 Y113.004
G01 X210.065 Y112.557
G01 X210.234 Y112.531
G01 X212.695 Y112.057
G01 X215.156 Y111.583
G01 X217.617 Y111.110
G01 X220.078 Y110.636
G01 X222.539 Y110.163
G01 X225.000 Y109.689
G01 X224.180 Y112.057
G01 X223.359 Y114.425
G01 X222.539 Y116.793
G01 X221.719 Y119.161
G01 X220.898 Y121.529
G01 X220.078 Y123.897
G01 X219.318 Y126.110
G01 X219.258 Y126.265
G01 X218.583 Y128.257
G01 X218.438 Y128.634
G01 X217.838 Y130.429
G01 X217.617 Y131.001
G01 X217.083 Y132.624
G01 X216.797 Y133.370
G01 X216.318 Y134.844
G01 X215.977 Y135.737
G01 X215.543 Y137.087
G01 X215.156 Y138.106
G01 X214.759 Y139.354
G01 X214.336 Y140.474
G01 X213.966 Y141.645
G01 X213.540 Y142.782
G01 X213.516 Y142.842
G01 X213.164 Y143.961
G01 X212.759 Y145.052
G01 X212.695 Y145.210
G01 X212.353 Y146.300
G01 X211.959 Y147.370
G01 X211.875 Y147.578
G01 X211.534 Y148.665
G01 X211.139 Y149.737
G01 X211.055 Y149.946
G01 X210.706 Y151.055
G01 X210.299 Y152.154
G01 X210.234 Y152.314
G01 X209.869 Y153.470
G01 X209.439 Y154.621
G01 X209.414 Y154.682
G01 X209.023 Y155.912
G01 X208.594 Y157.050
G01 X208.167 Y158.379
G01 X207.773 Y159.418
G01 X207.301 Y160.872
G01 X206.953 Y161.786
G01 X206.425 Y163.391
G01 X206.133 Y164.154
G01 X205.539 Y165.935
G01 X205.313 Y166.522
G01 X204.641 Y168.504
G01 X204.492 Y168.890
G01 X203.734 Y171.099
G01 X203.672 Y171.258
G01 X202.852 Y173.626
G01 X202.031 Y175.994
G01 X201.211 Y178.362
G01 X200.391 Y180.730
G01 X199.570 Y183.098
G01 X198.750 Y185.466
G01 X197.201 Y183.519
G01 X195.651 Y181.572
G01 X194.102 Y179.625
G01 X192.552 Y177.678
G01 X191.003 Y175.731
G01 X189.453 Y173.784
G01 X187.918 Y171.856
G01 X187.904 Y171.837
G01 X186.525 Y170.122
G01 X186.354 Y169.890
G01 X185.117 Y168.366
G01 X184.805 Y167.943
G01 X183.693 Y166.587
G01 X183.255 Y165.996
G01 X182.253 Y164.785
G01 X181.706 Y164.049
G01 X180.797 Y162.960
G01 X180.156 Y162.102
G01 X179.325 Y161.114
G01 X178.607 Y160.155
G01 X177.838 Y159.245
G01 X177.130 Y158.310
G01 X177.057 Y158.208
G01 X176.333 Y157.355
G01 X175.662 Y156.476
G01 X175.508 Y156.261
G01 X174.812 Y155.443
G01 X174.162 Y154.597
G01 X173.958 Y154.314
G01 X173.274 Y153.510
G01 X172.630 Y152.674
G01 X172.409 Y152.366
G01 X171.718 Y151.555
G01 X171.065 Y150.705
G01 X170.859 Y150.419
G01 X170.144 Y149.577
G01 X169.465 Y148.690
G01 X169.310 Y148.472
G01 X168.552 Y147.577
G01 X167.832 Y146.627
G01 X167.760 Y146.525
G01 X166.942 Y145.553
G01 X166.211 Y144.578
G01 X165.314 Y143.505
G01 X164.661 Y142.631
G01 X163.670 Y141.433
G01 X163.112 Y140.684
G01 X162.008 Y139.338
G01 X161.563 Y138.737
G01 X160.330 Y137.219
G01 X160.013 Y136.790
G01 X158.635 Y135.076
G01 X158.464 Y134.843
G01 X156.924 Y132.909
G01 X156.914 Y132.896
G01 X155.365 Y130.949
G01 X153.815 Y129.002
G01 X152.266 Y127.055
G01 X150.716 Y125.108
G01 X149.167 Y123.161
G01 X151.536 Y122.845
G01 X153.906 Y122.529
G01 X156.276 Y122.213
G01 X158.646 Y121.898
G01 X161.016 Y121.582
G01 X163.385 Y121.266
G01 X165.597 Y120.966
G01 X165.755 Y120.950
G01 X167.742 Y120.672
G01 X168.125 Y120.635
G01 X169.912 Y120.376
G01 X170.495 Y120.319
G01 X172.107 Y120.079
G01 X172.865 Y120.003
G01 X174.326 Y119.780
G01 X175.234 Y119.687
G01 X176.570 Y119.479
G01 X177.604 Y119.372
G01 X178.839 Y119.175
G01 X179.974 Y119.056
G01 X181.131 Y118.869
G01 X182.283 Y118.745
G01 X182.344 Y118.740
G01 X183.448 Y118.561
G01 X184.552 Y118.438
G01 X184.714 Y118.425
G01 X185.790 Y118.249
G01 X186.870 Y118.127
G01 X187.083 Y118.109
G01 X188.156 Y117.934
G01 X189.239 Y117.811
G01 X189.453 Y117.793
G01 X190.548 Y117.615
G01 X191.659 Y117.491
G01 X191.823 Y117.477
G01 X192.965 Y117.293
G01 X194.130 Y117.167
G01 X194.193 Y117.162
G01 X195.409 Y116.968
G01 X196.562 Y116.846
G01 X197.878 Y116.640
G01 X198.932 Y116.530
G01 X200.374 Y116.309
G01 X201.302 Y116.214
G01 X202.896 Y115.977
G01 X203.672 Y115.899
G01 X205.445 Y115.642
G01 X206.042 Y115.583
G01 X208.019 Y115.305
G01 X208.411 Y115.267
G01 X210.619 Y114.967
G01 X210.781 Y114.951
G01 X213.151 Y114.636
G01 X215.521 Y114.320
G01 X217.891 Y114.004
G01 X220.260 Y113.688
G01 X222.630 Y113.373
G01 X225.000 Y113.057
G01 X224.088 Y115.267
G01 X223.177 Y117.477
G01 X222.266 Y119.688
G01 X221.354 Y121.898
G01 X220.443 Y124.108
G01 X219.531 Y126.318
G01 X218.686 Y128.383
G01 X218.620 Y128.528
G01 X217.868 Y130.388
G01 X217.708 Y130.738
G01 X217.039 Y132.415
G01 X216.797 Y132.949
G01 X216.199 Y134.464
G01 X215.885 Y135.159
G01 X215.348 Y136.536
G01 X214.974 Y137.369
G01 X214.487 Y138.630
G01 X214.062 Y139.579
G01 X213.615 Y140.746
G01 X213.151 Y141.789
G01 X212.734 Y142.885
G01 X212.266 Y143.944
G01 X212.240 Y143.999
G01 X211.843 Y145.046
G01 X211.398 Y146.063
G01 X211.328 Y146.210
G01 X210.942 Y147.229
G01 X210.508 Y148.226
G01 X210.417 Y148.420
G01 X210.032 Y149.436
G01 X209.597 Y150.436
G01 X209.505 Y150.630
G01 X209.112 Y151.667
G01 X208.664 Y152.691
G01 X208.594 Y152.840
G01 X208.183 Y153.922
G01 X207.709 Y154.993
G01 X207.682 Y155.050
G01 X207.242 Y156.200
G01 X206.771 Y157.260
G01 X206.292 Y158.503
G01 X205.859 Y159.471
G01 X205.330 Y160.830
G01 X204.948 Y161.681
G01 X204.357 Y163.180
G01 X204.036 Y163.891
G01 X203.372 Y165.554
G01 X203.125 Y166.101
G01 X202.377 Y167.952
G01 X202.213 Y168.311
G01 X201.370 Y170.373
G01 X201.302 Y170.521
G01 X200.391 Y172.731
G01 X199.479 Y174.942
G01 X198.568 Y177.152
G01 X197.656 Y179.362
G01 X196.745 Y181.572
G01 X195.833 Y183.782
G01 X194.466 Y181.835
G01 X193.099 Y179.888
G01 X191.732 Y177.941
G01 X190.365 Y175.994
G01 X188.997 Y174.047
G01 X187.630 Y172.100
G01 X186.277 Y170.174
G01 X186.263 Y170.153
G01 X185.048 Y168.441
G01 X184.896 Y168.206
G01 X183.805 Y166.685
G01 X183.529 Y166.259
G01 X182.548 Y164.906
G01 X182.162 Y164.312
G01 X181.278 Y163.104
G01 X180.794 Y162.365
G01 X179.993 Y161.280
G01 X179.427 Y160.418
G01 X178.695 Y159.433
G01 X178.060 Y158.471
G01 X177.382 Y157.565
G01 X176.764 Y156.637
G01 X176.693 Y156.524
G01 X176.055 Y155.675
G01 X175.468 Y154.803
G01 X175.326 Y154.577
G01 X174.713 Y153.763
G01 X174.144 Y152.924
G01 X173.958 Y152.630
G01 X173.355 Y151.829
G01 X172.792 Y151.000
G01 X172.591 Y150.683
G01 X171.982 Y149.874
G01 X171.410 Y149.031
G01 X171.224 Y148.735
G01 X170.592 Y147.895
G01 X169.999 Y147.014
G01 X169.857 Y146.788
G01 X169.187 Y145.894
G01 X168.558 Y144.950
G01 X168.490 Y144.841
G01 X167.766 Y143.869
G01 X167.122 Y142.894
G01 X166.329 Y141.820
G01 X165.755 Y140.947
G01 X164.878 Y139.748
G01 X164.388 Y139.000
G01 X163.411 Y137.651
G01 X163.021 Y137.053
G01 X161.930 Y135.531
G01 X161.654 Y135.106
G01 X160.434 Y133.387
G01 X160.286 Y133.159
G01 X158.924 Y131.219
G01 X158.919 Y131.212
G01 X157.552 Y129.265
G01 X156.185 Y127.318
G01 X154.818 Y125.371
G01 X153.451 Y123.424
G01 X152.083 Y121.477
G01 X154.362 Y121.319
G01 X156.641 Y121.161
G01 X158.919 Y121.003
G01 X161.198 Y120.845
G01 X163.477 Y120.687
G01 X165.755 Y120.529
G01 X167.882 Y120.376
G01 X168.034 Y120.372
G01 X169.945 Y120.226
G01 X170.313 Y120.214
G01 X172.032 Y120.075
G01 X172.591 Y120.056
G01 X174.143 Y119.924
G01 X174.870 Y119.898
G01 X176.277 Y119.773
G01 X177.148 Y119.740
G01 X178.435 Y119.622
G01 X179.427 Y119.582
G01 X180.616 Y119.469
G01 X181.706 Y119.424
G01 X182.820 Y119.316
G01 X183.926 Y119.267
G01 X183.984 Y119.266
G01 X185.048 Y119.162
G01 X186.108 Y119.112
G01 X186.263 Y119.109
G01 X187.300 Y119.006
G01 X188.337 Y118.955
G01 X188.542 Y118.951
G01 X189.575 Y118.848
G01 X190.615 Y118.797
G01 X190.820 Y118.793
G01 X191.875 Y118.689
G01 X192.941 Y118.638
G01 X193.099 Y118.635
G01 X194.199 Y118.528
G01 X195.317 Y118.478
G01 X195.378 Y118.477
G01 X196.549 Y118.366
G01 X197.656 Y118.319
G01 X198.923 Y118.202
G01 X199.935 Y118.161
G01 X201.323 Y118.038
G01 X202.214 Y118.004
G01 X203.748 Y117.873
G01 X204.492 Y117.846
G01 X206.198 Y117.708
G01 X206.771 Y117.688
G01 X208.673 Y117.543
G01 X209.050 Y117.530
G01 X211.172 Y117.377
G01 X211.328 Y117.372
G01 X213.607 Y117.214
G01 X215.885 Y117.056
G01 X218.164 Y116.898
G01 X220.443 Y116.741
G01 X222.721 Y116.583
G01 X225.000 Y116.425
G01 X223.997 Y118.477
G01 X222.995 Y120.530
G01 X221.992 Y122.582
G01 X220.990 Y124.634
G01 X219.987 Y126.687
G01 X218.984 Y128.739
G01 X218.054 Y130.657
G01 X217.982 Y130.791
G01 X217.152 Y132.519
G01 X216.979 Y132.843
G01 X216.239 Y134.402
G01 X215.977 Y134.895
G01 X215.315 Y136.305
G01 X214.974 Y136.948
G01 X214.378 Y138.229
G01 X213.971 Y139.000
G01 X213.431 Y140.173
G01 X212.969 Y141.052
G01 X212.472 Y142.139
G01 X211.966 Y143.105
G01 X211.502 Y144.124
G01 X210.992 Y145.106
G01 X210.964 Y145.157
G01 X210.522 Y146.131
G01 X210.036 Y147.074
G01 X209.961 Y147.209
G01 X209.531 Y148.159
G01 X209.057 Y149.083
G01 X208.958 Y149.262
G01 X208.530 Y150.208
G01 X208.055 Y151.134
G01 X207.956 Y151.314
G01 X207.518 Y152.279
G01 X207.029 Y153.228
G01 X206.953 Y153.366
G01 X206.496 Y154.373
G01 X205.980 Y155.366
G01 X205.951 Y155.419
G01 X205.462 Y156.489
G01 X204.948 Y157.471
G01 X204.416 Y158.627
G01 X203.945 Y159.523
G01 X203.358 Y160.787
G01 X202.943 Y161.575
G01 X202.289 Y162.970
G01 X201.940 Y163.628
G01 X201.207 Y165.174
G01 X200.938 Y165.680
G01 X200.112 Y167.400
G01 X199.935 Y167.732
G01 X199.006 Y169.647
G01 X198.932 Y169.785
G01 X197.930 Y171.837
G01 X196.927 Y173.889
G01 X195.924 Y175.942
G01 X194.922 Y177.994
G01 X193.919 Y180.046
G01 X192.917 Y182.098
G01 X191.732 Y180.151
G01 X190.547 Y178.204
G01 X189.362 Y176.257
G01 X188.177 Y174.310
G01 X186.992 Y172.363
G01 X185.807 Y170.416
G01 X184.636 Y168.494
G01 X184.622 Y168.469
G01 X183.571 Y166.761
G01 X183.438 Y166.522
G01 X182.493 Y165.005
G01 X182.253 Y164.575
G01 X181.404 Y163.226
G01 X181.068 Y162.628
G01 X180.302 Y161.424
G01 X179.883 Y160.681
G01 X179.189 Y159.600
G01 X178.698 Y158.734
G01 X178.063 Y157.753
G01 X177.513 Y156.787
G01 X176.926 Y155.885
G01 X176.396 Y154.967
G01 X176.328 Y154.840
G01 X175.775 Y153.995
G01 X175.272 Y153.131
G01 X175.143 Y152.893
G01 X174.612 Y152.083
G01 X174.124 Y151.252
G01 X173.958 Y150.946
G01 X173.435 Y150.149
G01 X172.952 Y149.327
G01 X172.773 Y148.999
G01 X172.245 Y148.192
G01 X171.754 Y147.356
G01 X171.589 Y147.052
G01 X171.040 Y146.213
G01 X170.530 Y145.338
G01 X170.404 Y145.104
G01 X169.821 Y144.211
G01 X169.280 Y143.272
G01 X169.219 Y143.157
G01 X168.589 Y142.185
G01 X168.034 Y141.210
G01 X167.344 Y140.135
G01 X166.849 Y139.263
G01 X166.085 Y138.061
G01 X165.664 Y137.316
G01 X164.813 Y135.963
G01 X164.479 Y135.369
G01 X163.529 Y133.842
G01 X163.294 Y133.422
G01 X162.233 Y131.696
G01 X162.109 Y131.475
G01 X160.924 Y129.528
G01 X159.740 Y127.581
G01 X158.555 Y125.634
G01 X157.370 Y123.687
G01 X156.185 Y121.740
G01 X155.000 Y119.793
G01 X157.188 Y119.793
G01 X159.375 Y119.793
G01 X161.563 Y119.793
G01 X163.750 Y119.793
G01 X165.938 Y119.793
G01 X168.125 Y119.793
G01 X170.167 Y119.787
G01 X170.312 Y119.793
G01 X172.148 Y119.780
G01 X172.500 Y119.793
G01 X174.152 Y119.774
G01 X174.688 Y119.793
G01 X176.178 Y119.770
G01 X176.875 Y119.793
G01 X178.228 Y119.767
G01 X179.062 Y119.793
G01 X180.299 Y119.765
G01 X181.250 Y119.793
G01 X182.393 Y119.764
G01 X183.438 Y119.793
G01 X184.510 Y119.763
G01 X185.569 Y119.790
G01 X185.625 Y119.793
G01 X186.648 Y119.763
G01 X187.664 Y119.785
G01 X187.813 Y119.793
G01 X188.810 Y119.763
G01 X189.805 Y119.783
G01 X190.000 Y119.793
G01 X190.994 Y119.763
G01 X191.991 Y119.783
G01 X192.187 Y119.793
G01 X193.202 Y119.763
G01 X194.224 Y119.785
G01 X194.375 Y119.793
G01 X195.433 Y119.763
G01 X196.505 Y119.790
G01 X196.562 Y119.793
G01 X197.689 Y119.764
G01 X198.750 Y119.793
G01 X199.968 Y119.765
G01 X200.938 Y119.793
G01 X202.272 Y119.767
G01 X203.125 Y119.793
G01 X204.600 Y119.770
G01 X205.312 Y119.793
G01 X206.951 Y119.774
G01 X207.500 Y119.793
G01 X209.327 Y119.780
G01 X209.688 Y119.793
G01 X211.726 Y119.787
G01 X211.875 Y119.793
G01 X214.062 Y119.793
G01 X216.250 Y119.793
G01 X218.437 Y119.793
G01 X220.625 Y119.793
G01 X222.812 Y119.793
G01 X225.000 Y119.793
G01 X223.906 Y121.687
G01 X222.813 Y123.582
G01 X221.719 Y125.476
G01 X220.625 Y127.371
G01 X219.531 Y129.265
G01 X218.437 Y131.159
G01 X217.421 Y132.930
G01 X217.344 Y133.054
G01 X216.437 Y134.650
G01 X216.250 Y134.948
G01 X215.440 Y136.388
G01 X215.156 Y136.843
G01 X214.431 Y138.145
G01 X214.063 Y138.737
G01 X213.409 Y139.922
G01 X212.969 Y140.632
G01 X212.375 Y141.717
G01 X211.875 Y142.526
G01 X211.328 Y143.531
G01 X210.781 Y144.420
G01 X210.271 Y145.364
G01 X209.718 Y146.268
G01 X209.688 Y146.315
G01 X209.201 Y147.216
G01 X208.674 Y148.084
G01 X208.594 Y148.209
G01 X208.121 Y149.088
G01 X207.606 Y149.939
G01 X207.500 Y150.104
G01 X207.028 Y150.979
G01 X206.513 Y151.833
G01 X206.406 Y151.998
G01 X205.925 Y152.891
G01 X205.394 Y153.766
G01 X205.312 Y153.893
G01 X204.809 Y154.824
G01 X204.250 Y155.739
G01 X204.219 Y155.787
G01 X203.681 Y156.777
G01 X203.125 Y157.681
G01 X202.540 Y158.751
G01 X202.031 Y159.576
G01 X201.387 Y160.745
G01 X200.938 Y161.470
G01 X200.220 Y162.759
G01 X199.844 Y163.365
G01 X199.040 Y164.793
G01 X198.750 Y165.259
G01 X197.848 Y166.847
G01 X197.656 Y167.153
G01 X196.642 Y168.921
G01 X196.563 Y169.048
G01 X195.469 Y170.942
G01 X194.375 Y172.837
G01 X193.281 Y174.731
G01 X192.188 Y176.626
G01 X191.094 Y178.520
G01 X190.000 Y180.414
G01 X188.997 Y178.467
G01 X187.995 Y176.520
G01 X186.992 Y174.573
G01 X185.990 Y172.626
G01 X184.987 Y170.679
G01 X183.984 Y168.732
G01 X182.996 Y166.816
G01 X182.982 Y166.785
G01 X182.094 Y165.083
G01 X181.979 Y164.838
G01 X181.181 Y163.327
G01 X180.977 Y162.891
G01 X180.259 Y161.548
G01 X179.974 Y160.944
G01 X179.326 Y159.746
G01 X178.971 Y158.997
G01 X178.384 Y157.922
G01 X177.969 Y157.050
G01 X177.431 Y156.075
G01 X176.966 Y155.103
G01 X176.469 Y154.206
G01 X176.027 Y153.297
G01 X175.964 Y153.156
G01 X175.495 Y152.315
G01 X175.075 Y151.461
G01 X174.961 Y151.209
G01 X174.510 Y150.403
G01 X174.103 Y149.580
G01 X173.958 Y149.262
G01 X173.514 Y148.468
G01 X173.109 Y147.653
G01 X172.956 Y147.315
G01 X172.506 Y146.511
G01 X172.095 Y145.680
G01 X171.953 Y145.368
G01 X171.486 Y144.531
G01 X171.059 Y143.661
G01 X170.950 Y143.420
G01 X170.455 Y142.527
G01 X170.002 Y141.593
G01 X169.948 Y141.473
G01 X169.411 Y140.500
G01 X168.945 Y139.526
G01 X168.357 Y138.448
G01 X167.943 Y137.579
G01 X167.291 Y136.373
G01 X166.940 Y135.632
G01 X166.215 Y134.273
G01 X165.938 Y133.685
G01 X165.128 Y132.150
G01 X164.935 Y131.738
G01 X164.031 Y130.003
G01 X163.932 Y129.791
G01 X162.930 Y127.844
G01 X161.927 Y125.897
G01 X160.925 Y123.950
G01 X159.922 Y122.003
G01 X158.919 Y120.056
G01 X157.917 Y118.109
G01 X160.013 Y118.267
G01 X162.109 Y118.425
G01 X164.206 Y118.582
G01 X166.302 Y118.740
G01 X168.398 Y118.898
G01 X170.495 Y119.056
G01 X172.452 Y119.198
G01 X172.591 Y119.214
G01 X174.351 Y119.334
G01 X174.688 Y119.372
G01 X176.272 Y119.473
G01 X176.784 Y119.530
G01 X178.214 Y119.615
G01 X178.880 Y119.688
G01 X180.178 Y119.760
G01 X180.977 Y119.845
G01 X182.164 Y119.908
G01 X183.073 Y120.003
G01 X184.171 Y120.058
G01 X185.169 Y120.161
G01 X186.199 Y120.210
G01 X187.212 Y120.312
G01 X187.266 Y120.319
G01 X188.249 Y120.365
G01 X189.220 Y120.459
G01 X189.362 Y120.477
G01 X190.320 Y120.521
G01 X191.272 Y120.611
G01 X191.458 Y120.635
G01 X192.413 Y120.678
G01 X193.367 Y120.769
G01 X193.555 Y120.793
G01 X194.529 Y120.838
G01 X195.507 Y120.932
G01 X195.651 Y120.950
G01 X196.667 Y120.999
G01 X197.692 Y121.101
G01 X197.747 Y121.108
G01 X198.829 Y121.162
G01 X199.844 Y121.266
G01 X201.013 Y121.327
G01 X201.940 Y121.424
G01 X203.221 Y121.495
G01 X204.036 Y121.582
G01 X205.451 Y121.666
G01 X206.133 Y121.740
G01 X207.705 Y121.840
G01 X208.229 Y121.898
G01 X209.981 Y122.017
G01 X210.325 Y122.056
G01 X212.279 Y122.197
G01 X212.422 Y122.214
G01 X214.518 Y122.371
G01 X216.615 Y122.529
G01 X218.711 Y122.687
G01 X220.807 Y122.845
G01 X222.904 Y123.003
G01 X225.000 Y123.161
G01 X223.815 Y124.897
G01 X222.630 Y126.634
G01 X221.445 Y128.370
G01 X220.260 Y130.107
G01 X219.076 Y131.843
G01 X217.891 Y133.580
G01 X216.789 Y135.204
G01 X216.706 Y135.317
G01 X215.721 Y136.781
G01 X215.521 Y137.053
G01 X214.641 Y138.374
G01 X214.336 Y138.790
G01 X213.546 Y139.986
G01 X213.151 Y140.526
G01 X212.439 Y141.614
G01 X211.966 Y142.263
G01 X211.318 Y143.260
G01 X210.781 Y143.999
G01 X210.185 Y144.923
G01 X209.596 Y145.736
G01 X209.039 Y146.603
G01 X208.444 Y147.429
G01 X208.411 Y147.472
G01 X207.880 Y148.301
G01 X207.313 Y149.095
G01 X207.227 Y149.209
G01 X206.710 Y150.017
G01 X206.155 Y150.796
G01 X206.042 Y150.946
G01 X205.526 Y151.751
G01 X204.971 Y152.532
G01 X204.857 Y152.682
G01 X204.331 Y153.503
G01 X203.759 Y154.303
G01 X203.672 Y154.419
G01 X203.122 Y155.275
G01 X202.521 Y156.111
G01 X202.487 Y156.155
G01 X201.900 Y157.065
G01 X201.302 Y157.892
G01 X200.664 Y158.874
G01 X200.117 Y159.628
G01 X199.415 Y160.702
G01 X198.932 Y161.365
G01 X198.152 Y162.548
G01 X197.747 Y163.102
G01 X196.875 Y164.413
G01 X196.563 Y164.838
G01 X195.583 Y166.295
G01 X195.378 Y166.575
G01 X194.278 Y168.196
G01 X194.193 Y168.311
G01 X193.008 Y170.048
G01 X191.823 Y171.784
G01 X190.638 Y173.521
G01 X189.453 Y175.257
G01 X188.268 Y176.994
G01 X187.083 Y178.731
G01 X186.263 Y176.784
G01 X185.443 Y174.836
G01 X184.622 Y172.889
G01 X183.802 Y170.942
G01 X182.982 Y168.995
G01 X182.161 Y167.048
G01 X181.356 Y165.141
G01 X181.341 Y165.101
G01 X180.616 Y163.407
G01 X180.521 Y163.154
G01 X179.869 Y161.651
G01 X179.701 Y161.207
G01 X179.113 Y159.871
G01 X178.880 Y159.260
G01 X178.350 Y158.069
G01 X178.060 Y157.313
G01 X177.578 Y156.244
G01 X177.240 Y155.366
G01 X176.798 Y154.397
G01 X176.421 Y153.423
G01 X176.419 Y153.419
G01 X176.010 Y152.528
G01 X175.655 Y151.629
G01 X175.599 Y151.472
G01 X175.213 Y150.636
G01 X174.875 Y149.791
G01 X174.779 Y149.525
G01 X174.408 Y148.723
G01 X174.078 Y147.907
G01 X173.958 Y147.578
G01 X173.592 Y146.787
G01 X173.265 Y145.979
G01 X173.138 Y145.631
G01 X172.767 Y144.829
G01 X172.434 Y144.004
G01 X172.318 Y143.684
G01 X171.932 Y142.847
G01 X171.586 Y141.982
G01 X171.497 Y141.737
G01 X171.087 Y140.842
G01 X170.721 Y139.911
G01 X170.677 Y139.790
G01 X170.233 Y138.813
G01 X169.857 Y137.842
G01 X169.370 Y136.760
G01 X169.036 Y135.895
G01 X168.497 Y134.682
G01 X168.216 Y133.948
G01 X167.617 Y132.581
G01 X167.396 Y132.001
G01 X166.728 Y130.456
G01 X166.576 Y130.054
G01 X165.831 Y128.307
G01 X165.755 Y128.107
G01 X164.935 Y126.160
G01 X164.115 Y124.213
G01 X163.294 Y122.266
G01 X162.474 Y120.319
G01 X161.654 Y118.372
G01 X160.833 Y116.425
G01 X164.146 Y116.916
G01 X164.844 Y117.056
G01 X167.572 Y117.431
G01 X168.854 Y117.688
G01 X171.081 Y117.966
G01 X172.865 Y118.319
G01 X174.674 Y118.520
G01 X176.420 Y118.844
G01 X176.875 Y118.951
G01 X178.348 Y119.094
G01 X179.775 Y119.329
G01 X180.885 Y119.582
G01 X182.103 Y119.686
G01 X183.288 Y119.859
G01 X184.436 Y120.097
G01 X184.896 Y120.214
G01 X185.936 Y120.294
G01 X186.956 Y120.428
G01 X187.953 Y120.614
G01 X188.906 Y120.845
G01 X189.848 Y120.915
G01 X190.781 Y121.030
G01 X191.702 Y121.191
G01 X192.609 Y121.396
G01 X192.917 Y121.477
G01 X193.842 Y121.544
G01 X194.769 Y121.658
G01 X195.693 Y121.819
G01 X196.612 Y122.026
G01 X196.927 Y122.108
G01 X197.924 Y122.183
G01 X198.930 Y122.314
G01 X199.942 Y122.501
G01 X200.937 Y122.740
G01 X202.096 Y122.836
G01 X203.272 Y123.005
G01 X204.459 Y123.249
G01 X204.948 Y123.371
G01 X206.360 Y123.505
G01 X207.794 Y123.740
G01 X208.958 Y124.002
G01 X210.712 Y124.195
G01 X212.491 Y124.523
G01 X212.969 Y124.634
G01 X215.152 Y124.905
G01 X216.979 Y125.265
G01 X219.677 Y125.635
G01 X220.990 Y125.897
G01 X224.287 Y126.385
G01 X225.000 Y126.528
G01 X222.919 Y129.152
G01 X222.448 Y129.686
G01 X220.759 Y131.861
G01 X219.896 Y132.843
G01 X218.541 Y134.633
G01 X217.344 Y136.001
G01 X216.265 Y137.467
G01 X215.111 Y138.817
G01 X214.792 Y139.158
G01 X213.931 Y140.362
G01 X213.014 Y141.480
G01 X212.240 Y142.315
G01 X211.541 Y143.318
G01 X210.799 Y144.258
G01 X210.018 Y145.133
G01 X209.687 Y145.473
G01 X209.098 Y146.334
G01 X208.472 Y147.150
G01 X207.812 Y147.920
G01 X207.135 Y148.630
G01 X206.604 Y149.411
G01 X206.038 Y150.161
G01 X205.438 Y150.878
G01 X204.807 Y151.561
G01 X204.583 Y151.788
G01 X204.062 Y152.556
G01 X203.500 Y153.301
G01 X202.899 Y154.021
G01 X202.260 Y154.714
G01 X202.031 Y154.945
G01 X201.468 Y155.771
G01 X200.852 Y156.577
G01 X200.184 Y157.360
G01 X199.479 Y158.102
G01 X198.817 Y159.058
G01 X198.082 Y159.991
G01 X197.278 Y160.897
G01 X196.927 Y161.260
G01 X196.105 Y162.415
G01 X195.185 Y163.540
G01 X194.375 Y164.417
G01 X193.331 Y165.840
G01 X192.158 Y167.216
G01 X191.823 Y167.574
G01 X190.496 Y169.329
G01 X189.271 Y170.732
G01 X187.602 Y172.883
G01 X186.719 Y173.889
G01 X184.647 Y176.501
G01 X184.167 Y177.047
G01 X183.009 Y173.577
G01 X182.891 Y173.153
G01 X181.918 Y170.339
G01 X181.615 Y169.258
G01 X180.804 Y167.007
G01 X180.339 Y165.364
G01 X179.665 Y163.582
G01 X179.143 Y161.798
G01 X179.062 Y161.470
G01 X178.505 Y160.065
G01 X178.057 Y158.659
G01 X177.786 Y157.576
G01 X177.322 Y156.458
G01 X176.937 Y155.337
G01 X176.631 Y154.220
G01 X176.510 Y153.682
G01 X176.117 Y152.763
G01 X175.780 Y151.839
G01 X175.500 Y150.914
G01 X175.276 Y149.990
G01 X175.234 Y149.788
G01 X174.885 Y148.984
G01 X174.579 Y148.170
G01 X174.315 Y147.348
G01 X174.095 Y146.520
G01 X173.958 Y145.894
G01 X173.621 Y145.121
G01 X173.321 Y144.329
G01 X173.059 Y143.520
G01 X172.836 Y142.695
G01 X172.682 Y142.000
G01 X172.321 Y141.166
G01 X172.000 Y140.302
G01 X171.722 Y139.409
G01 X171.488 Y138.490
G01 X171.406 Y138.105
G01 X170.987 Y137.114
G01 X170.621 Y136.077
G01 X170.312 Y134.998
G01 X170.130 Y134.211
G01 X169.624 Y132.962
G01 X169.194 Y131.650
G01 X168.854 Y130.317
G01 X168.236 Y128.711
G01 X167.727 Y127.022
G01 X167.578 Y126.423
G01 X166.824 Y124.363
G01 X166.302 Y122.529
G01 X165.389 Y119.920
G01 X165.026 Y118.635
G01 X163.930 Y115.382
G01 X163.750 Y114.741
G01 X166.915 Y115.494
G01 X167.578 Y115.688
G01 X170.187 Y116.280
G01 X171.406 Y116.635
G01 X173.538 Y117.091
G01 X175.234 Y117.583
G01 X176.968 Y117.929
G01 X178.631 Y118.388
G01 X179.063 Y118.530
G01 X180.476 Y118.792
G01 X181.837 Y119.139
G01 X182.891 Y119.477
G01 X184.060 Y119.679
G01 X185.192 Y119.946
G01 X186.284 Y120.273
G01 X186.719 Y120.424
G01 X187.719 Y120.589
G01 X188.695 Y120.804
G01 X189.644 Y121.068
G01 X190.547 Y121.371
G01 X191.453 Y121.518
G01 X192.345 Y121.707
G01 X193.223 Y121.940
G01 X194.084 Y122.215
G01 X194.375 Y122.319
G01 X195.265 Y122.462
G01 X196.152 Y122.649
G01 X197.033 Y122.882
G01 X197.906 Y123.160
G01 X198.203 Y123.266
G01 X199.162 Y123.422
G01 X200.124 Y123.632
G01 X201.088 Y123.898
G01 X202.031 Y124.213
G01 X203.145 Y124.403
G01 X204.268 Y124.665
G01 X205.396 Y125.001
G01 X205.859 Y125.160
G01 X207.215 Y125.409
G01 X208.582 Y125.755
G01 X209.688 Y126.107
G01 X211.369 Y126.441
G01 X213.062 Y126.907
G01 X213.516 Y127.055
G01 X215.605 Y127.500
G01 X217.344 Y128.002
G01 X219.923 Y128.586
G01 X221.172 Y128.949
G01 X224.322 Y129.698
G01 X225.000 Y129.896
G01 X222.766 Y132.261
G01 X222.266 Y132.738
G01 X220.449 Y134.701
G01 X219.531 Y135.580
G01 X218.070 Y137.198
G01 X216.797 Y138.421
G01 X215.630 Y139.750
G01 X214.400 Y140.960
G01 X214.063 Y141.263
G01 X213.129 Y142.356
G01 X212.148 Y143.361
G01 X211.328 Y144.105
G01 X210.568 Y145.016
G01 X209.771 Y145.863
G01 X208.942 Y146.645
G01 X208.594 Y146.946
G01 X207.951 Y147.730
G01 X207.277 Y148.467
G01 X206.574 Y149.157
G01 X205.859 Y149.788
G01 X205.280 Y150.499
G01 X204.669 Y151.177
G01 X204.029 Y151.821
G01 X203.361 Y152.429
G01 X203.125 Y152.629
G01 X202.556 Y153.329
G01 X201.950 Y154.003
G01 X201.308 Y154.649
G01 X200.631 Y155.266
G01 X200.391 Y155.471
G01 X199.776 Y156.223
G01 X199.112 Y156.952
G01 X198.401 Y157.653
G01 X197.656 Y158.313
G01 X196.935 Y159.182
G01 X196.146 Y160.024
G01 X195.291 Y160.833
G01 X194.922 Y161.154
G01 X194.029 Y162.204
G01 X193.045 Y163.215
G01 X192.187 Y163.996
G01 X191.058 Y165.286
G01 X189.807 Y166.519
G01 X189.453 Y166.838
G01 X188.022 Y168.425
G01 X186.719 Y169.679
G01 X184.923 Y171.621
G01 X183.984 Y172.521
G01 X181.761 Y174.875
G01 X181.250 Y175.363
G01 X180.421 Y171.907
G01 X180.338 Y171.469
G01 X179.634 Y168.666
G01 X179.427 Y167.575
G01 X178.832 Y165.333
G01 X178.516 Y163.680
G01 X178.015 Y161.905
G01 X177.659 Y160.141
G01 X177.604 Y159.786
G01 X177.184 Y158.386
G01 X176.869 Y156.995
G01 X176.693 Y155.892
G01 X176.338 Y154.777
G01 X176.061 Y153.667
G01 X175.858 Y152.566
G01 X175.781 Y151.998
G01 X175.478 Y151.081
G01 X175.231 Y150.163
G01 X175.037 Y149.249
G01 X174.898 Y148.340
G01 X174.870 Y148.104
G01 X174.600 Y147.300
G01 X174.372 Y146.489
G01 X174.186 Y145.674
G01 X174.042 Y144.856
G01 X173.958 Y144.210
G01 X173.696 Y143.433
G01 X173.472 Y142.641
G01 X173.286 Y141.836
G01 X173.140 Y141.018
G01 X173.047 Y140.316
G01 X172.765 Y139.475
G01 X172.526 Y138.607
G01 X172.331 Y137.714
G01 X172.182 Y136.800
G01 X172.135 Y136.422
G01 X171.810 Y135.418
G01 X171.541 Y134.373
G01 X171.332 Y133.292
G01 X171.224 Y132.528
G01 X170.835 Y131.260
G01 X170.526 Y129.937
G01 X170.312 Y128.633
G01 X169.844 Y127.004
G01 X169.490 Y125.303
G01 X169.401 Y124.739
G01 X168.838 Y122.651
G01 X168.490 Y120.845
G01 X167.817 Y118.203
G01 X167.578 Y116.951
G01 X166.781 Y113.661
G01 X166.667 Y113.057
G01 X169.683 Y114.072
G01 X170.313 Y114.320
G01 X172.802 Y115.128
G01 X173.958 Y115.583
G01 X175.995 Y116.217
G01 X177.604 Y116.846
G01 X179.263 Y117.337
G01 X180.842 Y117.933
G01 X181.250 Y118.109
G01 X182.604 Y118.490
G01 X183.899 Y118.949
G01 X184.896 Y119.372
G01 X186.017 Y119.673
G01 X187.097 Y120.033
G01 X188.131 Y120.449
G01 X188.542 Y120.635
G01 X189.501 Y120.884
G01 X190.433 Y121.181
G01 X191.335 Y121.522
G01 X192.188 Y121.898
G01 X193.057 Y122.121
G01 X193.910 Y122.385
G01 X194.745 Y122.690
G01 X195.559 Y123.034
G01 X195.833 Y123.161
G01 X196.688 Y123.379
G01 X197.535 Y123.641
G01 X198.373 Y123.946
G01 X199.199 Y124.294
G01 X199.479 Y124.424
G01 X200.399 Y124.661
G01 X201.318 Y124.952
G01 X202.234 Y125.296
G01 X203.125 Y125.687
G01 X204.193 Y125.970
G01 X205.264 Y126.326
G01 X206.334 Y126.753
G01 X206.771 Y126.949
G01 X208.069 Y127.312
G01 X209.371 Y127.771
G01 X210.417 Y128.212
G01 X212.025 Y128.687
G01 X213.634 Y129.292
G01 X214.062 Y129.475
G01 X216.059 Y130.095
G01 X217.708 Y130.738
G01 X220.170 Y131.537
G01 X221.354 Y132.001
G01 X224.357 Y133.011
G01 X225.000 Y133.264
G01 X222.613 Y135.369
G01 X222.083 Y135.790
G01 X220.139 Y137.542
G01 X219.167 Y138.316
G01 X217.600 Y139.763
G01 X216.250 Y140.842
G01 X214.995 Y142.033
G01 X213.689 Y143.103
G01 X213.333 Y143.368
G01 X212.326 Y144.350
G01 X211.281 Y145.242
G01 X210.417 Y145.894
G01 X209.595 Y146.714
G01 X208.744 Y147.469
G01 X207.866 Y148.157
G01 X207.500 Y148.420
G01 X206.804 Y149.126
G01 X206.081 Y149.785
G01 X205.335 Y150.395
G01 X204.583 Y150.946
G01 X203.956 Y151.587
G01 X203.300 Y152.194
G01 X202.619 Y152.764
G01 X201.914 Y153.297
G01 X201.667 Y153.472
G01 X201.050 Y154.103
G01 X200.400 Y154.705
G01 X199.717 Y155.278
G01 X199.002 Y155.819
G01 X198.750 Y155.997
G01 X198.084 Y156.676
G01 X197.373 Y157.326
G01 X196.617 Y157.947
G01 X195.833 Y158.523
G01 X195.053 Y159.306
G01 X194.210 Y160.056
G01 X193.305 Y160.769
G01 X192.917 Y161.049
G01 X191.954 Y161.993
G01 X190.905 Y162.890
G01 X190.000 Y163.575
G01 X188.785 Y164.731
G01 X187.457 Y165.822
G01 X187.083 Y166.101
G01 X185.548 Y167.520
G01 X184.167 Y168.627
G01 X182.244 Y170.360
G01 X181.250 Y171.153
G01 X178.874 Y173.248
G01 X178.333 Y173.679
G01 X177.830 Y170.243
G01 X177.786 Y169.785
G01 X177.348 Y166.999
G01 X177.240 Y165.891
G01 X176.858 Y163.661
G01 X176.693 Y161.996
G01 X176.362 Y160.231
G01 X176.170 Y158.489
G01 X176.146 Y158.102
G01 X175.860 Y156.709
G01 X175.676 Y155.332
G01 X175.599 Y154.208
G01 X175.353 Y153.097
G01 X175.180 Y151.997
G01 X175.078 Y150.912
G01 X175.052 Y150.314
G01 X174.838 Y149.398
G01 X174.678 Y148.486
G01 X174.570 Y147.582
G01 X174.513 Y146.688
G01 X174.505 Y146.420
G01 X174.313 Y145.615
G01 X174.162 Y144.806
G01 X174.053 Y143.996
G01 X173.984 Y143.187
G01 X173.958 Y142.526
G01 X173.771 Y141.745
G01 X173.621 Y140.951
G01 X173.511 Y140.147
G01 X173.440 Y139.334
G01 X173.411 Y138.632
G01 X173.210 Y137.781
G01 X173.052 Y136.908
G01 X172.940 Y136.014
G01 X172.876 Y135.101
G01 X172.865 Y134.738
G01 X172.633 Y133.719
G01 X172.462 Y132.665
G01 X172.354 Y131.580
G01 X172.318 Y130.844
G01 X172.047 Y129.556
G01 X171.862 Y128.220
G01 X171.771 Y126.949
G01 X171.454 Y125.294
G01 X171.258 Y123.579
G01 X171.224 Y123.055
G01 X170.855 Y120.937
G01 X170.677 Y119.161
G01 X170.250 Y116.484
G01 X170.130 Y115.267
G01 X169.638 Y111.938
G01 X169.583 Y111.373
G01 X172.452 Y112.649
G01 X173.047 Y112.952
G01 X175.417 Y113.976
G01 X176.510 Y114.530
G01 X178.452 Y115.342
G01 X179.974 Y116.109
G01 X181.558 Y116.746
G01 X183.054 Y117.477
G01 X183.438 Y117.688
G01 X184.732 Y118.187
G01 X185.962 Y118.758
G01 X186.901 Y119.266
G01 X187.975 Y119.666
G01 X189.001 Y120.120
G01 X189.979 Y120.625
G01 X190.365 Y120.845
G01 X191.284 Y121.179
G01 X192.172 Y121.557
G01 X193.025 Y121.976
G01 X193.828 Y122.424
G01 X194.662 Y122.723
G01 X195.475 Y123.062
G01 X196.266 Y123.439
G01 X197.034 Y123.852
G01 X197.292 Y124.003
G01 X198.111 Y124.296
G01 X198.919 Y124.632
G01 X199.713 Y125.010
G01 X200.492 Y125.428
G01 X200.755 Y125.581
G01 X201.637 Y125.900
G01 X202.513 Y126.270
G01 X203.380 Y126.694
G01 X204.219 Y127.160
G01 X205.242 Y127.538
G01 X206.260 Y127.986
G01 X207.271 Y128.505
G01 X207.682 Y128.739
G01 X208.924 Y129.215
G01 X210.160 Y129.787
G01 X211.146 Y130.317
G01 X212.682 Y130.932
G01 X214.205 Y131.676
G01 X214.609 Y131.896
G01 X216.513 Y132.690
G01 X218.073 Y133.475
G01 X220.417 Y134.487
G01 X221.537 Y135.053
G01 X224.392 Y136.323
G01 X225.000 Y136.632
G01 X222.460 Y138.479
G01 X221.901 Y138.842
G01 X219.829 Y140.382
G01 X218.802 Y141.053
G01 X217.129 Y142.328
G01 X215.703 Y143.263
G01 X214.360 Y144.316
G01 X212.979 Y145.246
G01 X212.604 Y145.473
G01 X211.524 Y146.344
G01 X210.415 Y147.123
G01 X209.505 Y147.683
G01 X208.622 Y148.413
G01 X207.716 Y149.075
G01 X206.790 Y149.669
G01 X206.406 Y149.893
G01 X205.657 Y150.522
G01 X204.886 Y151.102
G01 X204.097 Y151.632
G01 X203.307 Y152.103
G01 X202.631 Y152.675
G01 X201.931 Y153.210
G01 X201.209 Y153.707
G01 X200.467 Y154.165
G01 X200.208 Y154.313
G01 X199.544 Y154.876
G01 X198.850 Y155.408
G01 X198.126 Y155.907
G01 X197.374 Y156.372
G01 X197.109 Y156.524
G01 X196.393 Y157.128
G01 X195.634 Y157.701
G01 X194.834 Y158.240
G01 X194.010 Y158.734
G01 X193.172 Y159.431
G01 X192.274 Y160.089
G01 X191.319 Y160.705
G01 X190.911 Y160.944
G01 X189.878 Y161.781
G01 X188.765 Y162.565
G01 X187.813 Y163.154
G01 X186.512 Y164.177
G01 X185.106 Y165.125
G01 X184.714 Y165.364
G01 X183.074 Y166.616
G01 X181.615 Y167.575
G01 X179.566 Y169.098
G01 X178.516 Y169.785
G01 X175.988 Y171.623
G01 X175.417 Y171.995
G01 X175.236 Y168.585
G01 X175.234 Y168.101
G01 X175.057 Y165.335
G01 X175.052 Y164.207
G01 X174.880 Y161.993
G01 X174.870 Y160.313
G01 X174.705 Y158.558
G01 X174.675 Y156.839
G01 X174.687 Y156.418
G01 X174.534 Y155.032
G01 X174.477 Y153.671
G01 X174.505 Y152.524
G01 X174.365 Y151.416
G01 X174.295 Y150.326
G01 X174.293 Y149.256
G01 X174.323 Y148.630
G01 X174.197 Y147.715
G01 X174.122 Y146.808
G01 X174.097 Y145.913
G01 X174.121 Y145.032
G01 X174.141 Y144.736
G01 X174.025 Y143.928
G01 X173.950 Y143.120
G01 X173.916 Y142.315
G01 X173.922 Y141.513
G01 X173.958 Y140.842
G01 X173.845 Y140.054
G01 X173.770 Y139.257
G01 X173.735 Y138.453
G01 X173.740 Y137.644
G01 X173.776 Y136.948
G01 X173.654 Y136.086
G01 X173.579 Y135.205
G01 X173.551 Y134.307
G01 X173.573 Y133.395
G01 X173.594 Y133.054
G01 X173.458 Y132.018
G01 X173.386 Y130.952
G01 X173.380 Y129.861
G01 X173.411 Y129.160
G01 X173.262 Y127.850
G01 X173.203 Y126.500
G01 X173.229 Y125.265
G01 X173.068 Y123.583
G01 X173.034 Y121.852
G01 X173.047 Y121.371
G01 X172.877 Y119.222
G01 X172.865 Y117.477
G01 X172.688 Y114.766
G01 X172.682 Y113.583
G01 X172.502 Y110.217
G01 X172.500 Y109.689
G01 X175.221 Y111.227
G01 X175.781 Y111.584
G01 X178.031 Y112.825
G01 X179.062 Y113.478
G01 X180.909 Y114.467
G01 X182.344 Y115.372
G01 X183.852 Y116.154
G01 X185.265 Y117.022
G01 X185.625 Y117.267
G01 X186.860 Y117.885
G01 X188.024 Y118.568
G01 X188.906 Y119.161
G01 X189.932 Y119.660
G01 X190.906 Y120.207
G01 X191.826 Y120.800
G01 X192.188 Y121.056
G01 X193.067 Y121.474
G01 X193.910 Y121.933
G01 X194.716 Y122.429
G01 X195.469 Y122.950
G01 X196.266 Y123.326
G01 X197.039 Y123.740
G01 X197.788 Y124.188
G01 X198.509 Y124.671
G01 X198.750 Y124.845
G01 X199.534 Y125.214
G01 X200.302 Y125.623
G01 X201.053 Y126.073
G01 X201.785 Y126.562
G01 X202.031 Y126.739
G01 X202.874 Y127.139
G01 X203.707 Y127.589
G01 X204.526 Y128.091
G01 X205.313 Y128.633
G01 X206.290 Y129.105
G01 X207.257 Y129.647
G01 X208.209 Y130.257
G01 X208.594 Y130.528
G01 X209.779 Y131.118
G01 X210.948 Y131.803
G01 X211.875 Y132.422
G01 X213.338 Y133.178
G01 X214.777 Y134.060
G01 X215.156 Y134.317
G01 X216.967 Y135.285
G01 X218.438 Y136.211
G01 X220.663 Y137.438
G01 X221.719 Y138.106
G01 X224.427 Y139.636
G01 X225.000 Y140.000
G01 X222.307 Y141.587
G01 X221.719 Y141.894
G01 X219.519 Y143.223
G01 X218.438 Y143.789
G01 X216.658 Y144.893
G01 X215.156 Y145.683
G01 X213.725 Y146.599
G01 X212.267 Y147.388
G01 X211.875 Y147.578
G01 X210.722 Y148.338
G01 X209.548 Y149.004
G01 X208.594 Y149.472
G01 X207.649 Y150.111
G01 X206.688 Y150.681
G01 X205.714 Y151.181
G01 X205.313 Y151.367
G01 X204.510 Y151.919
G01 X203.691 Y152.420
G01 X202.859 Y152.869
G01 X202.031 Y153.261
G01 X201.307 Y153.763
G01 X200.562 Y154.227
G01 X199.799 Y154.650
G01 X199.021 Y155.033
G01 X198.750 Y155.155
G01 X198.038 Y155.650
G01 X197.299 Y156.110
G01 X196.534 Y156.536
G01 X195.745 Y156.925
G01 X195.469 Y157.050
G01 X194.701 Y157.580
G01 X193.894 Y158.076
G01 X193.050 Y158.534
G01 X192.188 Y158.944
G01 X191.290 Y159.555
G01 X190.338 Y160.121
G01 X189.333 Y160.640
G01 X188.906 Y160.839
G01 X187.803 Y161.570
G01 X186.625 Y162.241
G01 X185.625 Y162.733
G01 X184.239 Y163.622
G01 X182.756 Y164.428
G01 X182.344 Y164.628
G01 X180.600 Y165.711
G01 X179.063 Y166.522
G01 X176.887 Y167.836
G01 X175.781 Y168.416
G01 X173.102 Y169.996
G01 X172.500 Y170.311
G01 X172.636 Y166.932
G01 X172.682 Y166.417
G01 X172.762 Y163.675
G01 X172.865 Y162.523
G01 X172.898 Y160.326
G01 X173.047 Y158.629
G01 X173.046 Y156.885
G01 X173.173 Y155.189
G01 X173.229 Y154.735
G01 X173.205 Y153.354
G01 X173.274 Y152.009
G01 X173.411 Y150.840
G01 X173.375 Y149.735
G01 X173.405 Y148.653
G01 X173.501 Y147.598
G01 X173.594 Y146.946
G01 X173.554 Y146.030
G01 X173.563 Y145.126
G01 X173.621 Y144.239
G01 X173.726 Y143.369
G01 X173.776 Y143.052
G01 X173.737 Y142.240
G01 X173.738 Y141.431
G01 X173.778 Y140.628
G01 X173.859 Y139.832
G01 X173.958 Y139.158
G01 X173.919 Y138.362
G01 X173.919 Y137.559
G01 X173.959 Y136.753
G01 X174.040 Y135.945
G01 X174.141 Y135.264
G01 X174.100 Y134.388
G01 X174.108 Y133.498
G01 X174.166 Y132.594
G01 X174.274 Y131.682
G01 X174.323 Y131.370
G01 X174.285 Y130.315
G01 X174.314 Y129.237
G01 X174.413 Y128.139
G01 X174.505 Y127.476
G01 X174.480 Y126.142
G01 X174.549 Y124.778
G01 X174.687 Y123.582
G01 X174.685 Y121.872
G01 X174.816 Y120.126
G01 X174.870 Y119.688
G01 X174.903 Y117.508
G01 X175.052 Y115.793
G01 X175.133 Y113.049
G01 X175.235 Y111.899
G01 X175.372 Y108.497
G01 X175.417 Y108.005
G01 X177.989 Y109.805
G01 X178.516 Y110.215
G01 X180.646 Y111.673
G01 X181.615 Y112.425
G01 X183.366 Y113.592
G01 X184.714 Y114.636
G01 X186.147 Y115.562
G01 X187.476 Y116.566
G01 X187.813 Y116.846
G01 X188.988 Y117.583
G01 X190.086 Y118.378
G01 X190.911 Y119.056
G01 X191.889 Y119.653
G01 X192.810 Y120.294
G01 X193.673 Y120.976
G01 X194.010 Y121.266
G01 X194.849 Y121.770
G01 X195.649 Y122.309
G01 X196.407 Y122.883
G01 X197.109 Y123.476
G01 X197.870 Y123.929
G01 X198.604 Y124.417
G01 X199.309 Y124.938
G01 X199.984 Y125.490
G01 X200.208 Y125.686
G01 X200.956 Y126.131
G01 X201.685 Y126.615
G01 X202.393 Y127.137
G01 X203.078 Y127.696
G01 X203.307 Y127.897
G01 X204.112 Y128.377
G01 X204.901 Y128.908
G01 X205.672 Y129.489
G01 X206.406 Y130.107
G01 X207.338 Y130.673
G01 X208.253 Y131.307
G01 X209.146 Y132.010
G01 X209.505 Y132.317
G01 X210.633 Y133.022
G01 X211.737 Y133.819
G01 X212.604 Y134.527
G01 X213.995 Y135.424
G01 X215.349 Y136.444
G01 X215.703 Y136.737
G01 X217.420 Y137.880
G01 X218.802 Y138.948
G01 X220.910 Y140.388
G01 X221.901 Y141.158
G01 X224.462 Y142.949
G01 X225.000 Y143.368
G01 X222.154 Y144.696
G01 X221.537 Y144.946
G01 X219.209 Y146.063
G01 X218.073 Y146.525
G01 X216.187 Y147.458
G01 X214.609 Y148.104
G01 X213.090 Y148.882
G01 X211.557 Y149.531
G01 X211.146 Y149.683
G01 X209.920 Y150.332
G01 X208.682 Y150.885
G01 X207.682 Y151.261
G01 X206.676 Y151.810
G01 X205.660 Y152.287
G01 X204.638 Y152.693
G01 X204.219 Y152.840
G01 X203.363 Y153.315
G01 X202.496 Y153.737
G01 X201.620 Y154.107
G01 X200.755 Y154.419
G01 X199.983 Y154.851
G01 X199.193 Y155.243
G01 X198.390 Y155.593
G01 X197.574 Y155.901
G01 X197.292 Y155.997
G01 X196.533 Y156.423
G01 X195.749 Y156.813
G01 X194.943 Y157.165
G01 X194.117 Y157.478
G01 X193.828 Y157.576
G01 X193.009 Y158.033
G01 X192.155 Y158.451
G01 X191.267 Y158.827
G01 X190.365 Y159.155
G01 X189.408 Y159.679
G01 X188.402 Y160.154
G01 X187.347 Y160.576
G01 X186.901 Y160.733
G01 X185.727 Y161.358
G01 X184.485 Y161.916
G01 X183.438 Y162.312
G01 X181.966 Y163.068
G01 X180.405 Y163.731
G01 X179.974 Y163.891
G01 X178.126 Y164.807
G01 X176.511 Y165.470
G01 X174.209 Y166.574
G01 X173.047 Y167.048
G01 X170.216 Y168.370
G01 X169.583 Y168.627
G01 X170.029 Y165.280
G01 X170.130 Y164.733
G01 X170.461 Y162.015
G01 X170.677 Y160.839
G01 X170.912 Y158.659
G01 X171.224 Y156.945
G01 X171.383 Y155.213
G01 X171.664 Y153.539
G01 X171.771 Y153.051
G01 X171.873 Y151.676
G01 X172.065 Y150.344
G01 X172.318 Y149.157
G01 X172.383 Y148.052
G01 X172.513 Y146.977
G01 X172.705 Y145.935
G01 X172.865 Y145.262
G01 X172.910 Y144.343
G01 X173.003 Y143.442
G01 X173.142 Y142.560
G01 X173.327 Y141.700
G01 X173.411 Y141.368
G01 X173.448 Y140.550
G01 X173.524 Y139.738
G01 X173.640 Y138.936
G01 X173.795 Y138.144
G01 X173.958 Y137.474
G01 X173.993 Y136.668
G01 X174.069 Y135.858
G01 X174.186 Y135.049
G01 X174.344 Y134.240
G01 X174.505 Y133.580
G01 X174.547 Y132.689
G01 X174.640 Y131.788
G01 X174.784 Y130.878
G01 X174.982 Y129.963
G01 X175.052 Y129.686
G01 X175.114 Y128.611
G01 X175.247 Y127.519
G01 X175.452 Y126.413
G01 X175.599 Y125.792
G01 X175.700 Y124.435
G01 X175.901 Y123.055
G01 X176.146 Y121.898
G01 X176.307 Y120.162
G01 X176.606 Y118.401
G01 X176.693 Y118.004
G01 X176.934 Y115.795
G01 X177.240 Y114.109
G01 X177.581 Y111.335
G01 X177.787 Y110.215
G01 X178.248 Y106.783
G01 X178.333 Y106.321
G01 X180.758 Y108.383
G01 X181.250 Y108.847
G01 X183.261 Y110.521
G01 X184.167 Y111.373
G01 X185.823 Y112.717
G01 X187.083 Y113.899
G01 X188.441 Y114.971
G01 X189.687 Y116.110
G01 X190.000 Y116.425
G01 X191.116 Y117.281
G01 X192.148 Y118.188
G01 X192.917 Y118.951
G01 X193.846 Y119.647
G01 X194.715 Y120.382
G01 X195.521 Y121.152
G01 X195.833 Y121.477
G01 X196.632 Y122.065
G01 X197.387 Y122.686
G01 X198.097 Y123.337
G01 X198.750 Y124.003
G01 X199.475 Y124.532
G01 X200.169 Y125.094
G01 X200.830 Y125.687
G01 X201.459 Y126.309
G01 X201.667 Y126.529
G01 X202.379 Y127.049
G01 X203.069 Y127.606
G01 X203.733 Y128.200
G01 X204.371 Y128.830
G01 X204.583 Y129.054
G01 X205.350 Y129.616
G01 X206.095 Y130.227
G01 X206.817 Y130.887
G01 X207.500 Y131.580
G01 X208.386 Y132.240
G01 X209.249 Y132.968
G01 X210.084 Y133.762
G01 X210.417 Y134.106
G01 X211.488 Y134.925
G01 X212.526 Y135.834
G01 X213.333 Y136.632
G01 X214.651 Y137.669
G01 X215.920 Y138.828
G01 X216.250 Y139.158
G01 X217.874 Y140.474
G01 X219.167 Y141.684
G01 X221.156 Y143.339
G01 X222.083 Y144.210
G01 X224.497 Y146.262
G01 X225.000 Y146.736
G01 X222.002 Y147.805
G01 X221.354 Y147.999
G01 X218.899 Y148.903
G01 X217.708 Y149.262
G01 X215.716 Y150.024
G01 X214.062 Y150.525
G01 X212.455 Y151.165
G01 X210.846 Y151.674
G01 X210.417 Y151.788
G01 X209.117 Y152.326
G01 X207.816 Y152.766
G01 X206.771 Y153.051
G01 X205.703 Y153.508
G01 X204.632 Y153.892
G01 X203.562 Y154.206
G01 X203.125 Y154.313
G01 X202.217 Y154.711
G01 X201.301 Y155.054
G01 X200.382 Y155.344
G01 X199.479 Y155.576
G01 X198.658 Y155.939
G01 X197.824 Y156.259
G01 X196.980 Y156.536
G01 X196.128 Y156.769
G01 X195.833 Y156.839
G01 X195.027 Y157.197
G01 X194.199 Y157.515
G01 X193.352 Y157.793
G01 X192.488 Y158.031
G01 X192.188 Y158.102
G01 X191.318 Y158.485
G01 X190.416 Y158.825
G01 X189.484 Y159.121
G01 X188.542 Y159.365
G01 X187.527 Y159.803
G01 X186.466 Y160.186
G01 X185.361 Y160.512
G01 X184.896 Y160.628
G01 X183.651 Y161.147
G01 X182.344 Y161.591
G01 X181.250 Y161.891
G01 X179.693 Y162.514
G01 X178.055 Y163.033
G01 X177.604 Y163.154
G01 X175.652 Y163.903
G01 X173.959 Y164.417
G01 X171.531 Y165.313
G01 X170.313 Y165.680
G01 X167.329 Y166.744
G01 X166.667 Y166.943
G01 X167.415 Y163.629
G01 X167.578 Y163.049
G01 X168.155 Y160.355
G01 X168.490 Y159.155
G01 X168.922 Y156.991
G01 X169.401 Y155.261
G01 X169.717 Y153.538
G01 X170.149 Y151.884
G01 X170.313 Y151.367
G01 X170.540 Y149.996
G01 X170.852 Y148.676
G01 X171.224 Y147.473
G01 X171.390 Y146.368
G01 X171.618 Y145.298
G01 X171.905 Y144.266
G01 X172.135 Y143.578
G01 X172.265 Y142.655
G01 X172.441 Y141.753
G01 X172.663 Y140.875
G01 X172.927 Y140.023
G01 X173.047 Y139.684
G01 X173.159 Y138.858
G01 X173.312 Y138.042
G01 X173.503 Y137.238
G01 X173.733 Y136.448
G01 X173.958 Y135.790
G01 X174.069 Y134.972
G01 X174.221 Y134.154
G01 X174.416 Y133.340
G01 X174.653 Y132.530
G01 X174.870 Y131.896
G01 X174.996 Y130.989
G01 X175.175 Y130.076
G01 X175.408 Y129.159
G01 X175.697 Y128.241
G01 X175.781 Y128.002
G01 X175.946 Y126.908
G01 X176.184 Y125.801
G01 X176.499 Y124.688
G01 X176.693 Y124.108
G01 X176.923 Y122.728
G01 X177.259 Y121.334
G01 X177.604 Y120.214
G01 X177.931 Y118.453
G01 X178.402 Y116.680
G01 X178.516 Y116.320
G01 X178.968 Y114.085
G01 X179.427 Y112.426
G01 X180.034 Y109.626
G01 X180.339 Y108.531
G01 X181.127 Y105.075
G01 X181.250 Y104.637
G01 X183.527 Y106.961
G01 X183.985 Y107.479
G01 X185.877 Y109.370
G01 X186.719 Y110.320
G01 X188.280 Y111.843
G01 X189.453 Y113.162
G01 X190.736 Y114.379
G01 X191.898 Y115.654
G01 X192.188 Y116.004
G01 X193.244 Y116.979
G01 X194.211 Y117.998
G01 X194.922 Y118.846
G01 X195.804 Y119.640
G01 X196.620 Y120.469
G01 X197.369 Y121.327
G01 X197.656 Y121.687
G01 X198.415 Y122.360
G01 X199.126 Y123.062
G01 X199.788 Y123.791
G01 X200.391 Y124.529
G01 X201.079 Y125.135
G01 X201.733 Y125.772
G01 X202.352 Y126.436
G01 X202.934 Y127.127
G01 X203.125 Y127.370
G01 X203.802 Y127.966
G01 X204.452 Y128.597
G01 X205.073 Y129.264
G01 X205.664 Y129.964
G01 X205.859 Y130.212
G01 X206.587 Y130.855
G01 X207.289 Y131.546
G01 X207.963 Y132.284
G01 X208.594 Y133.054
G01 X209.435 Y133.808
G01 X210.246 Y134.628
G01 X211.021 Y135.514
G01 X211.328 Y135.895
G01 X212.342 Y136.828
G01 X213.315 Y137.850
G01 X214.063 Y138.737
G01 X215.308 Y139.915
G01 X216.492 Y141.213
G01 X216.797 Y141.579
G01 X218.328 Y143.069
G01 X219.531 Y144.420
G01 X221.403 Y146.290
G01 X222.266 Y147.262
G01 X224.532 Y149.575
G01 X225.000 Y150.103
G01 X221.850 Y150.913
G01 X221.172 Y151.051
G01 X218.588 Y151.744
G01 X217.344 Y151.998
G01 X215.245 Y152.589
G01 X213.516 Y152.945
G01 X211.820 Y153.448
G01 X210.135 Y153.816
G01 X209.688 Y153.893
G01 X208.315 Y154.320
G01 X206.949 Y154.647
G01 X205.859 Y154.840
G01 X204.731 Y155.206
G01 X203.605 Y155.498
G01 X202.487 Y155.718
G01 X202.031 Y155.787
G01 X201.070 Y156.107
G01 X200.106 Y156.372
G01 X199.143 Y156.581
G01 X198.203 Y156.734
G01 X197.334 Y157.027
G01 X196.455 Y157.276
G01 X195.570 Y157.479
G01 X194.681 Y157.637
G01 X194.375 Y157.681
G01 X193.521 Y157.970
G01 X192.649 Y158.217
G01 X191.761 Y158.422
G01 X190.860 Y158.583
G01 X190.547 Y158.628
G01 X189.626 Y158.937
G01 X188.676 Y159.200
G01 X187.700 Y159.414
G01 X186.719 Y159.576
G01 X185.645 Y159.927
G01 X184.529 Y160.219
G01 X183.375 Y160.448
G01 X182.891 Y160.523
G01 X181.576 Y160.935
G01 X180.204 Y161.266
G01 X179.063 Y161.470
G01 X177.420 Y161.959
G01 X175.704 Y162.336
G01 X175.234 Y162.417
G01 X173.178 Y162.998
G01 X171.406 Y163.365
G01 X168.852 Y164.051
G01 X167.578 Y164.312
G01 X164.443 Y165.118
G01 X163.750 Y165.259
G01 X164.796 Y161.975
G01 X165.026 Y161.365
G01 X165.844 Y158.693
G01 X166.302 Y157.471
G01 X166.928 Y155.321
G01 X167.578 Y153.577
G01 X168.048 Y151.861
G01 X168.629 Y150.225
G01 X168.854 Y149.682
G01 X169.205 Y148.313
G01 X169.637 Y147.003
G01 X170.130 Y145.788
G01 X170.396 Y144.681
G01 X170.722 Y143.614
G01 X171.104 Y142.590
G01 X171.406 Y141.894
G01 X171.620 Y140.965
G01 X171.880 Y140.061
G01 X172.184 Y139.185
G01 X172.529 Y138.338
G01 X172.682 Y138.000
G01 X172.871 Y137.165
G01 X173.100 Y136.343
G01 X173.369 Y135.536
G01 X173.675 Y134.747
G01 X173.958 Y134.106
G01 X174.146 Y133.275
G01 X174.376 Y132.448
G01 X174.650 Y131.627
G01 X174.967 Y130.816
G01 X175.234 Y130.212
G01 X175.446 Y129.289
G01 X175.714 Y128.363
G01 X176.038 Y127.439
G01 X176.419 Y126.519
G01 X176.510 Y126.318
G01 X176.779 Y125.204
G01 X177.126 Y124.084
G01 X177.552 Y122.965
G01 X177.786 Y122.424
G01 X178.149 Y121.022
G01 X178.622 Y119.616
G01 X179.063 Y118.530
G01 X179.558 Y116.746
G01 X180.203 Y114.963
G01 X180.338 Y114.636
G01 X181.004 Y112.380
G01 X181.614 Y110.742
G01 X182.488 Y107.922
G01 X182.890 Y106.847
G01 X184.008 Y103.374
G01 X184.166 Y102.953
G01 X186.295 Y105.538
G01 X186.719 Y106.111
G01 X188.491 Y108.218
G01 X189.271 Y109.268
G01 X190.737 Y110.968
G01 X191.823 Y112.425
G01 X193.031 Y113.788
G01 X194.109 Y115.199
G01 X194.375 Y115.583
G01 X195.372 Y116.677
G01 X196.273 Y117.808
G01 X196.927 Y118.740
G01 X197.761 Y119.633
G01 X198.524 Y120.556
G01 X199.216 Y121.503
G01 X199.479 Y121.898
G01 X200.197 Y122.655
G01 X200.864 Y123.438
G01 X201.479 Y124.245
G01 X202.031 Y125.055
G01 X202.684 Y125.738
G01 X203.298 Y126.449
G01 X203.873 Y127.186
G01 X204.409 Y127.946
G01 X204.583 Y128.212
G01 X205.225 Y128.883
G01 X205.836 Y129.589
G01 X206.414 Y130.327
G01 X206.957 Y131.098
G01 X207.135 Y131.370
G01 X207.825 Y132.094
G01 X208.484 Y132.865
G01 X209.109 Y133.682
G01 X209.687 Y134.527
G01 X210.483 Y135.375
G01 X211.242 Y136.289
G01 X211.959 Y137.266
G01 X212.240 Y137.685
G01 X213.197 Y138.731
G01 X214.104 Y139.866
G01 X214.792 Y140.842
G01 X215.964 Y142.161
G01 X217.064 Y143.597
G01 X217.344 Y143.999
G01 X218.782 Y145.664
G01 X219.896 Y147.157
G01 X221.649 Y149.240
G01 X222.448 Y150.314
G01 X224.567 Y152.887
G01 X225.000 Y153.472
G01 X221.696 Y154.022
G01 X220.990 Y154.103
G01 X218.278 Y154.584
G01 X216.979 Y154.734
G01 X214.774 Y155.154
G01 X212.969 Y155.366
G01 X211.185 Y155.731
G01 X209.424 Y155.959
G01 X208.958 Y155.997
G01 X207.512 Y156.314
G01 X206.083 Y156.529
G01 X204.948 Y156.629
G01 X203.757 Y156.904
G01 X202.577 Y157.104
G01 X201.411 Y157.230
G01 X200.938 Y157.260
G01 X199.923 Y157.503
G01 X198.911 Y157.689
G01 X197.905 Y157.819
G01 X196.927 Y157.892
G01 X196.009 Y158.115
G01 X195.087 Y158.292
G01 X194.161 Y158.422
G01 X193.235 Y158.505
G01 X192.917 Y158.523
G01 X192.015 Y158.744
G01 X191.099 Y158.920
G01 X190.170 Y159.051
G01 X189.231 Y159.136
G01 X188.906 Y159.155
G01 X187.934 Y159.390
G01 X186.937 Y159.575
G01 X185.917 Y159.708
G01 X184.896 Y159.786
G01 X183.763 Y160.051
G01 X182.593 Y160.251
G01 X181.389 Y160.384
G01 X180.885 Y160.418
G01 X179.500 Y160.724
G01 X178.064 Y160.941
G01 X176.875 Y161.049
G01 X175.147 Y161.405
G01 X173.354 Y161.640
G01 X172.865 Y161.681
G01 X170.704 Y162.094
G01 X168.854 Y162.312
G01 X166.173 Y162.789
G01 X164.844 Y162.944
G01 X161.556 Y163.492
G01 X160.833 Y163.575
G01 X161.653 Y161.628
G01 X162.474 Y159.681
G01 X163.294 Y157.734
G01 X164.115 Y155.787
G01 X164.935 Y153.840
G01 X165.755 Y151.893
G01 X166.487 Y150.135
G01 X166.575 Y149.946
G01 X167.219 Y148.378
G01 X167.396 Y147.999
G01 X167.962 Y146.601
G01 X168.216 Y146.052
G01 X168.715 Y144.802
G01 X169.036 Y144.105
G01 X169.479 Y142.981
G01 X169.857 Y142.157
G01 X170.253 Y141.139
G01 X170.677 Y140.210
G01 X171.038 Y139.275
G01 X171.442 Y138.376
G01 X171.497 Y138.263
G01 X171.832 Y137.390
G01 X172.207 Y136.545
G01 X172.318 Y136.316
G01 X172.635 Y135.483
G01 X172.992 Y134.672
G01 X173.138 Y134.369
G01 X173.448 Y133.554
G01 X173.798 Y132.756
G01 X173.958 Y132.422
G01 X174.271 Y131.602
G01 X174.625 Y130.795
G01 X174.779 Y130.475
G01 X175.102 Y129.627
G01 X175.473 Y128.788
G01 X175.599 Y128.528
G01 X175.944 Y127.629
G01 X176.344 Y126.736
G01 X176.419 Y126.581
G01 X176.797 Y125.607
G01 X177.238 Y124.638
G01 X177.239 Y124.634
G01 X177.660 Y123.561
G01 X178.060 Y122.687
G01 X178.534 Y121.493
G01 X178.880 Y120.740
G01 X179.419 Y119.401
G01 X179.701 Y118.793
G01 X180.316 Y117.287
G01 X180.521 Y116.846
G01 X181.224 Y115.150
G01 X181.341 Y114.899
G01 X182.143 Y112.991
G01 X182.162 Y112.952
G01 X182.982 Y111.005
G01 X183.802 Y109.058
G01 X184.622 Y107.111
G01 X185.442 Y105.164
G01 X186.263 Y103.216
G01 X187.083 Y101.269
G01 X188.268 Y103.006
G01 X189.453 Y104.743
G01 X190.638 Y106.479
G01 X191.823 Y108.216
G01 X193.008 Y109.952
G01 X194.193 Y111.689
G01 X195.303 Y113.307
G01 X195.377 Y113.425
G01 X196.382 Y114.875
G01 X196.563 Y115.162
G01 X197.472 Y116.463
G01 X197.747 Y116.898
G01 X198.573 Y118.070
G01 X198.932 Y118.635
G01 X199.686 Y119.695
G01 X200.117 Y120.372
G01 X200.809 Y121.338
G01 X201.302 Y122.108
G01 X201.944 Y123.000
G01 X202.487 Y123.845
G01 X203.091 Y124.680
G01 X203.644 Y125.535
G01 X203.672 Y125.581
G01 X204.250 Y126.378
G01 X204.782 Y127.196
G01 X204.857 Y127.318
G01 X205.420 Y128.094
G01 X205.944 Y128.894
G01 X206.042 Y129.055
G01 X206.604 Y129.828
G01 X207.128 Y130.630
G01 X207.227 Y130.791
G01 X207.799 Y131.580
G01 X208.336 Y132.404
G01 X208.411 Y132.528
G01 X209.008 Y133.352
G01 X209.568 Y134.217
G01 X209.596 Y134.264
G01 X210.230 Y135.142
G01 X210.781 Y136.001
G01 X211.463 Y136.953
G01 X211.966 Y137.737
G01 X212.710 Y138.783
G01 X213.151 Y139.474
G01 X213.968 Y140.632
G01 X214.336 Y141.210
G01 X215.239 Y142.501
G01 X215.521 Y142.947
G01 X216.520 Y144.390
G01 X216.706 Y144.684
G01 X217.814 Y146.299
G01 X217.891 Y146.420
G01 X219.076 Y148.156
G01 X220.260 Y149.893
G01 X221.445 Y151.629
G01 X222.630 Y153.366
G01 X223.815 Y155.103
G01 X225.000 Y156.840
G01 X222.904 Y156.997
G01 X220.807 Y157.155
G01 X218.711 Y157.313
G01 X216.615 Y157.471
G01 X214.518 Y157.629
G01 X212.422 Y157.787
G01 X210.466 Y157.939
G01 X210.325 Y157.945
G01 X208.567 Y158.089
G01 X208.229 Y158.102
G01 X206.648 Y158.239
G01 X206.133 Y158.260
G01 X204.705 Y158.390
G01 X204.036 Y158.418
G01 X202.742 Y158.541
G01 X201.940 Y158.576
G01 X200.757 Y158.692
G01 X199.844 Y158.734
G01 X198.750 Y158.844
G01 X197.747 Y158.892
G01 X196.722 Y158.997
G01 X195.705 Y159.048
G01 X195.651 Y159.050
G01 X194.672 Y159.152
G01 X193.697 Y159.204
G01 X193.555 Y159.207
G01 X192.601 Y159.308
G01 X191.646 Y159.360
G01 X191.458 Y159.365
G01 X190.508 Y159.465
G01 X189.551 Y159.518
G01 X189.362 Y159.523
G01 X188.392 Y159.625
G01 X187.410 Y159.677
G01 X187.266 Y159.681
G01 X186.254 Y159.786
G01 X185.225 Y159.838
G01 X185.169 Y159.839
G01 X184.092 Y159.948
G01 X183.073 Y159.997
G01 X181.908 Y160.112
G01 X180.977 Y160.155
G01 X179.700 Y160.276
G01 X178.880 Y160.312
G01 X177.469 Y160.441
G01 X176.784 Y160.470
G01 X175.215 Y160.607
G01 X174.688 Y160.628
G01 X172.938 Y160.772
G01 X172.591 Y160.786
G01 X170.638 Y160.938
G01 X170.495 Y160.944
G01 X168.398 Y161.102
G01 X166.302 Y161.260
G01 X164.206 Y161.417
G01 X162.110 Y161.576
G01 X160.013 Y161.733
G01 X157.917 Y161.891
G01 X158.919 Y159.944
G01 X159.922 Y157.997
G01 X160.924 Y156.050
G01 X161.927 Y154.103
G01 X162.930 Y152.156
G01 X163.932 Y150.209
G01 X164.823 Y148.460
G01 X164.935 Y148.262
G01 X165.720 Y146.702
G01 X165.938 Y146.315
G01 X166.630 Y144.922
G01 X166.940 Y144.368
G01 X167.553 Y143.120
G01 X167.943 Y142.421
G01 X168.488 Y141.297
G01 X168.945 Y140.473
G01 X169.436 Y139.453
G01 X169.948 Y138.526
G01 X170.396 Y137.588
G01 X170.886 Y136.689
G01 X170.950 Y136.580
G01 X171.367 Y135.701
G01 X171.823 Y134.855
G01 X171.953 Y134.633
G01 X172.350 Y133.793
G01 X172.785 Y132.979
G01 X172.956 Y132.685
G01 X173.344 Y131.862
G01 X173.772 Y131.060
G01 X173.958 Y130.738
G01 X174.350 Y129.909
G01 X174.784 Y129.097
G01 X174.961 Y128.791
G01 X175.367 Y127.933
G01 X175.822 Y127.088
G01 X175.964 Y126.844
G01 X176.397 Y125.934
G01 X176.886 Y125.035
G01 X176.966 Y124.897
G01 X177.439 Y123.911
G01 X177.969 Y122.950
G01 X178.493 Y121.866
G01 X178.971 Y121.003
G01 X179.562 Y119.797
G01 X179.974 Y119.056
G01 X180.643 Y117.706
G01 X180.977 Y117.109
G01 X181.738 Y115.592
G01 X181.979 Y115.162
G01 X182.846 Y113.456
G01 X182.982 Y113.215
G01 X183.967 Y111.298
G01 X183.984 Y111.268
G01 X184.987 Y109.321
G01 X185.990 Y107.374
G01 X186.992 Y105.427
G01 X187.995 Y103.480
G01 X188.997 Y101.533
G01 X190.000 Y99.586
G01 X191.094 Y101.480
G01 X192.188 Y103.374
G01 X193.281 Y105.269
G01 X194.375 Y107.163
G01 X195.469 Y109.058
G01 X196.563 Y110.952
G01 X197.588 Y112.718
G01 X197.656 Y112.846
G01 X198.585 Y114.429
G01 X198.750 Y114.741
G01 X199.592 Y116.162
G01 X199.844 Y116.635
G01 X200.609 Y117.915
G01 X200.937 Y118.530
G01 X201.636 Y119.688
G01 X202.031 Y120.424
G01 X202.674 Y121.481
G01 X203.125 Y122.319
G01 X203.722 Y123.294
G01 X204.219 Y124.213
G01 X204.780 Y125.127
G01 X205.287 Y126.057
G01 X205.313 Y126.107
G01 X205.850 Y126.979
G01 X206.339 Y127.870
G01 X206.406 Y128.002
G01 X206.930 Y128.851
G01 X207.411 Y129.722
G01 X207.500 Y129.896
G01 X208.022 Y130.743
G01 X208.504 Y131.616
G01 X208.594 Y131.791
G01 X209.126 Y132.654
G01 X209.619 Y133.551
G01 X209.688 Y133.685
G01 X210.242 Y134.587
G01 X210.755 Y135.528
G01 X210.781 Y135.580
G01 X211.370 Y136.541
G01 X211.875 Y137.474
G01 X212.508 Y138.515
G01 X212.969 Y139.369
G01 X213.659 Y140.511
G01 X214.063 Y141.263
G01 X214.820 Y142.529
G01 X215.156 Y143.158
G01 X215.992 Y144.567
G01 X216.250 Y145.052
G01 X217.175 Y146.627
G01 X217.344 Y146.946
G01 X218.367 Y148.708
G01 X218.437 Y148.841
G01 X219.531 Y150.735
G01 X220.625 Y152.630
G01 X221.719 Y154.524
G01 X222.812 Y156.418
G01 X223.906 Y158.313
G01 X225.000 Y160.208
G01 X222.812 Y160.207
G01 X220.625 Y160.207
G01 X218.437 Y160.207
G01 X216.250 Y160.207
G01 X214.062 Y160.207
G01 X211.875 Y160.207
G01 X209.833 Y160.213
G01 X209.687 Y160.207
G01 X207.852 Y160.220
G01 X207.500 Y160.207
G01 X205.848 Y160.226
G01 X205.313 Y160.207
G01 X203.822 Y160.230
G01 X203.125 Y160.207
G01 X201.772 Y160.233
G01 X200.938 Y160.207
G01 X199.701 Y160.235
G01 X198.750 Y160.207
G01 X197.607 Y160.236
G01 X196.563 Y160.207
G01 X195.490 Y160.237
G01 X194.431 Y160.210
G01 X194.375 Y160.207
G01 X193.352 Y160.237
G01 X192.336 Y160.215
G01 X192.187 Y160.207
G01 X191.190 Y160.237
G01 X190.195 Y160.217
G01 X190.000 Y160.207
G01 X189.006 Y160.237
G01 X188.009 Y160.217
G01 X187.812 Y160.207
G01 X186.798 Y160.237
G01 X185.776 Y160.215
G01 X185.625 Y160.207
G01 X184.567 Y160.237
G01 X183.495 Y160.210
G01 X183.437 Y160.207
G01 X182.311 Y160.236
G01 X181.250 Y160.207
G01 X180.032 Y160.235
G01 X179.063 Y160.207
G01 X177.728 Y160.233
G01 X176.875 Y160.207
G01 X175.400 Y160.230
G01 X174.687 Y160.207
G01 X173.049 Y160.226
G01 X172.500 Y160.207
G01 X170.674 Y160.220
G01 X170.312 Y160.207
G01 X168.274 Y160.213
G01 X168.125 Y160.207
G01 X165.938 Y160.207
G01 X163.750 Y160.207
G01 X161.562 Y160.207
G01 X159.375 Y160.207
G01 X157.188 Y160.207
G01 X155.000 Y160.207
G01 X156.185 Y158.260
G01 X157.370 Y156.313
G01 X158.555 Y154.366
G01 X159.740 Y152.419
G01 X160.925 Y150.472
G01 X162.109 Y148.525
G01 X163.158 Y146.784
G01 X163.294 Y146.578
G01 X164.221 Y145.023
G01 X164.479 Y144.631
G01 X165.299 Y143.240
G01 X165.664 Y142.684
G01 X166.391 Y141.436
G01 X166.849 Y140.737
G01 X167.498 Y139.611
G01 X168.034 Y138.790
G01 X168.619 Y137.765
G01 X169.219 Y136.843
G01 X169.755 Y135.899
G01 X170.332 Y135.000
G01 X170.404 Y134.896
G01 X170.903 Y134.011
G01 X171.442 Y133.163
G01 X171.589 Y132.948
G01 X172.066 Y132.102
G01 X172.581 Y131.284
G01 X172.773 Y131.001
G01 X173.241 Y130.170
G01 X173.749 Y129.363
G01 X173.958 Y129.054
G01 X174.430 Y128.216
G01 X174.946 Y127.398
G01 X175.143 Y127.107
G01 X175.633 Y126.240
G01 X176.172 Y125.390
G01 X176.328 Y125.160
G01 X176.850 Y124.240
G01 X177.429 Y123.336
G01 X177.513 Y123.213
G01 X178.081 Y122.217
G01 X178.698 Y121.266
G01 X179.328 Y120.172
G01 X179.883 Y119.319
G01 X180.590 Y118.103
G01 X181.068 Y117.372
G01 X181.867 Y116.012
G01 X182.253 Y115.425
G01 X183.160 Y113.899
G01 X183.437 Y113.478
G01 X184.468 Y111.765
G01 X184.622 Y111.531
G01 X185.791 Y109.608
G01 X185.807 Y109.584
G01 X186.992 Y107.637
G01 X188.177 Y105.690
G01 X189.362 Y103.743
G01 X190.547 Y101.796
G01 X191.732 Y99.849
G01 X192.916 Y97.902
G01 X193.919 Y99.954
G01 X194.922 Y102.006
G01 X195.924 Y104.058
G01 X196.927 Y106.111
G01 X197.930 Y108.163
G01 X198.932 Y110.215
G01 X199.873 Y112.129
G01 X199.935 Y112.268
