;  Created by Sandify
;  https://sandify.org
;  Version: 0.2.4
;
;  Machine type: Rectangular
;    Min X (mm): 0
;    Max X (mm): 380
;    Min Y (mm): 0
;    Max Y (mm): 280
;  Content type: shape
;  Layer:
;    Shape: FileImport
;    Name: Fractal2.thr
;    From file:: Fractal2.thr
;    Aspect Ratio: true
;    Comments: 
;    Visible: true
;    Initial width: 10
;    Initial height: 10
;    X offset: 0
;    Y offset: 0
;    Rotate (degrees): 0
;    Reverse path: false
;    Fine tuning:
;      Connect to next layer: line
;      Draw portion of path (%): 100
;      Backtrack at end (%): 0
;      Rotate starting point (%): 0
;  Reverse export path: false
;
; File name: 'Fractal2'
;

G01 X190.000 Y140.000
G01 X189.944 Y141.147
G01 X189.775 Y142.286
G01 X189.494 Y143.408
G01 X189.250 Y144.133
G01 X185.250 Y166.173
G01 X183.312 Y168.743
G01 X181.112 Y171.180
G01 X181.037 Y171.256
G01 X178.048 Y175.080
G01 X175.980 Y177.356
G01 X171.505 Y182.773
G01 X169.636 Y184.759
G01 X166.917 Y187.932
G01 X161.325 Y192.754
G01 X158.899 Y194.590
G01 X155.892 Y197.087
G01 X149.306 Y201.088
G01 X146.585 Y202.522
G01 X143.095 Y204.560
G01 X133.241 Y210.562
G01 X131.982 Y211.244
G01 X130.871 Y211.912
G01 X118.805 Y219.071
G01 X105.995 Y225.271
G01 X93.320 Y231.334
G01 X105.995 Y225.271
G01 X100.122 Y238.035
G01 X105.995 Y225.271
G01 X118.805 Y219.071
G01 X113.977 Y232.458
G01 X101.896 Y239.633
G01 X113.977 Y232.458
G01 X109.272 Y245.697
G01 X113.977 Y232.458
G01 X118.805 Y219.071
G01 X130.871 Y211.912
G01 X126.179 Y225.134
G01 X113.977 Y232.458
G01 X101.896 Y239.633
G01 X113.977 Y232.458
G01 X109.272 Y245.697
G01 X113.977 Y232.458
G01 X126.179 Y225.134
G01 X122.571 Y238.901
G01 X111.182 Y247.130
G01 X122.571 Y238.901
G01 X119.071 Y252.508
G01 X122.571 Y238.901
G01 X126.179 Y225.134
G01 X130.871 Y211.912
G01 X141.084 Y205.827
G01 X141.983 Y205.228
G01 X143.095 Y204.560
G01 X140.431 Y215.786
G01 X140.172 Y217.194
G01 X139.880 Y218.457
G01 X128.754 Y227.005
G01 X116.777 Y234.691
G01 X104.916 Y242.224
G01 X116.777 Y234.691
G01 X112.470 Y248.065
G01 X116.777 Y234.691
G01 X128.754 Y227.005
G01 X125.559 Y240.874
G01 X114.422 Y249.439
G01 X125.559 Y240.874
G01 X122.469 Y254.580
G01 X125.559 Y240.874
G01 X128.754 Y227.005
G01 X139.880 Y218.457
G01 X136.800 Y232.145
G01 X125.559 Y240.874
G01 X114.422 Y249.439
G01 X125.559 Y240.874
G01 X122.469 Y254.580
G01 X125.559 Y240.874
G01 X136.800 Y232.145
G01 X134.861 Y246.244
G01 X124.537 Y255.774
G01 X134.861 Y246.244
G01 X133.012 Y260.172
G01 X134.861 Y246.244
G01 X136.800 Y232.145
G01 X139.880 Y218.457
G01 X142.510 Y206.864
G01 X142.802 Y205.823
G01 X143.095 Y204.560
G01 X150.543 Y200.325
G01 X152.402 Y199.125
G01 X155.892 Y197.087
G01 X155.489 Y204.783
G01 X155.517 Y207.858
G01 X155.376 Y211.897
G01 X146.753 Y219.563
G01 X145.635 Y220.458
G01 X144.661 Y221.314
G01 X134.067 Y230.512
G01 X122.571 Y238.901
G01 X111.182 Y247.130
G01 X122.571 Y238.901
G01 X119.071 Y252.508
G01 X122.571 Y238.901
G01 X134.067 Y230.512
G01 X131.707 Y244.547
G01 X121.102 Y253.763
G01 X131.707 Y244.547
G01 X129.442 Y258.413
G01 X131.707 Y244.547
G01 X134.067 Y230.512
G01 X144.661 Y221.314
G01 X142.406 Y235.162
G01 X131.707 Y244.547
G01 X121.102 Y253.763
G01 X131.707 Y244.547
G01 X129.442 Y258.413
G01 X131.707 Y244.547
G01 X142.406 Y235.162
G01 X141.314 Y249.351
G01 X131.577 Y259.481
G01 X141.314 Y249.351
G01 X140.300 Y263.365
G01 X141.314 Y249.351
G01 X142.406 Y235.162
G01 X144.661 Y221.314
G01 X153.624 Y213.504
G01 X154.402 Y212.753
G01 X155.376 Y211.897
G01 X154.759 Y223.419
G01 X154.756 Y224.851
G01 X154.694 Y226.146
G01 X145.274 Y236.543
G01 X134.861 Y246.244
G01 X124.537 Y255.774
G01 X134.861 Y246.244
G01 X133.012 Y260.172
G01 X134.861 Y246.244
G01 X145.274 Y236.543
G01 X144.607 Y250.759
G01 X135.178 Y261.176
G01 X144.607 Y250.759
G01 X144.013 Y264.797
G01 X144.607 Y250.759
G01 X145.274 Y236.543
G01 X154.694 Y226.146
G01 X154.108 Y240.164
G01 X144.607 Y250.759
G01 X135.178 Y261.176
G01 X144.607 Y250.759
G01 X144.013 Y264.797
G01 X144.607 Y250.759
G01 X154.108 Y240.164
G01 X154.718 Y254.382
G01 X146.261 Y265.602
G01 X154.718 Y254.382
G01 X155.385 Y268.416
G01 X154.718 Y254.382
G01 X154.108 Y240.164
G01 X154.694 Y226.146
G01 X155.213 Y214.269
G01 X155.314 Y213.193
G01 X155.376 Y211.897
G01 X155.575 Y203.332
G01 X155.751 Y201.126
G01 X155.892 Y197.087
G01 X162.405 Y191.800
G01 X163.911 Y190.428
G01 X166.917 Y187.932
G01 X166.634 Y195.311
G01 X166.711 Y198.352
G01 X166.634 Y202.260
G01 X160.868 Y207.373
G01 X158.446 Y209.269
G01 X155.376 Y211.897
G01 X146.753 Y219.563
G01 X145.635 Y220.458
G01 X144.661 Y221.314
G01 X134.067 Y230.512
G01 X122.571 Y238.901
G01 X111.182 Y247.130
G01 X122.571 Y238.901
G01 X119.071 Y252.508
G01 X122.571 Y238.901
G01 X134.067 Y230.512
G01 X131.707 Y244.547
G01 X121.102 Y253.763
G01 X131.707 Y244.547
G01 X129.442 Y258.413
G01 X131.707 Y244.547
G01 X134.067 Y230.512
G01 X144.661 Y221.314
G01 X142.406 Y235.162
G01 X131.707 Y244.547
G01 X121.102 Y253.763
G01 X131.707 Y244.547
G01 X129.442 Y258.413
G01 X131.707 Y244.547
G01 X142.406 Y235.162
G01 X141.314 Y249.351
G01 X131.577 Y259.481
G01 X141.314 Y249.351
G01 X140.300 Y263.365
G01 X141.314 Y249.351
G01 X142.406 Y235.162
G01 X144.661 Y221.314
G01 X153.624 Y213.504
G01 X154.402 Y212.753
G01 X155.376 Y211.897
G01 X154.759 Y223.419
G01 X154.756 Y224.851
G01 X154.694 Y226.146
G01 X145.274 Y236.543
G01 X134.861 Y246.244
G01 X124.537 Y255.774
G01 X134.861 Y246.244
G01 X133.012 Y260.172
G01 X134.861 Y246.244
G01 X145.274 Y236.543
G01 X144.607 Y250.759
G01 X135.178 Y261.176
G01 X144.607 Y250.759
G01 X144.013 Y264.797
G01 X144.607 Y250.759
G01 X145.274 Y236.543
G01 X154.694 Y226.146
G01 X154.108 Y240.164
G01 X144.607 Y250.759
G01 X135.178 Y261.176
G01 X144.607 Y250.759
G01 X144.013 Y264.797
G01 X144.607 Y250.759
G01 X154.108 Y240.164
G01 X154.718 Y254.382
G01 X146.261 Y265.602
G01 X154.718 Y254.382
G01 X155.385 Y268.416
G01 X154.718 Y254.382
G01 X154.108 Y240.164
G01 X154.694 Y226.146
G01 X155.213 Y214.269
G01 X155.314 Y213.193
G01 X155.376 Y211.897
G01 X161.949 Y206.401
G01 X163.563 Y204.888
G01 X166.634 Y202.260
G01 X167.612 Y209.904
G01 X168.188 Y212.925
G01 X168.770 Y216.924
G01 X161.654 Y226.007
G01 X160.715 Y227.087
G01 X159.909 Y228.103
G01 X151.128 Y239.045
G01 X141.314 Y249.351
G01 X131.577 Y259.481
G01 X141.314 Y249.351
G01 X140.300 Y263.365
G01 X141.314 Y249.351
G01 X151.128 Y239.045
G01 X151.312 Y253.275
G01 X142.523 Y264.237
G01 X151.312 Y253.275
G01 X151.559 Y267.323
G01 X151.312 Y253.275
G01 X151.128 Y239.045
G01 X159.909 Y228.103
G01 X160.163 Y242.131
G01 X151.312 Y253.275
G01 X142.523 Y264.237
G01 X151.312 Y253.275
G01 X151.559 Y267.323
G01 X151.312 Y253.275
G01 X160.163 Y242.131
G01 X161.621 Y256.287
G01 X153.851 Y267.993
G01 X161.621 Y256.287
G01 X163.127 Y270.257
G01 X161.621 Y256.287
G01 X160.163 Y242.131
G01 X159.909 Y228.103
G01 X167.333 Y218.818
G01 X167.965 Y217.940
G01 X168.770 Y216.924
G01 X170.221 Y228.371
G01 X170.473 Y229.780
G01 X170.643 Y231.066
G01 X163.231 Y242.978
G01 X154.718 Y254.382
G01 X146.261 Y265.602
G01 X154.718 Y254.382
G01 X155.385 Y268.416
G01 X154.718 Y254.382
G01 X163.231 Y242.978
G01 X165.113 Y257.084
G01 X157.696 Y269.017
G01 X165.113 Y257.084
G01 X167.035 Y271.002
G01 X165.113 Y257.084
G01 X163.231 Y242.978
G01 X170.643 Y231.066
G01 X172.570 Y244.963
G01 X165.113 Y257.084
G01 X157.696 Y269.017
G01 X165.113 Y257.084
G01 X167.035 Y271.002
G01 X165.113 Y257.084
G01 X172.570 Y244.963
G01 X175.709 Y258.844
G01 X169.391 Y271.394
G01 X175.709 Y258.844
G01 X178.871 Y272.534
G01 X175.709 Y258.844
G01 X172.570 Y244.963
G01 X170.643 Y231.066
G01 X169.033 Y219.287
G01 X168.941 Y218.210
G01 X168.770 Y216.924
G01 X167.437 Y208.461
G01 X167.216 Y206.259
G01 X166.634 Y202.260
G01 X166.706 Y193.871
G01 X166.840 Y191.839
G01 X166.917 Y187.932
G01 X172.424 Y181.605
G01 X173.261 Y180.529
G01 X175.980 Y177.356
G01 X175.786 Y184.380
G01 X175.887 Y187.105
G01 X175.847 Y191.283
G01 X171.205 Y197.026
G01 X169.146 Y199.266
G01 X166.634 Y202.260
G01 X160.868 Y207.373
G01 X158.446 Y209.269
G01 X155.376 Y211.897
G01 X146.753 Y219.563
G01 X145.635 Y220.458
G01 X144.661 Y221.314
G01 X134.067 Y230.512
G01 X122.571 Y238.901
G01 X111.182 Y247.130
G01 X122.571 Y238.901
G01 X119.071 Y252.508
G01 X122.571 Y238.901
G01 X134.067 Y230.512
G01 X131.707 Y244.547
G01 X121.102 Y253.763
G01 X131.707 Y244.547
G01 X129.442 Y258.413
G01 X131.707 Y244.547
G01 X134.067 Y230.512
G01 X144.661 Y221.314
G01 X142.406 Y235.162
G01 X131.707 Y244.547
G01 X121.102 Y253.763
G01 X131.707 Y244.547
G01 X129.442 Y258.413
G01 X131.707 Y244.547
G01 X142.406 Y235.162
G01 X141.314 Y249.351
G01 X131.577 Y259.481
G01 X141.314 Y249.351
G01 X140.300 Y263.365
G01 X141.314 Y249.351
G01 X142.406 Y235.162
G01 X144.661 Y221.314
G01 X153.624 Y213.504
G01 X154.402 Y212.753
G01 X155.376 Y211.897
G01 X154.759 Y223.419
G01 X154.756 Y224.851
G01 X154.694 Y226.146
G01 X145.274 Y236.543
G01 X134.861 Y246.244
G01 X124.537 Y255.774
G01 X134.861 Y246.244
G01 X133.012 Y260.172
G01 X134.861 Y246.244
G01 X145.274 Y236.543
G01 X144.607 Y250.759
G01 X135.178 Y261.176
G01 X144.607 Y250.759
G01 X144.013 Y264.797
G01 X144.607 Y250.759
G01 X145.274 Y236.543
G01 X154.694 Y226.146
G01 X154.108 Y240.164
G01 X144.607 Y250.759
G01 X135.178 Y261.176
G01 X144.607 Y250.759
G01 X144.013 Y264.797
G01 X144.607 Y250.759
G01 X154.108 Y240.164
G01 X154.718 Y254.382
G01 X146.261 Y265.602
G01 X154.718 Y254.382
G01 X155.385 Y268.416
G01 X154.718 Y254.382
G01 X154.108 Y240.164
G01 X154.694 Y226.146
G01 X155.213 Y214.269
G01 X155.314 Y213.193
G01 X155.376 Y211.897
G01 X161.949 Y206.401
G01 X163.563 Y204.888
G01 X166.634 Y202.260
G01 X167.612 Y209.904
G01 X168.188 Y212.925
G01 X168.770 Y216.924
G01 X161.654 Y226.007
G01 X160.715 Y227.087
G01 X159.909 Y228.103
G01 X151.128 Y239.045
G01 X141.314 Y249.351
G01 X131.577 Y259.481
G01 X141.314 Y249.351
G01 X140.300 Y263.365
G01 X141.314 Y249.351
G01 X151.128 Y239.045
G01 X151.312 Y253.275
G01 X142.523 Y264.237
G01 X151.312 Y253.275
G01 X151.559 Y267.323
G01 X151.312 Y253.275
G01 X151.128 Y239.045
G01 X159.909 Y228.103
G01 X160.163 Y242.131
G01 X151.312 Y253.275
G01 X142.523 Y264.237
G01 X151.312 Y253.275
G01 X151.559 Y267.323
G01 X151.312 Y253.275
G01 X160.163 Y242.131
G01 X161.621 Y256.287
G01 X153.851 Y267.993
G01 X161.621 Y256.287
G01 X163.127 Y270.257
G01 X161.621 Y256.287
G01 X160.163 Y242.131
G01 X159.909 Y228.103
G01 X167.333 Y218.818
G01 X167.965 Y217.940
G01 X168.770 Y216.924
G01 X170.221 Y228.371
G01 X170.473 Y229.780
G01 X170.643 Y231.066
G01 X163.231 Y242.978
G01 X154.718 Y254.382
G01 X146.261 Y265.602
G01 X154.718 Y254.382
G01 X155.385 Y268.416
G01 X154.718 Y254.382
G01 X163.231 Y242.978
G01 X165.113 Y257.084
G01 X157.696 Y269.017
G01 X165.113 Y257.084
G01 X167.035 Y271.002
G01 X165.113 Y257.084
G01 X163.231 Y242.978
G01 X170.643 Y231.066
G01 X172.570 Y244.963
G01 X165.113 Y257.084
G01 X157.696 Y269.017
G01 X165.113 Y257.084
G01 X167.035 Y271.002
G01 X165.113 Y257.084
G01 X172.570 Y244.963
G01 X175.709 Y258.844
G01 X169.391 Y271.394
G01 X175.709 Y258.844
G01 X178.871 Y272.534
G01 X175.709 Y258.844
G01 X172.570 Y244.963
G01 X170.643 Y231.066
G01 X169.033 Y219.287
G01 X168.941 Y218.210
G01 X168.770 Y216.924
G01 X167.437 Y208.461
G01 X167.216 Y206.259
G01 X166.634 Y202.260
G01 X172.098 Y195.895
G01 X173.334 Y194.276
G01 X175.847 Y191.283
G01 X176.885 Y198.594
G01 X177.504 Y201.573
G01 X178.126 Y205.431
G01 X173.366 Y211.492
G01 X171.322 Y213.790
G01 X168.770 Y216.924
G01 X161.654 Y226.007
G01 X160.715 Y227.087
G01 X159.909 Y228.103
G01 X151.128 Y239.045
G01 X141.314 Y249.351
G01 X131.577 Y259.481
G01 X141.314 Y249.351
G01 X140.300 Y263.365
G01 X141.314 Y249.351
G01 X151.128 Y239.045
G01 X151.312 Y253.275
G01 X142.523 Y264.237
G01 X151.312 Y253.275
G01 X151.559 Y267.323
G01 X151.312 Y253.275
G01 X151.128 Y239.045
G01 X159.909 Y228.103
G01 X160.163 Y242.131
G01 X151.312 Y253.275
G01 X142.523 Y264.237
G01 X151.312 Y253.275
G01 X151.559 Y267.323
G01 X151.312 Y253.275
G01 X160.163 Y242.131
G01 X161.621 Y256.287
G01 X153.851 Y267.993
G01 X161.621 Y256.287
G01 X163.127 Y270.257
G01 X161.621 Y256.287
G01 X160.163 Y242.131
G01 X159.909 Y228.103
G01 X167.333 Y218.818
G01 X167.965 Y217.940
G01 X168.770 Y216.924
G01 X170.221 Y228.371
G01 X170.473 Y229.780
G01 X170.643 Y231.066
G01 X163.231 Y242.978
G01 X154.718 Y254.382
G01 X146.261 Y265.602
G01 X154.718 Y254.382
G01 X155.385 Y268.416
G01 X154.718 Y254.382
G01 X163.231 Y242.978
G01 X165.113 Y257.084
G01 X157.696 Y269.017
G01 X165.113 Y257.084
G01 X167.035 Y271.002
G01 X165.113 Y257.084
G01 X163.231 Y242.978
G01 X170.643 Y231.066
G01 X172.570 Y244.963
G01 X165.113 Y257.084
G01 X157.696 Y269.017
G01 X165.113 Y257.084
G01 X167.035 Y271.002
G01 X165.113 Y257.084
G01 X172.570 Y244.963
G01 X175.709 Y258.844
G01 X169.391 Y271.394
G01 X175.709 Y258.844
G01 X178.871 Y272.534
G01 X175.709 Y258.844
G01 X172.570 Y244.963
G01 X170.643 Y231.066
G01 X169.033 Y219.287
G01 X168.941 Y218.210
G01 X168.770 Y216.924
G01 X174.256 Y210.343
G01 X175.574 Y208.566
G01 X178.126 Y205.431
G01 X180.453 Y212.778
G01 X181.559 Y215.648
G01 X182.847 Y219.479
G01 X177.467 Y229.686
G01 X176.735 Y230.916
G01 X176.124 Y232.060
G01 X169.438 Y244.394
G01 X161.621 Y256.287
G01 X153.851 Y267.993
G01 X161.621 Y256.287
G01 X163.127 Y270.257
G01 X161.621 Y256.287
G01 X169.438 Y244.394
G01 X172.160 Y258.363
G01 X165.469 Y270.718
G01 X172.160 Y258.363
G01 X174.911 Y272.141
G01 X172.160 Y258.363
G01 X169.438 Y244.394
G01 X176.124 Y232.060
G01 X178.878 Y245.817
G01 X172.160 Y258.363
G01 X165.469 Y270.718
G01 X172.160 Y258.363
G01 X174.911 Y272.141
G01 X172.160 Y258.363
G01 X178.878 Y245.817
G01 X182.841 Y259.486
G01 X177.286 Y272.391
G01 X182.841 Y259.486
G01 X186.817 Y272.962
G01 X182.841 Y259.486
G01 X178.878 Y245.817
G01 X176.124 Y232.060
G01 X181.771 Y221.599
G01 X182.236 Y220.623
G01 X182.847 Y219.479
G01 X186.318 Y230.482
G01 X186.818 Y231.824
G01 X187.215 Y233.058
G01 X182.049 Y246.102
G01 X175.709 Y258.844
G01 X169.391 Y271.394
G01 X175.709 Y258.844
G01 X178.871 Y272.534
G01 X175.709 Y258.844
G01 X182.049 Y246.102
G01 X186.419 Y259.646
G01 X181.252 Y272.712
G01 X186.419 Y259.646
G01 X190.796 Y272.998
G01 X186.419 Y259.646
G01 X182.049 Y246.102
G01 X187.215 Y233.058
G01 X191.592 Y246.388
G01 X186.419 Y259.646
G01 X181.252 Y272.712
G01 X186.419 Y259.646
G01 X190.796 Y272.998
G01 X186.419 Y259.646
G01 X191.592 Y246.388
G01 X197.159 Y259.486
G01 X193.183 Y272.962
G01 X197.159 Y259.486
G01 X202.714 Y272.391
G01 X197.159 Y259.486
G01 X191.592 Y246.388
G01 X187.215 Y233.058
G01 X183.527 Y221.757
G01 X183.244 Y220.713
G01 X182.847 Y219.479
G01 X180.024 Y211.389
G01 X179.413 Y209.262
G01 X178.126 Y205.431
G01 X176.699 Y197.165
G01 X176.468 Y195.142
G01 X175.847 Y191.283
G01 X175.863 Y182.895
G01 X175.940 Y181.534
G01 X175.980 Y177.356
G01 X179.216 Y173.671
G01 X181.037 Y171.256
G01 X183.245 Y168.824
G01 X185.192 Y166.257
G01 X185.250 Y166.173
G01 X186.162 Y169.260
G01 X187.366 Y172.314
G01 X187.409 Y172.412
G01 X188.863 Y177.043
G01 X190.000 Y179.900
G01 X187.713 Y186.544
G01 X186.662 Y189.060
G01 X185.231 Y192.986
G01 X181.690 Y199.466
G01 X180.064 Y202.037
G01 X178.126 Y205.431
G01 X173.366 Y211.492
G01 X171.322 Y213.790
G01 X168.770 Y216.924
G01 X161.654 Y226.007
G01 X160.715 Y227.087
G01 X159.909 Y228.103
G01 X151.128 Y239.045
G01 X141.314 Y249.351
G01 X131.577 Y259.481
G01 X141.314 Y249.351
G01 X140.300 Y263.365
G01 X141.314 Y249.351
G01 X151.128 Y239.045
G01 X151.312 Y253.275
G01 X142.523 Y264.237
G01 X151.312 Y253.275
G01 X151.559 Y267.323
G01 X151.312 Y253.275
G01 X151.128 Y239.045
G01 X159.909 Y228.103
G01 X160.163 Y242.131
G01 X151.312 Y253.275
G01 X142.523 Y264.237
G01 X151.312 Y253.275
G01 X151.559 Y267.323
G01 X151.312 Y253.275
G01 X160.163 Y242.131
G01 X161.621 Y256.287
G01 X153.851 Y267.993
G01 X161.621 Y256.287
G01 X163.127 Y270.257
G01 X161.621 Y256.287
G01 X160.163 Y242.131
G01 X159.909 Y228.103
G01 X167.333 Y218.818
G01 X167.965 Y217.940
G01 X168.770 Y216.924
G01 X170.221 Y228.371
G01 X170.473 Y229.780
G01 X170.643 Y231.066
G01 X163.231 Y242.978
G01 X154.718 Y254.382
G01 X146.261 Y265.602
G01 X154.718 Y254.382
G01 X155.385 Y268.416
G01 X154.718 Y254.382
G01 X163.231 Y242.978
G01 X165.113 Y257.084
G01 X157.696 Y269.017
G01 X165.113 Y257.084
G01 X167.035 Y271.002
G01 X165.113 Y257.084
G01 X163.231 Y242.978
G01 X170.643 Y231.066
G01 X172.570 Y244.963
G01 X165.113 Y257.084
G01 X157.696 Y269.017
G01 X165.113 Y257.084
G01 X167.035 Y271.002
G01 X165.113 Y257.084
G01 X172.570 Y244.963
G01 X175.709 Y258.844
G01 X169.391 Y271.394
G01 X175.709 Y258.844
G01 X178.871 Y272.534
G01 X175.709 Y258.844
G01 X172.570 Y244.963
G01 X170.643 Y231.066
G01 X169.033 Y219.287
G01 X168.941 Y218.210
G01 X168.770 Y216.924
G01 X174.256 Y210.343
G01 X175.574 Y208.566
G01 X178.126 Y205.431
G01 X180.453 Y212.778
G01 X181.559 Y215.648
G01 X182.847 Y219.479
G01 X177.467 Y229.686
G01 X176.735 Y230.916
G01 X176.124 Y232.060
G01 X169.438 Y244.394
G01 X161.621 Y256.287
G01 X153.851 Y267.993
G01 X161.621 Y256.287
G01 X163.127 Y270.257
G01 X161.621 Y256.287
G01 X169.438 Y244.394
G01 X172.160 Y258.363
G01 X165.469 Y270.718
G01 X172.160 Y258.363
G01 X174.911 Y272.141
G01 X172.160 Y258.363
G01 X169.438 Y244.394
G01 X176.124 Y232.060
G01 X178.878 Y245.817
G01 X172.160 Y258.363
G01 X165.469 Y270.718
G01 X172.160 Y258.363
G01 X174.911 Y272.141
G01 X172.160 Y258.363
G01 X178.878 Y245.817
G01 X182.841 Y259.486
G01 X177.286 Y272.391
G01 X182.841 Y259.486
G01 X186.817 Y272.962
G01 X182.841 Y259.486
G01 X178.878 Y245.817
G01 X176.124 Y232.060
G01 X181.771 Y221.599
G01 X182.236 Y220.623
G01 X182.847 Y219.479
G01 X186.318 Y230.482
G01 X186.818 Y231.824
G01 X187.215 Y233.058
G01 X182.049 Y246.102
G01 X175.709 Y258.844
G01 X169.391 Y271.394
G01 X175.709 Y258.844
G01 X178.871 Y272.534
G01 X175.709 Y258.844
G01 X182.049 Y246.102
G01 X186.419 Y259.646
G01 X181.252 Y272.712
G01 X186.419 Y259.646
G01 X190.796 Y272.998
G01 X186.419 Y259.646
G01 X182.049 Y246.102
G01 X187.215 Y233.058
G01 X191.592 Y246.388
G01 X186.419 Y259.646
G01 X181.252 Y272.712
G01 X186.419 Y259.646
G01 X190.796 Y272.998
G01 X186.419 Y259.646
G01 X191.592 Y246.388
G01 X197.159 Y259.486
G01 X193.183 Y272.962
G01 X197.159 Y259.486
G01 X202.714 Y272.391
G01 X197.159 Y259.486
G01 X191.592 Y246.388
G01 X187.215 Y233.058
G01 X183.527 Y221.757
G01 X183.244 Y220.713
G01 X182.847 Y219.479
G01 X180.024 Y211.389
G01 X179.413 Y209.262
G01 X178.126 Y205.431
G01 X182.366 Y198.193
G01 X183.293 Y196.380
G01 X185.231 Y192.986
G01 X187.559 Y199.994
G01 X188.699 Y202.814
G01 X190.000 Y206.500
G01 X186.398 Y213.313
G01 X184.798 Y215.939
G01 X182.847 Y219.479
G01 X177.467 Y229.686
G01 X176.735 Y230.916
G01 X176.124 Y232.060
G01 X169.438 Y244.394
G01 X161.621 Y256.287
G01 X153.851 Y267.993
G01 X161.621 Y256.287
G01 X163.127 Y270.257
G01 X161.621 Y256.287
G01 X169.438 Y244.394
G01 X172.160 Y258.363
G01 X165.469 Y270.718
G01 X172.160 Y258.363
G01 X174.911 Y272.141
G01 X172.160 Y258.363
G01 X169.438 Y244.394
G01 X176.124 Y232.060
G01 X178.878 Y245.817
G01 X172.160 Y258.363
G01 X165.469 Y270.718
G01 X172.160 Y258.363
G01 X174.911 Y272.141
G01 X172.160 Y258.363
G01 X178.878 Y245.817
G01 X182.841 Y259.486
G01 X177.286 Y272.391
G01 X182.841 Y259.486
G01 X186.817 Y272.962
G01 X182.841 Y259.486
G01 X178.878 Y245.817
G01 X176.124 Y232.060
G01 X181.771 Y221.599
G01 X182.236 Y220.623
G01 X182.847 Y219.479
G01 X186.318 Y230.482
G01 X186.818 Y231.824
G01 X187.215 Y233.058
G01 X182.049 Y246.102
G01 X175.709 Y258.844
G01 X169.391 Y271.394
G01 X175.709 Y258.844
G01 X178.871 Y272.534
G01 X175.709 Y258.844
G01 X182.049 Y246.102
G01 X186.419 Y259.646
G01 X181.252 Y272.712
G01 X186.419 Y259.646
G01 X190.796 Y272.998
G01 X186.419 Y259.646
G01 X182.049 Y246.102
G01 X187.215 Y233.058
G01 X191.592 Y246.388
G01 X186.419 Y259.646
G01 X181.252 Y272.712
G01 X186.419 Y259.646
G01 X190.796 Y272.998
G01 X186.419 Y259.646
G01 X191.592 Y246.388
G01 X197.159 Y259.486
G01 X193.183 Y272.962
G01 X197.159 Y259.486
G01 X202.714 Y272.391
G01 X197.159 Y259.486
G01 X191.592 Y246.388
G01 X187.215 Y233.058
G01 X183.527 Y221.757
G01 X183.244 Y220.713
G01 X182.847 Y219.479
G01 X187.069 Y212.024
G01 X188.049 Y210.040
G01 X190.000 Y206.500
G01 X193.602 Y213.313
G01 X195.202 Y215.939
G01 X197.153 Y219.479
G01 X193.682 Y230.482
G01 X193.182 Y231.824
G01 X192.785 Y233.058
G01 X188.408 Y246.388
G01 X182.841 Y259.486
G01 X177.286 Y272.391
G01 X182.841 Y259.486
G01 X186.817 Y272.962
G01 X182.841 Y259.486
G01 X188.408 Y246.388
G01 X193.581 Y259.646
G01 X189.204 Y272.998
G01 X193.581 Y259.646
G01 X198.748 Y272.712
G01 X193.581 Y259.646
G01 X188.408 Y246.388
G01 X192.785 Y233.058
G01 X197.951 Y246.102
G01 X193.581 Y259.646
G01 X189.204 Y272.998
G01 X193.581 Y259.646
G01 X198.748 Y272.712
G01 X193.581 Y259.646
G01 X197.951 Y246.102
G01 X204.291 Y258.844
G01 X201.129 Y272.534
G01 X204.291 Y258.844
G01 X210.609 Y271.394
G01 X204.291 Y258.844
G01 X197.951 Y246.102
G01 X192.785 Y233.058
G01 X196.473 Y221.757
G01 X196.756 Y220.713
G01 X197.153 Y219.479
G01 X202.533 Y229.686
G01 X203.265 Y230.916
G01 X203.876 Y232.060
G01 X201.122 Y245.817
G01 X197.159 Y259.486
G01 X193.183 Y272.962
G01 X197.159 Y259.486
G01 X202.714 Y272.391
G01 X197.159 Y259.486
G01 X201.122 Y245.817
G01 X207.840 Y258.363
G01 X205.089 Y272.141
G01 X207.840 Y258.363
G01 X214.531 Y270.718
G01 X207.840 Y258.363
G01 X201.122 Y245.817
G01 X203.876 Y232.060
G01 X210.562 Y244.394
G01 X207.840 Y258.363
G01 X205.089 Y272.141
G01 X207.840 Y258.363
G01 X214.531 Y270.718
G01 X207.840 Y258.363
G01 X210.562 Y244.394
G01 X218.379 Y256.287
G01 X216.873 Y270.257
G01 X218.379 Y256.287
G01 X226.149 Y267.993
G01 X218.379 Y256.287
G01 X210.562 Y244.394
G01 X203.876 Y232.060
G01 X198.229 Y221.599
G01 X197.764 Y220.623
G01 X197.153 Y219.479
G01 X192.931 Y212.024
G01 X191.951 Y210.040
G01 X190.000 Y206.500
G01 X187.120 Y198.621
G01 X186.532 Y196.672
G01 X185.231 Y192.986
G01 X188.164 Y185.128
G01 X188.569 Y183.826
G01 X190.000 Y179.900
G01 X192.287 Y186.544
G01 X193.338 Y189.060
G01 X194.769 Y192.986
G01 X192.441 Y199.994
G01 X191.301 Y202.814
G01 X190.000 Y206.500
G01 X186.398 Y213.313
G01 X184.798 Y215.939
G01 X182.847 Y219.479
G01 X177.467 Y229.686
G01 X176.735 Y230.916
G01 X176.124 Y232.060
G01 X169.438 Y244.394
G01 X161.621 Y256.287
G01 X153.851 Y267.993
G01 X161.621 Y256.287
G01 X163.127 Y270.257
G01 X161.621 Y256.287
G01 X169.438 Y244.394
G01 X172.160 Y258.363
G01 X165.469 Y270.718
G01 X172.160 Y258.363
G01 X174.911 Y272.141
G01 X172.160 Y258.363
G01 X169.438 Y244.394
G01 X176.124 Y232.060
G01 X178.878 Y245.817
G01 X172.160 Y258.363
G01 X165.469 Y270.718
G01 X172.160 Y258.363
G01 X174.911 Y272.141
G01 X172.160 Y258.363
G01 X178.878 Y245.817
G01 X182.841 Y259.486
G01 X177.286 Y272.391
G01 X182.841 Y259.486
G01 X186.817 Y272.962
G01 X182.841 Y259.486
G01 X178.878 Y245.817
G01 X176.124 Y232.060
G01 X181.771 Y221.599
G01 X182.236 Y220.623
G01 X182.847 Y219.479
G01 X186.318 Y230.482
G01 X186.818 Y231.824
G01 X187.215 Y233.058
G01 X182.049 Y246.102
G01 X175.709 Y258.844
G01 X169.391 Y271.394
G01 X175.709 Y258.844
G01 X178.871 Y272.534
G01 X175.709 Y258.844
G01 X182.049 Y246.102
G01 X186.419 Y259.646
G01 X181.252 Y272.712
G01 X186.419 Y259.646
G01 X190.796 Y272.998
G01 X186.419 Y259.646
G01 X182.049 Y246.102
G01 X187.215 Y233.058
G01 X191.592 Y246.388
G01 X186.419 Y259.646
G01 X181.252 Y272.712
G01 X186.419 Y259.646
G01 X190.796 Y272.998
G01 X186.419 Y259.646
G01 X191.592 Y246.388
G01 X197.159 Y259.486
G01 X193.183 Y272.962
G01 X197.159 Y259.486
G01 X202.714 Y272.391
G01 X197.159 Y259.486
G01 X191.592 Y246.388
G01 X187.215 Y233.058
G01 X183.527 Y221.757
G01 X183.244 Y220.713
G01 X182.847 Y219.479
G01 X187.069 Y212.024
G01 X188.049 Y210.040
G01 X190.000 Y206.500
G01 X193.602 Y213.313
G01 X195.202 Y215.939
G01 X197.153 Y219.479
G01 X193.682 Y230.482
G01 X193.182 Y231.824
G01 X192.785 Y233.058
G01 X188.408 Y246.388
G01 X182.841 Y259.486
G01 X177.286 Y272.391
G01 X182.841 Y259.486
G01 X186.817 Y272.962
G01 X182.841 Y259.486
G01 X188.408 Y246.388
G01 X193.581 Y259.646
G01 X189.204 Y272.998
G01 X193.581 Y259.646
G01 X198.748 Y272.712
G01 X193.581 Y259.646
G01 X188.408 Y246.388
G01 X192.785 Y233.058
G01 X197.951 Y246.102
G01 X193.581 Y259.646
G01 X189.204 Y272.998
G01 X193.581 Y259.646
G01 X198.748 Y272.712
G01 X193.581 Y259.646
G01 X197.951 Y246.102
G01 X204.291 Y258.844
G01 X201.129 Y272.534
G01 X204.291 Y258.844
G01 X210.609 Y271.394
G01 X204.291 Y258.844
G01 X197.951 Y246.102
G01 X192.785 Y233.058
G01 X196.473 Y221.757
G01 X196.756 Y220.713
G01 X197.153 Y219.479
G01 X202.533 Y229.686
G01 X203.265 Y230.916
G01 X203.876 Y232.060
G01 X201.122 Y245.817
G01 X197.159 Y259.486
G01 X193.183 Y272.962
G01 X197.159 Y259.486
G01 X202.714 Y272.391
G01 X197.159 Y259.486
G01 X201.122 Y245.817
G01 X207.840 Y258.363
G01 X205.089 Y272.141
G01 X207.840 Y258.363
G01 X214.531 Y270.718
G01 X207.840 Y258.363
G01 X201.122 Y245.817
G01 X203.876 Y232.060
G01 X210.562 Y244.394
G01 X207.840 Y258.363
G01 X205.089 Y272.141
G01 X207.840 Y258.363
G01 X214.531 Y270.718
G01 X207.840 Y258.363
G01 X210.562 Y244.394
G01 X218.379 Y256.287
G01 X216.873 Y270.257
G01 X218.379 Y256.287
G01 X226.149 Y267.993
G01 X218.379 Y256.287
G01 X210.562 Y244.394
G01 X203.876 Y232.060
G01 X198.229 Y221.599
G01 X197.764 Y220.623
G01 X197.153 Y219.479
G01 X192.931 Y212.024
G01 X191.951 Y210.040
G01 X190.000 Y206.500
G01 X192.880 Y198.621
G01 X193.468 Y196.672
G01 X194.769 Y192.986
G01 X198.310 Y199.466
G01 X199.936 Y202.037
G01 X201.874 Y205.431
G01 X199.547 Y212.778
G01 X198.441 Y215.648
G01 X197.153 Y219.479
G01 X193.682 Y230.482
G01 X193.182 Y231.824
G01 X192.785 Y233.058
G01 X188.408 Y246.388
G01 X182.841 Y259.486
G01 X177.286 Y272.391
G01 X182.841 Y259.486
G01 X186.817 Y272.962
G01 X182.841 Y259.486
G01 X188.408 Y246.388
G01 X193.581 Y259.646
G01 X189.204 Y272.998
G01 X193.581 Y259.646
G01 X198.748 Y272.712
G01 X193.581 Y259.646
G01 X188.408 Y246.388
G01 X192.785 Y233.058
G01 X197.951 Y246.102
G01 X193.581 Y259.646
G01 X189.204 Y272.998
G01 X193.581 Y259.646
G01 X198.748 Y272.712
G01 X193.581 Y259.646
G01 X197.951 Y246.102
G01 X204.291 Y258.844
G01 X201.129 Y272.534
G01 X204.291 Y258.844
G01 X210.609 Y271.394
G01 X204.291 Y258.844
G01 X197.951 Y246.102
G01 X192.785 Y233.058
G01 X196.473 Y221.757
G01 X196.756 Y220.713
G01 X197.153 Y219.479
G01 X202.533 Y229.686
G01 X203.265 Y230.916
G01 X203.876 Y232.060
G01 X201.122 Y245.817
G01 X197.159 Y259.486
G01 X193.183 Y272.962
G01 X197.159 Y259.486
G01 X202.714 Y272.391
G01 X197.159 Y259.486
G01 X201.122 Y245.817
G01 X207.840 Y258.363
G01 X205.089 Y272.141
G01 X207.840 Y258.363
G01 X214.531 Y270.718
G01 X207.840 Y258.363
G01 X201.122 Y245.817
G01 X203.876 Y232.060
G01 X210.562 Y244.394
G01 X207.840 Y258.363
G01 X205.089 Y272.141
G01 X207.840 Y258.363
G01 X214.531 Y270.718
G01 X207.840 Y258.363
G01 X210.562 Y244.394
G01 X218.379 Y256.287
G01 X216.873 Y270.257
G01 X218.379 Y256.287
G01 X226.149 Y267.993
G01 X218.379 Y256.287
G01 X210.562 Y244.394
G01 X203.876 Y232.060
G01 X198.229 Y221.599
G01 X197.764 Y220.623
G01 X197.153 Y219.479
G01 X199.976 Y211.389
G01 X200.587 Y209.262
G01 X201.874 Y205.431
G01 X206.634 Y211.492
G01 X208.678 Y213.790
G01 X211.230 Y216.924
G01 X209.779 Y228.371
G01 X209.527 Y229.780
G01 X209.357 Y231.066
G01 X207.430 Y244.963
G01 X204.291 Y258.844
G01 X201.129 Y272.534
G01 X204.291 Y258.844
G01 X210.609 Y271.394
G01 X204.291 Y258.844
G01 X207.430 Y244.963
G01 X214.887 Y257.084
G01 X212.965 Y271.002
G01 X214.887 Y257.084
G01 X222.304 Y269.017
G01 X214.887 Y257.084
G01 X207.430 Y244.963
G01 X209.357 Y231.066
G01 X216.769 Y242.978
G01 X214.887 Y257.084
G01 X212.965 Y271.002
G01 X214.887 Y257.084
G01 X222.304 Y269.017
G01 X214.887 Y257.084
G01 X216.769 Y242.978
G01 X225.282 Y254.382
G01 X224.615 Y268.416
G01 X225.282 Y254.382
G01 X233.739 Y265.602
G01 X225.282 Y254.382
G01 X216.769 Y242.978
G01 X209.357 Y231.066
G01 X210.967 Y219.287
G01 X211.059 Y218.210
G01 X211.230 Y216.924
G01 X218.346 Y226.007
G01 X219.285 Y227.087
G01 X220.091 Y228.103
G01 X219.837 Y242.131
G01 X218.379 Y256.287
G01 X216.873 Y270.257
G01 X218.379 Y256.287
G01 X226.149 Y267.993
G01 X218.379 Y256.287
G01 X219.837 Y242.131
G01 X228.688 Y253.275
G01 X228.441 Y267.323
G01 X228.688 Y253.275
G01 X237.477 Y264.237
G01 X228.688 Y253.275
G01 X219.837 Y242.131
G01 X220.091 Y228.103
G01 X228.872 Y239.045
G01 X228.688 Y253.275
G01 X228.441 Y267.323
G01 X228.688 Y253.275
G01 X237.477 Y264.237
G01 X228.688 Y253.275
G01 X228.872 Y239.045
G01 X238.686 Y249.351
G01 X239.700 Y263.365
G01 X238.686 Y249.351
G01 X248.423 Y259.481
G01 X238.686 Y249.351
G01 X228.872 Y239.045
G01 X220.091 Y228.103
G01 X212.667 Y218.818
G01 X212.035 Y217.940
G01 X211.230 Y216.924
G01 X205.744 Y210.343
G01 X204.426 Y208.566
G01 X201.874 Y205.431
G01 X197.634 Y198.193
G01 X196.707 Y196.380
G01 X194.769 Y192.986
G01 X191.836 Y185.128
G01 X191.431 Y183.826
G01 X190.000 Y179.900
G01 X188.265 Y175.313
G01 X187.409 Y172.412
G01 X186.196 Y169.359
G01 X185.275 Y166.273
G01 X185.250 Y166.173
G01 X189.750 Y141.378
G01 X189.834 Y141.263
G01 X189.907 Y141.144
G01 X189.967 Y141.021
G01 X190.015 Y140.895
G01 X190.051 Y140.767
G01 X190.074 Y140.638
G01 X190.084 Y140.509
G01 X190.082 Y140.381
G01 X190.068 Y140.254
G01 X190.042 Y140.130
G01 X190.004 Y140.010
G01 X190.000 Y140.000
G01 X190.022 Y140.050
G01 X190.049 Y140.098
G01 X190.081 Y140.144
G01 X190.117 Y140.186
G01 X190.157 Y140.225
G01 X190.202 Y140.261
G01 X190.250 Y140.292
G01 X190.302 Y140.319
G01 X190.357 Y140.342
G01 X190.415 Y140.360
G01 X190.475 Y140.373
G01 X190.538 Y140.381
G01 X190.602 Y140.384
G01 X190.668 Y140.381
G01 X190.735 Y140.373
G01 X190.802 Y140.359
G01 X190.870 Y140.339
G01 X190.938 Y140.314
G01 X191.005 Y140.282
G01 X191.071 Y140.245
G01 X191.136 Y140.201
G01 X191.199 Y140.152
G01 X191.260 Y140.097
G01 X191.318 Y140.037
G01 X191.373 Y139.971
G01 X191.399 Y139.937
G01 X216.573 Y138.807
G01 X219.511 Y140.124
G01 X222.376 Y141.727
G01 X222.467 Y141.784
G01 X226.860 Y143.846
G01 X229.539 Y145.356
G01 X235.816 Y148.514
G01 X238.168 Y149.893
G01 X241.866 Y151.838
G01 X247.812 Y156.217
G01 X250.142 Y158.174
G01 X253.245 Y160.550
G01 X258.612 Y166.080
G01 X260.615 Y168.414
G01 X263.378 Y171.363
G01 X271.423 Y179.634
G01 X272.368 Y180.710
G01 X273.267 Y181.645
G01 X282.931 Y191.816
G01 X291.826 Y202.924
G01 X300.558 Y213.932
G01 X291.826 Y202.924
G01 X305.577 Y205.810
G01 X291.826 Y202.924
G01 X282.931 Y191.816
G01 X297.057 Y193.543
G01 X306.740 Y203.724
G01 X297.057 Y193.543
G01 X311.011 Y195.184
G01 X297.057 Y193.543
G01 X282.931 Y191.816
G01 X273.267 Y181.645
G01 X287.201 Y183.277
G01 X297.057 Y193.543
G01 X306.740 Y203.724
G01 X297.057 Y193.543
G01 X311.011 Y195.184
G01 X297.057 Y193.543
G01 X287.201 Y183.277
G01 X301.426 Y183.731
G01 X311.982 Y193.003
G01 X301.426 Y183.731
G01 X315.471 Y184.115
G01 X301.426 Y183.731
G01 X287.201 Y183.277
G01 X273.267 Y181.645
G01 X265.062 Y173.042
G01 X264.277 Y172.298
G01 X263.378 Y171.363
G01 X274.916 Y171.463
G01 X276.346 Y171.402
G01 X277.643 Y171.405
G01 X288.452 Y180.350
G01 X298.611 Y190.317
G01 X308.594 Y200.203
G01 X298.611 Y190.317
G01 X312.608 Y191.540
G01 X298.611 Y190.317
G01 X288.452 Y180.350
G01 X302.684 Y180.378
G01 X313.513 Y189.330
G01 X302.684 Y180.378
G01 X316.734 Y180.342
G01 X302.684 Y180.378
G01 X288.452 Y180.350
G01 X277.643 Y171.405
G01 X291.673 Y171.362
G01 X302.684 Y180.378
G01 X313.513 Y189.330
G01 X302.684 Y180.378
G01 X316.734 Y180.342
G01 X302.684 Y180.378
G01 X291.673 Y171.362
G01 X305.850 Y170.115
G01 X317.438 Y178.060
G01 X305.850 Y170.115
G01 X319.840 Y168.819
G01 X305.850 Y170.115
G01 X291.673 Y171.362
G01 X277.643 Y171.405
G01 X265.755 Y171.420
G01 X264.675 Y171.367
G01 X263.378 Y171.363
G01 X257.593 Y165.044
G01 X256.009 Y163.499
G01 X253.245 Y160.550
G01 X260.838 Y159.230
G01 X263.830 Y158.519
G01 X267.799 Y157.757
G01 X277.192 Y164.459
G01 X278.313 Y165.349
G01 X279.364 Y166.108
G01 X290.689 Y174.390
G01 X301.426 Y183.731
G01 X311.982 Y193.003
G01 X301.426 Y183.731
G01 X315.471 Y184.115
G01 X301.426 Y183.731
G01 X290.689 Y174.390
G01 X304.897 Y173.567
G01 X316.242 Y181.855
G01 X304.897 Y173.567
G01 X318.920 Y172.690
G01 X304.897 Y173.567
G01 X290.689 Y174.390
G01 X279.364 Y166.108
G01 X293.367 Y165.225
G01 X304.897 Y173.567
G01 X316.242 Y181.855
G01 X304.897 Y173.567
G01 X318.920 Y172.690
G01 X304.897 Y173.567
G01 X293.367 Y165.225
G01 X307.443 Y163.133
G01 X319.486 Y170.371
G01 X307.443 Y163.133
G01 X321.331 Y161.002
G01 X307.443 Y163.133
G01 X293.367 Y165.225
G01 X279.364 Y166.108
G01 X269.756 Y159.108
G01 X268.851 Y158.516
G01 X267.799 Y157.757
G01 X279.169 Y155.795
G01 X280.566 Y155.479
G01 X281.842 Y155.251
G01 X294.075 Y162.122
G01 X305.850 Y170.115
G01 X317.438 Y178.060
G01 X305.850 Y170.115
G01 X319.840 Y168.819
G01 X305.850 Y170.115
G01 X294.075 Y162.122
G01 X308.083 Y159.609
G01 X320.337 Y166.483
G01 X308.083 Y159.609
G01 X321.901 Y157.064
G01 X308.083 Y159.609
G01 X294.075 Y162.122
G01 X281.842 Y155.251
G01 X295.639 Y152.704
G01 X308.083 Y159.609
G01 X320.337 Y166.483
G01 X308.083 Y159.609
G01 X321.901 Y157.064
G01 X308.083 Y159.609
G01 X295.639 Y152.704
G01 X309.365 Y148.945
G01 X322.186 Y154.694
G01 X309.365 Y148.945
G01 X322.899 Y145.172
G01 X309.365 Y148.945
G01 X295.639 Y152.704
G01 X281.842 Y155.251
G01 X270.148 Y157.389
G01 X269.076 Y157.529
G01 X267.799 Y157.757
G01 X259.404 Y159.469
G01 X257.215 Y159.788
G01 X253.245 Y160.550
G01 X246.642 Y155.376
G01 X244.970 Y154.214
G01 X241.866 Y151.838
G01 X249.123 Y150.473
G01 X252.071 Y149.721
G01 X255.898 Y148.927
G01 X262.166 Y153.410
G01 X264.553 Y155.349
G01 X267.799 Y157.757
G01 X277.192 Y164.459
G01 X278.313 Y165.349
G01 X279.364 Y166.108
G01 X290.689 Y174.390
G01 X301.426 Y183.731
G01 X311.982 Y193.003
G01 X301.426 Y183.731
G01 X315.471 Y184.115
G01 X301.426 Y183.731
G01 X290.689 Y174.390
G01 X304.897 Y173.567
G01 X316.242 Y181.855
G01 X304.897 Y173.567
G01 X318.920 Y172.690
G01 X304.897 Y173.567
G01 X290.689 Y174.390
G01 X279.364 Y166.108
G01 X293.367 Y165.225
G01 X304.897 Y173.567
G01 X316.242 Y181.855
G01 X304.897 Y173.567
G01 X318.920 Y172.690
G01 X304.897 Y173.567
G01 X293.367 Y165.225
G01 X307.443 Y163.133
G01 X319.486 Y170.371
G01 X307.443 Y163.133
G01 X321.331 Y161.002
G01 X307.443 Y163.133
G01 X293.367 Y165.225
G01 X279.364 Y166.108
G01 X269.756 Y159.108
G01 X268.851 Y158.516
G01 X267.799 Y157.757
G01 X279.169 Y155.795
G01 X280.566 Y155.479
G01 X281.842 Y155.251
G01 X294.075 Y162.122
G01 X305.850 Y170.115
G01 X317.438 Y178.060
G01 X305.850 Y170.115
G01 X319.840 Y168.819
G01 X305.850 Y170.115
G01 X294.075 Y162.122
G01 X308.083 Y159.609
G01 X320.337 Y166.483
G01 X308.083 Y159.609
G01 X321.901 Y157.064
G01 X308.083 Y159.609
G01 X294.075 Y162.122
G01 X281.842 Y155.251
G01 X295.639 Y152.704
G01 X308.083 Y159.609
G01 X320.337 Y166.483
G01 X308.083 Y159.609
G01 X321.901 Y157.064
G01 X308.083 Y159.609
G01 X295.639 Y152.704
G01 X309.365 Y148.945
G01 X322.186 Y154.694
G01 X309.365 Y148.945
G01 X322.899 Y145.172
G01 X309.365 Y148.945
G01 X295.639 Y152.704
G01 X281.842 Y155.251
G01 X270.148 Y157.389
G01 X269.076 Y157.529
G01 X267.799 Y157.757
G01 X260.978 Y152.572
G01 X259.144 Y151.335
G01 X255.898 Y148.927
G01 X263.133 Y146.272
G01 X265.950 Y145.038
G01 X269.720 Y143.580
G01 X280.158 Y148.497
G01 X281.420 Y149.172
G01 X282.590 Y149.732
G01 X295.212 Y155.858
G01 X307.443 Y163.133
G01 X319.486 Y170.371
G01 X307.443 Y163.133
G01 X321.331 Y161.002
G01 X307.443 Y163.133
G01 X295.212 Y155.858
G01 X309.044 Y152.512
G01 X321.687 Y158.641
G01 X309.044 Y152.512
G01 X322.685 Y149.145
G01 X309.044 Y152.512
G01 X295.212 Y155.858
G01 X282.590 Y149.732
G01 X296.210 Y146.363
G01 X309.044 Y152.512
G01 X321.687 Y158.641
G01 X309.044 Y152.512
G01 X322.685 Y149.145
G01 X309.044 Y152.512
G01 X296.210 Y146.363
G01 X309.687 Y141.791
G01 X322.828 Y146.762
G01 X309.687 Y141.791
G01 X322.971 Y137.215
G01 X309.687 Y141.791
G01 X296.210 Y146.363
G01 X282.590 Y149.732
G01 X271.886 Y144.560
G01 X270.890 Y144.139
G01 X269.720 Y143.580
G01 X280.557 Y139.619
G01 X281.874 Y139.059
G01 X283.090 Y138.607
G01 X296.352 Y143.183
G01 X309.365 Y148.945
G01 X322.186 Y154.694
G01 X309.365 Y148.945
G01 X322.899 Y145.172
G01 X309.365 Y148.945
G01 X296.352 Y143.183
G01 X309.687 Y138.209
G01 X322.971 Y142.785
G01 X309.687 Y138.209
G01 X322.828 Y133.238
G01 X309.687 Y138.209
G01 X296.352 Y143.183
G01 X283.090 Y138.607
G01 X296.210 Y133.637
G01 X309.687 Y138.209
G01 X322.971 Y142.785
G01 X309.687 Y138.209
G01 X322.828 Y133.238
G01 X309.687 Y138.209
G01 X296.210 Y133.637
G01 X309.044 Y127.488
G01 X322.685 Y130.855
G01 X309.044 Y127.488
G01 X321.687 Y121.359
G01 X309.044 Y127.488
G01 X296.210 Y133.637
G01 X283.090 Y138.607
G01 X271.965 Y142.798
G01 X270.935 Y143.128
G01 X269.720 Y143.580
G01 X261.765 Y146.763
G01 X259.668 Y147.468
G01 X255.898 Y148.927
G01 X247.704 Y150.723
G01 X245.693 Y151.044
G01 X241.866 Y151.838
G01 X234.473 Y147.877
G01 X233.237 Y147.301
G01 X229.539 Y145.356
G01 X236.430 Y143.982
G01 X239.064 Y143.278
G01 X243.146 Y142.387
G01 X249.779 Y145.634
G01 X252.420 Y147.143
G01 X255.898 Y148.927
G01 X262.166 Y153.410
G01 X264.553 Y155.349
G01 X267.799 Y157.757
G01 X277.192 Y164.459
G01 X278.313 Y165.349
G01 X279.364 Y166.108
G01 X290.689 Y174.390
G01 X301.426 Y183.731
G01 X311.982 Y193.003
G01 X301.426 Y183.731
G01 X315.471 Y184.115
G01 X301.426 Y183.731
G01 X290.689 Y174.390
G01 X304.897 Y173.567
G01 X316.242 Y181.855
G01 X304.897 Y173.567
G01 X318.920 Y172.690
G01 X304.897 Y173.567
G01 X290.689 Y174.390
G01 X279.364 Y166.108
G01 X293.367 Y165.225
G01 X304.897 Y173.567
G01 X316.242 Y181.855
G01 X304.897 Y173.567
G01 X318.920 Y172.690
G01 X304.897 Y173.567
G01 X293.367 Y165.225
G01 X307.443 Y163.133
G01 X319.486 Y170.371
G01 X307.443 Y163.133
G01 X321.331 Y161.002
G01 X307.443 Y163.133
G01 X293.367 Y165.225
G01 X279.364 Y166.108
G01 X269.756 Y159.108
G01 X268.851 Y158.516
G01 X267.799 Y157.757
G01 X279.169 Y155.795
G01 X280.566 Y155.479
G01 X281.842 Y155.251
G01 X294.075 Y162.122
G01 X305.850 Y170.115
G01 X317.438 Y178.060
G01 X305.850 Y170.115
G01 X319.840 Y168.819
G01 X305.850 Y170.115
G01 X294.075 Y162.122
G01 X308.083 Y159.609
G01 X320.337 Y166.483
G01 X308.083 Y159.609
G01 X321.901 Y157.064
G01 X308.083 Y159.609
G01 X294.075 Y162.122
G01 X281.842 Y155.251
G01 X295.639 Y152.704
G01 X308.083 Y159.609
G01 X320.337 Y166.483
G01 X308.083 Y159.609
G01 X321.901 Y157.064
G01 X308.083 Y159.609
G01 X295.639 Y152.704
G01 X309.365 Y148.945
G01 X322.186 Y154.694
G01 X309.365 Y148.945
G01 X322.899 Y145.172
G01 X309.365 Y148.945
G01 X295.639 Y152.704
G01 X281.842 Y155.251
G01 X270.148 Y157.389
G01 X269.076 Y157.529
G01 X267.799 Y157.757
G01 X260.978 Y152.572
G01 X259.144 Y151.335
G01 X255.898 Y148.927
G01 X263.133 Y146.272
G01 X265.950 Y145.038
G01 X269.720 Y143.580
G01 X280.158 Y148.497
G01 X281.420 Y149.172
G01 X282.590 Y149.732
G01 X295.212 Y155.858
G01 X307.443 Y163.133
G01 X319.486 Y170.371
G01 X307.443 Y163.133
G01 X321.331 Y161.002
G01 X307.443 Y163.133
G01 X295.212 Y155.858
G01 X309.044 Y152.512
G01 X321.687 Y158.641
G01 X309.044 Y152.512
G01 X322.685 Y149.145
G01 X309.044 Y152.512
G01 X295.212 Y155.858
G01 X282.590 Y149.732
G01 X296.210 Y146.363
G01 X309.044 Y152.512
G01 X321.687 Y158.641
G01 X309.044 Y152.512
G01 X322.685 Y149.145
G01 X309.044 Y152.512
G01 X296.210 Y146.363
G01 X309.687 Y141.791
G01 X322.828 Y146.762
G01 X309.687 Y141.791
G01 X322.971 Y137.215
G01 X309.687 Y141.791
G01 X296.210 Y146.363
G01 X282.590 Y149.732
G01 X271.886 Y144.560
G01 X270.890 Y144.139
G01 X269.720 Y143.580
G01 X280.557 Y139.619
G01 X281.874 Y139.059
G01 X283.090 Y138.607
G01 X296.352 Y143.183
G01 X309.365 Y148.945
G01 X322.186 Y154.694
G01 X309.365 Y148.945
G01 X322.899 Y145.172
G01 X309.365 Y148.945
G01 X296.352 Y143.183
G01 X309.687 Y138.209
G01 X322.971 Y142.785
G01 X309.687 Y138.209
G01 X322.828 Y133.238
G01 X309.687 Y138.209
G01 X296.352 Y143.183
G01 X283.090 Y138.607
G01 X296.210 Y133.637
G01 X309.687 Y138.209
G01 X322.971 Y142.785
G01 X309.687 Y138.209
G01 X322.828 Y133.238
G01 X309.687 Y138.209
G01 X296.210 Y133.637
G01 X309.044 Y127.488
G01 X322.685 Y130.855
G01 X309.044 Y127.488
G01 X321.687 Y121.359
G01 X309.044 Y127.488
G01 X296.210 Y133.637
G01 X283.090 Y138.607
G01 X271.965 Y142.798
G01 X270.935 Y143.128
G01 X269.720 Y143.580
G01 X261.765 Y146.763
G01 X259.668 Y147.468
G01 X255.898 Y148.927
G01 X248.477 Y145.015
G01 X246.624 Y144.170
G01 X243.146 Y142.387
G01 X250.043 Y139.747
G01 X252.809 Y138.481
G01 X256.433 Y137.016
G01 X263.401 Y140.309
G01 X266.096 Y141.790
G01 X269.720 Y143.580
G01 X280.158 Y148.497
G01 X281.420 Y149.172
G01 X282.590 Y149.732
G01 X295.212 Y155.858
G01 X307.443 Y163.133
G01 X319.486 Y170.371
G01 X307.443 Y163.133
G01 X321.331 Y161.002
G01 X307.443 Y163.133
G01 X295.212 Y155.858
G01 X309.044 Y152.512
G01 X321.687 Y158.641
G01 X309.044 Y152.512
G01 X322.685 Y149.145
G01 X309.044 Y152.512
G01 X295.212 Y155.858
G01 X282.590 Y149.732
G01 X296.210 Y146.363
G01 X309.044 Y152.512
G01 X321.687 Y158.641
G01 X309.044 Y152.512
G01 X322.685 Y149.145
G01 X309.044 Y152.512
G01 X296.210 Y146.363
G01 X309.687 Y141.791
G01 X322.828 Y146.762
G01 X309.687 Y141.791
G01 X322.971 Y137.215
G01 X309.687 Y141.791
G01 X296.210 Y146.363
G01 X282.590 Y149.732
G01 X271.886 Y144.560
G01 X270.890 Y144.139
G01 X269.720 Y143.580
G01 X280.557 Y139.619
G01 X281.874 Y139.059
G01 X283.090 Y138.607
G01 X296.352 Y143.183
G01 X309.365 Y148.945
G01 X322.186 Y154.694
G01 X309.365 Y148.945
G01 X322.899 Y145.172
G01 X309.365 Y148.945
G01 X296.352 Y143.183
G01 X309.687 Y138.209
G01 X322.971 Y142.785
G01 X309.687 Y138.209
G01 X322.828 Y133.238
G01 X309.687 Y138.209
G01 X296.352 Y143.183
G01 X283.090 Y138.607
G01 X296.210 Y133.637
G01 X309.687 Y138.209
G01 X322.971 Y142.785
G01 X309.687 Y138.209
G01 X322.828 Y133.238
G01 X309.687 Y138.209
G01 X296.210 Y133.637
G01 X309.044 Y127.488
G01 X322.685 Y130.855
G01 X309.044 Y127.488
G01 X321.687 Y121.359
G01 X309.044 Y127.488
G01 X296.210 Y133.637
G01 X283.090 Y138.607
G01 X271.965 Y142.798
G01 X270.935 Y143.128
G01 X269.720 Y143.580
G01 X262.082 Y139.697
G01 X260.057 Y138.807
G01 X256.433 Y137.016
G01 X263.078 Y133.113
G01 X265.629 Y131.396
G01 X269.078 Y129.288
G01 X280.226 Y132.262
G01 X281.589 Y132.701
G01 X282.840 Y133.043
G01 X296.352 Y136.817
G01 X309.687 Y141.791
G01 X322.828 Y146.762
G01 X309.687 Y141.791
G01 X322.971 Y137.215
G01 X309.687 Y141.791
G01 X296.352 Y136.817
G01 X309.365 Y131.055
G01 X322.899 Y134.828
G01 X309.365 Y131.055
G01 X322.186 Y125.306
G01 X309.365 Y131.055
G01 X296.352 Y136.817
G01 X282.840 Y133.043
G01 X295.639 Y127.296
G01 X309.365 Y131.055
G01 X322.899 Y134.828
G01 X309.365 Y131.055
G01 X322.186 Y125.306
G01 X309.365 Y131.055
G01 X295.639 Y127.296
G01 X308.083 Y120.391
G01 X321.901 Y122.936
G01 X308.083 Y120.391
G01 X320.337 Y113.517
G01 X308.083 Y120.391
G01 X295.639 Y127.296
G01 X282.840 Y133.043
G01 X271.384 Y129.866
G01 X270.329 Y129.629
G01 X269.078 Y129.288
G01 X279.033 Y123.456
G01 X280.230 Y122.670
G01 X281.345 Y122.008
G01 X295.212 Y124.142
G01 X309.044 Y127.488
G01 X322.685 Y130.855
G01 X309.044 Y127.488
G01 X321.687 Y121.359
G01 X309.044 Y127.488
G01 X295.212 Y124.142
G01 X307.443 Y116.867
G01 X321.331 Y118.998
G01 X307.443 Y116.867
G01 X319.486 Y109.629
G01 X307.443 Y116.867
G01 X295.212 Y124.142
G01 X281.345 Y122.008
G01 X293.367 Y114.775
G01 X307.443 Y116.867
G01 X321.331 Y118.998
G01 X307.443 Y116.867
G01 X319.486 Y109.629
G01 X307.443 Y116.867
G01 X293.367 Y114.775
G01 X304.897 Y106.433
G01 X318.920 Y107.310
G01 X304.897 Y106.433
G01 X316.242 Y98.145
G01 X304.897 Y106.433
G01 X293.367 Y114.775
G01 X281.345 Y122.008
G01 X271.147 Y128.118
G01 X270.193 Y128.626
G01 X269.078 Y129.288
G01 X261.819 Y133.841
G01 X259.882 Y134.909
G01 X256.433 Y137.016
G01 X248.691 Y140.247
G01 X246.770 Y140.922
G01 X243.146 Y142.387
G01 X234.966 Y144.238
G01 X233.621 Y144.465
G01 X229.539 Y145.356
G01 X225.226 Y143.021
G01 X222.467 Y141.784
G01 X219.604 Y140.171
G01 X216.669 Y138.845
G01 X216.573 Y138.807
G01 X219.381 Y137.231
G01 X222.090 Y135.378
G01 X222.176 Y135.313
G01 X226.367 Y132.865
G01 X228.900 Y131.121
G01 X235.886 Y131.872
G01 X238.573 Y132.338
G01 X242.719 Y132.859
G01 X249.824 Y134.869
G01 X252.693 Y135.883
G01 X256.433 Y137.016
G01 X263.401 Y140.309
G01 X266.096 Y141.790
G01 X269.720 Y143.580
G01 X280.158 Y148.497
G01 X281.420 Y149.172
G01 X282.590 Y149.732
G01 X295.212 Y155.858
G01 X307.443 Y163.133
G01 X319.486 Y170.371
G01 X307.443 Y163.133
G01 X321.331 Y161.002
G01 X307.443 Y163.133
G01 X295.212 Y155.858
G01 X309.044 Y152.512
G01 X321.687 Y158.641
G01 X309.044 Y152.512
G01 X322.685 Y149.145
G01 X309.044 Y152.512
G01 X295.212 Y155.858
G01 X282.590 Y149.732
G01 X296.210 Y146.363
G01 X309.044 Y152.512
G01 X321.687 Y158.641
G01 X309.044 Y152.512
G01 X322.685 Y149.145
G01 X309.044 Y152.512
G01 X296.210 Y146.363
G01 X309.687 Y141.791
G01 X322.828 Y146.762
G01 X309.687 Y141.791
G01 X322.971 Y137.215
G01 X309.687 Y141.791
G01 X296.210 Y146.363
G01 X282.590 Y149.732
G01 X271.886 Y144.560
G01 X270.890 Y144.139
G01 X269.720 Y143.580
G01 X280.557 Y139.619
G01 X281.874 Y139.059
G01 X283.090 Y138.607
G01 X296.352 Y143.183
G01 X309.365 Y148.945
G01 X322.186 Y154.694
G01 X309.365 Y148.945
G01 X322.899 Y145.172
G01 X309.365 Y148.945
G01 X296.352 Y143.183
G01 X309.687 Y138.209
G01 X322.971 Y142.785
G01 X309.687 Y138.209
G01 X322.828 Y133.238
G01 X309.687 Y138.209
G01 X296.352 Y143.183
G01 X283.090 Y138.607
G01 X296.210 Y133.637
G01 X309.687 Y138.209
G01 X322.971 Y142.785
G01 X309.687 Y138.209
G01 X322.828 Y133.238
G01 X309.687 Y138.209
G01 X296.210 Y133.637
G01 X309.044 Y127.488
G01 X322.685 Y130.855
G01 X309.044 Y127.488
G01 X321.687 Y121.359
G01 X309.044 Y127.488
G01 X296.210 Y133.637
G01 X283.090 Y138.607
G01 X271.965 Y142.798
G01 X270.935 Y143.128
G01 X269.720 Y143.580
G01 X262.082 Y139.697
G01 X260.057 Y138.807
G01 X256.433 Y137.016
G01 X263.078 Y133.113
G01 X265.629 Y131.396
G01 X269.078 Y129.288
G01 X280.226 Y132.262
G01 X281.589 Y132.701
G01 X282.840 Y133.043
G01 X296.352 Y136.817
G01 X309.687 Y141.791
G01 X322.828 Y146.762
G01 X309.687 Y141.791
G01 X322.971 Y137.215
G01 X309.687 Y141.791
G01 X296.352 Y136.817
G01 X309.365 Y131.055
G01 X322.899 Y134.828
G01 X309.365 Y131.055
G01 X322.186 Y125.306
G01 X309.365 Y131.055
G01 X296.352 Y136.817
G01 X282.840 Y133.043
G01 X295.639 Y127.296
G01 X309.365 Y131.055
G01 X322.899 Y134.828
G01 X309.365 Y131.055
G01 X322.186 Y125.306
G01 X309.365 Y131.055
G01 X295.639 Y127.296
G01 X308.083 Y120.391
G01 X321.901 Y122.936
G01 X308.083 Y120.391
G01 X320.337 Y113.517
G01 X308.083 Y120.391
G01 X295.639 Y127.296
G01 X282.840 Y133.043
G01 X271.384 Y129.866
G01 X270.329 Y129.629
G01 X269.078 Y129.288
G01 X279.033 Y123.456
G01 X280.230 Y122.670
G01 X281.345 Y122.008
G01 X295.212 Y124.142
G01 X309.044 Y127.488
G01 X322.685 Y130.855
G01 X309.044 Y127.488
G01 X321.687 Y121.359
G01 X309.044 Y127.488
G01 X295.212 Y124.142
G01 X307.443 Y116.867
G01 X321.331 Y118.998
G01 X307.443 Y116.867
G01 X319.486 Y109.629
G01 X307.443 Y116.867
G01 X295.212 Y124.142
G01 X281.345 Y122.008
G01 X293.367 Y114.775
G01 X307.443 Y116.867
G01 X321.331 Y118.998
G01 X307.443 Y116.867
G01 X319.486 Y109.629
G01 X307.443 Y116.867
G01 X293.367 Y114.775
G01 X304.897 Y106.433
G01 X318.920 Y107.310
G01 X304.897 Y106.433
G01 X316.242 Y98.145
G01 X304.897 Y106.433
G01 X293.367 Y114.775
G01 X281.345 Y122.008
G01 X271.147 Y128.118
G01 X270.193 Y128.626
G01 X269.078 Y129.288
G01 X261.819 Y133.841
G01 X259.882 Y134.909
G01 X256.433 Y137.016
G01 X248.433 Y134.493
G01 X246.459 Y133.993
G01 X242.719 Y132.859
G01 X249.033 Y129.030
G01 X251.529 Y127.290
G01 X254.833 Y125.202
G01 X262.277 Y127.198
G01 X265.193 Y128.174
G01 X269.078 Y129.288
G01 X280.226 Y132.262
G01 X281.589 Y132.701
G01 X282.840 Y133.043
G01 X296.352 Y136.817
G01 X309.687 Y141.791
G01 X322.828 Y146.762
G01 X309.687 Y141.791
G01 X322.971 Y137.215
G01 X309.687 Y141.791
G01 X296.352 Y136.817
G01 X309.365 Y131.055
G01 X322.899 Y134.828
G01 X309.365 Y131.055
G01 X322.186 Y125.306
G01 X309.365 Y131.055
G01 X296.352 Y136.817
G01 X282.840 Y133.043
G01 X295.639 Y127.296
G01 X309.365 Y131.055
G01 X322.899 Y134.828
G01 X309.365 Y131.055
G01 X322.186 Y125.306
G01 X309.365 Y131.055
G01 X295.639 Y127.296
G01 X308.083 Y120.391
G01 X321.901 Y122.936
G01 X308.083 Y120.391
G01 X320.337 Y113.517
G01 X308.083 Y120.391
G01 X295.639 Y127.296
G01 X282.840 Y133.043
G01 X271.384 Y129.866
G01 X270.329 Y129.629
G01 X269.078 Y129.288
G01 X279.033 Y123.456
G01 X280.230 Y122.670
G01 X281.345 Y122.008
G01 X295.212 Y124.142
G01 X309.044 Y127.488
G01 X322.685 Y130.855
G01 X309.044 Y127.488
G01 X321.687 Y121.359
G01 X309.044 Y127.488
G01 X295.212 Y124.142
G01 X307.443 Y116.867
G01 X321.331 Y118.998
G01 X307.443 Y116.867
G01 X319.486 Y109.629
G01 X307.443 Y116.867
G01 X295.212 Y124.142
G01 X281.345 Y122.008
G01 X293.367 Y114.775
G01 X307.443 Y116.867
G01 X321.331 Y118.998
G01 X307.443 Y116.867
G01 X319.486 Y109.629
G01 X307.443 Y116.867
G01 X293.367 Y114.775
G01 X304.897 Y106.433
G01 X318.920 Y107.310
G01 X304.897 Y106.433
G01 X316.242 Y98.145
G01 X304.897 Y106.433
G01 X293.367 Y114.775
G01 X281.345 Y122.008
G01 X271.147 Y128.118
G01 X270.193 Y128.626
G01 X269.078 Y129.288
G01 X260.870 Y126.831
G01 X258.718 Y126.317
G01 X254.833 Y125.202
G01 X260.674 Y120.175
G01 X262.878 Y118.030
G01 X265.894 Y115.340
G01 X277.395 Y116.276
G01 X278.813 Y116.465
G01 X280.105 Y116.577
G01 X294.075 Y117.878
G01 X308.083 Y120.391
G01 X321.901 Y122.936
G01 X308.083 Y120.391
G01 X320.337 Y113.517
G01 X308.083 Y120.391
G01 X294.075 Y117.878
G01 X305.850 Y109.885
G01 X319.840 Y111.181
G01 X305.850 Y109.885
G01 X317.438 Y101.940
G01 X305.850 Y109.885
G01 X294.075 Y117.878
G01 X280.105 Y116.577
G01 X291.673 Y108.638
G01 X305.850 Y109.885
G01 X319.840 Y111.181
G01 X305.850 Y109.885
G01 X317.438 Y101.940
G01 X305.850 Y109.885
G01 X291.673 Y108.638
G01 X302.684 Y99.622
G01 X316.734 Y99.658
G01 X302.684 Y99.622
G01 X313.513 Y90.670
G01 X302.684 Y99.622
G01 X291.673 Y108.638
G01 X280.105 Y116.577
G01 X268.267 Y115.497
G01 X267.186 Y115.453
G01 X265.894 Y115.340
G01 X274.648 Y107.824
G01 X275.685 Y106.837
G01 X276.664 Y105.987
G01 X290.689 Y105.610
G01 X304.897 Y106.433
G01 X318.920 Y107.310
G01 X304.897 Y106.433
G01 X316.242 Y98.145
G01 X304.897 Y106.433
G01 X290.689 Y105.610
G01 X301.426 Y96.269
G01 X315.471 Y95.885
G01 X301.426 Y96.269
G01 X311.982 Y86.997
G01 X301.426 Y96.269
G01 X290.689 Y105.610
G01 X276.664 Y105.987
G01 X287.201 Y96.723
G01 X301.426 Y96.269
G01 X315.471 Y95.885
G01 X301.426 Y96.269
G01 X311.982 Y86.997
G01 X301.426 Y96.269
G01 X287.201 Y96.723
G01 X297.057 Y86.457
G01 X311.011 Y84.816
G01 X297.057 Y86.457
G01 X306.740 Y76.276
G01 X297.057 Y86.457
G01 X287.201 Y96.723
G01 X276.664 Y105.987
G01 X267.722 Y113.819
G01 X266.873 Y114.490
G01 X265.894 Y115.340
G01 X259.566 Y121.116
G01 X257.850 Y122.513
G01 X254.833 Y125.202
G01 X247.792 Y129.763
G01 X246.022 Y130.771
G01 X242.719 Y132.859
G01 X234.405 Y131.749
G01 X233.045 Y131.643
G01 X228.900 Y131.121
G01 X234.869 Y127.414
G01 X237.087 Y125.829
G01 X240.596 Y123.560
G01 X247.947 Y124.270
G01 X250.950 Y124.755
G01 X254.833 Y125.202
G01 X262.277 Y127.198
G01 X265.193 Y128.174
G01 X269.078 Y129.288
G01 X280.226 Y132.262
G01 X281.589 Y132.701
G01 X282.840 Y133.043
G01 X296.352 Y136.817
G01 X309.687 Y141.791
G01 X322.828 Y146.762
G01 X309.687 Y141.791
G01 X322.971 Y137.215
G01 X309.687 Y141.791
G01 X296.352 Y136.817
G01 X309.365 Y131.055
G01 X322.899 Y134.828
G01 X309.365 Y131.055
G01 X322.186 Y125.306
G01 X309.365 Y131.055
G01 X296.352 Y136.817
G01 X282.840 Y133.043
G01 X295.639 Y127.296
G01 X309.365 Y131.055
G01 X322.899 Y134.828
G01 X309.365 Y131.055
G01 X322.186 Y125.306
G01 X309.365 Y131.055
G01 X295.639 Y127.296
G01 X308.083 Y120.391
G01 X321.901 Y122.936
G01 X308.083 Y120.391
G01 X320.337 Y113.517
G01 X308.083 Y120.391
G01 X295.639 Y127.296
G01 X282.840 Y133.043
G01 X271.384 Y129.866
G01 X270.329 Y129.629
G01 X269.078 Y129.288
G01 X279.033 Y123.456
G01 X280.230 Y122.670
G01 X281.345 Y122.008
G01 X295.212 Y124.142
G01 X309.044 Y127.488
G01 X322.685 Y130.855
G01 X309.044 Y127.488
G01 X321.687 Y121.359
G01 X309.044 Y127.488
G01 X295.212 Y124.142
G01 X307.443 Y116.867
G01 X321.331 Y118.998
G01 X307.443 Y116.867
G01 X319.486 Y109.629
G01 X307.443 Y116.867
G01 X295.212 Y124.142
G01 X281.345 Y122.008
G01 X293.367 Y114.775
G01 X307.443 Y116.867
G01 X321.331 Y118.998
G01 X307.443 Y116.867
G01 X319.486 Y109.629
G01 X307.443 Y116.867
G01 X293.367 Y114.775
G01 X304.897 Y106.433
G01 X318.920 Y107.310
G01 X304.897 Y106.433
G01 X316.242 Y98.145
G01 X304.897 Y106.433
G01 X293.367 Y114.775
G01 X281.345 Y122.008
G01 X271.147 Y128.118
G01 X270.193 Y128.626
G01 X269.078 Y129.288
G01 X260.870 Y126.831
G01 X258.718 Y126.317
G01 X254.833 Y125.202
G01 X260.674 Y120.175
G01 X262.878 Y118.030
G01 X265.894 Y115.340
G01 X277.395 Y116.276
G01 X278.813 Y116.465
G01 X280.105 Y116.577
G01 X294.075 Y117.878
G01 X308.083 Y120.391
G01 X321.901 Y122.936
G01 X308.083 Y120.391
G01 X320.337 Y113.517
G01 X308.083 Y120.391
G01 X294.075 Y117.878
G01 X305.850 Y109.885
G01 X319.840 Y111.181
G01 X305.850 Y109.885
G01 X317.438 Y101.940
G01 X305.850 Y109.885
G01 X294.075 Y117.878
G01 X280.105 Y116.577
G01 X291.673 Y108.638
G01 X305.850 Y109.885
G01 X319.840 Y111.181
G01 X305.850 Y109.885
G01 X317.438 Y101.940
G01 X305.850 Y109.885
G01 X291.673 Y108.638
G01 X302.684 Y99.622
G01 X316.734 Y99.658
G01 X302.684 Y99.622
G01 X313.513 Y90.670
G01 X302.684 Y99.622
G01 X291.673 Y108.638
G01 X280.105 Y116.577
G01 X268.267 Y115.497
G01 X267.186 Y115.453
G01 X265.894 Y115.340
G01 X274.648 Y107.824
G01 X275.685 Y106.837
G01 X276.664 Y105.987
G01 X290.689 Y105.610
G01 X304.897 Y106.433
G01 X318.920 Y107.310
G01 X304.897 Y106.433
G01 X316.242 Y98.145
G01 X304.897 Y106.433
G01 X290.689 Y105.610
G01 X301.426 Y96.269
G01 X315.471 Y95.885
G01 X301.426 Y96.269
G01 X311.982 Y86.997
G01 X301.426 Y96.269
G01 X290.689 Y105.610
G01 X276.664 Y105.987
G01 X287.201 Y96.723
G01 X301.426 Y96.269
G01 X315.471 Y95.885
G01 X301.426 Y96.269
G01 X311.982 Y86.997
G01 X301.426 Y96.269
G01 X287.201 Y96.723
G01 X297.057 Y86.457
G01 X311.011 Y84.816
G01 X297.057 Y86.457
G01 X306.740 Y76.276
G01 X297.057 Y86.457
G01 X287.201 Y96.723
G01 X276.664 Y105.987
G01 X267.722 Y113.819
G01 X266.873 Y114.490
G01 X265.894 Y115.340
G01 X259.566 Y121.116
G01 X257.850 Y122.513
G01 X254.833 Y125.202
G01 X246.511 Y124.148
G01 X244.479 Y124.008
G01 X240.596 Y123.560
G01 X246.126 Y118.666
G01 X248.271 Y116.508
G01 X251.149 Y113.864
G01 X258.829 Y114.498
G01 X261.873 Y114.938
G01 X265.894 Y115.340
G01 X277.395 Y116.276
G01 X278.813 Y116.465
G01 X280.105 Y116.577
G01 X294.075 Y117.878
G01 X308.083 Y120.391
G01 X321.901 Y122.936
G01 X308.083 Y120.391
G01 X320.337 Y113.517
G01 X308.083 Y120.391
G01 X294.075 Y117.878
G01 X305.850 Y109.885
G01 X319.840 Y111.181
G01 X305.850 Y109.885
G01 X317.438 Y101.940
G01 X305.850 Y109.885
G01 X294.075 Y117.878
G01 X280.105 Y116.577
G01 X291.673 Y108.638
G01 X305.850 Y109.885
G01 X319.840 Y111.181
G01 X305.850 Y109.885
G01 X317.438 Y101.940
G01 X305.850 Y109.885
G01 X291.673 Y108.638
G01 X302.684 Y99.622
G01 X316.734 Y99.658
G01 X302.684 Y99.622
G01 X313.513 Y90.670
G01 X302.684 Y99.622
G01 X291.673 Y108.638
G01 X280.105 Y116.577
G01 X268.267 Y115.497
G01 X267.186 Y115.453
G01 X265.894 Y115.340
G01 X274.648 Y107.824
G01 X275.685 Y106.837
G01 X276.664 Y105.987
G01 X290.689 Y105.610
G01 X304.897 Y106.433
G01 X318.920 Y107.310
G01 X304.897 Y106.433
G01 X316.242 Y98.145
G01 X304.897 Y106.433
G01 X290.689 Y105.610
G01 X301.426 Y96.269
G01 X315.471 Y95.885
G01 X301.426 Y96.269
G01 X311.982 Y86.997
G01 X301.426 Y96.269
G01 X290.689 Y105.610
G01 X276.664 Y105.987
G01 X287.201 Y96.723
G01 X301.426 Y96.269
G01 X315.471 Y95.885
G01 X301.426 Y96.269
G01 X311.982 Y86.997
G01 X301.426 Y96.269
G01 X287.201 Y96.723
G01 X297.057 Y86.457
G01 X311.011 Y84.816
G01 X297.057 Y86.457
G01 X306.740 Y76.276
G01 X297.057 Y86.457
G01 X287.201 Y96.723
G01 X276.664 Y105.987
G01 X267.722 Y113.819
G01 X266.873 Y114.490
G01 X265.894 Y115.340
G01 X257.380 Y114.388
G01 X255.170 Y114.267
G01 X251.149 Y113.864
G01 X255.998 Y107.874
G01 X257.783 Y105.370
G01 X260.272 Y102.185
G01 X271.754 Y101.052
G01 X273.184 Y100.985
G01 X274.475 Y100.865
G01 X288.452 Y99.650
G01 X302.684 Y99.622
G01 X316.734 Y99.658
G01 X302.684 Y99.622
G01 X313.513 Y90.670
G01 X302.684 Y99.622
G01 X288.452 Y99.650
G01 X298.611 Y89.683
G01 X312.608 Y88.460
G01 X298.611 Y89.683
G01 X308.594 Y79.797
G01 X298.611 Y89.683
G01 X288.452 Y99.650
G01 X274.475 Y100.865
G01 X284.439 Y90.988
G01 X298.611 Y89.683
G01 X312.608 Y88.460
G01 X298.611 Y89.683
G01 X308.594 Y79.797
G01 X298.611 Y89.683
G01 X284.439 Y90.988
G01 X293.663 Y80.150
G01 X307.494 Y77.677
G01 X293.663 Y80.150
G01 X302.720 Y69.408
G01 X293.663 Y80.150
G01 X284.439 Y90.988
G01 X274.475 Y100.865
G01 X262.634 Y101.916
G01 X261.563 Y102.065
G01 X260.272 Y102.185
G01 X267.543 Y93.227
G01 X268.387 Y92.070
G01 X269.198 Y91.059
G01 X282.931 Y88.184
G01 X297.057 Y86.457
G01 X311.011 Y84.816
G01 X297.057 Y86.457
G01 X306.740 Y76.276
G01 X297.057 Y86.457
G01 X282.931 Y88.184
G01 X291.826 Y77.076
G01 X305.577 Y74.190
G01 X291.826 Y77.076
G01 X300.558 Y66.068
G01 X291.826 Y77.076
G01 X282.931 Y88.184
G01 X269.198 Y91.059
G01 X277.912 Y80.063
G01 X291.826 Y77.076
G01 X305.577 Y74.190
G01 X291.826 Y77.076
G01 X300.558 Y66.068
G01 X291.826 Y77.076
G01 X277.912 Y80.063
G01 X285.776 Y68.201
G01 X299.213 Y64.095
G01 X285.776 Y68.201
G01 X293.486 Y56.455
G01 X285.776 Y68.201
G01 X277.912 Y80.063
G01 X269.198 Y91.059
G01 X261.798 Y100.362
G01 X261.083 Y101.174
G01 X260.272 Y102.185
G01 X255.076 Y108.998
G01 X253.637 Y110.679
G01 X251.149 Y113.864
G01 X245.036 Y119.609
G01 X243.474 Y120.916
G01 X240.596 Y123.560
G01 X233.588 Y128.168
G01 X232.409 Y128.853
G01 X228.900 Y131.121
G01 X224.813 Y133.833
G01 X222.176 Y135.313
G01 X219.470 Y137.175
G01 X216.665 Y138.760
G01 X216.573 Y138.807
G01 X191.399 Y139.937
G01 X191.339 Y140.006
G01 X191.276 Y140.068
G01 X191.210 Y140.124
G01 X191.142 Y140.174
G01 X191.072 Y140.218
G01 X191.001 Y140.255
G01 X190.929 Y140.286
G01 X190.856 Y140.310
G01 X190.783 Y140.328
G01 X190.711 Y140.340
G01 X190.639 Y140.345
G01 X190.569 Y140.345
G01 X190.501 Y140.338
G01 X190.435 Y140.325
G01 X190.371 Y140.307
G01 X190.311 Y140.284
G01 X190.253 Y140.255
G01 X190.199 Y140.222
G01 X190.150 Y140.184
G01 X190.104 Y140.142
G01 X190.063 Y140.096
G01 X190.027 Y140.046
G01 X190.000 Y140.000
G01 X190.009 Y140.018
G01 X190.016 Y140.038
G01 X190.021 Y140.058
G01 X190.024 Y140.078
G01 X190.025 Y140.099
G01 X190.024 Y140.120
G01 X190.021 Y140.141
G01 X190.016 Y140.163
G01 X190.009 Y140.184
G01 X190.000 Y140.204
G01 X189.989 Y140.224
G01 X189.976 Y140.244
G01 X189.962 Y140.263
G01 X189.945 Y140.281
G01 X189.926 Y140.297
G01 X189.906 Y140.313
G01 X189.884 Y140.327
G01 X189.860 Y140.340
G01 X189.835 Y140.351
G01 X189.808 Y140.361
G01 X189.780 Y140.368
G01 X189.751 Y140.374
G01 X189.721 Y140.378
G01 X189.690 Y140.379
G01 X189.658 Y140.379
G01 X189.625 Y140.376
G01 X189.592 Y140.371
G01 X189.559 Y140.364
G01 X189.525 Y140.354
G01 X189.491 Y140.341
G01 X189.458 Y140.327
G01 X189.424 Y140.309
G01 X189.391 Y140.289
G01 X189.359 Y140.267
G01 X189.328 Y140.242
G01 X189.297 Y140.215
G01 X189.267 Y140.185
G01 X189.239 Y140.153
G01 X189.212 Y140.118
G01 X189.187 Y140.082
G01 X189.164 Y140.043
G01 X189.142 Y140.002
G01 X189.123 Y139.959
G01 X189.106 Y139.914
G01 X189.091 Y139.867
G01 X189.078 Y139.819
G01 X189.068 Y139.769
G01 X189.061 Y139.717
G01 X189.057 Y139.665
G01 X189.056 Y139.611
G01 X189.058 Y139.557
G01 X189.062 Y139.501
G01 X189.071 Y139.445
G01 X189.082 Y139.389
G01 X189.097 Y139.333
G01 X189.115 Y139.276
G01 X189.136 Y139.220
G01 X189.161 Y139.164
G01 X189.189 Y139.109
G01 X189.221 Y139.054
G01 X189.256 Y139.001
G01 X189.294 Y138.949
G01 X189.336 Y138.898
G01 X189.382 Y138.849
G01 X189.430 Y138.801
G01 X189.482 Y138.756
G01 X189.537 Y138.713
G01 X189.594 Y138.672
G01 X189.628 Y138.650
G01 X182.923 Y114.359
G01 X183.554 Y111.202
G01 X184.480 Y108.052
G01 X184.514 Y107.950
G01 X185.548 Y103.208
G01 X186.423 Y100.261
G01 X188.105 Y93.438
G01 X188.927 Y90.838
G01 X190.000 Y86.800
G01 X192.946 Y80.029
G01 X194.335 Y77.322
G01 X195.961 Y73.768
G01 X200.159 Y67.305
G01 X201.989 Y64.833
G01 X204.249 Y61.482
G01 X210.522 Y51.799
G01 X211.361 Y50.639
G01 X212.072 Y49.554
G01 X219.837 Y37.869
G01 X228.688 Y26.725
G01 X237.477 Y15.763
G01 X228.688 Y26.725
G01 X228.441 Y12.677
G01 X228.688 Y26.725
G01 X219.837 Y37.869
G01 X218.379 Y23.713
G01 X226.149 Y12.007
G01 X218.379 Y23.713
G01 X216.873 Y9.743
G01 X218.379 Y23.713
G01 X219.837 Y37.869
G01 X212.072 Y49.554
G01 X210.562 Y35.606
G01 X218.379 Y23.713
G01 X226.149 Y12.007
G01 X218.379 Y23.713
G01 X216.873 Y9.743
G01 X218.379 Y23.713
G01 X210.562 Y35.606
G01 X207.840 Y21.637
G01 X214.531 Y9.282
G01 X207.840 Y21.637
G01 X205.089 Y7.859
G01 X207.840 Y21.637
G01 X210.562 Y35.606
G01 X212.072 Y49.554
G01 X205.511 Y59.467
G01 X204.960 Y60.398
G01 X204.249 Y61.482
G01 X201.778 Y50.212
G01 X201.400 Y48.831
G01 X201.116 Y47.566
G01 X207.430 Y35.037
G01 X214.887 Y22.916
G01 X222.304 Y10.983
G01 X214.887 Y22.916
G01 X212.965 Y8.998
G01 X214.887 Y22.916
G01 X207.430 Y35.037
G01 X204.291 Y21.156
G01 X210.609 Y8.606
G01 X204.291 Y21.156
G01 X201.129 Y7.466
G01 X204.291 Y21.156
G01 X207.430 Y35.037
G01 X201.116 Y47.566
G01 X197.951 Y33.898
G01 X204.291 Y21.156
G01 X210.609 Y8.606
G01 X204.291 Y21.156
G01 X201.129 Y7.466
G01 X204.291 Y21.156
G01 X197.951 Y33.898
G01 X193.581 Y20.354
G01 X198.748 Y7.288
G01 X193.581 Y20.354
G01 X189.204 Y7.002
G01 X193.581 Y20.354
G01 X197.951 Y33.898
G01 X201.116 Y47.566
G01 X203.775 Y59.153
G01 X203.964 Y60.217
G01 X204.249 Y61.482
G01 X199.375 Y68.529
G01 X198.221 Y70.417
G01 X195.961 Y73.768
G01 X192.985 Y66.659
G01 X191.626 Y63.900
G01 X190.000 Y60.200
G01 X194.443 Y49.552
G01 X195.062 Y48.261
G01 X195.568 Y47.067
G01 X201.122 Y34.183
G01 X207.840 Y21.637
G01 X214.531 Y9.282
G01 X207.840 Y21.637
G01 X205.089 Y7.859
G01 X207.840 Y21.637
G01 X201.122 Y34.183
G01 X197.159 Y20.514
G01 X202.714 Y7.609
G01 X197.159 Y20.514
G01 X193.183 Y7.038
G01 X197.159 Y20.514
G01 X201.122 Y34.183
G01 X195.568 Y47.067
G01 X191.592 Y33.612
G01 X197.159 Y20.514
G01 X202.714 Y7.609
G01 X197.159 Y20.514
G01 X193.183 Y7.038
G01 X197.159 Y20.514
G01 X191.592 Y33.612
G01 X186.419 Y20.354
G01 X190.796 Y7.002
G01 X186.419 Y20.354
G01 X181.252 Y7.288
G01 X186.419 Y20.354
G01 X191.592 Y33.612
G01 X195.568 Y47.067
G01 X190.882 Y57.992
G01 X190.506 Y59.006
G01 X190.000 Y60.200
G01 X185.557 Y49.552
G01 X184.938 Y48.261
G01 X184.432 Y47.067
G01 X188.408 Y33.612
G01 X193.581 Y20.354
G01 X198.748 Y7.288
G01 X193.581 Y20.354
G01 X189.204 Y7.002
G01 X193.581 Y20.354
G01 X188.408 Y33.612
G01 X182.841 Y20.514
G01 X186.817 Y7.038
G01 X182.841 Y20.514
G01 X177.286 Y7.609
G01 X182.841 Y20.514
G01 X188.408 Y33.612
G01 X184.432 Y47.067
G01 X178.878 Y34.183
G01 X182.841 Y20.514
G01 X186.817 Y7.038
G01 X182.841 Y20.514
G01 X177.286 Y7.609
G01 X182.841 Y20.514
G01 X178.878 Y34.183
G01 X172.160 Y21.637
G01 X174.911 Y7.859
G01 X172.160 Y21.637
G01 X165.469 Y9.282
G01 X172.160 Y21.637
G01 X178.878 Y34.183
G01 X184.432 Y47.067
G01 X189.118 Y57.992
G01 X189.494 Y59.006
G01 X190.000 Y60.200
G01 X193.537 Y68.004
G01 X194.335 Y70.067
G01 X195.961 Y73.768
G01 X192.386 Y81.357
G01 X191.626 Y83.246
G01 X190.000 Y86.800
G01 X187.054 Y80.029
G01 X185.665 Y77.322
G01 X184.039 Y73.768
G01 X187.015 Y66.659
G01 X188.374 Y63.900
G01 X190.000 Y60.200
G01 X194.443 Y49.552
G01 X195.062 Y48.261
G01 X195.568 Y47.067
G01 X201.122 Y34.183
G01 X207.840 Y21.637
G01 X214.531 Y9.282
G01 X207.840 Y21.637
G01 X205.089 Y7.859
G01 X207.840 Y21.637
G01 X201.122 Y34.183
G01 X197.159 Y20.514
G01 X202.714 Y7.609
G01 X197.159 Y20.514
G01 X193.183 Y7.038
G01 X197.159 Y20.514
G01 X201.122 Y34.183
G01 X195.568 Y47.067
G01 X191.592 Y33.612
G01 X197.159 Y20.514
G01 X202.714 Y7.609
G01 X197.159 Y20.514
G01 X193.183 Y7.038
G01 X197.159 Y20.514
G01 X191.592 Y33.612
G01 X186.419 Y20.354
G01 X190.796 Y7.002
G01 X186.419 Y20.354
G01 X181.252 Y7.288
G01 X186.419 Y20.354
G01 X191.592 Y33.612
G01 X195.568 Y47.067
G01 X190.882 Y57.992
G01 X190.506 Y59.006
G01 X190.000 Y60.200
G01 X185.557 Y49.552
G01 X184.938 Y48.261
G01 X184.432 Y47.067
G01 X188.408 Y33.612
G01 X193.581 Y20.354
G01 X198.748 Y7.288
G01 X193.581 Y20.354
G01 X189.204 Y7.002
G01 X193.581 Y20.354
G01 X188.408 Y33.612
G01 X182.841 Y20.514
G01 X186.817 Y7.038
G01 X182.841 Y20.514
G01 X177.286 Y7.609
G01 X182.841 Y20.514
G01 X188.408 Y33.612
G01 X184.432 Y47.067
G01 X178.878 Y34.183
G01 X182.841 Y20.514
G01 X186.817 Y7.038
G01 X182.841 Y20.514
G01 X177.286 Y7.609
G01 X182.841 Y20.514
G01 X178.878 Y34.183
G01 X172.160 Y21.637
G01 X174.911 Y7.859
G01 X172.160 Y21.637
G01 X165.469 Y9.282
G01 X172.160 Y21.637
G01 X178.878 Y34.183
G01 X184.432 Y47.067
G01 X189.118 Y57.992
G01 X189.494 Y59.006
G01 X190.000 Y60.200
G01 X186.463 Y68.004
G01 X185.665 Y70.067
G01 X184.039 Y73.768
G01 X179.841 Y67.305
G01 X178.011 Y64.833
G01 X175.751 Y61.482
G01 X178.222 Y50.212
G01 X178.600 Y48.831
G01 X178.884 Y47.566
G01 X182.049 Y33.898
G01 X186.419 Y20.354
G01 X190.796 Y7.002
G01 X186.419 Y20.354
G01 X181.252 Y7.288
G01 X186.419 Y20.354
G01 X182.049 Y33.898
G01 X175.709 Y21.156
G01 X178.871 Y7.466
G01 X175.709 Y21.156
G01 X169.391 Y8.606
G01 X175.709 Y21.156
G01 X182.049 Y33.898
G01 X178.884 Y47.566
G01 X172.570 Y35.037
G01 X175.709 Y21.156
G01 X178.871 Y7.466
G01 X175.709 Y21.156
G01 X169.391 Y8.606
G01 X175.709 Y21.156
G01 X172.570 Y35.037
G01 X165.113 Y22.916
G01 X167.035 Y8.998
G01 X165.113 Y22.916
G01 X157.696 Y10.983
G01 X165.113 Y22.916
G01 X172.570 Y35.037
G01 X178.884 Y47.566
G01 X176.225 Y59.153
G01 X176.036 Y60.217
G01 X175.751 Y61.482
G01 X169.478 Y51.799
G01 X168.639 Y50.639
G01 X167.928 Y49.554
G01 X169.438 Y35.606
G01 X172.160 Y21.637
G01 X174.911 Y7.859
G01 X172.160 Y21.637
G01 X165.469 Y9.282
G01 X172.160 Y21.637
G01 X169.438 Y35.606
G01 X161.621 Y23.713
G01 X163.127 Y9.743
G01 X161.621 Y23.713
G01 X153.851 Y12.007
G01 X161.621 Y23.713
G01 X169.438 Y35.606
G01 X167.928 Y49.554
G01 X160.163 Y37.869
G01 X161.621 Y23.713
G01 X163.127 Y9.743
G01 X161.621 Y23.713
G01 X153.851 Y12.007
G01 X161.621 Y23.713
G01 X160.163 Y37.869
G01 X151.312 Y26.725
G01 X151.559 Y12.677
G01 X151.312 Y26.725
G01 X142.523 Y15.763
G01 X151.312 Y26.725
G01 X160.163 Y37.869
G01 X167.928 Y49.554
G01 X174.489 Y59.467
G01 X175.040 Y60.398
G01 X175.751 Y61.482
G01 X180.625 Y68.529
G01 X181.779 Y70.417
G01 X184.039 Y73.768
G01 X187.614 Y81.357
G01 X188.374 Y83.246
G01 X190.000 Y86.800
G01 X187.784 Y94.889
G01 X187.496 Y96.222
G01 X186.423 Y100.261
G01 X183.550 Y93.848
G01 X182.278 Y91.437
G01 X180.501 Y87.655
G01 X182.191 Y80.466
G01 X183.074 Y77.555
G01 X184.039 Y73.768
G01 X187.015 Y66.659
G01 X188.374 Y63.900
G01 X190.000 Y60.200
G01 X194.443 Y49.552
G01 X195.062 Y48.261
G01 X195.568 Y47.067
G01 X201.122 Y34.183
G01 X207.840 Y21.637
G01 X214.531 Y9.282
G01 X207.840 Y21.637
G01 X205.089 Y7.859
G01 X207.840 Y21.637
G01 X201.122 Y34.183
G01 X197.159 Y20.514
G01 X202.714 Y7.609
G01 X197.159 Y20.514
G01 X193.183 Y7.038
G01 X197.159 Y20.514
G01 X201.122 Y34.183
G01 X195.568 Y47.067
G01 X191.592 Y33.612
G01 X197.159 Y20.514
G01 X202.714 Y7.609
G01 X197.159 Y20.514
G01 X193.183 Y7.038
G01 X197.159 Y20.514
G01 X191.592 Y33.612
G01 X186.419 Y20.354
G01 X190.796 Y7.002
G01 X186.419 Y20.354
G01 X181.252 Y7.288
G01 X186.419 Y20.354
G01 X191.592 Y33.612
G01 X195.568 Y47.067
G01 X190.882 Y57.992
G01 X190.506 Y59.006
G01 X190.000 Y60.200
G01 X185.557 Y49.552
G01 X184.938 Y48.261
G01 X184.432 Y47.067
G01 X188.408 Y33.612
G01 X193.581 Y20.354
G01 X198.748 Y7.288
G01 X193.581 Y20.354
G01 X189.204 Y7.002
G01 X193.581 Y20.354
G01 X188.408 Y33.612
G01 X182.841 Y20.514
G01 X186.817 Y7.038
G01 X182.841 Y20.514
G01 X177.286 Y7.609
G01 X182.841 Y20.514
G01 X188.408 Y33.612
G01 X184.432 Y47.067
G01 X178.878 Y34.183
G01 X182.841 Y20.514
G01 X186.817 Y7.038
G01 X182.841 Y20.514
G01 X177.286 Y7.609
G01 X182.841 Y20.514
G01 X178.878 Y34.183
G01 X172.160 Y21.637
G01 X174.911 Y7.859
G01 X172.160 Y21.637
G01 X165.469 Y9.282
G01 X172.160 Y21.637
G01 X178.878 Y34.183
G01 X184.432 Y47.067
G01 X189.118 Y57.992
G01 X189.494 Y59.006
G01 X190.000 Y60.200
G01 X186.463 Y68.004
G01 X185.665 Y70.067
G01 X184.039 Y73.768
G01 X179.841 Y67.305
G01 X178.011 Y64.833
G01 X175.751 Y61.482
G01 X178.222 Y50.212
G01 X178.600 Y48.831
G01 X178.884 Y47.566
G01 X182.049 Y33.898
G01 X186.419 Y20.354
G01 X190.796 Y7.002
G01 X186.419 Y20.354
G01 X181.252 Y7.288
G01 X186.419 Y20.354
G01 X182.049 Y33.898
G01 X175.709 Y21.156
G01 X178.871 Y7.466
G01 X175.709 Y21.156
G01 X169.391 Y8.606
G01 X175.709 Y21.156
G01 X182.049 Y33.898
G01 X178.884 Y47.566
G01 X172.570 Y35.037
G01 X175.709 Y21.156
G01 X178.871 Y7.466
G01 X175.709 Y21.156
G01 X169.391 Y8.606
G01 X175.709 Y21.156
G01 X172.570 Y35.037
G01 X165.113 Y22.916
G01 X167.035 Y8.998
G01 X165.113 Y22.916
G01 X157.696 Y10.983
G01 X165.113 Y22.916
G01 X172.570 Y35.037
G01 X178.884 Y47.566
G01 X176.225 Y59.153
G01 X176.036 Y60.217
G01 X175.751 Y61.482
G01 X169.478 Y51.799
G01 X168.639 Y50.639
G01 X167.928 Y49.554
G01 X169.438 Y35.606
G01 X172.160 Y21.637
G01 X174.911 Y7.859
G01 X172.160 Y21.637
G01 X165.469 Y9.282
G01 X172.160 Y21.637
G01 X169.438 Y35.606
G01 X161.621 Y23.713
G01 X163.127 Y9.743
G01 X161.621 Y23.713
G01 X153.851 Y12.007
G01 X161.621 Y23.713
G01 X169.438 Y35.606
G01 X167.928 Y49.554
G01 X160.163 Y37.869
G01 X161.621 Y23.713
G01 X163.127 Y9.743
G01 X161.621 Y23.713
G01 X153.851 Y12.007
G01 X161.621 Y23.713
G01 X160.163 Y37.869
G01 X151.312 Y26.725
G01 X151.559 Y12.677
G01 X151.312 Y26.725
G01 X142.523 Y15.763
G01 X151.312 Y26.725
G01 X160.163 Y37.869
G01 X167.928 Y49.554
G01 X174.489 Y59.467
G01 X175.040 Y60.398
G01 X175.751 Y61.482
G01 X180.625 Y68.529
G01 X181.779 Y70.417
G01 X184.039 Y73.768
G01 X181.877 Y81.873
G01 X181.466 Y83.868
G01 X180.501 Y87.655
G01 X176.393 Y81.519
G01 X174.543 Y79.103
G01 X172.309 Y75.896
G01 X173.968 Y68.371
G01 X174.812 Y65.414
G01 X175.751 Y61.482
G01 X178.222 Y50.212
G01 X178.600 Y48.831
G01 X178.884 Y47.566
G01 X182.049 Y33.898
G01 X186.419 Y20.354
G01 X190.796 Y7.002
G01 X186.419 Y20.354
G01 X181.252 Y7.288
G01 X186.419 Y20.354
G01 X182.049 Y33.898
G01 X175.709 Y21.156
G01 X178.871 Y7.466
G01 X175.709 Y21.156
G01 X169.391 Y8.606
G01 X175.709 Y21.156
G01 X182.049 Y33.898
G01 X178.884 Y47.566
G01 X172.570 Y35.037
G01 X175.709 Y21.156
G01 X178.871 Y7.466
G01 X175.709 Y21.156
G01 X169.391 Y8.606
G01 X175.709 Y21.156
G01 X172.570 Y35.037
G01 X165.113 Y22.916
G01 X167.035 Y8.998
G01 X165.113 Y22.916
G01 X157.696 Y10.983
G01 X165.113 Y22.916
G01 X172.570 Y35.037
G01 X178.884 Y47.566
G01 X176.225 Y59.153
G01 X176.036 Y60.217
G01 X175.751 Y61.482
G01 X169.478 Y51.799
G01 X168.639 Y50.639
G01 X167.928 Y49.554
G01 X169.438 Y35.606
G01 X172.160 Y21.637
G01 X174.911 Y7.859
G01 X172.160 Y21.637
G01 X165.469 Y9.282
G01 X172.160 Y21.637
G01 X169.438 Y35.606
G01 X161.621 Y23.713
G01 X163.127 Y9.743
G01 X161.621 Y23.713
G01 X153.851 Y12.007
G01 X161.621 Y23.713
G01 X169.438 Y35.606
G01 X167.928 Y49.554
G01 X160.163 Y37.869
G01 X161.621 Y23.713
G01 X163.127 Y9.743
G01 X161.621 Y23.713
G01 X153.851 Y12.007
G01 X161.621 Y23.713
G01 X160.163 Y37.869
G01 X151.312 Y26.725
G01 X151.559 Y12.677
G01 X151.312 Y26.725
G01 X142.523 Y15.763
G01 X151.312 Y26.725
G01 X160.163 Y37.869
G01 X167.928 Y49.554
G01 X174.489 Y59.467
G01 X175.040 Y60.398
G01 X175.751 Y61.482
G01 X173.664 Y69.792
G01 X173.247 Y71.965
G01 X172.309 Y75.896
G01 X167.024 Y70.287
G01 X164.783 Y68.182
G01 X161.960 Y65.288
G01 X162.379 Y53.758
G01 X162.504 Y52.332
G01 X162.558 Y51.036
G01 X163.231 Y37.022
G01 X165.113 Y22.916
G01 X167.035 Y8.998
G01 X165.113 Y22.916
G01 X157.696 Y10.983
G01 X165.113 Y22.916
G01 X163.231 Y37.022
G01 X154.718 Y25.618
G01 X155.385 Y11.584
G01 X154.718 Y25.618
G01 X146.261 Y14.398
G01 X154.718 Y25.618
G01 X163.231 Y37.022
G01 X162.558 Y51.036
G01 X154.108 Y39.836
G01 X154.718 Y25.618
G01 X155.385 Y11.584
G01 X154.718 Y25.618
G01 X146.261 Y14.398
G01 X154.718 Y25.618
G01 X154.108 Y39.836
G01 X144.607 Y29.241
G01 X144.013 Y15.203
G01 X144.607 Y29.241
G01 X135.178 Y18.824
G01 X144.607 Y29.241
G01 X154.108 Y39.836
G01 X162.558 Y51.036
G01 X162.010 Y62.911
G01 X162.015 Y63.993
G01 X161.960 Y65.288
G01 X154.059 Y56.880
G01 X153.026 Y55.889
G01 X152.133 Y54.949
G01 X151.128 Y40.955
G01 X151.312 Y26.725
G01 X151.559 Y12.677
G01 X151.312 Y26.725
G01 X142.523 Y15.763
G01 X151.312 Y26.725
G01 X151.128 Y40.955
G01 X141.314 Y30.649
G01 X140.300 Y16.635
G01 X141.314 Y30.649
G01 X131.577 Y20.519
G01 X141.314 Y30.649
G01 X151.128 Y40.955
G01 X152.133 Y54.949
G01 X142.406 Y44.838
G01 X141.314 Y30.649
G01 X140.300 Y16.635
G01 X141.314 Y30.649
G01 X131.577 Y20.519
G01 X141.314 Y30.649
G01 X142.406 Y44.838
G01 X131.707 Y35.453
G01 X129.442 Y21.587
G01 X131.707 Y35.453
G01 X121.102 Y26.237
G01 X131.707 Y35.453
G01 X142.406 Y44.838
G01 X152.133 Y54.949
G01 X160.359 Y63.531
G01 X161.067 Y64.348
G01 X161.960 Y65.288
G01 X168.014 Y71.352
G01 X169.486 Y73.003
G01 X172.309 Y75.896
G01 X177.181 Y82.725
G01 X178.267 Y84.448
G01 X180.501 Y87.655
G01 X184.126 Y95.219
G01 X184.647 Y96.479
G01 X186.423 Y100.261
G01 X185.107 Y104.985
G01 X184.514 Y107.950
G01 X183.580 Y111.100
G01 X182.939 Y114.257
G01 X182.923 Y114.359
G01 X180.763 Y111.972
G01 X178.353 Y109.743
G01 X178.271 Y109.673
G01 X174.952 Y106.132
G01 X172.688 Y104.051
G01 X171.865 Y97.073
G01 X171.721 Y94.350
G01 X171.307 Y90.192
G01 X171.686 Y82.818
G01 X172.035 Y79.795
G01 X172.309 Y75.896
G01 X173.968 Y68.371
G01 X174.812 Y65.414
G01 X175.751 Y61.482
G01 X178.222 Y50.212
G01 X178.600 Y48.831
G01 X178.884 Y47.566
G01 X182.049 Y33.898
G01 X186.419 Y20.354
G01 X190.796 Y7.002
G01 X186.419 Y20.354
G01 X181.252 Y7.288
G01 X186.419 Y20.354
G01 X182.049 Y33.898
G01 X175.709 Y21.156
G01 X178.871 Y7.466
G01 X175.709 Y21.156
G01 X169.391 Y8.606
G01 X175.709 Y21.156
G01 X182.049 Y33.898
G01 X178.884 Y47.566
G01 X172.570 Y35.037
G01 X175.709 Y21.156
G01 X178.871 Y7.466
G01 X175.709 Y21.156
G01 X169.391 Y8.606
G01 X175.709 Y21.156
G01 X172.570 Y35.037
G01 X165.113 Y22.916
G01 X167.035 Y8.998
G01 X165.113 Y22.916
G01 X157.696 Y10.983
G01 X165.113 Y22.916
G01 X172.570 Y35.037
G01 X178.884 Y47.566
G01 X176.225 Y59.153
G01 X176.036 Y60.217
G01 X175.751 Y61.482
G01 X169.478 Y51.799
G01 X168.639 Y50.639
G01 X167.928 Y49.554
G01 X169.438 Y35.606
G01 X172.160 Y21.637
G01 X174.911 Y7.859
G01 X172.160 Y21.637
G01 X165.469 Y9.282
G01 X172.160 Y21.637
G01 X169.438 Y35.606
G01 X161.621 Y23.713
G01 X163.127 Y9.743
G01 X161.621 Y23.713
G01 X153.851 Y12.007
G01 X161.621 Y23.713
G01 X169.438 Y35.606
G01 X167.928 Y49.554
G01 X160.163 Y37.869
G01 X161.621 Y23.713
G01 X163.127 Y9.743
G01 X161.621 Y23.713
G01 X153.851 Y12.007
G01 X161.621 Y23.713
G01 X160.163 Y37.869
G01 X151.312 Y26.725
G01 X151.559 Y12.677
G01 X151.312 Y26.725
G01 X142.523 Y15.763
G01 X151.312 Y26.725
G01 X160.163 Y37.869
G01 X167.928 Y49.554
G01 X174.489 Y59.467
G01 X175.040 Y60.398
G01 X175.751 Y61.482
G01 X173.664 Y69.792
G01 X173.247 Y71.965
G01 X172.309 Y75.896
G01 X167.024 Y70.287
G01 X164.783 Y68.182
G01 X161.960 Y65.288
G01 X162.379 Y53.758
G01 X162.504 Y52.332
G01 X162.558 Y51.036
G01 X163.231 Y37.022
G01 X165.113 Y22.916
G01 X167.035 Y8.998
G01 X165.113 Y22.916
G01 X157.696 Y10.983
G01 X165.113 Y22.916
G01 X163.231 Y37.022
G01 X154.718 Y25.618
G01 X155.385 Y11.584
G01 X154.718 Y25.618
G01 X146.261 Y14.398
G01 X154.718 Y25.618
G01 X163.231 Y37.022
G01 X162.558 Y51.036
G01 X154.108 Y39.836
G01 X154.718 Y25.618
G01 X155.385 Y11.584
G01 X154.718 Y25.618
G01 X146.261 Y14.398
G01 X154.718 Y25.618
G01 X154.108 Y39.836
G01 X144.607 Y29.241
G01 X144.013 Y15.203
G01 X144.607 Y29.241
G01 X135.178 Y18.824
G01 X144.607 Y29.241
G01 X154.108 Y39.836
G01 X162.558 Y51.036
G01 X162.010 Y62.911
G01 X162.015 Y63.993
G01 X161.960 Y65.288
G01 X154.059 Y56.880
G01 X153.026 Y55.889
G01 X152.133 Y54.949
G01 X151.128 Y40.955
G01 X151.312 Y26.725
G01 X151.559 Y12.677
G01 X151.312 Y26.725
G01 X142.523 Y15.763
G01 X151.312 Y26.725
G01 X151.128 Y40.955
G01 X141.314 Y30.649
G01 X140.300 Y16.635
G01 X141.314 Y30.649
G01 X131.577 Y20.519
G01 X141.314 Y30.649
G01 X151.128 Y40.955
G01 X152.133 Y54.949
G01 X142.406 Y44.838
G01 X141.314 Y30.649
G01 X140.300 Y16.635
G01 X141.314 Y30.649
G01 X131.577 Y20.519
G01 X141.314 Y30.649
G01 X142.406 Y44.838
G01 X131.707 Y35.453
G01 X129.442 Y21.587
G01 X131.707 Y35.453
G01 X121.102 Y26.237
G01 X131.707 Y35.453
G01 X142.406 Y44.838
G01 X152.133 Y54.949
G01 X160.359 Y63.531
G01 X161.067 Y64.348
G01 X161.960 Y65.288
G01 X168.014 Y71.352
G01 X169.486 Y73.003
G01 X172.309 Y75.896
G01 X171.629 Y84.257
G01 X171.580 Y86.293
G01 X171.307 Y90.192
G01 X166.169 Y84.888
G01 X163.918 Y82.842
G01 X161.147 Y80.086
G01 X161.436 Y72.384
G01 X161.738 Y69.324
G01 X161.960 Y65.288
G01 X162.379 Y53.758
G01 X162.504 Y52.332
G01 X162.558 Y51.036
G01 X163.231 Y37.022
G01 X165.113 Y22.916
G01 X167.035 Y8.998
G01 X165.113 Y22.916
G01 X157.696 Y10.983
G01 X165.113 Y22.916
G01 X163.231 Y37.022
G01 X154.718 Y25.618
G01 X155.385 Y11.584
G01 X154.718 Y25.618
G01 X146.261 Y14.398
G01 X154.718 Y25.618
G01 X163.231 Y37.022
G01 X162.558 Y51.036
G01 X154.108 Y39.836
G01 X154.718 Y25.618
G01 X155.385 Y11.584
G01 X154.718 Y25.618
G01 X146.261 Y14.398
G01 X154.718 Y25.618
G01 X154.108 Y39.836
G01 X144.607 Y29.241
G01 X144.013 Y15.203
G01 X144.607 Y29.241
G01 X135.178 Y18.824
G01 X144.607 Y29.241
G01 X154.108 Y39.836
G01 X162.558 Y51.036
G01 X162.010 Y62.911
G01 X162.015 Y63.993
G01 X161.960 Y65.288
G01 X154.059 Y56.880
G01 X153.026 Y55.889
G01 X152.133 Y54.949
G01 X151.128 Y40.955
G01 X151.312 Y26.725
G01 X151.559 Y12.677
G01 X151.312 Y26.725
G01 X142.523 Y15.763
G01 X151.312 Y26.725
G01 X151.128 Y40.955
G01 X141.314 Y30.649
G01 X140.300 Y16.635
G01 X141.314 Y30.649
G01 X131.577 Y20.519
G01 X141.314 Y30.649
G01 X151.128 Y40.955
G01 X152.133 Y54.949
G01 X142.406 Y44.838
G01 X141.314 Y30.649
G01 X140.300 Y16.635
G01 X141.314 Y30.649
G01 X131.577 Y20.519
G01 X141.314 Y30.649
G01 X142.406 Y44.838
G01 X131.707 Y35.453
G01 X129.442 Y21.587
G01 X131.707 Y35.453
G01 X121.102 Y26.237
G01 X131.707 Y35.453
G01 X142.406 Y44.838
G01 X152.133 Y54.949
G01 X160.359 Y63.531
G01 X161.067 Y64.348
G01 X161.960 Y65.288
G01 X161.391 Y73.837
G01 X161.369 Y76.050
G01 X161.147 Y80.086
G01 X154.946 Y75.510
G01 X152.364 Y73.838
G01 X149.071 Y71.496
G01 X147.424 Y60.076
G01 X147.292 Y58.650
G01 X147.114 Y57.366
G01 X145.274 Y43.457
G01 X144.607 Y29.241
G01 X144.013 Y15.203
G01 X144.607 Y29.241
G01 X135.178 Y18.824
G01 X144.607 Y29.241
G01 X145.274 Y43.457
G01 X134.861 Y33.756
G01 X133.012 Y19.828
G01 X134.861 Y33.756
G01 X124.537 Y24.226
G01 X134.861 Y33.756
G01 X145.274 Y43.457
G01 X147.114 Y57.366
G01 X136.800 Y47.855
G01 X134.861 Y33.756
G01 X133.012 Y19.828
G01 X134.861 Y33.756
G01 X124.537 Y24.226
G01 X134.861 Y33.756
G01 X136.800 Y47.855
G01 X125.559 Y39.126
G01 X122.469 Y25.420
G01 X125.559 Y39.126
G01 X114.422 Y30.561
G01 X125.559 Y39.126
G01 X136.800 Y47.855
G01 X147.114 Y57.366
G01 X148.695 Y69.148
G01 X148.893 Y70.211
G01 X149.071 Y71.496
G01 X139.795 Y64.634
G01 X138.602 Y63.842
G01 X137.555 Y63.077
G01 X134.067 Y49.488
G01 X131.707 Y35.453
G01 X129.442 Y21.587
G01 X131.707 Y35.453
G01 X121.102 Y26.237
G01 X131.707 Y35.453
G01 X134.067 Y49.488
G01 X122.571 Y41.099
G01 X119.071 Y27.492
G01 X122.571 Y41.099
G01 X111.182 Y32.870
G01 X122.571 Y41.099
G01 X134.067 Y49.488
G01 X137.555 Y63.077
G01 X126.179 Y54.866
G01 X122.571 Y41.099
G01 X119.071 Y27.492
G01 X122.571 Y41.099
G01 X111.182 Y32.870
G01 X122.571 Y41.099
G01 X126.179 Y54.866
G01 X113.977 Y47.542
G01 X109.272 Y34.303
G01 X113.977 Y47.542
G01 X101.896 Y40.367
G01 X113.977 Y47.542
G01 X126.179 Y54.866
G01 X137.555 Y63.077
G01 X147.181 Y70.053
G01 X148.024 Y70.730
G01 X149.071 Y71.496
G01 X156.109 Y76.381
G01 X157.853 Y77.743
G01 X161.147 Y80.086
G01 X167.160 Y85.935
G01 X168.536 Y87.436
G01 X171.307 Y90.192
G01 X172.074 Y98.544
G01 X172.274 Y99.894
G01 X172.688 Y104.051
G01 X167.745 Y99.057
G01 X165.706 Y97.247
G01 X162.714 Y94.331
G01 X161.770 Y87.007
G01 X161.574 Y83.971
G01 X161.147 Y80.086
G01 X161.436 Y72.384
G01 X161.738 Y69.324
G01 X161.960 Y65.288
G01 X162.379 Y53.758
G01 X162.504 Y52.332
G01 X162.558 Y51.036
G01 X163.231 Y37.022
G01 X165.113 Y22.916
G01 X167.035 Y8.998
G01 X165.113 Y22.916
G01 X157.696 Y10.983
G01 X165.113 Y22.916
G01 X163.231 Y37.022
G01 X154.718 Y25.618
G01 X155.385 Y11.584
G01 X154.718 Y25.618
G01 X146.261 Y14.398
G01 X154.718 Y25.618
G01 X163.231 Y37.022
G01 X162.558 Y51.036
G01 X154.108 Y39.836
G01 X154.718 Y25.618
G01 X155.385 Y11.584
G01 X154.718 Y25.618
G01 X146.261 Y14.398
G01 X154.718 Y25.618
G01 X154.108 Y39.836
G01 X144.607 Y29.241
G01 X144.013 Y15.203
G01 X144.607 Y29.241
G01 X135.178 Y18.824
G01 X144.607 Y29.241
G01 X154.108 Y39.836
G01 X162.558 Y51.036
G01 X162.010 Y62.911
G01 X162.015 Y63.993
G01 X161.960 Y65.288
G01 X154.059 Y56.880
G01 X153.026 Y55.889
G01 X152.133 Y54.949
G01 X151.128 Y40.955
G01 X151.312 Y26.725
G01 X151.559 Y12.677
G01 X151.312 Y26.725
G01 X142.523 Y15.763
G01 X151.312 Y26.725
G01 X151.128 Y40.955
G01 X141.314 Y30.649
G01 X140.300 Y16.635
G01 X141.314 Y30.649
G01 X131.577 Y20.519
G01 X141.314 Y30.649
G01 X151.128 Y40.955
G01 X152.133 Y54.949
G01 X142.406 Y44.838
G01 X141.314 Y30.649
G01 X140.300 Y16.635
G01 X141.314 Y30.649
G01 X131.577 Y20.519
G01 X141.314 Y30.649
G01 X142.406 Y44.838
G01 X131.707 Y35.453
G01 X129.442 Y21.587
G01 X131.707 Y35.453
G01 X121.102 Y26.237
G01 X131.707 Y35.453
G01 X142.406 Y44.838
G01 X152.133 Y54.949
G01 X160.359 Y63.531
G01 X161.067 Y64.348
G01 X161.960 Y65.288
G01 X161.391 Y73.837
G01 X161.369 Y76.050
G01 X161.147 Y80.086
G01 X154.946 Y75.510
G01 X152.364 Y73.838
G01 X149.071 Y71.496
G01 X147.424 Y60.076
G01 X147.292 Y58.650
G01 X147.114 Y57.366
G01 X145.274 Y43.457
G01 X144.607 Y29.241
G01 X144.013 Y15.203
G01 X144.607 Y29.241
G01 X135.178 Y18.824
G01 X144.607 Y29.241
G01 X145.274 Y43.457
G01 X134.861 Y33.756
G01 X133.012 Y19.828
G01 X134.861 Y33.756
G01 X124.537 Y24.226
G01 X134.861 Y33.756
G01 X145.274 Y43.457
G01 X147.114 Y57.366
G01 X136.800 Y47.855
G01 X134.861 Y33.756
G01 X133.012 Y19.828
G01 X134.861 Y33.756
G01 X124.537 Y24.226
G01 X134.861 Y33.756
G01 X136.800 Y47.855
G01 X125.559 Y39.126
G01 X122.469 Y25.420
G01 X125.559 Y39.126
G01 X114.422 Y30.561
G01 X125.559 Y39.126
G01 X136.800 Y47.855
G01 X147.114 Y57.366
G01 X148.695 Y69.148
G01 X148.893 Y70.211
G01 X149.071 Y71.496
G01 X139.795 Y64.634
G01 X138.602 Y63.842
G01 X137.555 Y63.077
G01 X134.067 Y49.488
G01 X131.707 Y35.453
G01 X129.442 Y21.587
G01 X131.707 Y35.453
G01 X121.102 Y26.237
G01 X131.707 Y35.453
G01 X134.067 Y49.488
G01 X122.571 Y41.099
G01 X119.071 Y27.492
G01 X122.571 Y41.099
G01 X111.182 Y32.870
G01 X122.571 Y41.099
G01 X134.067 Y49.488
G01 X137.555 Y63.077
G01 X126.179 Y54.866
G01 X122.571 Y41.099
G01 X119.071 Y27.492
G01 X122.571 Y41.099
G01 X111.182 Y32.870
G01 X122.571 Y41.099
G01 X126.179 Y54.866
G01 X113.977 Y47.542
G01 X109.272 Y34.303
G01 X113.977 Y47.542
G01 X101.896 Y40.367
G01 X113.977 Y47.542
G01 X126.179 Y54.866
G01 X137.555 Y63.077
G01 X147.181 Y70.053
G01 X148.024 Y70.730
G01 X149.071 Y71.496
G01 X156.109 Y76.381
G01 X157.853 Y77.743
G01 X161.147 Y80.086
G01 X161.971 Y88.434
G01 X162.286 Y90.446
G01 X162.714 Y94.331
G01 X156.712 Y90.029
G01 X154.131 Y88.418
G01 X150.912 Y86.200
G01 X149.821 Y78.571
G01 X149.573 Y75.506
G01 X149.071 Y71.496
G01 X147.424 Y60.076
G01 X147.292 Y58.650
G01 X147.114 Y57.366
G01 X145.274 Y43.457
G01 X144.607 Y29.241
G01 X144.013 Y15.203
G01 X144.607 Y29.241
G01 X135.178 Y18.824
G01 X144.607 Y29.241
G01 X145.274 Y43.457
G01 X134.861 Y33.756
G01 X133.012 Y19.828
G01 X134.861 Y33.756
G01 X124.537 Y24.226
G01 X134.861 Y33.756
G01 X145.274 Y43.457
G01 X147.114 Y57.366
G01 X136.800 Y47.855
G01 X134.861 Y33.756
G01 X133.012 Y19.828
G01 X134.861 Y33.756
G01 X124.537 Y24.226
G01 X134.861 Y33.756
G01 X136.800 Y47.855
G01 X125.559 Y39.126
G01 X122.469 Y25.420
G01 X125.559 Y39.126
G01 X114.422 Y30.561
G01 X125.559 Y39.126
G01 X136.800 Y47.855
G01 X147.114 Y57.366
G01 X148.695 Y69.148
G01 X148.893 Y70.211
G01 X149.071 Y71.496
G01 X139.795 Y64.634
G01 X138.602 Y63.842
G01 X137.555 Y63.077
G01 X134.067 Y49.488
G01 X131.707 Y35.453
G01 X129.442 Y21.587
G01 X131.707 Y35.453
G01 X121.102 Y26.237
G01 X131.707 Y35.453
G01 X134.067 Y49.488
G01 X122.571 Y41.099
G01 X119.071 Y27.492
G01 X122.571 Y41.099
G01 X111.182 Y32.870
G01 X122.571 Y41.099
G01 X134.067 Y49.488
G01 X137.555 Y63.077
G01 X126.179 Y54.866
G01 X122.571 Y41.099
G01 X119.071 Y27.492
G01 X122.571 Y41.099
G01 X111.182 Y32.870
G01 X122.571 Y41.099
G01 X126.179 Y54.866
G01 X113.977 Y47.542
G01 X109.272 Y34.303
G01 X113.977 Y47.542
G01 X101.896 Y40.367
G01 X113.977 Y47.542
G01 X126.179 Y54.866
G01 X137.555 Y63.077
G01 X147.181 Y70.053
G01 X148.024 Y70.730
G01 X149.071 Y71.496
G01 X150.037 Y80.009
G01 X150.410 Y82.190
G01 X150.912 Y86.200
G01 X143.994 Y82.805
G01 X141.155 Y81.622
G01 X137.496 Y79.905
G01 X133.837 Y68.962
G01 X133.453 Y67.583
G01 X133.048 Y66.351
G01 X128.754 Y52.995
G01 X125.559 Y39.126
G01 X122.469 Y25.420
G01 X125.559 Y39.126
G01 X114.422 Y30.561
G01 X125.559 Y39.126
G01 X128.754 Y52.995
G01 X116.777 Y45.309
G01 X112.470 Y31.935
G01 X116.777 Y45.309
G01 X104.916 Y37.776
G01 X116.777 Y45.309
G01 X128.754 Y52.995
G01 X133.048 Y66.351
G01 X121.202 Y58.835
G01 X116.777 Y45.309
G01 X112.470 Y31.935
G01 X116.777 Y45.309
G01 X104.916 Y37.776
G01 X116.777 Y45.309
G01 X121.202 Y58.835
G01 X108.583 Y52.254
G01 X103.095 Y39.320
G01 X108.583 Y52.254
G01 X96.096 Y45.814
G01 X108.583 Y52.254
G01 X121.202 Y58.835
G01 X133.048 Y66.351
G01 X136.708 Y77.662
G01 X137.092 Y78.673
G01 X137.496 Y79.905
G01 X127.144 Y74.809
G01 X125.829 Y74.244
G01 X124.663 Y73.678
G01 X118.805 Y60.929
G01 X113.977 Y47.542
G01 X109.272 Y34.303
G01 X113.977 Y47.542
G01 X101.896 Y40.367
G01 X113.977 Y47.542
G01 X118.805 Y60.929
G01 X105.995 Y54.729
G01 X100.122 Y41.965
G01 X105.995 Y54.729
G01 X93.320 Y48.666
G01 X105.995 Y54.729
G01 X118.805 Y60.929
G01 X124.663 Y73.678
G01 X112.003 Y67.630
G01 X105.995 Y54.729
G01 X100.122 Y41.965
G01 X105.995 Y54.729
G01 X93.320 Y48.666
G01 X105.995 Y54.729
G01 X112.003 Y67.630
G01 X98.689 Y62.602
G01 X91.696 Y50.416
G01 X98.689 Y62.602
G01 X85.522 Y57.700
G01 X98.689 Y62.602
G01 X112.003 Y67.630
G01 X124.663 Y73.678
G01 X135.380 Y78.822
G01 X136.330 Y79.339
G01 X137.496 Y79.905
G01 X145.294 Y83.455
G01 X147.253 Y84.483
G01 X150.912 Y86.200
G01 X157.873 Y90.882
G01 X159.495 Y92.113
G01 X162.714 Y94.331
G01 X168.765 Y100.138
G01 X169.696 Y101.135
G01 X172.688 Y104.051
G01 X176.241 Y107.432
G01 X178.271 Y109.673
G01 X180.689 Y111.898
G01 X182.858 Y114.279
G01 X182.923 Y114.359
G01 X189.628 Y138.650
G01 X189.700 Y138.659
G01 X189.770 Y138.670
G01 X189.839 Y138.686
G01 X189.905 Y138.705
G01 X189.970 Y138.727
G01 X190.032 Y138.752
G01 X190.091 Y138.781
G01 X190.147 Y138.812
G01 X190.201 Y138.845
G01 X190.252 Y138.881
G01 X190.300 Y138.919
G01 X190.345 Y138.959
G01 X190.386 Y139.001
G01 X190.424 Y139.044
G01 X190.459 Y139.089
G01 X190.491 Y139.135
G01 X190.519 Y139.181
G01 X190.544 Y139.228
G01 X190.566 Y139.276
G01 X190.584 Y139.324
G01 X190.599 Y139.371
G01 X190.611 Y139.419
G01 X190.620 Y139.466
G01 X190.625 Y139.513
G01 X190.627 Y139.559
G01 X190.627 Y139.604
G01 X190.624 Y139.647
G01 X190.618 Y139.690
G01 X190.609 Y139.731
G01 X190.598 Y139.770
G01 X190.584 Y139.807
G01 X190.569 Y139.843
G01 X190.551 Y139.877
G01 X190.531 Y139.908
G01 X190.510 Y139.937
G01 X190.487 Y139.964
G01 X190.463 Y139.989
G01 X190.438 Y140.011
G01 X190.412 Y140.031
G01 X190.384 Y140.048
G01 X190.357 Y140.062
G01 X190.329 Y140.074
G01 X190.300 Y140.083
G01 X190.272 Y140.090
G01 X190.243 Y140.094
G01 X190.215 Y140.096
G01 X190.188 Y140.095
G01 X190.161 Y140.091
G01 X190.135 Y140.085
G01 X190.110 Y140.077
G01 X190.086 Y140.067
G01 X190.063 Y140.055
G01 X190.042 Y140.040
G01 X190.023 Y140.024
G01 X190.005 Y140.006
G01 X190.000 Y140.000
G01 X190.023 Y140.031
G01 X190.044 Y140.064
G01 X190.061 Y140.099
G01 X190.074 Y140.136
G01 X190.084 Y140.174
G01 X190.091 Y140.214
G01 X190.094 Y140.255
G01 X190.093 Y140.296
G01 X190.088 Y140.338
G01 X190.079 Y140.379
G01 X190.066 Y140.421
G01 X190.050 Y140.462
G01 X190.029 Y140.503
G01 X190.005 Y140.543
G01 X189.977 Y140.581
G01 X189.945 Y140.618
G01 X189.909 Y140.653
G01 X189.870 Y140.685
G01 X189.828 Y140.716
G01 X189.782 Y140.744
G01 X189.733 Y140.769
G01 X189.681 Y140.791
G01 X189.626 Y140.809
G01 X189.569 Y140.824
G01 X189.509 Y140.835
G01 X189.448 Y140.843
G01 X189.384 Y140.846
G01 X189.319 Y140.845
G01 X189.253 Y140.839
G01 X189.185 Y140.829
G01 X189.117 Y140.815
G01 X189.048 Y140.795
G01 X188.980 Y140.771
G01 X188.911 Y140.742
G01 X188.843 Y140.708
G01 X188.776 Y140.669
G01 X188.767 Y140.663
G01 X166.576 Y152.605
G01 X163.358 Y152.692
G01 X160.081 Y152.491
G01 X159.975 Y152.480
G01 X155.121 Y152.528
G01 X152.053 Y152.330
G01 X145.027 Y152.208
G01 X142.310 Y151.986
G01 X138.134 Y151.838
G01 X130.877 Y150.473
G01 X127.929 Y149.721
G01 X124.102 Y148.927
G01 X116.867 Y146.272
G01 X114.050 Y145.038
G01 X110.280 Y143.580
G01 X99.443 Y139.619
G01 X98.126 Y139.059
G01 X96.910 Y138.607
G01 X83.790 Y133.637
G01 X70.956 Y127.488
G01 X58.313 Y121.359
G01 X70.956 Y127.488
G01 X57.315 Y130.855
G01 X70.956 Y127.488
G01 X83.790 Y133.637
G01 X70.313 Y138.209
G01 X57.172 Y133.238
G01 X70.313 Y138.209
G01 X57.029 Y142.785
G01 X70.313 Y138.209
G01 X83.790 Y133.637
G01 X96.910 Y138.607
G01 X83.648 Y143.183
G01 X70.313 Y138.209
G01 X57.172 Y133.238
G01 X70.313 Y138.209
G01 X57.029 Y142.785
G01 X70.313 Y138.209
G01 X83.648 Y143.183
G01 X70.635 Y148.945
G01 X57.101 Y145.172
G01 X70.635 Y148.945
G01 X57.814 Y154.694
G01 X70.635 Y148.945
G01 X83.648 Y143.183
G01 X96.910 Y138.607
G01 X108.035 Y142.798
G01 X109.065 Y143.128
G01 X110.280 Y143.580
G01 X99.842 Y148.497
G01 X98.580 Y149.172
G01 X97.410 Y149.732
G01 X83.790 Y146.363
G01 X70.313 Y141.791
G01 X57.029 Y137.215
G01 X70.313 Y141.791
G01 X57.172 Y146.762
G01 X70.313 Y141.791
G01 X83.790 Y146.363
G01 X70.956 Y152.512
G01 X57.315 Y149.145
G01 X70.956 Y152.512
G01 X58.313 Y158.641
G01 X70.956 Y152.512
G01 X83.790 Y146.363
G01 X97.410 Y149.732
G01 X84.788 Y155.858
G01 X70.956 Y152.512
G01 X57.315 Y149.145
G01 X70.956 Y152.512
G01 X58.313 Y158.641
G01 X70.956 Y152.512
G01 X84.788 Y155.858
G01 X72.557 Y163.133
G01 X58.669 Y161.002
G01 X72.557 Y163.133
G01 X60.514 Y170.371
G01 X72.557 Y163.133
G01 X84.788 Y155.858
G01 X97.410 Y149.732
G01 X108.114 Y144.560
G01 X109.110 Y144.139
G01 X110.280 Y143.580
G01 X118.235 Y146.763
G01 X120.332 Y147.468
G01 X124.102 Y148.927
G01 X117.834 Y153.410
G01 X115.447 Y155.349
G01 X112.201 Y157.757
G01 X100.831 Y155.795
G01 X99.434 Y155.479
G01 X98.158 Y155.251
G01 X84.361 Y152.704
G01 X70.635 Y148.945
G01 X57.101 Y145.172
G01 X70.635 Y148.945
G01 X57.814 Y154.694
G01 X70.635 Y148.945
G01 X84.361 Y152.704
G01 X71.917 Y159.609
G01 X58.099 Y157.064
G01 X71.917 Y159.609
G01 X59.663 Y166.483
G01 X71.917 Y159.609
G01 X84.361 Y152.704
G01 X98.158 Y155.251
G01 X85.925 Y162.122
G01 X71.917 Y159.609
G01 X58.099 Y157.064
G01 X71.917 Y159.609
G01 X59.663 Y166.483
G01 X71.917 Y159.609
G01 X85.925 Y162.122
G01 X74.150 Y170.115
G01 X60.160 Y168.819
G01 X74.150 Y170.115
G01 X62.562 Y178.060
G01 X74.150 Y170.115
G01 X85.925 Y162.122
G01 X98.158 Y155.251
G01 X109.852 Y157.389
G01 X110.924 Y157.529
G01 X112.201 Y157.757
G01 X102.808 Y164.459
G01 X101.687 Y165.349
G01 X100.636 Y166.108
G01 X86.633 Y165.225
G01 X72.557 Y163.133
G01 X58.669 Y161.002
G01 X72.557 Y163.133
G01 X60.514 Y170.371
G01 X72.557 Y163.133
G01 X86.633 Y165.225
G01 X75.103 Y173.567
G01 X61.080 Y172.690
G01 X75.103 Y173.567
G01 X63.758 Y181.855
G01 X75.103 Y173.567
G01 X86.633 Y165.225
G01 X100.636 Y166.108
G01 X89.311 Y174.390
G01 X75.103 Y173.567
G01 X61.080 Y172.690
G01 X75.103 Y173.567
G01 X63.758 Y181.855
G01 X75.103 Y173.567
G01 X89.311 Y174.390
G01 X78.574 Y183.731
G01 X64.529 Y184.115
G01 X78.574 Y183.731
G01 X68.018 Y193.003
G01 X78.574 Y183.731
G01 X89.311 Y174.390
G01 X100.636 Y166.108
G01 X110.244 Y159.108
G01 X111.149 Y158.516
G01 X112.201 Y157.757
G01 X119.022 Y152.572
G01 X120.856 Y151.335
G01 X124.102 Y148.927
G01 X132.296 Y150.723
G01 X134.307 Y151.044
G01 X138.134 Y151.838
G01 X132.188 Y156.217
G01 X129.858 Y158.174
G01 X126.755 Y160.550
G01 X119.162 Y159.230
G01 X116.170 Y158.519
G01 X112.201 Y157.757
G01 X100.831 Y155.795
G01 X99.434 Y155.479
G01 X98.158 Y155.251
G01 X84.361 Y152.704
G01 X70.635 Y148.945
G01 X57.101 Y145.172
G01 X70.635 Y148.945
G01 X57.814 Y154.694
G01 X70.635 Y148.945
G01 X84.361 Y152.704
G01 X71.917 Y159.609
G01 X58.099 Y157.064
G01 X71.917 Y159.609
G01 X59.663 Y166.483
G01 X71.917 Y159.609
G01 X84.361 Y152.704
G01 X98.158 Y155.251
G01 X85.925 Y162.122
G01 X71.917 Y159.609
G01 X58.099 Y157.064
G01 X71.917 Y159.609
G01 X59.663 Y166.483
G01 X71.917 Y159.609
G01 X85.925 Y162.122
G01 X74.150 Y170.115
G01 X60.160 Y168.819
G01 X74.150 Y170.115
G01 X62.562 Y178.060
G01 X74.150 Y170.115
G01 X85.925 Y162.122
G01 X98.158 Y155.251
G01 X109.852 Y157.389
G01 X110.924 Y157.529
G01 X112.201 Y157.757
G01 X102.808 Y164.459
G01 X101.687 Y165.349
G01 X100.636 Y166.108
G01 X86.633 Y165.225
G01 X72.557 Y163.133
G01 X58.669 Y161.002
G01 X72.557 Y163.133
G01 X60.514 Y170.371
G01 X72.557 Y163.133
G01 X86.633 Y165.225
G01 X75.103 Y173.567
G01 X61.080 Y172.690
G01 X75.103 Y173.567
G01 X63.758 Y181.855
G01 X75.103 Y173.567
G01 X86.633 Y165.225
G01 X100.636 Y166.108
G01 X89.311 Y174.390
G01 X75.103 Y173.567
G01 X61.080 Y172.690
G01 X75.103 Y173.567
G01 X63.758 Y181.855
G01 X75.103 Y173.567
G01 X89.311 Y174.390
G01 X78.574 Y183.731
G01 X64.529 Y184.115
G01 X78.574 Y183.731
G01 X68.018 Y193.003
G01 X78.574 Y183.731
G01 X89.311 Y174.390
G01 X100.636 Y166.108
G01 X110.244 Y159.108
G01 X111.149 Y158.516
G01 X112.201 Y157.757
G01 X120.596 Y159.469
G01 X122.785 Y159.788
G01 X126.755 Y160.550
G01 X121.388 Y166.080
G01 X119.385 Y168.414
G01 X116.622 Y171.363
G01 X105.084 Y171.463
G01 X103.654 Y171.402
G01 X102.357 Y171.405
G01 X88.327 Y171.362
G01 X74.150 Y170.115
G01 X60.160 Y168.819
G01 X74.150 Y170.115
G01 X62.562 Y178.060
G01 X74.150 Y170.115
G01 X88.327 Y171.362
G01 X77.316 Y180.378
G01 X63.266 Y180.342
G01 X77.316 Y180.378
G01 X66.487 Y189.330
G01 X77.316 Y180.378
G01 X88.327 Y171.362
G01 X102.357 Y171.405
G01 X91.548 Y180.350
G01 X77.316 Y180.378
G01 X63.266 Y180.342
G01 X77.316 Y180.378
G01 X66.487 Y189.330
G01 X77.316 Y180.378
G01 X91.548 Y180.350
G01 X81.389 Y190.317
G01 X67.392 Y191.540
G01 X81.389 Y190.317
G01 X71.406 Y200.203
G01 X81.389 Y190.317
G01 X91.548 Y180.350
G01 X102.357 Y171.405
G01 X114.245 Y171.420
G01 X115.325 Y171.367
G01 X116.622 Y171.363
G01 X108.577 Y179.634
G01 X107.632 Y180.710
G01 X106.733 Y181.645
G01 X92.799 Y183.277
G01 X78.574 Y183.731
G01 X64.529 Y184.115
G01 X78.574 Y183.731
G01 X68.018 Y193.003
G01 X78.574 Y183.731
G01 X92.799 Y183.277
G01 X82.943 Y193.543
G01 X68.989 Y195.184
G01 X82.943 Y193.543
G01 X73.260 Y203.724
G01 X82.943 Y193.543
G01 X92.799 Y183.277
G01 X106.733 Y181.645
G01 X97.069 Y191.816
G01 X82.943 Y193.543
G01 X68.989 Y195.184
G01 X82.943 Y193.543
G01 X73.260 Y203.724
G01 X82.943 Y193.543
G01 X97.069 Y191.816
G01 X88.174 Y202.924
G01 X74.423 Y205.810
G01 X88.174 Y202.924
G01 X79.442 Y213.932
G01 X88.174 Y202.924
G01 X97.069 Y191.816
G01 X106.733 Y181.645
G01 X114.938 Y173.042
G01 X115.723 Y172.298
G01 X116.622 Y171.363
G01 X122.407 Y165.044
G01 X123.991 Y163.499
G01 X126.755 Y160.550
G01 X133.358 Y155.376
G01 X135.030 Y154.214
G01 X138.134 Y151.838
G01 X146.513 Y152.199
G01 X147.877 Y152.182
G01 X152.053 Y152.330
G01 X146.440 Y156.558
G01 X144.373 Y158.335
G01 X141.081 Y160.909
G01 X133.697 Y160.861
G01 X130.662 Y160.648
G01 X126.755 Y160.550
G01 X119.162 Y159.230
G01 X116.170 Y158.519
G01 X112.201 Y157.757
G01 X100.831 Y155.795
G01 X99.434 Y155.479
G01 X98.158 Y155.251
G01 X84.361 Y152.704
G01 X70.635 Y148.945
G01 X57.101 Y145.172
G01 X70.635 Y148.945
G01 X57.814 Y154.694
G01 X70.635 Y148.945
G01 X84.361 Y152.704
G01 X71.917 Y159.609
G01 X58.099 Y157.064
G01 X71.917 Y159.609
G01 X59.663 Y166.483
G01 X71.917 Y159.609
G01 X84.361 Y152.704
G01 X98.158 Y155.251
G01 X85.925 Y162.122
G01 X71.917 Y159.609
G01 X58.099 Y157.064
G01 X71.917 Y159.609
G01 X59.663 Y166.483
G01 X71.917 Y159.609
G01 X85.925 Y162.122
G01 X74.150 Y170.115
G01 X60.160 Y168.819
G01 X74.150 Y170.115
G01 X62.562 Y178.060
G01 X74.150 Y170.115
G01 X85.925 Y162.122
G01 X98.158 Y155.251
G01 X109.852 Y157.389
G01 X110.924 Y157.529
G01 X112.201 Y157.757
G01 X102.808 Y164.459
G01 X101.687 Y165.349
G01 X100.636 Y166.108
G01 X86.633 Y165.225
G01 X72.557 Y163.133
G01 X58.669 Y161.002
G01 X72.557 Y163.133
G01 X60.514 Y170.371
G01 X72.557 Y163.133
G01 X86.633 Y165.225
G01 X75.103 Y173.567
G01 X61.080 Y172.690
G01 X75.103 Y173.567
G01 X63.758 Y181.855
G01 X75.103 Y173.567
G01 X86.633 Y165.225
G01 X100.636 Y166.108
G01 X89.311 Y174.390
G01 X75.103 Y173.567
G01 X61.080 Y172.690
G01 X75.103 Y173.567
G01 X63.758 Y181.855
G01 X75.103 Y173.567
G01 X89.311 Y174.390
G01 X78.574 Y183.731
G01 X64.529 Y184.115
G01 X78.574 Y183.731
G01 X68.018 Y193.003
G01 X78.574 Y183.731
G01 X89.311 Y174.390
G01 X100.636 Y166.108
G01 X110.244 Y159.108
G01 X111.149 Y158.516
G01 X112.201 Y157.757
G01 X120.596 Y159.469
G01 X122.785 Y159.788
G01 X126.755 Y160.550
G01 X121.388 Y166.080
G01 X119.385 Y168.414
G01 X116.622 Y171.363
G01 X105.084 Y171.463
G01 X103.654 Y171.402
G01 X102.357 Y171.405
G01 X88.327 Y171.362
G01 X74.150 Y170.115
G01 X60.160 Y168.819
G01 X74.150 Y170.115
G01 X62.562 Y178.060
G01 X74.150 Y170.115
G01 X88.327 Y171.362
G01 X77.316 Y180.378
G01 X63.266 Y180.342
G01 X77.316 Y180.378
G01 X66.487 Y189.330
G01 X77.316 Y180.378
G01 X88.327 Y171.362
G01 X102.357 Y171.405
G01 X91.548 Y180.350
G01 X77.316 Y180.378
G01 X63.266 Y180.342
G01 X77.316 Y180.378
G01 X66.487 Y189.330
G01 X77.316 Y180.378
G01 X91.548 Y180.350
G01 X81.389 Y190.317
G01 X67.392 Y191.540
G01 X81.389 Y190.317
G01 X71.406 Y200.203
G01 X81.389 Y190.317
G01 X91.548 Y180.350
G01 X102.357 Y171.405
G01 X114.245 Y171.420
G01 X115.325 Y171.367
G01 X116.622 Y171.363
G01 X108.577 Y179.634
G01 X107.632 Y180.710
G01 X106.733 Y181.645
G01 X92.799 Y183.277
G01 X78.574 Y183.731
G01 X64.529 Y184.115
G01 X78.574 Y183.731
G01 X68.018 Y193.003
G01 X78.574 Y183.731
G01 X92.799 Y183.277
G01 X82.943 Y193.543
G01 X68.989 Y195.184
G01 X82.943 Y193.543
G01 X73.260 Y203.724
G01 X82.943 Y193.543
G01 X92.799 Y183.277
G01 X106.733 Y181.645
G01 X97.069 Y191.816
G01 X82.943 Y193.543
G01 X68.989 Y195.184
G01 X82.943 Y193.543
G01 X73.260 Y203.724
G01 X82.943 Y193.543
G01 X97.069 Y191.816
G01 X88.174 Y202.924
G01 X74.423 Y205.810
G01 X88.174 Y202.924
G01 X79.442 Y213.932
G01 X88.174 Y202.924
G01 X97.069 Y191.816
G01 X106.733 Y181.645
G01 X114.938 Y173.042
G01 X115.723 Y172.298
G01 X116.622 Y171.363
G01 X122.407 Y165.044
G01 X123.991 Y163.499
G01 X126.755 Y160.550
G01 X135.138 Y160.854
G01 X137.174 Y160.811
G01 X141.081 Y160.909
G01 X136.013 Y166.279
G01 X134.070 Y168.620
G01 X131.440 Y171.512
G01 X123.734 Y171.569
G01 X120.663 Y171.404
G01 X116.622 Y171.363
G01 X105.084 Y171.463
G01 X103.654 Y171.402
G01 X102.357 Y171.405
G01 X88.327 Y171.362
G01 X74.150 Y170.115
G01 X60.160 Y168.819
G01 X74.150 Y170.115
G01 X62.562 Y178.060
G01 X74.150 Y170.115
G01 X88.327 Y171.362
G01 X77.316 Y180.378
G01 X63.266 Y180.342
G01 X77.316 Y180.378
G01 X66.487 Y189.330
G01 X77.316 Y180.378
G01 X88.327 Y171.362
G01 X102.357 Y171.405
G01 X91.548 Y180.350
G01 X77.316 Y180.378
G01 X63.266 Y180.342
G01 X77.316 Y180.378
G01 X66.487 Y189.330
G01 X77.316 Y180.378
G01 X91.548 Y180.350
G01 X81.389 Y190.317
G01 X67.392 Y191.540
G01 X81.389 Y190.317
G01 X71.406 Y200.203
G01 X81.389 Y190.317
G01 X91.548 Y180.350
G01 X102.357 Y171.405
G01 X114.245 Y171.420
G01 X115.325 Y171.367
G01 X116.622 Y171.363
G01 X108.577 Y179.634
G01 X107.632 Y180.710
G01 X106.733 Y181.645
G01 X92.799 Y183.277
G01 X78.574 Y183.731
G01 X64.529 Y184.115
G01 X78.574 Y183.731
G01 X68.018 Y193.003
G01 X78.574 Y183.731
G01 X92.799 Y183.277
G01 X82.943 Y193.543
G01 X68.989 Y195.184
G01 X82.943 Y193.543
G01 X73.260 Y203.724
G01 X82.943 Y193.543
G01 X92.799 Y183.277
G01 X106.733 Y181.645
G01 X97.069 Y191.816
G01 X82.943 Y193.543
G01 X68.989 Y195.184
