;  Created by Sandify
;  https://sandify.org
;  Version: 0.2.4
;
;  Machine type: Rectangular
;    Min X (mm): 0
;    Max X (mm): 380
;    Min Y (mm): 0
;    Max Y (mm): 280
;  Content type: shape
;  Layer:
;    Shape: FileImport
;    Name: Fractal1.thr
;    From file:: Fractal1.thr
;    Aspect Ratio: true
;    Comments: 
;    Visible: true
;    Initial width: 10
;    Initial height: 10
;    X offset: 0
;    Y offset: 0
;    Rotate (degrees): 0
;    Reverse path: false
;    Fine tuning:
;      Connect to next layer: line
;      Draw portion of path (%): 100
;      Backtrack at end (%): 0
;      Rotate starting point (%): 0
;  Reverse export path: false
;
; File name: 'Fractal1'
;

G01 X190.000 Y140.000
G01 X189.944 Y141.147
G01 X189.775 Y142.286
G01 X189.494 Y143.408
G01 X189.250 Y144.133
G01 X185.250 Y166.173
G01 X183.312 Y168.743
G01 X181.112 Y171.180
G01 X181.037 Y171.256
G01 X178.048 Y175.080
G01 X175.980 Y177.356
G01 X171.505 Y182.773
G01 X169.636 Y184.759
G01 X166.917 Y187.932
G01 X161.325 Y192.754
G01 X158.899 Y194.590
G01 X155.892 Y197.087
G01 X149.306 Y201.088
G01 X146.585 Y202.522
G01 X143.095 Y204.560
G01 X133.241 Y210.562
G01 X131.982 Y211.244
G01 X130.871 Y211.912
G01 X118.805 Y219.071
G01 X105.995 Y225.271
G01 X93.320 Y231.334
G01 X105.995 Y225.271
G01 X100.122 Y238.035
G01 X105.995 Y225.271
G01 X118.805 Y219.071
G01 X113.977 Y232.458
G01 X101.896 Y239.633
G01 X113.977 Y232.458
G01 X109.272 Y245.697
G01 X113.977 Y232.458
G01 X118.805 Y219.071
G01 X130.871 Y211.912
G01 X126.179 Y225.134
G01 X113.977 Y232.458
G01 X101.896 Y239.633
G01 X113.977 Y232.458
G01 X109.272 Y245.697
G01 X113.977 Y232.458
G01 X126.179 Y225.134
G01 X122.571 Y238.901
G01 X111.182 Y247.130
G01 X122.571 Y238.901
G01 X119.071 Y252.508
G01 X122.571 Y238.901
G01 X126.179 Y225.134
G01 X130.871 Y211.912
G01 X141.084 Y205.827
G01 X141.983 Y205.228
G01 X143.095 Y204.560
G01 X140.431 Y215.786
G01 X140.172 Y217.194
G01 X139.880 Y218.457
G01 X128.754 Y227.005
G01 X116.777 Y234.691
G01 X104.916 Y242.224
G01 X116.777 Y234.691
G01 X112.470 Y248.065
G01 X116.777 Y234.691
G01 X128.754 Y227.005
G01 X125.559 Y240.874
G01 X114.422 Y249.439
G01 X125.559 Y240.874
G01 X122.469 Y254.580
G01 X125.559 Y240.874
G01 X128.754 Y227.005
G01 X139.880 Y218.457
G01 X136.800 Y232.145
G01 X125.559 Y240.874
G01 X114.422 Y249.439
G01 X125.559 Y240.874
G01 X122.469 Y254.580
G01 X125.559 Y240.874
G01 X136.800 Y232.145
G01 X134.861 Y246.244
G01 X124.537 Y255.774
G01 X134.861 Y246.244
G01 X133.012 Y260.172
G01 X134.861 Y246.244
G01 X136.800 Y232.145
G01 X139.880 Y218.457
G01 X142.510 Y206.864
G01 X142.802 Y205.823
G01 X143.095 Y204.560
G01 X150.543 Y200.325
G01 X152.402 Y199.125
G01 X155.892 Y197.087
G01 X155.489 Y204.783
G01 X155.517 Y207.858
G01 X155.376 Y211.897
G01 X146.753 Y219.563
G01 X145.635 Y220.458
G01 X144.661 Y221.314
G01 X134.067 Y230.512
G01 X122.571 Y238.901
G01 X111.182 Y247.130
G01 X122.571 Y238.901
G01 X119.071 Y252.508
G01 X122.571 Y238.901
G01 X134.067 Y230.512
G01 X131.707 Y244.547
G01 X121.102 Y253.763
G01 X131.707 Y244.547
G01 X129.442 Y258.413
G01 X131.707 Y244.547
G01 X134.067 Y230.512
G01 X144.661 Y221.314
G01 X142.406 Y235.162
G01 X131.707 Y244.547
G01 X121.102 Y253.763
G01 X131.707 Y244.547
G01 X129.442 Y258.413
G01 X131.707 Y244.547
G01 X142.406 Y235.162
G01 X141.314 Y249.351
G01 X131.577 Y259.481
G01 X141.314 Y249.351
G01 X140.300 Y263.365
G01 X141.314 Y249.351
G01 X142.406 Y235.162
G01 X144.661 Y221.314
G01 X153.624 Y213.504
G01 X154.402 Y212.753
G01 X155.376 Y211.897
G01 X154.759 Y223.419
G01 X154.756 Y224.851
G01 X154.694 Y226.146
G01 X145.274 Y236.543
G01 X134.861 Y246.244
G01 X124.537 Y255.774
G01 X134.861 Y246.244
G01 X133.012 Y260.172
G01 X134.861 Y246.244
G01 X145.274 Y236.543
G01 X144.607 Y250.759
G01 X135.178 Y261.176
G01 X144.607 Y250.759
G01 X144.013 Y264.797
G01 X144.607 Y250.759
G01 X145.274 Y236.543
G01 X154.694 Y226.146
G01 X154.108 Y240.164
G01 X144.607 Y250.759
G01 X135.178 Y261.176
G01 X144.607 Y250.759
G01 X144.013 Y264.797
G01 X144.607 Y250.759
G01 X154.108 Y240.164
G01 X154.718 Y254.382
G01 X146.261 Y265.602
G01 X154.718 Y254.382
G01 X155.385 Y268.416
G01 X154.718 Y254.382
G01 X154.108 Y240.164
G01 X154.694 Y226.146
G01 X155.213 Y214.269
G01 X155.314 Y213.193
G01 X155.376 Y211.897
G01 X155.575 Y203.332
G01 X155.751 Y201.126
G01 X155.892 Y197.087
G01 X162.405 Y191.800
G01 X163.911 Y190.428
G01 X166.917 Y187.932
G01 X166.634 Y195.311
G01 X166.711 Y198.352
G01 X166.634 Y202.260
G01 X160.868 Y207.373
G01 X158.446 Y209.269
G01 X155.376 Y211.897
G01 X146.753 Y219.563
G01 X145.635 Y220.458
G01 X144.661 Y221.314
G01 X134.067 Y230.512
G01 X122.571 Y238.901
G01 X111.182 Y247.130
G01 X122.571 Y238.901
G01 X119.071 Y252.508
G01 X122.571 Y238.901
G01 X134.067 Y230.512
G01 X131.707 Y244.547
G01 X121.102 Y253.763
G01 X131.707 Y244.547
G01 X129.442 Y258.413
G01 X131.707 Y244.547
G01 X134.067 Y230.512
G01 X144.661 Y221.314
G01 X142.406 Y235.162
G01 X131.707 Y244.547
G01 X121.102 Y253.763
G01 X131.707 Y244.547
G01 X129.442 Y258.413
G01 X131.707 Y244.547
G01 X142.406 Y235.162
G01 X141.314 Y249.351
G01 X131.577 Y259.481
G01 X141.314 Y249.351
G01 X140.300 Y263.365
G01 X141.314 Y249.351
G01 X142.406 Y235.162
G01 X144.661 Y221.314
G01 X153.624 Y213.504
G01 X154.402 Y212.753
G01 X155.376 Y211.897
G01 X154.759 Y223.419
G01 X154.756 Y224.851
G01 X154.694 Y226.146
G01 X145.274 Y236.543
G01 X134.861 Y246.244
G01 X124.537 Y255.774
G01 X134.861 Y246.244
G01 X133.012 Y260.172
G01 X134.861 Y246.244
G01 X145.274 Y236.543
G01 X144.607 Y250.759
G01 X135.178 Y261.176
G01 X144.607 Y250.759
G01 X144.013 Y264.797
G01 X144.607 Y250.759
G01 X145.274 Y236.543
G01 X154.694 Y226.146
G01 X154.108 Y240.164
G01 X144.607 Y250.759
G01 X135.178 Y261.176
G01 X144.607 Y250.759
G01 X144.013 Y264.797
G01 X144.607 Y250.759
G01 X154.108 Y240.164
G01 X154.718 Y254.382
G01 X146.261 Y265.602
G01 X154.718 Y254.382
G01 X155.385 Y268.416
G01 X154.718 Y254.382
G01 X154.108 Y240.164
G01 X154.694 Y226.146
G01 X155.213 Y214.269
G01 X155.314 Y213.193
G01 X155.376 Y211.897
G01 X161.949 Y206.401
G01 X163.563 Y204.888
G01 X166.634 Y202.260
G01 X167.612 Y209.904
G01 X168.188 Y212.925
G01 X168.770 Y216.924
G01 X161.654 Y226.007
G01 X160.715 Y227.087
G01 X159.909 Y228.103
G01 X151.128 Y239.045
G01 X141.314 Y249.351
G01 X131.577 Y259.481
G01 X141.314 Y249.351
G01 X140.300 Y263.365
G01 X141.314 Y249.351
G01 X151.128 Y239.045
G01 X151.312 Y253.275
G01 X142.523 Y264.237
G01 X151.312 Y253.275
G01 X151.559 Y267.323
G01 X151.312 Y253.275
G01 X151.128 Y239.045
G01 X159.909 Y228.103
G01 X160.163 Y242.131
G01 X151.312 Y253.275
G01 X142.523 Y264.237
G01 X151.312 Y253.275
G01 X151.559 Y267.323
G01 X151.312 Y253.275
G01 X160.163 Y242.131
G01 X161.621 Y256.287
G01 X153.851 Y267.993
G01 X161.621 Y256.287
G01 X163.127 Y270.257
G01 X161.621 Y256.287
G01 X160.163 Y242.131
G01 X159.909 Y228.103
G01 X167.333 Y218.818
G01 X167.965 Y217.940
G01 X168.770 Y216.924
G01 X170.221 Y228.371
G01 X170.473 Y229.780
G01 X170.643 Y231.066
G01 X163.231 Y242.978
G01 X154.718 Y254.382
G01 X146.261 Y265.602
G01 X154.718 Y254.382
G01 X155.385 Y268.416
G01 X154.718 Y254.382
G01 X163.231 Y242.978
G01 X165.113 Y257.084
G01 X157.696 Y269.017
G01 X165.113 Y257.084
G01 X167.035 Y271.002
G01 X165.113 Y257.084
G01 X163.231 Y242.978
G01 X170.643 Y231.066
G01 X172.570 Y244.963
G01 X165.113 Y257.084
G01 X157.696 Y269.017
G01 X165.113 Y257.084
G01 X167.035 Y271.002
G01 X165.113 Y257.084
G01 X172.570 Y244.963
G01 X175.709 Y258.844
G01 X169.391 Y271.394
G01 X175.709 Y258.844
G01 X178.871 Y272.534
G01 X175.709 Y258.844
G01 X172.570 Y244.963
G01 X170.643 Y231.066
G01 X169.033 Y219.287
G01 X168.941 Y218.210
G01 X168.770 Y216.924
G01 X167.437 Y208.461
G01 X167.216 Y206.259
G01 X166.634 Y202.260
G01 X166.706 Y193.871
G01 X166.840 Y191.839
G01 X166.917 Y187.932
G01 X172.424 Y181.605
G01 X173.261 Y180.529
G01 X175.980 Y177.356
G01 X175.786 Y184.380
G01 X175.887 Y187.105
G01 X175.847 Y191.283
G01 X171.205 Y197.026
G01 X169.146 Y199.266
G01 X166.634 Y202.260
G01 X160.868 Y207.373
G01 X158.446 Y209.269
G01 X155.376 Y211.897
G01 X146.753 Y219.563
G01 X145.635 Y220.458
G01 X144.661 Y221.314
G01 X134.067 Y230.512
G01 X122.571 Y238.901
G01 X111.182 Y247.130
G01 X122.571 Y238.901
G01 X119.071 Y252.508
G01 X122.571 Y238.901
G01 X134.067 Y230.512
G01 X131.707 Y244.547
G01 X121.102 Y253.763
G01 X131.707 Y244.547
G01 X129.442 Y258.413
G01 X131.707 Y244.547
G01 X134.067 Y230.512
G01 X144.661 Y221.314
G01 X142.406 Y235.162
G01 X131.707 Y244.547
G01 X121.102 Y253.763
G01 X131.707 Y244.547
G01 X129.442 Y258.413
G01 X131.707 Y244.547
G01 X142.406 Y235.162
G01 X141.314 Y249.351
G01 X131.577 Y259.481
G01 X141.314 Y249.351
G01 X140.300 Y263.365
G01 X141.314 Y249.351
G01 X142.406 Y235.162
G01 X144.661 Y221.314
G01 X153.624 Y213.504
G01 X154.402 Y212.753
G01 X155.376 Y211.897
G01 X154.759 Y223.419
G01 X154.756 Y224.851
G01 X154.694 Y226.146
G01 X145.274 Y236.543
G01 X134.861 Y246.244
G01 X124.537 Y255.774
G01 X134.861 Y246.244
G01 X133.012 Y260.172
G01 X134.861 Y246.244
G01 X145.274 Y236.543
G01 X144.607 Y250.759
G01 X135.178 Y261.176
G01 X144.607 Y250.759
G01 X144.013 Y264.797
G01 X144.607 Y250.759
G01 X145.274 Y236.543
G01 X154.694 Y226.146
G01 X154.108 Y240.164
G01 X144.607 Y250.759
G01 X135.178 Y261.176
G01 X144.607 Y250.759
G01 X144.013 Y264.797
G01 X144.607 Y250.759
G01 X154.108 Y240.164
G01 X154.718 Y254.382
G01 X146.261 Y265.602
G01 X154.718 Y254.382
G01 X155.385 Y268.416
G01 X154.718 Y254.382
G01 X154.108 Y240.164
G01 X154.694 Y226.146
G01 X155.213 Y214.269
G01 X155.314 Y213.193
G01 X155.376 Y211.897
G01 X161.949 Y206.401
G01 X163.563 Y204.888
G01 X166.634 Y202.260
G01 X167.612 Y209.904
G01 X168.188 Y212.925
G01 X168.770 Y216.924
G01 X161.654 Y226.007
G01 X160.715 Y227.087
G01 X159.909 Y228.103
G01 X151.128 Y239.045
G01 X141.314 Y249.351
G01 X131.577 Y259.481
G01 X141.314 Y249.351
G01 X140.300 Y263.365
G01 X141.314 Y249.351
G01 X151.128 Y239.045
G01 X151.312 Y253.275
G01 X142.523 Y264.237
G01 X151.312 Y253.275
G01 X151.559 Y267.323
G01 X151.312 Y253.275
G01 X151.128 Y239.045
G01 X159.909 Y228.103
G01 X160.163 Y242.131
G01 X151.312 Y253.275
G01 X142.523 Y264.237
G01 X151.312 Y253.275
G01 X151.559 Y267.323
G01 X151.312 Y253.275
G01 X160.163 Y242.131
G01 X161.621 Y256.287
G01 X153.851 Y267.993
G01 X161.621 Y256.287
G01 X163.127 Y270.257
G01 X161.621 Y256.287
G01 X160.163 Y242.131
G01 X159.909 Y228.103
G01 X167.333 Y218.818
G01 X167.965 Y217.940
G01 X168.770 Y216.924
G01 X170.221 Y228.371
G01 X170.473 Y229.780
G01 X170.643 Y231.066
G01 X163.231 Y242.978
G01 X154.718 Y254.382
G01 X146.261 Y265.602
G01 X154.718 Y254.382
G01 X155.385 Y268.416
G01 X154.718 Y254.382
G01 X163.231 Y242.978
G01 X165.113 Y257.084
G01 X157.696 Y269.017
G01 X165.113 Y257.084
G01 X167.035 Y271.002
G01 X165.113 Y257.084
G01 X163.231 Y242.978
G01 X170.643 Y231.066
G01 X172.570 Y244.963
G01 X165.113 Y257.084
G01 X157.696 Y269.017
G01 X165.113 Y257.084
G01 X167.035 Y271.002
G01 X165.113 Y257.084
G01 X172.570 Y244.963
G01 X175.709 Y258.844
G01 X169.391 Y271.394
G01 X175.709 Y258.844
G01 X178.871 Y272.534
G01 X175.709 Y258.844
G01 X172.570 Y244.963
G01 X170.643 Y231.066
G01 X169.033 Y219.287
G01 X168.941 Y218.210
G01 X168.770 Y216.924
G01 X167.437 Y208.461
G01 X167.216 Y206.259
G01 X166.634 Y202.260
G01 X172.098 Y195.895
G01 X173.334 Y194.276
G01 X175.847 Y191.283
G01 X176.885 Y198.594
G01 X177.504 Y201.573
G01 X178.126 Y205.431
G01 X173.366 Y211.492
G01 X171.322 Y213.790
G01 X168.770 Y216.924
G01 X161.654 Y226.007
G01 X160.715 Y227.087
G01 X159.909 Y228.103
G01 X151.128 Y239.045
G01 X141.314 Y249.351
G01 X131.577 Y259.481
G01 X141.314 Y249.351
G01 X140.300 Y263.365
G01 X141.314 Y249.351
G01 X151.128 Y239.045
G01 X151.312 Y253.275
G01 X142.523 Y264.237
G01 X151.312 Y253.275
G01 X151.559 Y267.323
G01 X151.312 Y253.275
G01 X151.128 Y239.045
G01 X159.909 Y228.103
G01 X160.163 Y242.131
G01 X151.312 Y253.275
G01 X142.523 Y264.237
G01 X151.312 Y253.275
G01 X151.559 Y267.323
G01 X151.312 Y253.275
G01 X160.163 Y242.131
G01 X161.621 Y256.287
G01 X153.851 Y267.993
G01 X161.621 Y256.287
G01 X163.127 Y270.257
G01 X161.621 Y256.287
G01 X160.163 Y242.131
G01 X159.909 Y228.103
G01 X167.333 Y218.818
G01 X167.965 Y217.940
G01 X168.770 Y216.924
G01 X170.221 Y228.371
G01 X170.473 Y229.780
G01 X170.643 Y231.066
G01 X163.231 Y242.978
G01 X154.718 Y254.382
G01 X146.261 Y265.602
G01 X154.718 Y254.382
G01 X155.385 Y268.416
G01 X154.718 Y254.382
G01 X163.231 Y242.978
G01 X165.113 Y257.084
G01 X157.696 Y269.017
G01 X165.113 Y257.084
G01 X167.035 Y271.002
G01 X165.113 Y257.084
G01 X163.231 Y242.978
G01 X170.643 Y231.066
G01 X172.570 Y244.963
G01 X165.113 Y257.084
G01 X157.696 Y269.017
G01 X165.113 Y257.084
G01 X167.035 Y271.002
G01 X165.113 Y257.084
G01 X172.570 Y244.963
G01 X175.709 Y258.844
G01 X169.391 Y271.394
G01 X175.709 Y258.844
G01 X178.871 Y272.534
G01 X175.709 Y258.844
G01 X172.570 Y244.963
G01 X170.643 Y231.066
G01 X169.033 Y219.287
G01 X168.941 Y218.210
G01 X168.770 Y216.924
G01 X174.256 Y210.343
G01 X175.574 Y208.566
G01 X178.126 Y205.431
G01 X180.453 Y212.778
G01 X181.559 Y215.648
G01 X182.847 Y219.479
G01 X177.467 Y229.686
G01 X176.735 Y230.916
G01 X176.124 Y232.060
G01 X169.438 Y244.394
G01 X161.621 Y256.287
G01 X153.851 Y267.993
G01 X161.621 Y256.287
G01 X163.127 Y270.257
G01 X161.621 Y256.287
G01 X169.438 Y244.394
G01 X172.160 Y258.363
G01 X165.469 Y270.718
G01 X172.160 Y258.363
G01 X174.911 Y272.141
G01 X172.160 Y258.363
G01 X169.438 Y244.394
G01 X176.124 Y232.060
G01 X178.878 Y245.817
G01 X172.160 Y258.363
G01 X165.469 Y270.718
G01 X172.160 Y258.363
G01 X174.911 Y272.141
G01 X172.160 Y258.363
G01 X178.878 Y245.817
G01 X182.841 Y259.486
G01 X177.286 Y272.391
G01 X182.841 Y259.486
G01 X186.817 Y272.962
G01 X182.841 Y259.486
G01 X178.878 Y245.817
G01 X176.124 Y232.060
G01 X181.771 Y221.599
G01 X182.236 Y220.623
G01 X182.847 Y219.479
G01 X186.318 Y230.482
G01 X186.818 Y231.824
G01 X187.215 Y233.058
G01 X182.049 Y246.102
G01 X175.709 Y258.844
G01 X169.391 Y271.394
G01 X175.709 Y258.844
G01 X178.871 Y272.534
G01 X175.709 Y258.844
G01 X182.049 Y246.102
G01 X186.419 Y259.646
G01 X181.252 Y272.712
G01 X186.419 Y259.646
G01 X190.796 Y272.998
G01 X186.419 Y259.646
G01 X182.049 Y246.102
G01 X187.215 Y233.058
G01 X191.592 Y246.388
G01 X186.419 Y259.646
G01 X181.252 Y272.712
G01 X186.419 Y259.646
G01 X190.796 Y272.998
G01 X186.419 Y259.646
G01 X191.592 Y246.388
G01 X197.159 Y259.486
G01 X193.183 Y272.962
G01 X197.159 Y259.486
G01 X202.714 Y272.391
G01 X197.159 Y259.486
G01 X191.592 Y246.388
G01 X187.215 Y233.058
G01 X183.527 Y221.757
G01 X183.244 Y220.713
G01 X182.847 Y219.479
G01 X180.024 Y211.389
G01 X179.413 Y209.262
G01 X178.126 Y205.431
G01 X176.699 Y197.165
G01 X176.468 Y195.142
G01 X175.847 Y191.283
G01 X175.863 Y182.895
G01 X175.940 Y181.534
G01 X175.980 Y177.356
G01 X179.216 Y173.671
G01 X181.037 Y171.256
G01 X183.245 Y168.824
G01 X185.192 Y166.257
G01 X185.250 Y166.173
G01 X186.162 Y169.260
G01 X187.366 Y172.314
G01 X187.409 Y172.412
G01 X188.863 Y177.043
G01 X190.000 Y179.900
G01 X187.713 Y186.544
G01 X186.662 Y189.060
G01 X185.231 Y192.986
G01 X181.690 Y199.466
G01 X180.064 Y202.037
G01 X178.126 Y205.431
G01 X173.366 Y211.492
G01 X171.322 Y213.790
G01 X168.770 Y216.924
G01 X161.654 Y226.007
G01 X160.715 Y227.087
G01 X159.909 Y228.103
G01 X151.128 Y239.045
G01 X141.314 Y249.351
G01 X131.577 Y259.481
G01 X141.314 Y249.351
G01 X140.300 Y263.365
G01 X141.314 Y249.351
G01 X151.128 Y239.045
G01 X151.312 Y253.275
G01 X142.523 Y264.237
G01 X151.312 Y253.275
G01 X151.559 Y267.323
G01 X151.312 Y253.275
G01 X151.128 Y239.045
G01 X159.909 Y228.103
G01 X160.163 Y242.131
G01 X151.312 Y253.275
G01 X142.523 Y264.237
G01 X151.312 Y253.275
G01 X151.559 Y267.323
G01 X151.312 Y253.275
G01 X160.163 Y242.131
G01 X161.621 Y256.287
G01 X153.851 Y267.993
G01 X161.621 Y256.287
G01 X163.127 Y270.257
G01 X161.621 Y256.287
G01 X160.163 Y242.131
G01 X159.909 Y228.103
G01 X167.333 Y218.818
G01 X167.965 Y217.940
G01 X168.770 Y216.924
G01 X170.221 Y228.371
G01 X170.473 Y229.780
G01 X170.643 Y231.066
G01 X163.231 Y242.978
G01 X154.718 Y254.382
G01 X146.261 Y265.602
G01 X154.718 Y254.382
G01 X155.385 Y268.416
G01 X154.718 Y254.382
G01 X163.231 Y242.978
G01 X165.113 Y257.084
G01 X157.696 Y269.017
G01 X165.113 Y257.084
G01 X167.035 Y271.002
G01 X165.113 Y257.084
G01 X163.231 Y242.978
G01 X170.643 Y231.066
G01 X172.570 Y244.963
G01 X165.113 Y257.084
G01 X157.696 Y269.017
G01 X165.113 Y257.084
G01 X167.035 Y271.002
G01 X165.113 Y257.084
G01 X172.570 Y244.963
G01 X175.709 Y258.844
G01 X169.391 Y271.394
G01 X175.709 Y258.844
G01 X178.871 Y272.534
G01 X175.709 Y258.844
G01 X172.570 Y244.963
G01 X170.643 Y231.066
G01 X169.033 Y219.287
G01 X168.941 Y218.210
G01 X168.770 Y216.924
G01 X174.256 Y210.343
G01 X175.574 Y208.566
G01 X178.126 Y205.431
G01 X180.453 Y212.778
G01 X181.559 Y215.648
G01 X182.847 Y219.479
G01 X177.467 Y229.686
G01 X176.735 Y230.916
G01 X176.124 Y232.060
G01 X169.438 Y244.394
G01 X161.621 Y256.287
G01 X153.851 Y267.993
G01 X161.621 Y256.287
G01 X163.127 Y270.257
G01 X161.621 Y256.287
G01 X169.438 Y244.394
G01 X172.160 Y258.363
G01 X165.469 Y270.718
G01 X172.160 Y258.363
G01 X174.911 Y272.141
G01 X172.160 Y258.363
G01 X169.438 Y244.394
G01 X176.124 Y232.060
G01 X178.878 Y245.817
G01 X172.160 Y258.363
G01 X165.469 Y270.718
G01 X172.160 Y258.363
G01 X174.911 Y272.141
G01 X172.160 Y258.363
G01 X178.878 Y245.817
G01 X182.841 Y259.486
G01 X177.286 Y272.391
G01 X182.841 Y259.486
G01 X186.817 Y272.962
G01 X182.841 Y259.486
G01 X178.878 Y245.817
G01 X176.124 Y232.060
G01 X181.771 Y221.599
G01 X182.236 Y220.623
G01 X182.847 Y219.479
G01 X186.318 Y230.482
G01 X186.818 Y231.824
G01 X187.215 Y233.058
G01 X182.049 Y246.102
G01 X175.709 Y258.844
G01 X169.391 Y271.394
G01 X175.709 Y258.844
G01 X178.871 Y272.534
G01 X175.709 Y258.844
G01 X182.049 Y246.102
G01 X186.419 Y259.646
G01 X181.252 Y272.712
G01 X186.419 Y259.646
G01 X190.796 Y272.998
G01 X186.419 Y259.646
G01 X182.049 Y246.102
G01 X187.215 Y233.058
G01 X191.592 Y246.388
G01 X186.419 Y259.646
G01 X181.252 Y272.712
G01 X186.419 Y259.646
G01 X190.796 Y272.998
G01 X186.419 Y259.646
G01 X191.592 Y246.388
G01 X197.159 Y259.486
G01 X193.183 Y272.962
G01 X197.159 Y259.486
G01 X202.714 Y272.391
G01 X197.159 Y259.486
G01 X191.592 Y246.388
G01 X187.215 Y233.058
G01 X183.527 Y221.757
G01 X183.244 Y220.713
G01 X182.847 Y219.479
G01 X180.024 Y211.389
G01 X179.413 Y209.262
G01 X178.126 Y205.431
G01 X182.366 Y198.193
G01 X183.293 Y196.380
G01 X185.231 Y192.986
G01 X187.559 Y199.994
G01 X188.699 Y202.814
G01 X190.000 Y206.500
G01 X186.398 Y213.313
G01 X184.798 Y215.939
G01 X182.847 Y219.479
G01 X177.467 Y229.686
G01 X176.735 Y230.916
G01 X176.124 Y232.060
G01 X169.438 Y244.394
G01 X161.621 Y256.287
G01 X153.851 Y267.993
G01 X161.621 Y256.287
G01 X163.127 Y270.257
G01 X161.621 Y256.287
G01 X169.438 Y244.394
G01 X172.160 Y258.363
G01 X165.469 Y270.718
G01 X172.160 Y258.363
G01 X174.911 Y272.141
G01 X172.160 Y258.363
G01 X169.438 Y244.394
G01 X176.124 Y232.060
G01 X178.878 Y245.817
G01 X172.160 Y258.363
G01 X165.469 Y270.718
G01 X172.160 Y258.363
G01 X174.911 Y272.141
G01 X172.160 Y258.363
G01 X178.878 Y245.817
G01 X182.841 Y259.486
G01 X177.286 Y272.391
G01 X182.841 Y259.486
G01 X186.817 Y272.962
G01 X182.841 Y259.486
G01 X178.878 Y245.817
G01 X176.124 Y232.060
G01 X181.771 Y221.599
G01 X182.236 Y220.623
G01 X182.847 Y219.479
G01 X186.318 Y230.482
G01 X186.818 Y231.824
G01 X187.215 Y233.058
G01 X182.049 Y246.102
G01 X175.709 Y258.844
G01 X169.391 Y271.394
G01 X175.709 Y258.844
G01 X178.871 Y272.534
G01 X175.709 Y258.844
G01 X182.049 Y246.102
G01 X186.419 Y259.646
G01 X181.252 Y272.712
G01 X186.419 Y259.646
G01 X190.796 Y272.998
G01 X186.419 Y259.646
G01 X182.049 Y246.102
G01 X187.215 Y233.058
G01 X191.592 Y246.388
G01 X186.419 Y259.646
G01 X181.252 Y272.712
G01 X186.419 Y259.646
G01 X190.796 Y272.998
G01 X186.419 Y259.646
G01 X191.592 Y246.388
G01 X197.159 Y259.486
G01 X193.183 Y272.962
G01 X197.159 Y259.486
G01 X202.714 Y272.391
G01 X197.159 Y259.486
G01 X191.592 Y246.388
G01 X187.215 Y233.058
G01 X183.527 Y221.757
G01 X183.244 Y220.713
G01 X182.847 Y219.479
G01 X187.069 Y212.024
G01 X188.049 Y210.040
G01 X190.000 Y206.500
G01 X193.602 Y213.313
G01 X195.202 Y215.939
G01 X197.153 Y219.479
G01 X193.682 Y230.482
G01 X193.182 Y231.824
G01 X192.785 Y233.058
G01 X188.408 Y246.388
G01 X182.841 Y259.486
G01 X177.286 Y272.391
G01 X182.841 Y259.486
G01 X186.817 Y272.962
G01 X182.841 Y259.486
G01 X188.408 Y246.388
G01 X193.581 Y259.646
G01 X189.204 Y272.998
G01 X193.581 Y259.646
G01 X198.748 Y272.712
G01 X193.581 Y259.646
G01 X188.408 Y246.388
G01 X192.785 Y233.058
G01 X197.951 Y246.102
G01 X193.581 Y259.646
G01 X189.204 Y272.998
G01 X193.581 Y259.646
G01 X198.748 Y272.712
G01 X193.581 Y259.646
G01 X197.951 Y246.102
G01 X204.291 Y258.844
G01 X201.129 Y272.534
G01 X204.291 Y258.844
G01 X210.609 Y271.394
G01 X204.291 Y258.844
G01 X197.951 Y246.102
G01 X192.785 Y233.058
G01 X196.473 Y221.757
G01 X196.756 Y220.713
G01 X197.153 Y219.479
G01 X202.533 Y229.686
G01 X203.265 Y230.916
G01 X203.876 Y232.060
G01 X201.122 Y245.817
G01 X197.159 Y259.486
G01 X193.183 Y272.962
G01 X197.159 Y259.486
G01 X202.714 Y272.391
G01 X197.159 Y259.486
G01 X201.122 Y245.817
G01 X207.840 Y258.363
G01 X205.089 Y272.141
G01 X207.840 Y258.363
G01 X214.531 Y270.718
G01 X207.840 Y258.363
G01 X201.122 Y245.817
G01 X203.876 Y232.060
G01 X210.562 Y244.394
G01 X207.840 Y258.363
G01 X205.089 Y272.141
G01 X207.840 Y258.363
G01 X214.531 Y270.718
G01 X207.840 Y258.363
G01 X210.562 Y244.394
G01 X218.379 Y256.287
G01 X216.873 Y270.257
G01 X218.379 Y256.287
G01 X226.149 Y267.993
G01 X218.379 Y256.287
G01 X210.562 Y244.394
G01 X203.876 Y232.060
G01 X198.229 Y221.599
G01 X197.764 Y220.623
G01 X197.153 Y219.479
G01 X192.931 Y212.024
G01 X191.951 Y210.040
G01 X190.000 Y206.500
G01 X187.120 Y198.621
G01 X186.532 Y196.672
G01 X185.231 Y192.986
G01 X188.164 Y185.128
G01 X188.569 Y183.826
G01 X190.000 Y179.900
G01 X192.287 Y186.544
G01 X193.338 Y189.060
G01 X194.769 Y192.986
G01 X192.441 Y199.994
G01 X191.301 Y202.814
G01 X190.000 Y206.500
G01 X186.398 Y213.313
G01 X184.798 Y215.939
G01 X182.847 Y219.479
G01 X177.467 Y229.686
G01 X176.735 Y230.916
G01 X176.124 Y232.060
G01 X169.438 Y244.394
G01 X161.621 Y256.287
G01 X153.851 Y267.993
G01 X161.621 Y256.287
G01 X163.127 Y270.257
G01 X161.621 Y256.287
G01 X169.438 Y244.394
G01 X172.160 Y258.363
G01 X165.469 Y270.718
G01 X172.160 Y258.363
G01 X174.911 Y272.141
G01 X172.160 Y258.363
G01 X169.438 Y244.394
G01 X176.124 Y232.060
G01 X178.878 Y245.817
G01 X172.160 Y258.363
G01 X165.469 Y270.718
G01 X172.160 Y258.363
G01 X174.911 Y272.141
G01 X172.160 Y258.363
G01 X178.878 Y245.817
G01 X182.841 Y259.486
G01 X177.286 Y272.391
G01 X182.841 Y259.486
G01 X186.817 Y272.962
G01 X182.841 Y259.486
G01 X178.878 Y245.817
G01 X176.124 Y232.060
G01 X181.771 Y221.599
G01 X182.236 Y220.623
G01 X182.847 Y219.479
G01 X186.318 Y230.482
G01 X186.818 Y231.824
G01 X187.215 Y233.058
G01 X182.049 Y246.102
G01 X175.709 Y258.844
G01 X169.391 Y271.394
G01 X175.709 Y258.844
G01 X178.871 Y272.534
G01 X175.709 Y258.844
G01 X182.049 Y246.102
G01 X186.419 Y259.646
G01 X181.252 Y272.712
G01 X186.419 Y259.646
G01 X190.796 Y272.998
G01 X186.419 Y259.646
G01 X182.049 Y246.102
G01 X187.215 Y233.058
G01 X191.592 Y246.388
G01 X186.419 Y259.646
G01 X181.252 Y272.712
G01 X186.419 Y259.646
G01 X190.796 Y272.998
G01 X186.419 Y259.646
G01 X191.592 Y246.388
G01 X197.159 Y259.486
G01 X193.183 Y272.962
G01 X197.159 Y259.486
G01 X202.714 Y272.391
G01 X197.159 Y259.486
G01 X191.592 Y246.388
G01 X187.215 Y233.058
G01 X183.527 Y221.757
G01 X183.244 Y220.713
G01 X182.847 Y219.479
G01 X187.069 Y212.024
G01 X188.049 Y210.040
G01 X190.000 Y206.500
G01 X193.602 Y213.313
G01 X195.202 Y215.939
G01 X197.153 Y219.479
G01 X193.682 Y230.482
G01 X193.182 Y231.824
G01 X192.785 Y233.058
G01 X188.408 Y246.388
G01 X182.841 Y259.486
G01 X177.286 Y272.391
G01 X182.841 Y259.486
G01 X186.817 Y272.962
G01 X182.841 Y259.486
G01 X188.408 Y246.388
G01 X193.581 Y259.646
G01 X189.204 Y272.998
G01 X193.581 Y259.646
G01 X198.748 Y272.712
G01 X193.581 Y259.646
G01 X188.408 Y246.388
G01 X192.785 Y233.058
G01 X197.951 Y246.102
G01 X193.581 Y259.646
G01 X189.204 Y272.998
G01 X193.581 Y259.646
G01 X198.748 Y272.712
G01 X193.581 Y259.646
G01 X197.951 Y246.102
G01 X204.291 Y258.844
G01 X201.129 Y272.534
G01 X204.291 Y258.844
G01 X210.609 Y271.394
G01 X204.291 Y258.844
G01 X197.951 Y246.102
G01 X192.785 Y233.058
G01 X196.473 Y221.757
G01 X196.756 Y220.713
G01 X197.153 Y219.479
G01 X202.533 Y229.686
G01 X203.265 Y230.916
G01 X203.876 Y232.060
G01 X201.122 Y245.817
G01 X197.159 Y259.486
G01 X193.183 Y272.962
G01 X197.159 Y259.486
G01 X202.714 Y272.391
G01 X197.159 Y259.486
G01 X201.122 Y245.817
G01 X207.840 Y258.363
G01 X205.089 Y272.141
G01 X207.840 Y258.363
G01 X214.531 Y270.718
G01 X207.840 Y258.363
G01 X201.122 Y245.817
G01 X203.876 Y232.060
G01 X210.562 Y244.394
G01 X207.840 Y258.363
G01 X205.089 Y272.141
G01 X207.840 Y258.363
G01 X214.531 Y270.718
G01 X207.840 Y258.363
G01 X210.562 Y244.394
G01 X218.379 Y256.287
G01 X216.873 Y270.257
G01 X218.379 Y256.287
G01 X226.149 Y267.993
G01 X218.379 Y256.287
G01 X210.562 Y244.394
G01 X203.876 Y232.060
G01 X198.229 Y221.599
G01 X197.764 Y220.623
G01 X197.153 Y219.479
G01 X192.931 Y212.024
G01 X191.951 Y210.040
G01 X190.000 Y206.500
G01 X192.880 Y198.621
G01 X193.468 Y196.672
G01 X194.769 Y192.986
G01 X198.310 Y199.466
G01 X199.936 Y202.037
G01 X201.874 Y205.431
G01 X199.547 Y212.778
G01 X198.441 Y215.648
G01 X197.153 Y219.479
G01 X193.682 Y230.482
G01 X193.182 Y231.824
G01 X192.785 Y233.058
G01 X188.408 Y246.388
G01 X182.841 Y259.486
G01 X177.286 Y272.391
G01 X182.841 Y259.486
G01 X186.817 Y272.962
G01 X182.841 Y259.486
G01 X188.408 Y246.388
G01 X193.581 Y259.646
G01 X189.204 Y272.998
G01 X193.581 Y259.646
G01 X198.748 Y272.712
G01 X193.581 Y259.646
G01 X188.408 Y246.388
G01 X192.785 Y233.058
G01 X197.951 Y246.102
G01 X193.581 Y259.646
G01 X189.204 Y272.998
G01 X193.581 Y259.646
G01 X198.748 Y272.712
G01 X193.581 Y259.646
G01 X197.951 Y246.102
G01 X204.291 Y258.844
G01 X201.129 Y272.534
G01 X204.291 Y258.844
G01 X210.609 Y271.394
G01 X204.291 Y258.844
G01 X197.951 Y246.102
G01 X192.785 Y233.058
G01 X196.473 Y221.757
G01 X196.756 Y220.713
G01 X197.153 Y219.479
G01 X202.533 Y229.686
G01 X203.265 Y230.916
G01 X203.876 Y232.060
G01 X201.122 Y245.817
G01 X197.159 Y259.486
G01 X193.183 Y272.962
G01 X197.159 Y259.486
G01 X202.714 Y272.391
G01 X197.159 Y259.486
G01 X201.122 Y245.817
G01 X207.840 Y258.363
G01 X205.089 Y272.141
G01 X207.840 Y258.363
G01 X214.531 Y270.718
G01 X207.840 Y258.363
G01 X201.122 Y245.817
G01 X203.876 Y232.060
G01 X210.562 Y244.394
G01 X207.840 Y258.363
G01 X205.089 Y272.141
G01 X207.840 Y258.363
G01 X214.531 Y270.718
G01 X207.840 Y258.363
G01 X210.562 Y244.394
G01 X218.379 Y256.287
G01 X216.873 Y270.257
G01 X218.379 Y256.287
G01 X226.149 Y267.993
G01 X218.379 Y256.287
G01 X210.562 Y244.394
G01 X203.876 Y232.060
G01 X198.229 Y221.599
G01 X197.764 Y220.623
G01 X197.153 Y219.479
G01 X199.976 Y211.389
G01 X200.587 Y209.262
G01 X201.874 Y205.431
G01 X206.634 Y211.492
G01 X208.678 Y213.790
G01 X211.230 Y216.924
G01 X209.779 Y228.371
G01 X209.527 Y229.780
G01 X209.357 Y231.066
G01 X207.430 Y244.963
G01 X204.291 Y258.844
G01 X201.129 Y272.534
G01 X204.291 Y258.844
G01 X210.609 Y271.394
G01 X204.291 Y258.844
G01 X207.430 Y244.963
G01 X214.887 Y257.084
G01 X212.965 Y271.002
G01 X214.887 Y257.084
G01 X222.304 Y269.017
G01 X214.887 Y257.084
G01 X207.430 Y244.963
G01 X209.357 Y231.066
G01 X216.769 Y242.978
G01 X214.887 Y257.084
G01 X212.965 Y271.002
G01 X214.887 Y257.084
G01 X222.304 Y269.017
G01 X214.887 Y257.084
G01 X216.769 Y242.978
G01 X225.282 Y254.382
G01 X224.615 Y268.416
G01 X225.282 Y254.382
G01 X233.739 Y265.602
G01 X225.282 Y254.382
G01 X216.769 Y242.978
G01 X209.357 Y231.066
G01 X210.967 Y219.287
G01 X211.059 Y218.210
G01 X211.230 Y216.924
G01 X218.346 Y226.007
G01 X219.285 Y227.087
G01 X220.091 Y228.103
G01 X219.837 Y242.131
G01 X218.379 Y256.287
G01 X216.873 Y270.257
G01 X218.379 Y256.287
G01 X226.149 Y267.993
G01 X218.379 Y256.287
G01 X219.837 Y242.131
G01 X228.688 Y253.275
G01 X228.441 Y267.323
G01 X228.688 Y253.275
G01 X237.477 Y264.237
G01 X228.688 Y253.275
G01 X219.837 Y242.131
G01 X220.091 Y228.103
G01 X228.872 Y239.045
G01 X228.688 Y253.275
G01 X228.441 Y267.323
G01 X228.688 Y253.275
G01 X237.477 Y264.237
G01 X228.688 Y253.275
G01 X228.872 Y239.045
G01 X238.686 Y249.351
G01 X239.700 Y263.365
G01 X238.686 Y249.351
G01 X248.423 Y259.481
G01 X238.686 Y249.351
G01 X228.872 Y239.045
G01 X220.091 Y228.103
G01 X212.667 Y218.818
G01 X212.035 Y217.940
G01 X211.230 Y216.924
G01 X205.744 Y210.343
G01 X204.426 Y208.566
G01 X201.874 Y205.431
G01 X197.634 Y198.193
G01 X196.707 Y196.380
G01 X194.769 Y192.986
G01 X191.836 Y185.128
G01 X191.431 Y183.826
G01 X190.000 Y179.900
G01 X188.265 Y175.313
G01 X187.409 Y172.412
G01 X186.196 Y169.359
G01 X185.275 Y166.273
G01 X185.250 Y166.173
G01 X189.750 Y141.378
G01 X189.834 Y141.263
G01 X189.907 Y141.144
G01 X189.967 Y141.021
G01 X190.015 Y140.895
G01 X190.051 Y140.767
G01 X190.074 Y140.638
G01 X190.084 Y140.509
G01 X190.082 Y140.381
G01 X190.068 Y140.254
G01 X190.042 Y140.130
G01 X190.004 Y140.010
G01 X190.000 Y140.000
G01 X190.034 Y140.078
G01 X190.076 Y140.153
G01 X190.126 Y140.224
G01 X190.182 Y140.290
G01 X190.245 Y140.351
G01 X190.315 Y140.406
G01 X190.390 Y140.455
G01 X190.471 Y140.498
G01 X190.556 Y140.534
G01 X190.647 Y140.562
G01 X190.741 Y140.582
G01 X190.838 Y140.595
G01 X190.939 Y140.599
G01 X191.041 Y140.595
G01 X191.146 Y140.582
G01 X191.251 Y140.560
G01 X191.287 Y140.550
G01 X214.459 Y150.454
G01 X216.534 Y152.916
G01 X218.420 Y155.603
G01 X218.478 Y155.694
G01 X221.541 Y159.458
G01 X223.299 Y161.981
G01 X227.585 Y167.549
G01 X229.105 Y169.813
G01 X231.593 Y173.170
G01 X235.051 Y179.695
G01 X236.301 Y182.469
G01 X238.066 Y185.956
G01 X240.502 Y193.267
G01 X241.293 Y196.239
G01 X242.504 Y200.095
G01 X246.163 Y211.038
G01 X246.547 Y212.417
G01 X246.952 Y213.649
G01 X251.246 Y227.005
G01 X254.441 Y240.874
G01 X257.531 Y254.580
G01 X254.441 Y240.874
G01 X265.578 Y249.439
G01 X254.441 Y240.874
G01 X251.246 Y227.005
G01 X263.223 Y234.691
G01 X267.530 Y248.065
G01 X263.223 Y234.691
G01 X275.084 Y242.224
G01 X263.223 Y234.691
G01 X251.246 Y227.005
G01 X246.952 Y213.649
G01 X258.798 Y221.165
G01 X263.223 Y234.691
G01 X267.530 Y248.065
G01 X263.223 Y234.691
G01 X275.084 Y242.224
G01 X263.223 Y234.691
G01 X258.798 Y221.165
G01 X271.417 Y227.746
G01 X276.905 Y240.680
G01 X271.417 Y227.746
G01 X283.904 Y234.186
G01 X271.417 Y227.746
G01 X258.798 Y221.165
G01 X246.952 Y213.649
G01 X243.292 Y202.338
G01 X242.908 Y201.327
G01 X242.504 Y200.095
G01 X252.856 Y205.191
G01 X254.171 Y205.756
G01 X255.337 Y206.322
G01 X261.195 Y219.071
G01 X266.023 Y232.458
G01 X270.728 Y245.697
G01 X266.023 Y232.458
G01 X278.104 Y239.633
G01 X266.023 Y232.458
G01 X261.195 Y219.071
G01 X274.005 Y225.271
G01 X279.878 Y238.035
G01 X274.005 Y225.271
G01 X286.680 Y231.334
G01 X274.005 Y225.271
G01 X261.195 Y219.071
G01 X255.337 Y206.322
G01 X267.997 Y212.370
G01 X274.005 Y225.271
G01 X279.878 Y238.035
G01 X274.005 Y225.271
G01 X286.680 Y231.334
G01 X274.005 Y225.271
G01 X267.997 Y212.370
G01 X281.311 Y217.398
G01 X288.304 Y229.584
G01 X281.311 Y217.398
G01 X294.478 Y222.300
G01 X281.311 Y217.398
G01 X267.997 Y212.370
G01 X255.337 Y206.322
G01 X244.620 Y201.178
G01 X243.670 Y200.661
G01 X242.504 Y200.095
G01 X240.033 Y191.891
G01 X239.276 Y189.812
G01 X238.066 Y185.956
G01 X245.479 Y188.061
G01 X248.484 Y188.718
G01 X252.390 Y189.754
G01 X257.945 Y199.868
G01 X258.569 Y201.156
G01 X259.187 Y202.296
G01 X265.797 Y214.671
G01 X271.417 Y227.746
G01 X276.905 Y240.680
G01 X271.417 Y227.746
G01 X283.904 Y234.186
G01 X271.417 Y227.746
G01 X265.797 Y214.671
G01 X278.954 Y220.095
G01 X285.580 Y232.485
G01 X278.954 Y220.095
G01 X291.969 Y225.389
G01 X278.954 Y220.095
G01 X265.797 Y214.671
G01 X259.187 Y202.296
G01 X272.185 Y207.576
G01 X278.954 Y220.095
G01 X285.580 Y232.485
G01 X278.954 Y220.095
G01 X291.969 Y225.389
G01 X278.954 Y220.095
G01 X272.185 Y207.576
G01 X285.776 Y211.799
G01 X293.486 Y223.545
G01 X285.776 Y211.799
G01 X299.213 Y215.905
G01 X285.776 Y211.799
G01 X272.185 Y207.576
G01 X259.187 Y202.296
G01 X253.567 Y191.821
G01 X253.008 Y190.895
G01 X252.390 Y189.754
G01 X263.486 Y192.920
G01 X264.881 Y193.241
G01 X266.130 Y193.590
G01 X274.170 Y205.087
G01 X281.311 Y217.398
G01 X288.304 Y229.584
G01 X281.311 Y217.398
G01 X294.478 Y222.300
G01 X281.311 Y217.398
G01 X274.170 Y205.087
G01 X287.881 Y208.901
G01 X295.938 Y220.412
G01 X287.881 Y208.901
G01 X301.435 Y212.604
G01 X287.881 Y208.901
G01 X274.170 Y205.087
G01 X266.130 Y193.590
G01 X279.666 Y197.281
G01 X287.881 Y208.901
G01 X295.938 Y220.412
G01 X287.881 Y208.901
G01 X301.435 Y212.604
G01 X287.881 Y208.901
G01 X279.666 Y197.281
G01 X293.663 Y199.850
G01 X302.720 Y210.592
G01 X293.663 Y199.850
G01 X307.494 Y202.323
G01 X293.663 Y199.850
G01 X279.666 Y197.281
G01 X266.130 Y193.590
G01 X254.666 Y190.442
G01 X253.639 Y190.103
G01 X252.390 Y189.754
G01 X244.084 Y187.654
G01 X241.972 Y186.992
G01 X238.066 Y185.956
G01 X234.361 Y178.429
G01 X233.359 Y176.657
G01 X231.593 Y173.170
G01 X238.724 Y175.088
G01 X241.707 Y175.690
G01 X245.499 Y176.635
G01 X249.201 Y183.394
G01 X250.511 Y186.176
G01 X252.390 Y189.754
G01 X257.945 Y199.868
G01 X258.569 Y201.156
G01 X259.187 Y202.296
G01 X265.797 Y214.671
G01 X271.417 Y227.746
G01 X276.905 Y240.680
G01 X271.417 Y227.746
G01 X283.904 Y234.186
G01 X271.417 Y227.746
G01 X265.797 Y214.671
G01 X278.954 Y220.095
G01 X285.580 Y232.485
G01 X278.954 Y220.095
G01 X291.969 Y225.389
G01 X278.954 Y220.095
G01 X265.797 Y214.671
G01 X259.187 Y202.296
G01 X272.185 Y207.576
G01 X278.954 Y220.095
G01 X285.580 Y232.485
G01 X278.954 Y220.095
G01 X291.969 Y225.389
G01 X278.954 Y220.095
G01 X272.185 Y207.576
G01 X285.776 Y211.799
G01 X293.486 Y223.545
G01 X285.776 Y211.799
G01 X299.213 Y215.905
G01 X285.776 Y211.799
G01 X272.185 Y207.576
G01 X259.187 Y202.296
G01 X253.567 Y191.821
G01 X253.008 Y190.895
G01 X252.390 Y189.754
G01 X263.486 Y192.920
G01 X264.881 Y193.241
G01 X266.130 Y193.590
G01 X274.170 Y205.087
G01 X281.311 Y217.398
G01 X288.304 Y229.584
G01 X281.311 Y217.398
G01 X294.478 Y222.300
G01 X281.311 Y217.398
G01 X274.170 Y205.087
G01 X287.881 Y208.901
G01 X295.938 Y220.412
G01 X287.881 Y208.901
G01 X301.435 Y212.604
G01 X287.881 Y208.901
G01 X274.170 Y205.087
G01 X266.130 Y193.590
G01 X279.666 Y197.281
G01 X287.881 Y208.901
G01 X295.938 Y220.412
G01 X287.881 Y208.901
G01 X301.435 Y212.604
G01 X287.881 Y208.901
G01 X279.666 Y197.281
G01 X293.663 Y199.850
G01 X302.720 Y210.592
G01 X293.663 Y199.850
G01 X307.494 Y202.323
G01 X293.663 Y199.850
G01 X279.666 Y197.281
G01 X266.130 Y193.590
G01 X254.666 Y190.442
G01 X253.639 Y190.103
G01 X252.390 Y189.754
G01 X248.494 Y182.124
G01 X247.378 Y180.213
G01 X245.499 Y176.635
G01 X253.169 Y177.382
G01 X256.243 Y177.493
G01 X260.272 Y177.815
G01 X267.543 Y186.773
G01 X268.387 Y187.930
G01 X269.198 Y188.941
G01 X277.912 Y199.937
G01 X285.776 Y211.799
G01 X293.486 Y223.545
G01 X285.776 Y211.799
G01 X299.213 Y215.905
G01 X285.776 Y211.799
G01 X277.912 Y199.937
G01 X291.826 Y202.924
G01 X300.558 Y213.932
G01 X291.826 Y202.924
G01 X305.577 Y205.810
G01 X291.826 Y202.924
G01 X277.912 Y199.937
G01 X269.198 Y188.941
G01 X282.931 Y191.816
G01 X291.826 Y202.924
G01 X300.558 Y213.932
G01 X291.826 Y202.924
G01 X305.577 Y205.810
G01 X291.826 Y202.924
G01 X282.931 Y191.816
G01 X297.057 Y193.543
G01 X306.740 Y203.724
G01 X297.057 Y193.543
G01 X311.011 Y195.184
G01 X297.057 Y193.543
G01 X282.931 Y191.816
G01 X269.198 Y188.941
G01 X261.798 Y179.638
G01 X261.083 Y178.826
G01 X260.272 Y177.815
G01 X271.754 Y178.948
G01 X273.184 Y179.015
G01 X274.475 Y179.135
G01 X284.439 Y189.012
G01 X293.663 Y199.850
G01 X302.720 Y210.592
G01 X293.663 Y199.850
G01 X307.494 Y202.323
G01 X293.663 Y199.850
G01 X284.439 Y189.012
G01 X298.611 Y190.317
G01 X308.594 Y200.203
G01 X298.611 Y190.317
G01 X312.608 Y191.540
G01 X298.611 Y190.317
G01 X284.439 Y189.012
G01 X274.475 Y179.135
G01 X288.452 Y180.350
G01 X298.611 Y190.317
G01 X308.594 Y200.203
G01 X298.611 Y190.317
G01 X312.608 Y191.540
G01 X298.611 Y190.317
G01 X288.452 Y180.350
G01 X302.684 Y180.378
G01 X313.513 Y189.330
G01 X302.684 Y180.378
G01 X316.734 Y180.342
G01 X302.684 Y180.378
G01 X288.452 Y180.350
G01 X274.475 Y179.135
G01 X262.634 Y178.084
G01 X261.563 Y177.935
G01 X260.272 Y177.815
G01 X251.724 Y177.231
G01 X249.528 Y176.956
G01 X245.499 Y176.635
G01 X237.337 Y174.698
G01 X235.386 Y174.115
G01 X231.593 Y173.170
G01 X226.651 Y166.393
G01 X225.788 Y165.337
G01 X223.299 Y161.981
G01 X230.104 Y163.733
G01 X232.783 Y164.241
G01 X236.848 Y165.210
G01 X241.414 Y171.013
G01 X243.140 Y173.519
G01 X245.499 Y176.635
G01 X249.201 Y183.394
G01 X250.511 Y186.176
G01 X252.390 Y189.754
G01 X257.945 Y199.868
G01 X258.569 Y201.156
G01 X259.187 Y202.296
G01 X265.797 Y214.671
G01 X271.417 Y227.746
G01 X276.905 Y240.680
G01 X271.417 Y227.746
G01 X283.904 Y234.186
G01 X271.417 Y227.746
G01 X265.797 Y214.671
G01 X278.954 Y220.095
G01 X285.580 Y232.485
G01 X278.954 Y220.095
G01 X291.969 Y225.389
G01 X278.954 Y220.095
G01 X265.797 Y214.671
G01 X259.187 Y202.296
G01 X272.185 Y207.576
G01 X278.954 Y220.095
G01 X285.580 Y232.485
G01 X278.954 Y220.095
G01 X291.969 Y225.389
G01 X278.954 Y220.095
G01 X272.185 Y207.576
G01 X285.776 Y211.799
G01 X293.486 Y223.545
G01 X285.776 Y211.799
G01 X299.213 Y215.905
G01 X285.776 Y211.799
G01 X272.185 Y207.576
G01 X259.187 Y202.296
G01 X253.567 Y191.821
G01 X253.008 Y190.895
G01 X252.390 Y189.754
G01 X263.486 Y192.920
G01 X264.881 Y193.241
G01 X266.130 Y193.590
G01 X274.170 Y205.087
G01 X281.311 Y217.398
G01 X288.304 Y229.584
G01 X281.311 Y217.398
G01 X294.478 Y222.300
G01 X281.311 Y217.398
G01 X274.170 Y205.087
G01 X287.881 Y208.901
G01 X295.938 Y220.412
G01 X287.881 Y208.901
G01 X301.435 Y212.604
G01 X287.881 Y208.901
G01 X274.170 Y205.087
G01 X266.130 Y193.590
G01 X279.666 Y197.281
G01 X287.881 Y208.901
G01 X295.938 Y220.412
G01 X287.881 Y208.901
G01 X301.435 Y212.604
G01 X287.881 Y208.901
G01 X279.666 Y197.281
G01 X293.663 Y199.850
G01 X302.720 Y210.592
G01 X293.663 Y199.850
G01 X307.494 Y202.323
G01 X293.663 Y199.850
G01 X279.666 Y197.281
G01 X266.130 Y193.590
G01 X254.666 Y190.442
G01 X253.639 Y190.103
G01 X252.390 Y189.754
G01 X248.494 Y182.124
G01 X247.378 Y180.213
G01 X245.499 Y176.635
G01 X253.169 Y177.382
G01 X256.243 Y177.493
G01 X260.272 Y177.815
G01 X267.543 Y186.773
G01 X268.387 Y187.930
G01 X269.198 Y188.941
G01 X277.912 Y199.937
G01 X285.776 Y211.799
G01 X293.486 Y223.545
G01 X285.776 Y211.799
G01 X299.213 Y215.905
G01 X285.776 Y211.799
G01 X277.912 Y199.937
G01 X291.826 Y202.924
G01 X300.558 Y213.932
G01 X291.826 Y202.924
G01 X305.577 Y205.810
G01 X291.826 Y202.924
G01 X277.912 Y199.937
G01 X269.198 Y188.941
G01 X282.931 Y191.816
G01 X291.826 Y202.924
G01 X300.558 Y213.932
G01 X291.826 Y202.924
G01 X305.577 Y205.810
G01 X291.826 Y202.924
G01 X282.931 Y191.816
G01 X297.057 Y193.543
G01 X306.740 Y203.724
G01 X297.057 Y193.543
G01 X311.011 Y195.184
G01 X297.057 Y193.543
G01 X282.931 Y191.816
G01 X269.198 Y188.941
G01 X261.798 Y179.638
G01 X261.083 Y178.826
G01 X260.272 Y177.815
G01 X271.754 Y178.948
G01 X273.184 Y179.015
G01 X274.475 Y179.135
G01 X284.439 Y189.012
G01 X293.663 Y199.850
G01 X302.720 Y210.592
G01 X293.663 Y199.850
G01 X307.494 Y202.323
G01 X293.663 Y199.850
G01 X284.439 Y189.012
G01 X298.611 Y190.317
G01 X308.594 Y200.203
G01 X298.611 Y190.317
G01 X312.608 Y191.540
G01 X298.611 Y190.317
G01 X284.439 Y189.012
G01 X274.475 Y179.135
G01 X288.452 Y180.350
G01 X298.611 Y190.317
G01 X308.594 Y200.203
G01 X298.611 Y190.317
G01 X312.608 Y191.540
G01 X298.611 Y190.317
G01 X288.452 Y180.350
G01 X302.684 Y180.378
G01 X313.513 Y189.330
G01 X302.684 Y180.378
G01 X316.734 Y180.342
G01 X302.684 Y180.378
G01 X288.452 Y180.350
G01 X274.475 Y179.135
G01 X262.634 Y178.084
G01 X261.563 Y177.935
G01 X260.272 Y177.815
G01 X251.724 Y177.231
G01 X249.528 Y176.956
G01 X245.499 Y176.635
G01 X240.510 Y169.891
G01 X239.207 Y168.326
G01 X236.848 Y165.210
G01 X244.207 Y165.824
G01 X247.248 Y165.884
G01 X251.149 Y166.136
G01 X255.998 Y172.126
G01 X257.783 Y174.630
G01 X260.272 Y177.815
G01 X267.543 Y186.773
G01 X268.387 Y187.930
G01 X269.198 Y188.941
G01 X277.912 Y199.937
G01 X285.776 Y211.799
G01 X293.486 Y223.545
G01 X285.776 Y211.799
G01 X299.213 Y215.905
G01 X285.776 Y211.799
G01 X277.912 Y199.937
G01 X291.826 Y202.924
G01 X300.558 Y213.932
G01 X291.826 Y202.924
G01 X305.577 Y205.810
G01 X291.826 Y202.924
G01 X277.912 Y199.937
G01 X269.198 Y188.941
G01 X282.931 Y191.816
G01 X291.826 Y202.924
G01 X300.558 Y213.932
G01 X291.826 Y202.924
G01 X305.577 Y205.810
G01 X291.826 Y202.924
G01 X282.931 Y191.816
G01 X297.057 Y193.543
G01 X306.740 Y203.724
G01 X297.057 Y193.543
G01 X311.011 Y195.184
G01 X297.057 Y193.543
G01 X282.931 Y191.816
G01 X269.198 Y188.941
G01 X261.798 Y179.638
G01 X261.083 Y178.826
G01 X260.272 Y177.815
G01 X271.754 Y178.948
G01 X273.184 Y179.015
G01 X274.475 Y179.135
G01 X284.439 Y189.012
G01 X293.663 Y199.850
G01 X302.720 Y210.592
G01 X293.663 Y199.850
G01 X307.494 Y202.323
G01 X293.663 Y199.850
G01 X284.439 Y189.012
G01 X298.611 Y190.317
G01 X308.594 Y200.203
G01 X298.611 Y190.317
G01 X312.608 Y191.540
G01 X298.611 Y190.317
G01 X284.439 Y189.012
G01 X274.475 Y179.135
G01 X288.452 Y180.350
G01 X298.611 Y190.317
G01 X308.594 Y200.203
G01 X298.611 Y190.317
G01 X312.608 Y191.540
G01 X298.611 Y190.317
G01 X288.452 Y180.350
G01 X302.684 Y180.378
G01 X313.513 Y189.330
G01 X302.684 Y180.378
G01 X316.734 Y180.342
G01 X302.684 Y180.378
G01 X288.452 Y180.350
G01 X274.475 Y179.135
G01 X262.634 Y178.084
G01 X261.563 Y177.935
G01 X260.272 Y177.815
G01 X255.076 Y171.002
G01 X253.637 Y169.321
G01 X251.149 Y166.136
G01 X258.829 Y165.502
G01 X261.873 Y165.062
G01 X265.894 Y164.660
G01 X274.648 Y172.176
G01 X275.685 Y173.163
G01 X276.664 Y174.013
G01 X287.201 Y183.277
G01 X297.057 Y193.543
G01 X306.740 Y203.724
G01 X297.057 Y193.543
G01 X311.011 Y195.184
G01 X297.057 Y193.543
G01 X287.201 Y183.277
G01 X301.426 Y183.731
G01 X311.982 Y193.003
G01 X301.426 Y183.731
G01 X315.471 Y184.115
G01 X301.426 Y183.731
G01 X287.201 Y183.277
G01 X276.664 Y174.013
G01 X290.689 Y174.390
G01 X301.426 Y183.731
G01 X311.982 Y193.003
G01 X301.426 Y183.731
G01 X315.471 Y184.115
G01 X301.426 Y183.731
G01 X290.689 Y174.390
G01 X304.897 Y173.567
G01 X316.242 Y181.855
G01 X304.897 Y173.567
G01 X318.920 Y172.690
G01 X304.897 Y173.567
G01 X290.689 Y174.390
G01 X276.664 Y174.013
G01 X267.722 Y166.181
G01 X266.873 Y165.510
G01 X265.894 Y164.660
G01 X277.395 Y163.724
G01 X278.813 Y163.535
G01 X280.105 Y163.423
G01 X291.673 Y171.362
G01 X302.684 Y180.378
G01 X313.513 Y189.330
G01 X302.684 Y180.378
G01 X316.734 Y180.342
G01 X302.684 Y180.378
G01 X291.673 Y171.362
G01 X305.850 Y170.115
G01 X317.438 Y178.060
G01 X305.850 Y170.115
G01 X319.840 Y168.819
G01 X305.850 Y170.115
G01 X291.673 Y171.362
G01 X280.105 Y163.423
G01 X294.075 Y162.122
G01 X305.850 Y170.115
G01 X317.438 Y178.060
G01 X305.850 Y170.115
G01 X319.840 Y168.819
G01 X305.850 Y170.115
G01 X294.075 Y162.122
G01 X308.083 Y159.609
G01 X320.337 Y166.483
G01 X308.083 Y159.609
G01 X321.901 Y157.064
G01 X308.083 Y159.609
G01 X294.075 Y162.122
G01 X280.105 Y163.423
G01 X268.267 Y164.503
G01 X267.186 Y164.547
G01 X265.894 Y164.660
G01 X257.380 Y165.612
G01 X255.170 Y165.733
G01 X251.149 Y166.136
G01 X242.772 Y165.688
G01 X240.748 Y165.462
G01 X236.848 Y165.210
G01 X228.674 Y163.328
G01 X227.364 Y162.949
G01 X223.299 Y161.981
G01 X220.427 Y158.006
G01 X218.478 Y155.694
G01 X216.598 Y152.999
G01 X214.529 Y150.530
G01 X214.459 Y150.454
G01 X217.672 Y150.253
G01 X220.918 Y149.759
G01 X221.023 Y149.738
G01 X225.861 Y149.351
G01 X228.900 Y148.879
G01 X234.869 Y152.586
G01 X237.087 Y154.171
G01 X240.596 Y156.440
G01 X246.126 Y161.334
G01 X248.271 Y163.492
G01 X251.149 Y166.136
G01 X255.998 Y172.126
G01 X257.783 Y174.630
G01 X260.272 Y177.815
G01 X267.543 Y186.773
G01 X268.387 Y187.930
G01 X269.198 Y188.941
G01 X277.912 Y199.937
G01 X285.776 Y211.799
G01 X293.486 Y223.545
G01 X285.776 Y211.799
G01 X299.213 Y215.905
G01 X285.776 Y211.799
G01 X277.912 Y199.937
G01 X291.826 Y202.924
G01 X300.558 Y213.932
G01 X291.826 Y202.924
G01 X305.577 Y205.810
G01 X291.826 Y202.924
G01 X277.912 Y199.937
G01 X269.198 Y188.941
G01 X282.931 Y191.816
G01 X291.826 Y202.924
G01 X300.558 Y213.932
G01 X291.826 Y202.924
G01 X305.577 Y205.810
G01 X291.826 Y202.924
G01 X282.931 Y191.816
G01 X297.057 Y193.543
G01 X306.740 Y203.724
G01 X297.057 Y193.543
G01 X311.011 Y195.184
G01 X297.057 Y193.543
G01 X282.931 Y191.816
G01 X269.198 Y188.941
G01 X261.798 Y179.638
G01 X261.083 Y178.826
G01 X260.272 Y177.815
G01 X271.754 Y178.948
G01 X273.184 Y179.015
G01 X274.475 Y179.135
G01 X284.439 Y189.012
G01 X293.663 Y199.850
G01 X302.720 Y210.592
G01 X293.663 Y199.850
G01 X307.494 Y202.323
G01 X293.663 Y199.850
G01 X284.439 Y189.012
G01 X298.611 Y190.317
G01 X308.594 Y200.203
G01 X298.611 Y190.317
G01 X312.608 Y191.540
G01 X298.611 Y190.317
G01 X284.439 Y189.012
G01 X274.475 Y179.135
G01 X288.452 Y180.350
G01 X298.611 Y190.317
G01 X308.594 Y200.203
G01 X298.611 Y190.317
G01 X312.608 Y191.540
G01 X298.611 Y190.317
G01 X288.452 Y180.350
G01 X302.684 Y180.378
G01 X313.513 Y189.330
G01 X302.684 Y180.378
G01 X316.734 Y180.342
G01 X302.684 Y180.378
G01 X288.452 Y180.350
G01 X274.475 Y179.135
G01 X262.634 Y178.084
G01 X261.563 Y177.935
G01 X260.272 Y177.815
G01 X255.076 Y171.002
G01 X253.637 Y169.321
G01 X251.149 Y166.136
G01 X258.829 Y165.502
G01 X261.873 Y165.062
G01 X265.894 Y164.660
G01 X274.648 Y172.176
G01 X275.685 Y173.163
G01 X276.664 Y174.013
G01 X287.201 Y183.277
G01 X297.057 Y193.543
G01 X306.740 Y203.724
G01 X297.057 Y193.543
G01 X311.011 Y195.184
G01 X297.057 Y193.543
G01 X287.201 Y183.277
G01 X301.426 Y183.731
G01 X311.982 Y193.003
G01 X301.426 Y183.731
G01 X315.471 Y184.115
G01 X301.426 Y183.731
G01 X287.201 Y183.277
G01 X276.664 Y174.013
G01 X290.689 Y174.390
G01 X301.426 Y183.731
G01 X311.982 Y193.003
G01 X301.426 Y183.731
G01 X315.471 Y184.115
G01 X301.426 Y183.731
G01 X290.689 Y174.390
G01 X304.897 Y173.567
G01 X316.242 Y181.855
G01 X304.897 Y173.567
G01 X318.920 Y172.690
G01 X304.897 Y173.567
G01 X290.689 Y174.390
G01 X276.664 Y174.013
G01 X267.722 Y166.181
G01 X266.873 Y165.510
G01 X265.894 Y164.660
G01 X277.395 Y163.724
G01 X278.813 Y163.535
G01 X280.105 Y163.423
G01 X291.673 Y171.362
G01 X302.684 Y180.378
G01 X313.513 Y189.330
G01 X302.684 Y180.378
G01 X316.734 Y180.342
G01 X302.684 Y180.378
G01 X291.673 Y171.362
G01 X305.850 Y170.115
G01 X317.438 Y178.060
G01 X305.850 Y170.115
G01 X319.840 Y168.819
G01 X305.850 Y170.115
G01 X291.673 Y171.362
G01 X280.105 Y163.423
G01 X294.075 Y162.122
G01 X305.850 Y170.115
G01 X317.438 Y178.060
G01 X305.850 Y170.115
G01 X319.840 Y168.819
G01 X305.850 Y170.115
G01 X294.075 Y162.122
G01 X308.083 Y159.609
G01 X320.337 Y166.483
G01 X308.083 Y159.609
G01 X321.901 Y157.064
G01 X308.083 Y159.609
G01 X294.075 Y162.122
G01 X280.105 Y163.423
G01 X268.267 Y164.503
G01 X267.186 Y164.547
G01 X265.894 Y164.660
G01 X257.380 Y165.612
G01 X255.170 Y165.733
G01 X251.149 Y166.136
G01 X245.036 Y160.391
G01 X243.474 Y159.084
G01 X240.596 Y156.440
G01 X247.947 Y155.730
G01 X250.950 Y155.245
G01 X254.833 Y154.798
G01 X260.674 Y159.825
G01 X262.878 Y161.970
G01 X265.894 Y164.660
G01 X274.648 Y172.176
G01 X275.685 Y173.163
G01 X276.664 Y174.013
G01 X287.201 Y183.277
G01 X297.057 Y193.543
G01 X306.740 Y203.724
G01 X297.057 Y193.543
G01 X311.011 Y195.184
G01 X297.057 Y193.543
G01 X287.201 Y183.277
G01 X301.426 Y183.731
G01 X311.982 Y193.003
G01 X301.426 Y183.731
G01 X315.471 Y184.115
G01 X301.426 Y183.731
G01 X287.201 Y183.277
G01 X276.664 Y174.013
G01 X290.689 Y174.390
G01 X301.426 Y183.731
G01 X311.982 Y193.003
G01 X301.426 Y183.731
G01 X315.471 Y184.115
G01 X301.426 Y183.731
G01 X290.689 Y174.390
G01 X304.897 Y173.567
G01 X316.242 Y181.855
G01 X304.897 Y173.567
G01 X318.920 Y172.690
G01 X304.897 Y173.567
G01 X290.689 Y174.390
G01 X276.664 Y174.013
G01 X267.722 Y166.181
G01 X266.873 Y165.510
G01 X265.894 Y164.660
G01 X277.395 Y163.724
G01 X278.813 Y163.535
G01 X280.105 Y163.423
G01 X291.673 Y171.362
G01 X302.684 Y180.378
G01 X313.513 Y189.330
G01 X302.684 Y180.378
G01 X316.734 Y180.342
G01 X302.684 Y180.378
G01 X291.673 Y171.362
G01 X305.850 Y170.115
G01 X317.438 Y178.060
G01 X305.850 Y170.115
G01 X319.840 Y168.819
G01 X305.850 Y170.115
G01 X291.673 Y171.362
G01 X280.105 Y163.423
G01 X294.075 Y162.122
G01 X305.850 Y170.115
G01 X317.438 Y178.060
G01 X305.850 Y170.115
G01 X319.840 Y168.819
G01 X305.850 Y170.115
G01 X294.075 Y162.122
G01 X308.083 Y159.609
G01 X320.337 Y166.483
G01 X308.083 Y159.609
G01 X321.901 Y157.064
G01 X308.083 Y159.609
G01 X294.075 Y162.122
G01 X280.105 Y163.423
G01 X268.267 Y164.503
G01 X267.186 Y164.547
G01 X265.894 Y164.660
G01 X259.566 Y158.884
G01 X257.850 Y157.487
G01 X254.833 Y154.798
G01 X262.277 Y152.802
G01 X265.193 Y151.826
G01 X269.078 Y150.712
G01 X279.033 Y156.544
G01 X280.230 Y157.330
G01 X281.345 Y157.992
G01 X293.367 Y165.225
G01 X304.897 Y173.567
G01 X316.242 Y181.855
G01 X304.897 Y173.567
G01 X318.920 Y172.690
G01 X304.897 Y173.567
G01 X293.367 Y165.225
G01 X307.443 Y163.133
G01 X319.486 Y170.371
G01 X307.443 Y163.133
G01 X321.331 Y161.002
G01 X307.443 Y163.133
G01 X293.367 Y165.225
G01 X281.345 Y157.992
G01 X295.212 Y155.858
G01 X307.443 Y163.133
G01 X319.486 Y170.371
G01 X307.443 Y163.133
G01 X321.331 Y161.002
G01 X307.443 Y163.133
G01 X295.212 Y155.858
G01 X309.044 Y152.512
G01 X321.687 Y158.641
G01 X309.044 Y152.512
G01 X322.685 Y149.145
G01 X309.044 Y152.512
G01 X295.212 Y155.858
G01 X281.345 Y157.992
G01 X271.147 Y151.882
G01 X270.193 Y151.374
G01 X269.078 Y150.712
G01 X280.226 Y147.738
G01 X281.589 Y147.299
G01 X282.840 Y146.957
G01 X295.639 Y152.704
G01 X308.083 Y159.609
G01 X320.337 Y166.483
G01 X308.083 Y159.609
G01 X321.901 Y157.064
G01 X308.083 Y159.609
G01 X295.639 Y152.704
G01 X309.365 Y148.945
G01 X322.186 Y154.694
G01 X309.365 Y148.945
G01 X322.899 Y145.172
G01 X309.365 Y148.945
G01 X295.639 Y152.704
G01 X282.840 Y146.957
G01 X296.352 Y143.183
G01 X309.365 Y148.945
G01 X322.186 Y154.694
G01 X309.365 Y148.945
G01 X322.899 Y145.172
G01 X309.365 Y148.945
G01 X296.352 Y143.183
G01 X309.687 Y138.209
G01 X322.971 Y142.785
G01 X309.687 Y138.209
G01 X322.828 Y133.238
G01 X309.687 Y138.209
G01 X296.352 Y143.183
G01 X282.840 Y146.957
G01 X271.384 Y150.134
G01 X270.329 Y150.371
G01 X269.078 Y150.712
G01 X260.870 Y153.169
G01 X258.718 Y153.683
G01 X254.833 Y154.798
G01 X246.511 Y155.852
G01 X244.479 Y155.992
G01 X240.596 Y156.440
G01 X233.588 Y151.832
G01 X232.409 Y151.147
G01 X228.900 Y148.879
G01 X235.886 Y148.128
G01 X238.573 Y147.662
G01 X242.719 Y147.141
G01 X249.033 Y150.970
G01 X251.529 Y152.710
G01 X254.833 Y154.798
G01 X260.674 Y159.825
G01 X262.878 Y161.970
G01 X265.894 Y164.660
G01 X274.648 Y172.176
G01 X275.685 Y173.163
G01 X276.664 Y174.013
G01 X287.201 Y183.277
G01 X297.057 Y193.543
G01 X306.740 Y203.724
G01 X297.057 Y193.543
G01 X311.011 Y195.184
G01 X297.057 Y193.543
G01 X287.201 Y183.277
G01 X301.426 Y183.731
G01 X311.982 Y193.003
G01 X301.426 Y183.731
G01 X315.471 Y184.115
G01 X301.426 Y183.731
G01 X287.201 Y183.277
G01 X276.664 Y174.013
G01 X290.689 Y174.390
G01 X301.426 Y183.731
G01 X311.982 Y193.003
G01 X301.426 Y183.731
G01 X315.471 Y184.115
G01 X301.426 Y183.731
G01 X290.689 Y174.390
G01 X304.897 Y173.567
G01 X316.242 Y181.855
G01 X304.897 Y173.567
G01 X318.920 Y172.690
G01 X304.897 Y173.567
G01 X290.689 Y174.390
G01 X276.664 Y174.013
G01 X267.722 Y166.181
G01 X266.873 Y165.510
G01 X265.894 Y164.660
G01 X277.395 Y163.724
G01 X278.813 Y163.535
G01 X280.105 Y163.423
G01 X291.673 Y171.362
G01 X302.684 Y180.378
G01 X313.513 Y189.330
G01 X302.684 Y180.378
G01 X316.734 Y180.342
G01 X302.684 Y180.378
G01 X291.673 Y171.362
G01 X305.850 Y170.115
G01 X317.438 Y178.060
G01 X305.850 Y170.115
G01 X319.840 Y168.819
G01 X305.850 Y170.115
G01 X291.673 Y171.362
G01 X280.105 Y163.423
G01 X294.075 Y162.122
G01 X305.850 Y170.115
G01 X317.438 Y178.060
G01 X305.850 Y170.115
G01 X319.840 Y168.819
G01 X305.850 Y170.115
G01 X294.075 Y162.122
G01 X308.083 Y159.609
G01 X320.337 Y166.483
G01 X308.083 Y159.609
G01 X321.901 Y157.064
G01 X308.083 Y159.609
G01 X294.075 Y162.122
G01 X280.105 Y163.423
G01 X268.267 Y164.503
G01 X267.186 Y164.547
G01 X265.894 Y164.660
G01 X259.566 Y158.884
G01 X257.850 Y157.487
G01 X254.833 Y154.798
G01 X262.277 Y152.802
G01 X265.193 Y151.826
G01 X269.078 Y150.712
G01 X279.033 Y156.544
G01 X280.230 Y157.330
G01 X281.345 Y157.992
G01 X293.367 Y165.225
G01 X304.897 Y173.567
G01 X316.242 Y181.855
G01 X304.897 Y173.567
G01 X318.920 Y172.690
G01 X304.897 Y173.567
G01 X293.367 Y165.225
G01 X307.443 Y163.133
G01 X319.486 Y170.371
G01 X307.443 Y163.133
G01 X321.331 Y161.002
G01 X307.443 Y163.133
G01 X293.367 Y165.225
G01 X281.345 Y157.992
G01 X295.212 Y155.858
G01 X307.443 Y163.133
G01 X319.486 Y170.371
G01 X307.443 Y163.133
G01 X321.331 Y161.002
G01 X307.443 Y163.133
G01 X295.212 Y155.858
G01 X309.044 Y152.512
G01 X321.687 Y158.641
G01 X309.044 Y152.512
G01 X322.685 Y149.145
G01 X309.044 Y152.512
G01 X295.212 Y155.858
G01 X281.345 Y157.992
G01 X271.147 Y151.882
G01 X270.193 Y151.374
G01 X269.078 Y150.712
G01 X280.226 Y147.738
G01 X281.589 Y147.299
G01 X282.840 Y146.957
G01 X295.639 Y152.704
G01 X308.083 Y159.609
G01 X320.337 Y166.483
G01 X308.083 Y159.609
G01 X321.901 Y157.064
G01 X308.083 Y159.609
G01 X295.639 Y152.704
G01 X309.365 Y148.945
G01 X322.186 Y154.694
G01 X309.365 Y148.945
G01 X322.899 Y145.172
G01 X309.365 Y148.945
G01 X295.639 Y152.704
G01 X282.840 Y146.957
G01 X296.352 Y143.183
G01 X309.365 Y148.945
G01 X322.186 Y154.694
G01 X309.365 Y148.945
G01 X322.899 Y145.172
G01 X309.365 Y148.945
G01 X296.352 Y143.183
G01 X309.687 Y138.209
G01 X322.971 Y142.785
G01 X309.687 Y138.209
G01 X322.828 Y133.238
G01 X309.687 Y138.209
G01 X296.352 Y143.183
G01 X282.840 Y146.957
G01 X271.384 Y150.134
G01 X270.329 Y150.371
G01 X269.078 Y150.712
G01 X260.870 Y153.169
G01 X258.718 Y153.683
G01 X254.833 Y154.798
G01 X247.792 Y150.237
G01 X246.022 Y149.229
G01 X242.719 Y147.141
G01 X249.824 Y145.131
G01 X252.693 Y144.117
G01 X256.433 Y142.984
G01 X263.078 Y146.887
G01 X265.629 Y148.604
G01 X269.078 Y150.712
G01 X279.033 Y156.544
G01 X280.230 Y157.330
G01 X281.345 Y157.992
G01 X293.367 Y165.225
G01 X304.897 Y173.567
G01 X316.242 Y181.855
G01 X304.897 Y173.567
G01 X318.920 Y172.690
G01 X304.897 Y173.567
G01 X293.367 Y165.225
G01 X307.443 Y163.133
G01 X319.486 Y170.371
G01 X307.443 Y163.133
G01 X321.331 Y161.002
G01 X307.443 Y163.133
G01 X293.367 Y165.225
G01 X281.345 Y157.992
G01 X295.212 Y155.858
G01 X307.443 Y163.133
G01 X319.486 Y170.371
G01 X307.443 Y163.133
G01 X321.331 Y161.002
G01 X307.443 Y163.133
G01 X295.212 Y155.858
G01 X309.044 Y152.512
G01 X321.687 Y158.641
G01 X309.044 Y152.512
G01 X322.685 Y149.145
G01 X309.044 Y152.512
G01 X295.212 Y155.858
G01 X281.345 Y157.992
G01 X271.147 Y151.882
G01 X270.193 Y151.374
G01 X269.078 Y150.712
G01 X280.226 Y147.738
G01 X281.589 Y147.299
G01 X282.840 Y146.957
G01 X295.639 Y152.704
G01 X308.083 Y159.609
G01 X320.337 Y166.483
G01 X308.083 Y159.609
G01 X321.901 Y157.064
G01 X308.083 Y159.609
G01 X295.639 Y152.704
G01 X309.365 Y148.945
G01 X322.186 Y154.694
G01 X309.365 Y148.945
G01 X322.899 Y145.172
G01 X309.365 Y148.945
G01 X295.639 Y152.704
G01 X282.840 Y146.957
G01 X296.352 Y143.183
G01 X309.365 Y148.945
G01 X322.186 Y154.694
G01 X309.365 Y148.945
G01 X322.899 Y145.172
G01 X309.365 Y148.945
G01 X296.352 Y143.183
G01 X309.687 Y138.209
G01 X322.971 Y142.785
G01 X309.687 Y138.209
G01 X322.828 Y133.238
G01 X309.687 Y138.209
G01 X296.352 Y143.183
G01 X282.840 Y146.957
G01 X271.384 Y150.134
G01 X270.329 Y150.371
G01 X269.078 Y150.712
G01 X261.819 Y146.159
G01 X259.882 Y145.091
G01 X256.433 Y142.984
G01 X263.401 Y139.691
G01 X266.096 Y138.210
G01 X269.720 Y136.420
G01 X280.557 Y140.381
G01 X281.874 Y140.941
G01 X283.090 Y141.393
G01 X296.210 Y146.363
G01 X309.044 Y152.512
G01 X321.687 Y158.641
G01 X309.044 Y152.512
G01 X322.685 Y149.145
G01 X309.044 Y152.512
G01 X296.210 Y146.363
G01 X309.687 Y141.791
G01 X322.828 Y146.762
G01 X309.687 Y141.791
G01 X322.971 Y137.215
G01 X309.687 Y141.791
G01 X296.210 Y146.363
G01 X283.090 Y141.393
G01 X296.352 Y136.817
G01 X309.687 Y141.791
G01 X322.828 Y146.762
G01 X309.687 Y141.791
G01 X322.971 Y137.215
G01 X309.687 Y141.791
G01 X296.352 Y136.817
G01 X309.365 Y131.055
G01 X322.899 Y134.828
G01 X309.365 Y131.055
G01 X322.186 Y125.306
G01 X309.365 Y131.055
G01 X296.352 Y136.817
G01 X283.090 Y141.393
G01 X271.965 Y137.202
G01 X270.935 Y136.872
G01 X269.720 Y136.420
G01 X280.158 Y131.503
G01 X281.420 Y130.828
G01 X282.590 Y130.268
G01 X296.210 Y133.637
G01 X309.687 Y138.209
G01 X322.971 Y142.785
G01 X309.687 Y138.209
G01 X322.828 Y133.238
G01 X309.687 Y138.209
G01 X296.210 Y133.637
G01 X309.044 Y127.488
G01 X322.685 Y130.855
G01 X309.044 Y127.488
G01 X321.687 Y121.359
G01 X309.044 Y127.488
G01 X296.210 Y133.637
G01 X282.590 Y130.268
G01 X295.212 Y124.142
G01 X309.044 Y127.488
G01 X322.685 Y130.855
G01 X309.044 Y127.488
G01 X321.687 Y121.359
G01 X309.044 Y127.488
G01 X295.212 Y124.142
G01 X307.443 Y116.867
G01 X321.331 Y118.998
G01 X307.443 Y116.867
G01 X319.486 Y109.629
G01 X307.443 Y116.867
G01 X295.212 Y124.142
G01 X282.590 Y130.268
G01 X271.886 Y135.440
G01 X270.890 Y135.861
G01 X269.720 Y136.420
G01 X262.082 Y140.303
G01 X260.057 Y141.193
G01 X256.433 Y142.984
G01 X248.433 Y145.507
G01 X246.459 Y146.007
G01 X242.719 Y147.141
G01 X234.405 Y148.251
G01 X233.045 Y148.357
G01 X228.900 Y148.879
G01 X224.041 Y149.549
G01 X221.023 Y149.738
G01 X217.777 Y150.242
G01 X214.562 Y150.452
G01 X214.459 Y150.454
G01 X191.287 Y140.550
G01 X191.157 Y140.563
G01 X191.028 Y140.564
G01 X190.902 Y140.555
G01 X190.780 Y140.534
G01 X190.663 Y140.503
G01 X190.550 Y140.462
G01 X190.444 Y140.411
G01 X190.344 Y140.351
G01 X190.251 Y140.283
G01 X190.165 Y140.206
G01 X190.088 Y140.122
G01 X190.020 Y140.031
G01 X190.000 Y140.000
G01 X190.020 Y140.029
G01 X190.043 Y140.056
G01 X190.069 Y140.080
G01 X190.097 Y140.102
G01 X190.127 Y140.122
G01 X190.160 Y140.138
G01 X190.194 Y140.152
G01 X190.230 Y140.163
G01 X190.267 Y140.170
G01 X190.306 Y140.174
G01 X190.346 Y140.175
G01 X190.386 Y140.172
G01 X190.427 Y140.166
G01 X190.468 Y140.156
G01 X190.509 Y140.142
G01 X190.549 Y140.125
G01 X190.590 Y140.104
G01 X190.629 Y140.079
G01 X190.667 Y140.051
G01 X190.704 Y140.019
G01 X190.739 Y139.984
G01 X190.773 Y139.945
G01 X190.804 Y139.903
G01 X190.833 Y139.858
G01 X190.860 Y139.809
G01 X190.883 Y139.758
G01 X190.904 Y139.704
G01 X190.921 Y139.648
G01 X190.935 Y139.589
G01 X190.945 Y139.528
G01 X190.951 Y139.464
G01 X190.954 Y139.400
G01 X190.952 Y139.333
G01 X190.946 Y139.266
G01 X190.935 Y139.197
G01 X190.921 Y139.128
G01 X190.901 Y139.059
G01 X190.877 Y138.989
G01 X190.848 Y138.920
G01 X190.823 Y138.867
G01 X205.635 Y118.480
G01 X208.497 Y117.005
G01 X211.536 Y115.765
G01 X211.637 Y115.729
G01 X215.989 Y113.580
G01 X218.840 Y112.427
G01 X225.222 Y109.488
G01 X227.767 Y108.509
G01 X231.593 Y106.830
G01 X238.724 Y104.912
G01 X241.707 Y104.310
G01 X245.499 Y103.365
G01 X253.169 Y102.618
G01 X256.243 Y102.507
G01 X260.272 Y102.185
G01 X271.754 Y101.052
G01 X273.184 Y100.985
G01 X274.475 Y100.865
G01 X288.452 Y99.650
G01 X302.684 Y99.622
G01 X316.734 Y99.658
G01 X302.684 Y99.622
G01 X313.513 Y90.670
G01 X302.684 Y99.622
G01 X288.452 Y99.650
G01 X298.611 Y89.683
G01 X312.608 Y88.460
G01 X298.611 Y89.683
G01 X308.594 Y79.797
G01 X298.611 Y89.683
G01 X288.452 Y99.650
G01 X274.475 Y100.865
G01 X284.439 Y90.988
G01 X298.611 Y89.683
G01 X312.608 Y88.460
G01 X298.611 Y89.683
G01 X308.594 Y79.797
G01 X298.611 Y89.683
G01 X284.439 Y90.988
G01 X293.663 Y80.150
G01 X307.494 Y77.677
G01 X293.663 Y80.150
G01 X302.720 Y69.408
G01 X293.663 Y80.150
G01 X284.439 Y90.988
G01 X274.475 Y100.865
G01 X262.634 Y101.916
G01 X261.563 Y102.065
G01 X260.272 Y102.185
G01 X267.543 Y93.227
G01 X268.387 Y92.070
G01 X269.198 Y91.059
G01 X282.931 Y88.184
G01 X297.057 Y86.457
G01 X311.011 Y84.816
G01 X297.057 Y86.457
G01 X306.740 Y76.276
G01 X297.057 Y86.457
G01 X282.931 Y88.184
G01 X291.826 Y77.076
G01 X305.577 Y74.190
G01 X291.826 Y77.076
G01 X300.558 Y66.068
G01 X291.826 Y77.076
G01 X282.931 Y88.184
G01 X269.198 Y91.059
G01 X277.912 Y80.063
G01 X291.826 Y77.076
G01 X305.577 Y74.190
G01 X291.826 Y77.076
G01 X300.558 Y66.068
G01 X291.826 Y77.076
G01 X277.912 Y80.063
G01 X285.776 Y68.201
G01 X299.213 Y64.095
G01 X285.776 Y68.201
G01 X293.486 Y56.455
G01 X285.776 Y68.201
G01 X277.912 Y80.063
G01 X269.198 Y91.059
G01 X261.798 Y100.362
G01 X261.083 Y101.174
G01 X260.272 Y102.185
G01 X251.724 Y102.769
G01 X249.528 Y103.044
G01 X245.499 Y103.365
G01 X249.201 Y96.606
G01 X250.511 Y93.824
G01 X252.390 Y90.246
G01 X263.486 Y87.080
G01 X264.881 Y86.759
G01 X266.130 Y86.410
G01 X279.666 Y82.719
G01 X293.663 Y80.150
G01 X307.494 Y77.677
G01 X293.663 Y80.150
G01 X302.720 Y69.408
G01 X293.663 Y80.150
G01 X279.666 Y82.719
G01 X287.881 Y71.099
G01 X301.435 Y67.396
G01 X287.881 Y71.099
G01 X295.938 Y59.588
G01 X287.881 Y71.099
G01 X279.666 Y82.719
G01 X266.130 Y86.410
G01 X274.170 Y74.913
G01 X287.881 Y71.099
G01 X301.435 Y67.396
G01 X287.881 Y71.099
G01 X295.938 Y59.588
G01 X287.881 Y71.099
G01 X274.170 Y74.913
G01 X281.311 Y62.602
G01 X294.478 Y57.700
G01 X281.311 Y62.602
G01 X288.304 Y50.416
G01 X281.311 Y62.602
G01 X274.170 Y74.913
G01 X266.130 Y86.410
G01 X254.666 Y89.558
G01 X253.639 Y89.897
G01 X252.390 Y90.246
G01 X257.945 Y80.132
G01 X258.569 Y78.844
G01 X259.187 Y77.704
G01 X272.185 Y72.424
G01 X285.776 Y68.201
G01 X299.213 Y64.095
G01 X285.776 Y68.201
G01 X293.486 Y56.455
G01 X285.776 Y68.201
G01 X272.185 Y72.424
G01 X278.954 Y59.905
G01 X291.969 Y54.611
G01 X278.954 Y59.905
G01 X285.580 Y47.515
G01 X278.954 Y59.905
G01 X272.185 Y72.424
G01 X259.187 Y77.704
G01 X265.797 Y65.329
G01 X278.954 Y59.905
G01 X291.969 Y54.611
G01 X278.954 Y59.905
G01 X285.580 Y47.515
G01 X278.954 Y59.905
G01 X265.797 Y65.329
G01 X271.417 Y52.254
G01 X283.904 Y45.814
G01 X271.417 Y52.254
G01 X276.905 Y39.320
G01 X271.417 Y52.254
G01 X265.797 Y65.329
G01 X259.187 Y77.704
G01 X253.567 Y88.179
G01 X253.008 Y89.105
G01 X252.390 Y90.246
G01 X248.494 Y97.876
G01 X247.378 Y99.787
G01 X245.499 Y103.365
G01 X237.337 Y105.302
G01 X235.386 Y105.885
G01 X231.593 Y106.830
G01 X235.051 Y100.305
G01 X236.301 Y97.531
G01 X238.066 Y94.044
G01 X245.479 Y91.939
G01 X248.484 Y91.282
G01 X252.390 Y90.246
G01 X263.486 Y87.080
G01 X264.881 Y86.759
G01 X266.130 Y86.410
G01 X279.666 Y82.719
G01 X293.663 Y80.150
G01 X307.494 Y77.677
G01 X293.663 Y80.150
G01 X302.720 Y69.408
G01 X293.663 Y80.150
G01 X279.666 Y82.719
G01 X287.881 Y71.099
G01 X301.435 Y67.396
G01 X287.881 Y71.099
G01 X295.938 Y59.588
G01 X287.881 Y71.099
G01 X279.666 Y82.719
G01 X266.130 Y86.410
G01 X274.170 Y74.913
G01 X287.881 Y71.099
G01 X301.435 Y67.396
G01 X287.881 Y71.099
G01 X295.938 Y59.588
G01 X287.881 Y71.099
G01 X274.170 Y74.913
G01 X281.311 Y62.602
G01 X294.478 Y57.700
G01 X281.311 Y62.602
G01 X288.304 Y50.416
G01 X281.311 Y62.602
G01 X274.170 Y74.913
G01 X266.130 Y86.410
G01 X254.666 Y89.558
G01 X253.639 Y89.897
G01 X252.390 Y90.246
G01 X257.945 Y80.132
G01 X258.569 Y78.844
G01 X259.187 Y77.704
G01 X272.185 Y72.424
G01 X285.776 Y68.201
G01 X299.213 Y64.095
G01 X285.776 Y68.201
G01 X293.486 Y56.455
G01 X285.776 Y68.201
G01 X272.185 Y72.424
G01 X278.954 Y59.905
G01 X291.969 Y54.611
G01 X278.954 Y59.905
G01 X285.580 Y47.515
G01 X278.954 Y59.905
G01 X272.185 Y72.424
G01 X259.187 Y77.704
G01 X265.797 Y65.329
G01 X278.954 Y59.905
G01 X291.969 Y54.611
G01 X278.954 Y59.905
G01 X285.580 Y47.515
G01 X278.954 Y59.905
G01 X265.797 Y65.329
G01 X271.417 Y52.254
G01 X283.904 Y45.814
G01 X271.417 Y52.254
G01 X276.905 Y39.320
G01 X271.417 Y52.254
G01 X265.797 Y65.329
G01 X259.187 Y77.704
G01 X253.567 Y88.179
G01 X253.008 Y89.105
G01 X252.390 Y90.246
G01 X244.084 Y92.346
G01 X241.972 Y93.008
G01 X238.066 Y94.044
G01 X240.502 Y86.733
G01 X241.293 Y83.761
G01 X242.504 Y79.905
G01 X252.856 Y74.809
G01 X254.171 Y74.244
G01 X255.337 Y73.678
G01 X267.997 Y67.630
G01 X281.311 Y62.602
G01 X294.478 Y57.700
G01 X281.311 Y62.602
G01 X288.304 Y50.416
G01 X281.311 Y62.602
G01 X267.997 Y67.630
G01 X274.005 Y54.729
G01 X286.680 Y48.666
G01 X274.005 Y54.729
G01 X279.878 Y41.965
G01 X274.005 Y54.729
G01 X267.997 Y67.630
G01 X255.337 Y73.678
G01 X261.195 Y60.929
G01 X274.005 Y54.729
G01 X286.680 Y48.666
G01 X274.005 Y54.729
G01 X279.878 Y41.965
G01 X274.005 Y54.729
G01 X261.195 Y60.929
G01 X266.023 Y47.542
G01 X278.104 Y40.367
G01 X266.023 Y47.542
G01 X270.728 Y34.303
G01 X266.023 Y47.542
G01 X261.195 Y60.929
G01 X255.337 Y73.678
G01 X244.620 Y78.822
G01 X243.670 Y79.339
G01 X242.504 Y79.905
G01 X246.163 Y68.962
G01 X246.547 Y67.583
G01 X246.952 Y66.351
G01 X258.798 Y58.835
G01 X271.417 Y52.254
G01 X283.904 Y45.814
G01 X271.417 Y52.254
G01 X276.905 Y39.320
G01 X271.417 Y52.254
G01 X258.798 Y58.835
G01 X263.223 Y45.309
G01 X275.084 Y37.776
G01 X263.223 Y45.309
G01 X267.530 Y31.935
G01 X263.223 Y45.309
G01 X258.798 Y58.835
G01 X246.952 Y66.351
G01 X251.246 Y52.995
G01 X263.223 Y45.309
G01 X275.084 Y37.776
G01 X263.223 Y45.309
G01 X267.530 Y31.935
G01 X263.223 Y45.309
G01 X251.246 Y52.995
G01 X254.441 Y39.126
G01 X265.578 Y30.561
G01 X254.441 Y39.126
G01 X257.531 Y25.420
G01 X254.441 Y39.126
G01 X251.246 Y52.995
G01 X246.952 Y66.351
G01 X243.292 Y77.662
G01 X242.908 Y78.673
G01 X242.504 Y79.905
G01 X240.033 Y88.109
G01 X239.276 Y90.188
G01 X238.066 Y94.044
G01 X234.361 Y101.571
G01 X233.359 Y103.343
G01 X231.593 Y106.830
G01 X223.887 Y110.141
G01 X222.666 Y110.748
G01 X218.840 Y112.427
G01 X222.062 Y106.182
G01 X223.153 Y103.684
G01 X225.002 Y99.937
G01 X231.676 Y96.776
G01 X234.503 Y95.651
G01 X238.066 Y94.044
G01 X245.479 Y91.939
G01 X248.484 Y91.282
G01 X252.390 Y90.246
G01 X263.486 Y87.080
G01 X264.881 Y86.759
G01 X266.130 Y86.410
G01 X279.666 Y82.719
G01 X293.663 Y80.150
G01 X307.494 Y77.677
G01 X293.663 Y80.150
G01 X302.720 Y69.408
G01 X293.663 Y80.150
G01 X279.666 Y82.719
G01 X287.881 Y71.099
G01 X301.435 Y67.396
G01 X287.881 Y71.099
G01 X295.938 Y59.588
G01 X287.881 Y71.099
G01 X279.666 Y82.719
G01 X266.130 Y86.410
G01 X274.170 Y74.913
G01 X287.881 Y71.099
G01 X301.435 Y67.396
G01 X287.881 Y71.099
G01 X295.938 Y59.588
G01 X287.881 Y71.099
G01 X274.170 Y74.913
G01 X281.311 Y62.602
G01 X294.478 Y57.700
G01 X281.311 Y62.602
G01 X288.304 Y50.416
G01 X281.311 Y62.602
G01 X274.170 Y74.913
G01 X266.130 Y86.410
G01 X254.666 Y89.558
G01 X253.639 Y89.897
G01 X252.390 Y90.246
G01 X257.945 Y80.132
G01 X258.569 Y78.844
G01 X259.187 Y77.704
G01 X272.185 Y72.424
G01 X285.776 Y68.201
G01 X299.213 Y64.095
G01 X285.776 Y68.201
G01 X293.486 Y56.455
G01 X285.776 Y68.201
G01 X272.185 Y72.424
G01 X278.954 Y59.905
G01 X291.969 Y54.611
G01 X278.954 Y59.905
G01 X285.580 Y47.515
G01 X278.954 Y59.905
G01 X272.185 Y72.424
G01 X259.187 Y77.704
G01 X265.797 Y65.329
G01 X278.954 Y59.905
G01 X291.969 Y54.611
G01 X278.954 Y59.905
G01 X285.580 Y47.515
G01 X278.954 Y59.905
G01 X265.797 Y65.329
G01 X271.417 Y52.254
G01 X283.904 Y45.814
G01 X271.417 Y52.254
G01 X276.905 Y39.320
G01 X271.417 Y52.254
G01 X265.797 Y65.329
G01 X259.187 Y77.704
G01 X253.567 Y88.179
G01 X253.008 Y89.105
G01 X252.390 Y90.246
G01 X244.084 Y92.346
G01 X241.972 Y93.008
G01 X238.066 Y94.044
G01 X240.502 Y86.733
G01 X241.293 Y83.761
G01 X242.504 Y79.905
G01 X252.856 Y74.809
G01 X254.171 Y74.244
G01 X255.337 Y73.678
G01 X267.997 Y67.630
G01 X281.311 Y62.602
G01 X294.478 Y57.700
G01 X281.311 Y62.602
G01 X288.304 Y50.416
G01 X281.311 Y62.602
G01 X267.997 Y67.630
G01 X274.005 Y54.729
G01 X286.680 Y48.666
G01 X274.005 Y54.729
G01 X279.878 Y41.965
G01 X274.005 Y54.729
G01 X267.997 Y67.630
G01 X255.337 Y73.678
G01 X261.195 Y60.929
G01 X274.005 Y54.729
G01 X286.680 Y48.666
G01 X274.005 Y54.729
G01 X279.878 Y41.965
G01 X274.005 Y54.729
G01 X261.195 Y60.929
G01 X266.023 Y47.542
G01 X278.104 Y40.367
G01 X266.023 Y47.542
G01 X270.728 Y34.303
G01 X266.023 Y47.542
G01 X261.195 Y60.929
G01 X255.337 Y73.678
G01 X244.620 Y78.822
G01 X243.670 Y79.339
G01 X242.504 Y79.905
G01 X246.163 Y68.962
G01 X246.547 Y67.583
G01 X246.952 Y66.351
G01 X258.798 Y58.835
G01 X271.417 Y52.254
G01 X283.904 Y45.814
G01 X271.417 Y52.254
G01 X276.905 Y39.320
G01 X271.417 Y52.254
G01 X258.798 Y58.835
G01 X263.223 Y45.309
G01 X275.084 Y37.776
G01 X263.223 Y45.309
G01 X267.530 Y31.935
G01 X263.223 Y45.309
G01 X258.798 Y58.835
G01 X246.952 Y66.351
G01 X251.246 Y52.995
G01 X263.223 Y45.309
G01 X275.084 Y37.776
G01 X263.223 Y45.309
G01 X267.530 Y31.935
G01 X263.223 Y45.309
G01 X251.246 Y52.995
G01 X254.441 Y39.126
G01 X265.578 Y30.561
G01 X254.441 Y39.126
G01 X257.531 Y25.420
G01 X254.441 Y39.126
G01 X251.246 Y52.995
G01 X246.952 Y66.351
G01 X243.292 Y77.662
G01 X242.908 Y78.673
G01 X242.504 Y79.905
G01 X240.033 Y88.109
G01 X239.276 Y90.188
G01 X238.066 Y94.044
G01 X230.381 Y97.408
G01 X228.565 Y98.330
G01 X225.002 Y99.937
G01 X227.239 Y92.899
G01 X227.974 Y89.947
G01 X229.088 Y86.200
G01 X236.006 Y82.805
G01 X238.845 Y81.622
G01 X242.504 Y79.905
G01 X252.856 Y74.809
G01 X254.171 Y74.244
G01 X255.337 Y73.678
G01 X267.997 Y67.630
G01 X281.311 Y62.602
G01 X294.478 Y57.700
G01 X281.311 Y62.602
G01 X288.304 Y50.416
G01 X281.311 Y62.602
G01 X267.997 Y67.630
G01 X274.005 Y54.729
G01 X286.680 Y48.666
G01 X274.005 Y54.729
G01 X279.878 Y41.965
G01 X274.005 Y54.729
G01 X267.997 Y67.630
G01 X255.337 Y73.678
G01 X261.195 Y60.929
G01 X274.005 Y54.729
G01 X286.680 Y48.666
G01 X274.005 Y54.729
G01 X279.878 Y41.965
G01 X274.005 Y54.729
G01 X261.195 Y60.929
G01 X266.023 Y47.542
G01 X278.104 Y40.367
G01 X266.023 Y47.542
G01 X270.728 Y34.303
G01 X266.023 Y47.542
G01 X261.195 Y60.929
G01 X255.337 Y73.678
G01 X244.620 Y78.822
G01 X243.670 Y79.339
G01 X242.504 Y79.905
G01 X246.163 Y68.962
G01 X246.547 Y67.583
G01 X246.952 Y66.351
G01 X258.798 Y58.835
G01 X271.417 Y52.254
G01 X283.904 Y45.814
G01 X271.417 Y52.254
G01 X276.905 Y39.320
G01 X271.417 Y52.254
G01 X258.798 Y58.835
G01 X263.223 Y45.309
G01 X275.084 Y37.776
G01 X263.223 Y45.309
G01 X267.530 Y31.935
G01 X263.223 Y45.309
G01 X258.798 Y58.835
G01 X246.952 Y66.351
G01 X251.246 Y52.995
G01 X263.223 Y45.309
G01 X275.084 Y37.776
G01 X263.223 Y45.309
G01 X267.530 Y31.935
G01 X263.223 Y45.309
G01 X251.246 Y52.995
G01 X254.441 Y39.126
G01 X265.578 Y30.561
G01 X254.441 Y39.126
G01 X257.531 Y25.420
G01 X254.441 Y39.126
G01 X251.246 Y52.995
G01 X246.952 Y66.351
G01 X243.292 Y77.662
G01 X242.908 Y78.673
G01 X242.504 Y79.905
G01 X234.706 Y83.455
G01 X232.747 Y84.483
G01 X229.088 Y86.200
G01 X230.179 Y78.571
G01 X230.427 Y75.506
G01 X230.929 Y71.496
G01 X240.205 Y64.634
G01 X241.398 Y63.842
G01 X242.445 Y63.077
G01 X253.821 Y54.866
G01 X266.023 Y47.542
G01 X278.104 Y40.367
G01 X266.023 Y47.542
G01 X270.728 Y34.303
G01 X266.023 Y47.542
G01 X253.821 Y54.866
G01 X257.429 Y41.099
G01 X268.818 Y32.870
G01 X257.429 Y41.099
G01 X260.929 Y27.492
G01 X257.429 Y41.099
G01 X253.821 Y54.866
G01 X242.445 Y63.077
G01 X245.933 Y49.488
G01 X257.429 Y41.099
G01 X268.818 Y32.870
G01 X257.429 Y41.099
G01 X260.929 Y27.492
G01 X257.429 Y41.099
G01 X245.933 Y49.488
G01 X248.293 Y35.453
G01 X258.898 Y26.237
G01 X248.293 Y35.453
G01 X250.558 Y21.587
G01 X248.293 Y35.453
G01 X245.933 Y49.488
G01 X242.445 Y63.077
G01 X232.819 Y70.053
G01 X231.976 Y70.730
G01 X230.929 Y71.496
G01 X232.576 Y60.076
G01 X232.708 Y58.650
G01 X232.886 Y57.366
G01 X243.200 Y47.855
G01 X254.441 Y39.126
G01 X265.578 Y30.561
G01 X254.441 Y39.126
G01 X257.531 Y25.420
G01 X254.441 Y39.126
G01 X243.200 Y47.855
G01 X245.139 Y33.756
G01 X255.463 Y24.226
G01 X245.139 Y33.756
G01 X246.988 Y19.828
G01 X245.139 Y33.756
G01 X243.200 Y47.855
G01 X232.886 Y57.366
G01 X234.726 Y43.457
G01 X245.139 Y33.756
G01 X255.463 Y24.226
G01 X245.139 Y33.756
G01 X246.988 Y19.828
G01 X245.139 Y33.756
G01 X234.726 Y43.457
G01 X235.393 Y29.241
G01 X244.822 Y18.824
G01 X235.393 Y29.241
G01 X235.987 Y15.203
G01 X235.393 Y29.241
G01 X234.726 Y43.457
G01 X232.886 Y57.366
G01 X231.305 Y69.148
G01 X231.107 Y70.211
G01 X230.929 Y71.496
G01 X229.963 Y80.009
G01 X229.590 Y82.190
G01 X229.088 Y86.200
G01 X226.787 Y94.267
G01 X226.117 Y96.190
G01 X225.002 Y99.937
G01 X221.349 Y107.486
G01 X220.688 Y108.680
G01 X218.840 Y112.427
G01 X214.325 Y114.343
G01 X211.637 Y115.729
G01 X208.592 Y116.961
G01 X205.725 Y118.429
G01 X205.635 Y118.480
G01 X206.154 Y115.303
G01 X206.394 Y112.029
G01 X206.397 Y111.922
G01 X207.096 Y107.119
G01 X207.312 Y104.051
G01 X212.255 Y99.057
G01 X214.294 Y97.247
G01 X217.286 Y94.331
G01 X223.288 Y90.029
G01 X225.869 Y88.418
G01 X229.088 Y86.200
G01 X236.006 Y82.805
G01 X238.845 Y81.622
G01 X242.504 Y79.905
G01 X252.856 Y74.809
G01 X254.171 Y74.244
G01 X255.337 Y73.678
G01 X267.997 Y67.630
G01 X281.311 Y62.602
G01 X294.478 Y57.700
G01 X281.311 Y62.602
G01 X288.304 Y50.416
G01 X281.311 Y62.602
G01 X267.997 Y67.630
G01 X274.005 Y54.729
G01 X286.680 Y48.666
G01 X274.005 Y54.729
G01 X279.878 Y41.965
G01 X274.005 Y54.729
G01 X267.997 Y67.630
G01 X255.337 Y73.678
G01 X261.195 Y60.929
G01 X274.005 Y54.729
G01 X286.680 Y48.666
G01 X274.005 Y54.729
G01 X279.878 Y41.965
G01 X274.005 Y54.729
G01 X261.195 Y60.929
G01 X266.023 Y47.542
G01 X278.104 Y40.367
G01 X266.023 Y47.542
G01 X270.728 Y34.303
G01 X266.023 Y47.542
G01 X261.195 Y60.929
G01 X255.337 Y73.678
G01 X244.620 Y78.822
G01 X243.670 Y79.339
G01 X242.504 Y79.905
G01 X246.163 Y68.962
G01 X246.547 Y67.583
G01 X246.952 Y66.351
G01 X258.798 Y58.835
G01 X271.417 Y52.254
G01 X283.904 Y45.814
G01 X271.417 Y52.254
G01 X276.905 Y39.320
G01 X271.417 Y52.254
G01 X258.798 Y58.835
G01 X263.223 Y45.309
G01 X275.084 Y37.776
G01 X263.223 Y45.309
G01 X267.530 Y31.935
G01 X263.223 Y45.309
G01 X258.798 Y58.835
G01 X246.952 Y66.351
G01 X251.246 Y52.995
G01 X263.223 Y45.309
G01 X275.084 Y37.776
G01 X263.223 Y45.309
G01 X267.530 Y31.935
G01 X263.223 Y45.309
G01 X251.246 Y52.995
G01 X254.441 Y39.126
G01 X265.578 Y30.561
G01 X254.441 Y39.126
G01 X257.531 Y25.420
G01 X254.441 Y39.126
G01 X251.246 Y52.995
G01 X246.952 Y66.351
G01 X243.292 Y77.662
G01 X242.908 Y78.673
G01 X242.504 Y79.905
G01 X234.706 Y83.455
G01 X232.747 Y84.483
G01 X229.088 Y86.200
G01 X230.179 Y78.571
G01 X230.427 Y75.506
G01 X230.929 Y71.496
G01 X240.205 Y64.634
G01 X241.398 Y63.842
G01 X242.445 Y63.077
G01 X253.821 Y54.866
G01 X266.023 Y47.542
G01 X278.104 Y40.367
G01 X266.023 Y47.542
G01 X270.728 Y34.303
G01 X266.023 Y47.542
G01 X253.821 Y54.866
G01 X257.429 Y41.099
G01 X268.818 Y32.870
G01 X257.429 Y41.099
G01 X260.929 Y27.492
G01 X257.429 Y41.099
G01 X253.821 Y54.866
G01 X242.445 Y63.077
G01 X245.933 Y49.488
G01 X257.429 Y41.099
G01 X268.818 Y32.870
G01 X257.429 Y41.099
G01 X260.929 Y27.492
G01 X257.429 Y41.099
G01 X245.933 Y49.488
G01 X248.293 Y35.453
G01 X258.898 Y26.237
G01 X248.293 Y35.453
G01 X250.558 Y21.587
G01 X248.293 Y35.453
G01 X245.933 Y49.488
G01 X242.445 Y63.077
G01 X232.819 Y70.053
G01 X231.976 Y70.730
G01 X230.929 Y71.496
G01 X232.576 Y60.076
G01 X232.708 Y58.650
G01 X232.886 Y57.366
G01 X243.200 Y47.855
G01 X254.441 Y39.126
G01 X265.578 Y30.561
G01 X254.441 Y39.126
G01 X257.531 Y25.420
G01 X254.441 Y39.126
G01 X243.200 Y47.855
G01 X245.139 Y33.756
G01 X255.463 Y24.226
G01 X245.139 Y33.756
G01 X246.988 Y19.828
G01 X245.139 Y33.756
G01 X243.200 Y47.855
G01 X232.886 Y57.366
G01 X234.726 Y43.457
G01 X245.139 Y33.756
G01 X255.463 Y24.226
G01 X245.139 Y33.756
G01 X246.988 Y19.828
G01 X245.139 Y33.756
G01 X234.726 Y43.457
G01 X235.393 Y29.241
G01 X244.822 Y18.824
G01 X235.393 Y29.241
G01 X235.987 Y15.203
G01 X235.393 Y29.241
G01 X234.726 Y43.457
G01 X232.886 Y57.366
G01 X231.305 Y69.148
G01 X231.107 Y70.211
G01 X230.929 Y71.496
G01 X229.963 Y80.009
G01 X229.590 Y82.190
G01 X229.088 Y86.200
G01 X222.127 Y90.882
G01 X220.505 Y92.113
G01 X217.286 Y94.331
G01 X218.230 Y87.007
G01 X218.426 Y83.971
G01 X218.853 Y80.086
G01 X225.054 Y75.510
G01 X227.636 Y73.838
G01 X230.929 Y71.496
G01 X240.205 Y64.634
G01 X241.398 Y63.842
G01 X242.445 Y63.077
G01 X253.821 Y54.866
G01 X266.023 Y47.542
G01 X278.104 Y40.367
G01 X266.023 Y47.542
G01 X270.728 Y34.303
G01 X266.023 Y47.542
G01 X253.821 Y54.866
G01 X257.429 Y41.099
G01 X268.818 Y32.870
G01 X257.429 Y41.099
G01 X260.929 Y27.492
G01 X257.429 Y41.099
G01 X253.821 Y54.866
G01 X242.445 Y63.077
G01 X245.933 Y49.488
G01 X257.429 Y41.099
G01 X268.818 Y32.870
G01 X257.429 Y41.099
G01 X260.929 Y27.492
G01 X257.429 Y41.099
G01 X245.933 Y49.488
G01 X248.293 Y35.453
G01 X258.898 Y26.237
G01 X248.293 Y35.453
G01 X250.558 Y21.587
G01 X248.293 Y35.453
G01 X245.933 Y49.488
G01 X242.445 Y63.077
G01 X232.819 Y70.053
G01 X231.976 Y70.730
G01 X230.929 Y71.496
G01 X232.576 Y60.076
G01 X232.708 Y58.650
G01 X232.886 Y57.366
G01 X243.200 Y47.855
G01 X254.441 Y39.126
G01 X265.578 Y30.561
G01 X254.441 Y39.126
G01 X257.531 Y25.420
G01 X254.441 Y39.126
G01 X243.200 Y47.855
G01 X245.139 Y33.756
G01 X255.463 Y24.226
G01 X245.139 Y33.756
G01 X246.988 Y19.828
G01 X245.139 Y33.756
G01 X243.200 Y47.855
G01 X232.886 Y57.366
G01 X234.726 Y43.457
G01 X245.139 Y33.756
G01 X255.463 Y24.226
G01 X245.139 Y33.756
G01 X246.988 Y19.828
G01 X245.139 Y33.756
G01 X234.726 Y43.457
G01 X235.393 Y29.241
G01 X244.822 Y18.824
G01 X235.393 Y29.241
G01 X235.987 Y15.203
G01 X235.393 Y29.241
G01 X234.726 Y43.457
G01 X232.886 Y57.366
G01 X231.305 Y69.148
G01 X231.107 Y70.211
G01 X230.929 Y71.496
G01 X223.891 Y76.381
G01 X222.147 Y77.743
G01 X218.853 Y80.086
G01 X218.564 Y72.384
G01 X218.262 Y69.324
G01 X218.040 Y65.288
G01 X225.941 Y56.880
G01 X226.974 Y55.889
G01 X227.867 Y54.949
G01 X237.594 Y44.838
G01 X248.293 Y35.453
G01 X258.898 Y26.237
G01 X248.293 Y35.453
G01 X250.558 Y21.587
G01 X248.293 Y35.453
G01 X237.594 Y44.838
G01 X238.686 Y30.649
G01 X248.423 Y20.519
G01 X238.686 Y30.649
G01 X239.700 Y16.635
G01 X238.686 Y30.649
G01 X237.594 Y44.838
G01 X227.867 Y54.949
G01 X228.872 Y40.955
G01 X238.686 Y30.649
G01 X248.423 Y20.519
G01 X238.686 Y30.649
G01 X239.700 Y16.635
G01 X238.686 Y30.649
G01 X228.872 Y40.955
G01 X228.688 Y26.725
G01 X237.477 Y15.763
G01 X228.688 Y26.725
G01 X228.441 Y12.677
G01 X228.688 Y26.725
G01 X228.872 Y40.955
G01 X227.867 Y54.949
G01 X219.641 Y63.531
G01 X218.933 Y64.348
G01 X218.040 Y65.288
G01 X217.621 Y53.758
G01 X217.496 Y52.332
G01 X217.442 Y51.036
G01 X225.892 Y39.836
G01 X235.393 Y29.241
G01 X244.822 Y18.824
G01 X235.393 Y29.241
G01 X235.987 Y15.203
G01 X235.393 Y29.241
G01 X225.892 Y39.836
G01 X225.282 Y25.618
G01 X233.739 Y14.398
G01 X225.282 Y25.618
G01 X224.615 Y11.584
G01 X225.282 Y25.618
G01 X225.892 Y39.836
G01 X217.442 Y51.036
G01 X216.769 Y37.022
G01 X225.282 Y25.618
G01 X233.739 Y14.398
G01 X225.282 Y25.618
G01 X224.615 Y11.584
G01 X225.282 Y25.618
G01 X216.769 Y37.022
G01 X214.887 Y22.916
G01 X222.304 Y10.983
G01 X214.887 Y22.916
G01 X212.965 Y8.998
G01 X214.887 Y22.916
G01 X216.769 Y37.022
G01 X217.442 Y51.036
G01 X217.990 Y62.911
G01 X217.985 Y63.993
G01 X218.040 Y65.288
G01 X218.609 Y73.837
G01 X218.631 Y76.050
G01 X218.853 Y80.086
G01 X218.029 Y88.434
G01 X217.714 Y90.446
G01 X217.286 Y94.331
G01 X211.235 Y100.138
G01 X210.304 Y101.135
G01 X207.312 Y104.051
G01 X208.135 Y97.073
G01 X208.279 Y94.350
G01 X208.693 Y90.192
G01 X213.831 Y84.888
G01 X216.082 Y82.842
G01 X218.853 Y80.086
G01 X225.054 Y75.510
G01 X227.636 Y73.838
G01 X230.929 Y71.496
G01 X240.205 Y64.634
G01 X241.398 Y63.842
G01 X242.445 Y63.077
G01 X253.821 Y54.866
G01 X266.023 Y47.542
G01 X278.104 Y40.367
G01 X266.023 Y47.542
G01 X270.728 Y34.303
G01 X266.023 Y47.542
G01 X253.821 Y54.866
G01 X257.429 Y41.099
G01 X268.818 Y32.870
G01 X257.429 Y41.099
G01 X260.929 Y27.492
G01 X257.429 Y41.099
G01 X253.821 Y54.866
G01 X242.445 Y63.077
G01 X245.933 Y49.488
G01 X257.429 Y41.099
G01 X268.818 Y32.870
G01 X257.429 Y41.099
G01 X260.929 Y27.492
G01 X257.429 Y41.099
G01 X245.933 Y49.488
G01 X248.293 Y35.453
G01 X258.898 Y26.237
G01 X248.293 Y35.453
G01 X250.558 Y21.587
G01 X248.293 Y35.453
G01 X245.933 Y49.488
G01 X242.445 Y63.077
G01 X232.819 Y70.053
G01 X231.976 Y70.730
G01 X230.929 Y71.496
G01 X232.576 Y60.076
G01 X232.708 Y58.650
G01 X232.886 Y57.366
G01 X243.200 Y47.855
G01 X254.441 Y39.126
G01 X265.578 Y30.561
G01 X254.441 Y39.126
G01 X257.531 Y25.420
G01 X254.441 Y39.126
G01 X243.200 Y47.855
G01 X245.139 Y33.756
G01 X255.463 Y24.226
G01 X245.139 Y33.756
G01 X246.988 Y19.828
G01 X245.139 Y33.756
G01 X243.200 Y47.855
G01 X232.886 Y57.366
G01 X234.726 Y43.457
G01 X245.139 Y33.756
G01 X255.463 Y24.226
G01 X245.139 Y33.756
G01 X246.988 Y19.828
G01 X245.139 Y33.756
G01 X234.726 Y43.457
G01 X235.393 Y29.241
G01 X244.822 Y18.824
G01 X235.393 Y29.241
G01 X235.987 Y15.203
G01 X235.393 Y29.241
G01 X234.726 Y43.457
G01 X232.886 Y57.366
G01 X231.305 Y69.148
G01 X231.107 Y70.211
G01 X230.929 Y71.496
G01 X223.891 Y76.381
G01 X222.147 Y77.743
G01 X218.853 Y80.086
G01 X218.564 Y72.384
G01 X218.262 Y69.324
G01 X218.040 Y65.288
G01 X225.941 Y56.880
G01 X226.974 Y55.889
G01 X227.867 Y54.949
G01 X237.594 Y44.838
G01 X248.293 Y35.453
G01 X258.898 Y26.237
G01 X248.293 Y35.453
G01 X250.558 Y21.587
G01 X248.293 Y35.453
G01 X237.594 Y44.838
G01 X238.686 Y30.649
G01 X248.423 Y20.519
G01 X238.686 Y30.649
G01 X239.700 Y16.635
G01 X238.686 Y30.649
G01 X237.594 Y44.838
G01 X227.867 Y54.949
G01 X228.872 Y40.955
G01 X238.686 Y30.649
G01 X248.423 Y20.519
G01 X238.686 Y30.649
G01 X239.700 Y16.635
G01 X238.686 Y30.649
G01 X228.872 Y40.955
G01 X228.688 Y26.725
G01 X237.477 Y15.763
G01 X228.688 Y26.725
G01 X228.441 Y12.677
G01 X228.688 Y26.725
G01 X228.872 Y40.955
G01 X227.867 Y54.949
G01 X219.641 Y63.531
G01 X218.933 Y64.348
G01 X218.040 Y65.288
G01 X217.621 Y53.758
G01 X217.496 Y52.332
G01 X217.442 Y51.036
G01 X225.892 Y39.836
G01 X235.393 Y29.241
G01 X244.822 Y18.824
G01 X235.393 Y29.241
G01 X235.987 Y15.203
G01 X235.393 Y29.241
G01 X225.892 Y39.836
G01 X225.282 Y25.618
G01 X233.739 Y14.398
G01 X225.282 Y25.618
G01 X224.615 Y11.584
G01 X225.282 Y25.618
G01 X225.892 Y39.836
G01 X217.442 Y51.036
G01 X216.769 Y37.022
G01 X225.282 Y25.618
G01 X233.739 Y14.398
G01 X225.282 Y25.618
G01 X224.615 Y11.584
G01 X225.282 Y25.618
G01 X216.769 Y37.022
G01 X214.887 Y22.916
G01 X222.304 Y10.983
G01 X214.887 Y22.916
G01 X212.965 Y8.998
G01 X214.887 Y22.916
G01 X216.769 Y37.022
G01 X217.442 Y51.036
G01 X217.990 Y62.911
G01 X217.985 Y63.993
G01 X218.040 Y65.288
G01 X218.609 Y73.837
G01 X218.631 Y76.050
G01 X218.853 Y80.086
G01 X212.840 Y85.935
G01 X211.464 Y87.436
G01 X208.693 Y90.192
G01 X208.314 Y82.818
G01 X207.965 Y79.795
G01 X207.691 Y75.896
G01 X212.976 Y70.287
G01 X215.217 Y68.182
G01 X218.040 Y65.288
G01 X225.941 Y56.880
G01 X226.974 Y55.889
G01 X227.867 Y54.949
G01 X237.594 Y44.838
G01 X248.293 Y35.453
G01 X258.898 Y26.237
G01 X248.293 Y35.453
G01 X250.558 Y21.587
G01 X248.293 Y35.453
G01 X237.594 Y44.838
G01 X238.686 Y30.649
G01 X248.423 Y20.519
G01 X238.686 Y30.649
G01 X239.700 Y16.635
G01 X238.686 Y30.649
G01 X237.594 Y44.838
G01 X227.867 Y54.949
G01 X228.872 Y40.955
G01 X238.686 Y30.649
G01 X248.423 Y20.519
G01 X238.686 Y30.649
G01 X239.700 Y16.635
G01 X238.686 Y30.649
G01 X228.872 Y40.955
G01 X228.688 Y26.725
G01 X237.477 Y15.763
G01 X228.688 Y26.725
G01 X228.441 Y12.677
G01 X228.688 Y26.725
G01 X228.872 Y40.955
G01 X227.867 Y54.949
G01 X219.641 Y63.531
G01 X218.933 Y64.348
G01 X218.040 Y65.288
G01 X217.621 Y53.758
G01 X217.496 Y52.332
G01 X217.442 Y51.036
G01 X225.892 Y39.836
G01 X235.393 Y29.241
G01 X244.822 Y18.824
G01 X235.393 Y29.241
G01 X235.987 Y15.203
G01 X235.393 Y29.241
G01 X225.892 Y39.836
G01 X225.282 Y25.618
G01 X233.739 Y14.398
G01 X225.282 Y25.618
G01 X224.615 Y11.584
G01 X225.282 Y25.618
G01 X225.892 Y39.836
G01 X217.442 Y51.036
G01 X216.769 Y37.022
G01 X225.282 Y25.618
G01 X233.739 Y14.398
G01 X225.282 Y25.618
G01 X224.615 Y11.584
G01 X225.282 Y25.618
G01 X216.769 Y37.022
G01 X214.887 Y22.916
G01 X222.304 Y10.983
G01 X214.887 Y22.916
G01 X212.965 Y8.998
G01 X214.887 Y22.916
G01 X216.769 Y37.022
G01 X217.442 Y51.036
G01 X217.990 Y62.911
G01 X217.985 Y63.993
G01 X218.040 Y65.288
G01 X211.986 Y71.352
G01 X210.514 Y73.003
G01 X207.691 Y75.896
G01 X206.032 Y68.371
G01 X205.188 Y65.414
G01 X204.249 Y61.482
G01 X210.522 Y51.799
G01 X211.361 Y50.639
G01 X212.072 Y49.554
G01 X219.837 Y37.869
G01 X228.688 Y26.725
G01 X237.477 Y15.763
G01 X228.688 Y26.725
G01 X228.441 Y12.677
G01 X228.688 Y26.725
G01 X219.837 Y37.869
G01 X218.379 Y23.713
G01 X226.149 Y12.007
G01 X218.379 Y23.713
G01 X216.873 Y9.743
G01 X218.379 Y23.713
G01 X219.837 Y37.869
G01 X212.072 Y49.554
G01 X210.562 Y35.606
G01 X218.379 Y23.713
G01 X226.149 Y12.007
G01 X218.379 Y23.713
G01 X216.873 Y9.743
G01 X218.379 Y23.713
G01 X210.562 Y35.606
G01 X207.840 Y21.637
G01 X214.531 Y9.282
G01 X207.840 Y21.637
G01 X205.089 Y7.859
G01 X207.840 Y21.637
G01 X210.562 Y35.606
G01 X212.072 Y49.554
G01 X205.511 Y59.467
G01 X204.960 Y60.398
G01 X204.249 Y61.482
G01 X201.778 Y50.212
G01 X201.400 Y48.831
G01 X201.116 Y47.566
G01 X207.430 Y35.037
G01 X214.887 Y22.916
G01 X222.304 Y10.983
G01 X214.887 Y22.916
G01 X212.965 Y8.998
G01 X214.887 Y22.916
G01 X207.430 Y35.037
G01 X204.291 Y21.156
G01 X210.609 Y8.606
G01 X204.291 Y21.156
G01 X201.129 Y7.466
G01 X204.291 Y21.156
G01 X207.430 Y35.037
G01 X201.116 Y47.566
G01 X197.951 Y33.898
G01 X204.291 Y21.156
G01 X210.609 Y8.606
G01 X204.291 Y21.156
G01 X201.129 Y7.466
G01 X204.291 Y21.156
G01 X197.951 Y33.898
G01 X193.581 Y20.354
G01 X198.748 Y7.288
G01 X193.581 Y20.354
G01 X189.204 Y7.002
G01 X193.581 Y20.354
G01 X197.951 Y33.898
G01 X201.116 Y47.566
G01 X203.775 Y59.153
G01 X203.964 Y60.217
G01 X204.249 Y61.482
G01 X206.336 Y69.792
G01 X206.753 Y71.965
G01 X207.691 Y75.896
G01 X208.371 Y84.257
G01 X208.420 Y86.293
G01 X208.693 Y90.192
G01 X207.926 Y98.544
G01 X207.726 Y99.894
G01 X207.312 Y104.051
G01 X206.885 Y108.937
G01 X206.397 Y111.922
G01 X206.166 Y115.199
G01 X205.656 Y118.379
G01 X205.635 Y118.480
G01 X190.823 Y138.867
G01 X190.855 Y138.937
G01 X190.882 Y139.007
G01 X190.905 Y139.077
G01 X190.923 Y139.147
G01 X190.936 Y139.216
G01 X190.945 Y139.285
G01 X190.949 Y139.352
G01 X190.949 Y139.418
G01 X190.945 Y139.483
G01 X190.937 Y139.546
G01 X190.925 Y139.606
G01 X190.910 Y139.664
G01 X190.891 Y139.720
G01 X190.869 Y139.773
G01 X190.844 Y139.824
G01 X190.816 Y139.871
G01 X190.786 Y139.915
G01 X190.753 Y139.956
G01 X190.718 Y139.993
G01 X190.682 Y140.027
G01 X190.644 Y140.057
G01 X190.605 Y140.084
G01 X190.565 Y140.107
G01 X190.524 Y140.126
G01 X190.483 Y140.141
G01 X190.442 Y140.153
G01 X190.400 Y140.161
G01 X190.359 Y140.166
G01 X190.319 Y140.166
G01 X190.279 Y140.164
G01 X190.241 Y140.158
G01 X190.204 Y140.148
G01 X190.169 Y140.136
G01 X190.135 Y140.120
G01 X190.103 Y140.101
G01 X190.074 Y140.080
G01 X190.047 Y140.056
G01 X190.022 Y140.030
G01 X190.001 Y140.001
G01 X190.000 Y140.000
G01 X190.012 Y140.019
G01 X190.022 Y140.040
G01 X190.030 Y140.061
G01 X190.036 Y140.084
G01 X190.039 Y140.107
G01 X190.041 Y140.130
G01 X190.040 Y140.154
G01 X190.037 Y140.178
G01 X190.032 Y140.202
G01 X190.024 Y140.226
G01 X190.014 Y140.250
G01 X190.002 Y140.273
G01 X189.988 Y140.295
G01 X189.971 Y140.317
G01 X189.953 Y140.338
G01 X189.932 Y140.358
G01 X189.909 Y140.376
G01 X189.884 Y140.393
G01 X189.858 Y140.408
G01 X189.829 Y140.422
G01 X189.799 Y140.434
G01 X189.768 Y140.443
G01 X189.735 Y140.451
G01 X189.700 Y140.456
G01 X189.665 Y140.460
G01 X189.629 Y140.460
G01 X189.591 Y140.459
G01 X189.553 Y140.454
G01 X189.515 Y140.447
G01 X189.476 Y140.437
G01 X189.437 Y140.425
G01 X189.398 Y140.409
G01 X189.359 Y140.391
G01 X189.321 Y140.370
G01 X189.283 Y140.346
G01 X189.246 Y140.320
G01 X189.210 Y140.290
G01 X189.175 Y140.258
G01 X189.141 Y140.223
G01 X189.109 Y140.185
G01 X189.079 Y140.144
G01 X189.050 Y140.102
G01 X189.023 Y140.056
G01 X188.999 Y140.008
G01 X188.977 Y139.958
G01 X188.958 Y139.906
G01 X188.941 Y139.852
G01 X188.927 Y139.796
G01 X188.916 Y139.738
G01 X188.909 Y139.679
G01 X188.904 Y139.618
G01 X188.903 Y139.556
G01 X188.906 Y139.494
G01 X188.912 Y139.430
G01 X188.922 Y139.366
G01 X188.935 Y139.301
G01 X188.952 Y139.236
G01 X188.973 Y139.171
G01 X188.998 Y139.107
G01 X189.027 Y139.043
G01 X189.060 Y138.980
G01 X189.079 Y138.946
G01 X172.499 Y119.968
G01 X171.698 Y116.850
G01 X171.164 Y113.611
G01 X171.152 Y113.504
G01 X170.025 Y108.784
G01 X169.535 Y105.748
G01 X168.090 Y98.871
G01 X167.703 Y96.172
G01 X166.917 Y92.068
G01 X166.634 Y84.689
G01 X166.711 Y81.648
G01 X166.634 Y77.740
G01 X167.612 Y70.096
G01 X168.188 Y67.075
G01 X168.770 Y63.076
G01 X170.221 Y51.629
G01 X170.473 Y50.220
G01 X170.643 Y48.934
G01 X172.570 Y35.037
G01 X175.709 Y21.156
G01 X178.871 Y7.466
G01 X175.709 Y21.156
G01 X169.391 Y8.606
G01 X175.709 Y21.156
G01 X172.570 Y35.037
G01 X165.113 Y22.916
G01 X167.035 Y8.998
G01 X165.113 Y22.916
G01 X157.696 Y10.983
G01 X165.113 Y22.916
G01 X172.570 Y35.037
G01 X170.643 Y48.934
G01 X163.231 Y37.022
G01 X165.113 Y22.916
G01 X167.035 Y8.998
G01 X165.113 Y22.916
G01 X157.696 Y10.983
G01 X165.113 Y22.916
G01 X163.231 Y37.022
G01 X154.718 Y25.618
G01 X155.385 Y11.584
G01 X154.718 Y25.618
G01 X146.261 Y14.398
G01 X154.718 Y25.618
G01 X163.231 Y37.022
G01 X170.643 Y48.934
G01 X169.033 Y60.713
G01 X168.941 Y61.790
G01 X168.770 Y63.076
G01 X161.654 Y53.993
G01 X160.715 Y52.913
G01 X159.909 Y51.897
G01 X160.163 Y37.869
G01 X161.621 Y23.713
G01 X163.127 Y9.743
G01 X161.621 Y23.713
G01 X153.851 Y12.007
G01 X161.621 Y23.713
G01 X160.163 Y37.869
G01 X151.312 Y26.725
G01 X151.559 Y12.677
G01 X151.312 Y26.725
G01 X142.523 Y15.763
G01 X151.312 Y26.725
G01 X160.163 Y37.869
G01 X159.909 Y51.897
G01 X151.128 Y40.955
G01 X151.312 Y26.725
G01 X151.559 Y12.677
G01 X151.312 Y26.725
G01 X142.523 Y15.763
G01 X151.312 Y26.725
G01 X151.128 Y40.955
G01 X141.314 Y30.649
G01 X140.300 Y16.635
G01 X141.314 Y30.649
G01 X131.577 Y20.519
G01 X141.314 Y30.649
G01 X151.128 Y40.955
G01 X159.909 Y51.897
G01 X167.333 Y61.182
G01 X167.965 Y62.060
G01 X168.770 Y63.076
G01 X167.437 Y71.539
G01 X167.216 Y73.741
G01 X166.634 Y77.740
G01 X160.868 Y72.627
G01 X158.446 Y70.731
G01 X155.376 Y68.103
G01 X154.759 Y56.581
G01 X154.756 Y55.149
G01 X154.694 Y53.854
G01 X154.108 Y39.836
G01 X154.718 Y25.618
G01 X155.385 Y11.584
G01 X154.718 Y25.618
G01 X146.261 Y14.398
G01 X154.718 Y25.618
G01 X154.108 Y39.836
G01 X144.607 Y29.241
G01 X144.013 Y15.203
G01 X144.607 Y29.241
G01 X135.178 Y18.824
G01 X144.607 Y29.241
G01 X154.108 Y39.836
G01 X154.694 Y53.854
G01 X145.274 Y43.457
G01 X144.607 Y29.241
G01 X144.013 Y15.203
G01 X144.607 Y29.241
G01 X135.178 Y18.824
G01 X144.607 Y29.241
G01 X145.274 Y43.457
G01 X134.861 Y33.756
G01 X133.012 Y19.828
G01 X134.861 Y33.756
G01 X124.537 Y24.226
G01 X134.861 Y33.756
G01 X145.274 Y43.457
G01 X154.694 Y53.854
G01 X155.213 Y65.731
G01 X155.314 Y66.807
G01 X155.376 Y68.103
G01 X146.753 Y60.437
G01 X145.635 Y59.542
G01 X144.661 Y58.686
G01 X142.406 Y44.838
G01 X141.314 Y30.649
G01 X140.300 Y16.635
G01 X141.314 Y30.649
G01 X131.577 Y20.519
G01 X141.314 Y30.649
G01 X142.406 Y44.838
G01 X131.707 Y35.453
G01 X129.442 Y21.587
G01 X131.707 Y35.453
G01 X121.102 Y26.237
G01 X131.707 Y35.453
G01 X142.406 Y44.838
G01 X144.661 Y58.686
G01 X134.067 Y49.488
G01 X131.707 Y35.453
G01 X129.442 Y21.587
G01 X131.707 Y35.453
G01 X121.102 Y26.237
G01 X131.707 Y35.453
G01 X134.067 Y49.488
G01 X122.571 Y41.099
G01 X119.071 Y27.492
G01 X122.571 Y41.099
G01 X111.182 Y32.870
G01 X122.571 Y41.099
G01 X134.067 Y49.488
G01 X144.661 Y58.686
G01 X153.624 Y66.496
G01 X154.402 Y67.247
G01 X155.376 Y68.103
G01 X161.949 Y73.599
G01 X163.563 Y75.112
G01 X166.634 Y77.740
G01 X166.706 Y86.129
G01 X166.840 Y88.161
G01 X166.917 Y92.068
G01 X161.325 Y87.246
G01 X158.899 Y85.410
G01 X155.892 Y82.913
G01 X155.489 Y75.217
G01 X155.517 Y72.142
G01 X155.376 Y68.103
G01 X154.759 Y56.581
G01 X154.756 Y55.149
G01 X154.694 Y53.854
G01 X154.108 Y39.836
G01 X154.718 Y25.618
G01 X155.385 Y11.584
G01 X154.718 Y25.618
G01 X146.261 Y14.398
G01 X154.718 Y25.618
G01 X154.108 Y39.836
G01 X144.607 Y29.241
G01 X144.013 Y15.203
G01 X144.607 Y29.241
G01 X135.178 Y18.824
G01 X144.607 Y29.241
G01 X154.108 Y39.836
G01 X154.694 Y53.854
G01 X145.274 Y43.457
G01 X144.607 Y29.241
G01 X144.013 Y15.203
G01 X144.607 Y29.241
G01 X135.178 Y18.824
G01 X144.607 Y29.241
G01 X145.274 Y43.457
G01 X134.861 Y33.756
G01 X133.012 Y19.828
G01 X134.861 Y33.756
G01 X124.537 Y24.226
G01 X134.861 Y33.756
G01 X145.274 Y43.457
G01 X154.694 Y53.854
G01 X155.213 Y65.731
G01 X155.314 Y66.807
G01 X155.376 Y68.103
G01 X146.753 Y60.437
G01 X145.635 Y59.542
G01 X144.661 Y58.686
G01 X142.406 Y44.838
G01 X141.314 Y30.649
G01 X140.300 Y16.635
G01 X141.314 Y30.649
G01 X131.577 Y20.519
G01 X141.314 Y30.649
G01 X142.406 Y44.838
G01 X131.707 Y35.453
G01 X129.442 Y21.587
G01 X131.707 Y35.453
G01 X121.102 Y26.237
G01 X131.707 Y35.453
G01 X142.406 Y44.838
G01 X144.661 Y58.686
G01 X134.067 Y49.488
G01 X131.707 Y35.453
G01 X129.442 Y21.587
G01 X131.707 Y35.453
G01 X121.102 Y26.237
G01 X131.707 Y35.453
G01 X134.067 Y49.488
G01 X122.571 Y41.099
G01 X119.071 Y27.492
G01 X122.571 Y41.099
G01 X111.182 Y32.870
G01 X122.571 Y41.099
G01 X134.067 Y49.488
G01 X144.661 Y58.686
G01 X153.624 Y66.496
G01 X154.402 Y67.247
G01 X155.376 Y68.103
G01 X155.575 Y76.668
G01 X155.751 Y78.874
G01 X155.892 Y82.913
G01 X149.306 Y78.912
G01 X146.585 Y77.478
G01 X143.095 Y75.440
G01 X140.431 Y64.214
G01 X140.172 Y62.806
G01 X139.880 Y61.543
G01 X136.800 Y47.855
G01 X134.861 Y33.756
G01 X133.012 Y19.828
G01 X134.861 Y33.756
G01 X124.537 Y24.226
G01 X134.861 Y33.756
G01 X136.800 Y47.855
G01 X125.559 Y39.126
G01 X122.469 Y25.420
G01 X125.559 Y39.126
G01 X114.422 Y30.561
G01 X125.559 Y39.126
G01 X136.800 Y47.855
G01 X139.880 Y61.543
G01 X128.754 Y52.995
G01 X125.559 Y39.126
G01 X122.469 Y25.420
G01 X125.559 Y39.126
G01 X114.422 Y30.561
G01 X125.559 Y39.126
G01 X128.754 Y52.995
G01 X116.777 Y45.309
G01 X112.470 Y31.935
G01 X116.777 Y45.309
G01 X104.916 Y37.776
G01 X116.777 Y45.309
G01 X128.754 Y52.995
G01 X139.880 Y61.543
G01 X142.510 Y73.136
G01 X142.802 Y74.177
G01 X143.095 Y75.440
G01 X133.241 Y69.438
G01 X131.982 Y68.756
G01 X130.871 Y68.088
G01 X126.179 Y54.866
G01 X122.571 Y41.099
G01 X119.071 Y27.492
G01 X122.571 Y41.099
G01 X111.182 Y32.870
G01 X122.571 Y41.099
G01 X126.179 Y54.866
G01 X113.977 Y47.542
G01 X109.272 Y34.303
G01 X113.977 Y47.542
G01 X101.896 Y40.367
G01 X113.977 Y47.542
G01 X126.179 Y54.866
G01 X130.871 Y68.088
G01 X118.805 Y60.929
G01 X113.977 Y47.542
G01 X109.272 Y34.303
G01 X113.977 Y47.542
G01 X101.896 Y40.367
G01 X113.977 Y47.542
G01 X118.805 Y60.929
G01 X105.995 Y54.729
G01 X100.122 Y41.965
G01 X105.995 Y54.729
G01 X93.320 Y48.666
G01 X105.995 Y54.729
G01 X118.805 Y60.929
G01 X130.871 Y68.088
G01 X141.084 Y74.173
G01 X141.983 Y74.772
G01 X143.095 Y75.440
G01 X150.543 Y79.675
G01 X152.402 Y80.875
G01 X155.892 Y82.913
G01 X162.405 Y88.200
G01 X163.911 Y89.572
G01 X166.917 Y92.068
G01 X168.431 Y100.318
G01 X168.750 Y101.644
G01 X169.535 Y105.748
G01 X164.165 Y101.217
G01 X161.971 Y99.597
G01 X158.730 Y96.960
G01 X157.133 Y89.750
G01 X156.666 Y86.744
G01 X155.892 Y82.913
G01 X155.489 Y75.217
G01 X155.517 Y72.142
G01 X155.376 Y68.103
G01 X154.759 Y56.581
G01 X154.756 Y55.149
G01 X154.694 Y53.854
G01 X154.108 Y39.836
G01 X154.718 Y25.618
G01 X155.385 Y11.584
G01 X154.718 Y25.618
G01 X146.261 Y14.398
G01 X154.718 Y25.618
G01 X154.108 Y39.836
G01 X144.607 Y29.241
G01 X144.013 Y15.203
G01 X144.607 Y29.241
G01 X135.178 Y18.824
G01 X144.607 Y29.241
G01 X154.108 Y39.836
G01 X154.694 Y53.854
G01 X145.274 Y43.457
G01 X144.607 Y29.241
G01 X144.013 Y15.203
G01 X144.607 Y29.241
G01 X135.178 Y18.824
G01 X144.607 Y29.241
G01 X145.274 Y43.457
G01 X134.861 Y33.756
G01 X133.012 Y19.828
G01 X134.861 Y33.756
G01 X124.537 Y24.226
G01 X134.861 Y33.756
G01 X145.274 Y43.457
G01 X154.694 Y53.854
G01 X155.213 Y65.731
G01 X155.314 Y66.807
G01 X155.376 Y68.103
G01 X146.753 Y60.437
G01 X145.635 Y59.542
G01 X144.661 Y58.686
G01 X142.406 Y44.838
G01 X141.314 Y30.649
G01 X140.300 Y16.635
G01 X141.314 Y30.649
G01 X131.577 Y20.519
G01 X141.314 Y30.649
G01 X142.406 Y44.838
G01 X131.707 Y35.453
G01 X129.442 Y21.587
G01 X131.707 Y35.453
G01 X121.102 Y26.237
G01 X131.707 Y35.453
G01 X142.406 Y44.838
G01 X144.661 Y58.686
G01 X134.067 Y49.488
G01 X131.707 Y35.453
G01 X129.442 Y21.587
G01 X131.707 Y35.453
G01 X121.102 Y26.237
G01 X131.707 Y35.453
G01 X134.067 Y49.488
G01 X122.571 Y41.099
G01 X119.071 Y27.492
G01 X122.571 Y41.099
G01 X111.182 Y32.870
G01 X122.571 Y41.099
G01 X134.067 Y49.488
G01 X144.661 Y58.686
G01 X153.624 Y66.496
G01 X154.402 Y67.247
G01 X155.376 Y68.103
G01 X155.575 Y76.668
G01 X155.751 Y78.874
G01 X155.892 Y82.913
G01 X149.306 Y78.912
G01 X146.585 Y77.478
G01 X143.095 Y75.440
G01 X140.431 Y64.214
G01 X140.172 Y62.806
G01 X139.880 Y61.543
G01 X136.800 Y47.855
G01 X134.861 Y33.756
G01 X133.012 Y19.828
G01 X134.861 Y33.756
G01 X124.537 Y24.226
G01 X134.861 Y33.756
G01 X136.800 Y47.855
G01 X125.559 Y39.126
G01 X122.469 Y25.420
G01 X125.559 Y39.126
G01 X114.422 Y30.561
G01 X125.559 Y39.126
G01 X136.800 Y47.855
G01 X139.880 Y61.543
G01 X128.754 Y52.995
G01 X125.559 Y39.126
G01 X122.469 Y25.420
G01 X125.559 Y39.126
G01 X114.422 Y30.561
G01 X125.559 Y39.126
G01 X128.754 Y52.995
G01 X116.777 Y45.309
G01 X112.470 Y31.935
G01 X116.777 Y45.309
G01 X104.916 Y37.776
G01 X116.777 Y45.309
G01 X128.754 Y52.995
G01 X139.880 Y61.543
G01 X142.510 Y73.136
G01 X142.802 Y74.177
G01 X143.095 Y75.440
G01 X133.241 Y69.438
G01 X131.982 Y68.756
G01 X130.871 Y68.088
G01 X126.179 Y54.866
G01 X122.571 Y41.099
G01 X119.071 Y27.492
G01 X122.571 Y41.099
G01 X111.182 Y32.870
G01 X122.571 Y41.099
G01 X126.179 Y54.866
G01 X113.977 Y47.542
G01 X109.272 Y34.303
G01 X113.977 Y47.542
G01 X101.896 Y40.367
G01 X113.977 Y47.542
G01 X126.179 Y54.866
G01 X130.871 Y68.088
G01 X118.805 Y60.929
G01 X113.977 Y47.542
G01 X109.272 Y34.303
G01 X113.977 Y47.542
G01 X101.896 Y40.367
G01 X113.977 Y47.542
G01 X118.805 Y60.929
G01 X105.995 Y54.729
G01 X100.122 Y41.965
G01 X105.995 Y54.729
G01 X93.320 Y48.666
G01 X105.995 Y54.729
G01 X118.805 Y60.929
G01 X130.871 Y68.088
G01 X141.084 Y74.173
G01 X141.983 Y74.772
G01 X143.095 Y75.440
G01 X150.543 Y79.675
G01 X152.402 Y80.875
G01 X155.892 Y82.913
G01 X157.461 Y91.154
G01 X157.956 Y93.129
G01 X158.730 Y96.960
G01 X152.366 Y93.214
G01 X149.651 Y91.841
G01 X146.247 Y89.921
G01 X144.477 Y82.420
G01 X143.954 Y79.390
G01 X143.095 Y75.440
G01 X140.431 Y64.214
G01 X140.172 Y62.806
G01 X139.880 Y61.543
G01 X136.800 Y47.855
G01 X134.861 Y33.756
G01 X133.012 Y19.828
G01 X134.861 Y33.756
G01 X124.537 Y24.226
G01 X134.861 Y33.756
G01 X136.800 Y47.855
G01 X125.559 Y39.126
G01 X122.469 Y25.420
G01 X125.559 Y39.126
G01 X114.422 Y30.561
G01 X125.559 Y39.126
G01 X136.800 Y47.855
G01 X139.880 Y61.543
G01 X128.754 Y52.995
G01 X125.559 Y39.126
G01 X122.469 Y25.420
G01 X125.559 Y39.126
G01 X114.422 Y30.561
G01 X125.559 Y39.126
G01 X128.754 Y52.995
G01 X116.777 Y45.309
G01 X112.470 Y31.935
G01 X116.777 Y45.309
G01 X104.916 Y37.776
G01 X116.777 Y45.309
G01 X128.754 Y52.995
G01 X139.880 Y61.543
G01 X142.510 Y73.136
G01 X142.802 Y74.177
G01 X143.095 Y75.440
G01 X133.241 Y69.438
G01 X131.982 Y68.756
G01 X130.871 Y68.088
G01 X126.179 Y54.866
G01 X122.571 Y41.099
G01 X119.071 Y27.492
G01 X122.571 Y41.099
G01 X111.182 Y32.870
G01 X122.571 Y41.099
G01 X126.179 Y54.866
G01 X113.977 Y47.542
G01 X109.272 Y34.303
G01 X113.977 Y47.542
G01 X101.896 Y40.367
G01 X113.977 Y47.542
G01 X126.179 Y54.866
G01 X130.871 Y68.088
G01 X118.805 Y60.929
G01 X113.977 Y47.542
G01 X109.272 Y34.303
G01 X113.977 Y47.542
G01 X101.896 Y40.367
G01 X113.977 Y47.542
G01 X118.805 Y60.929
G01 X105.995 Y54.729
G01 X100.122 Y41.965
G01 X105.995 Y54.729
G01 X93.320 Y48.666
G01 X105.995 Y54.729
G01 X118.805 Y60.929
G01 X130.871 Y68.088
G01 X141.084 Y74.173
G01 X141.983 Y74.772
G01 X143.095 Y75.440
G01 X144.820 Y83.833
G01 X145.387 Y85.972
G01 X146.247 Y89.921
G01 X139.052 Y87.160
G01 X136.119 Y86.235
G01 X132.321 Y84.853
G01 X127.695 Y74.283
G01 X127.189 Y72.944
G01 X126.676 Y71.753
G01 X121.202 Y58.835
G01 X116.777 Y45.309
G01 X112.470 Y31.935
G01 X116.777 Y45.309
G01 X104.916 Y37.776
G01 X116.777 Y45.309
G01 X121.202 Y58.835
G01 X108.583 Y52.254
G01 X103.095 Y39.320
G01 X108.583 Y52.254
G01 X96.096 Y45.814
G01 X108.583 Y52.254
