;  Created by Sandify
;  https://sandify.org
;  Version: 0.2.4
;
;  Machine type: Rectangular
;    Min X (mm): 0
;    Max X (mm): 380
;    Min Y (mm): 0
;    Max Y (mm): 280
;  Content type: shape
;  Layer:
;    Shape: FileImport
;    Name: HexagonAlley.thr
;    From file:: HexagonAlley.thr
;    Aspect Ratio: true
;    Comments: 
;    Visible: true
;    Initial width: 10
;    Initial height: 10
;    X offset: 0
;    Y offset: 0
;    Rotate (degrees): 0
;    Reverse path: false
;    Fine tuning:
;      Connect to next layer: line
;      Draw portion of path (%): 100
;      Backtrack at end (%): 0
;      Rotate starting point (%): 0
;  Reverse export path: false
;
; File name: 'HexagonAlley'
;

G01 X190.000 Y140.000
G01 X190.006 Y140.130
G01 X190.026 Y140.259
G01 X190.057 Y140.386
G01 X190.102 Y140.510
G01 X190.158 Y140.631
G01 X190.227 Y140.747
G01 X190.307 Y140.857
G01 X190.398 Y140.962
G01 X190.501 Y141.058
G01 X190.613 Y141.147
G01 X190.694 Y141.202
G01 X224.000 Y198.890
G01 X228.057 Y199.024
G01 X232.205 Y198.897
G01 X232.327 Y198.890
G01 X237.010 Y199.059
G01 X241.807 Y198.905
G01 X242.041 Y198.890
G01 X247.574 Y199.040
G01 X251.755 Y198.890
G01 X258.299 Y199.010
G01 X261.469 Y198.890
G01 X269.254 Y199.021
G01 X272.571 Y198.890
G01 X281.985 Y199.017
G01 X285.061 Y198.890
G01 X292.000 Y198.890
G01 X295.040 Y193.954
G01 X297.840 Y188.862
G01 X298.245 Y188.073
G01 X301.341 Y183.040
G01 X304.203 Y177.817
G01 X304.490 Y177.257
G01 X307.709 Y172.010
G01 X310.686 Y166.536
G01 X310.735 Y166.440
G01 X314.142 Y160.863
G01 X316.980 Y155.624
G01 X320.640 Y149.598
G01 X323.224 Y144.807
G01 X326.000 Y140.000
G01 X322.420 Y133.495
G01 X319.755 Y129.184
G01 X316.471 Y123.175
G01 X313.510 Y118.367
G01 X310.457 Y112.750
G01 X307.265 Y107.551
G01 X304.377 Y102.217
G01 X301.250 Y97.088
G01 X301.020 Y96.734
G01 X298.233 Y91.576
G01 X295.208 Y86.587
G01 X294.776 Y85.918
G01 X292.000 Y81.110
G01 X281.465 Y81.027
G01 X279.510 Y81.110
G01 X270.730 Y81.014
G01 X268.408 Y81.110
G01 X261.058 Y80.961
G01 X257.306 Y81.110
G01 X251.127 Y80.976
G01 X247.592 Y81.110
G01 X242.333 Y80.951
G01 X237.878 Y81.110
G01 X233.385 Y80.935
G01 X228.995 Y81.055
G01 X228.163 Y81.110
G01 X224.185 Y81.104
G01 X224.000 Y81.110
G01 X190.694 Y138.798
G01 X190.608 Y138.817
G01 X190.525 Y138.840
G01 X190.447 Y138.869
G01 X190.372 Y138.903
G01 X190.302 Y138.941
G01 X190.237 Y138.984
G01 X190.177 Y139.030
G01 X190.121 Y139.079
G01 X190.071 Y139.131
G01 X190.027 Y139.186
G01 X189.988 Y139.243
G01 X189.954 Y139.302
G01 X189.927 Y139.362
G01 X189.905 Y139.423
G01 X189.889 Y139.484
G01 X189.878 Y139.546
G01 X189.874 Y139.607
G01 X189.875 Y139.667
G01 X189.881 Y139.726
G01 X189.893 Y139.784
G01 X189.911 Y139.840
G01 X189.933 Y139.893
G01 X189.961 Y139.943
G01 X189.993 Y139.991
G01 X190.000 Y140.000
G01 X189.986 Y139.980
G01 X189.974 Y139.958
G01 X189.963 Y139.936
G01 X189.955 Y139.912
G01 X189.950 Y139.887
G01 X189.946 Y139.862
G01 X189.946 Y139.836
G01 X189.947 Y139.810
G01 X189.951 Y139.783
G01 X189.957 Y139.757
G01 X189.966 Y139.730
G01 X189.978 Y139.705
G01 X189.992 Y139.679
G01 X190.008 Y139.654
G01 X190.027 Y139.631
G01 X190.048 Y139.608
G01 X190.071 Y139.586
G01 X190.097 Y139.566
G01 X190.124 Y139.548
G01 X190.154 Y139.531
G01 X190.186 Y139.516
G01 X190.219 Y139.503
G01 X190.254 Y139.492
G01 X190.291 Y139.484
G01 X190.329 Y139.478
G01 X190.369 Y139.474
G01 X190.409 Y139.474
G01 X190.451 Y139.476
G01 X190.493 Y139.481
G01 X190.536 Y139.488
G01 X190.579 Y139.499
G01 X190.622 Y139.513
G01 X190.665 Y139.530
G01 X190.709 Y139.550
G01 X190.751 Y139.573
G01 X190.793 Y139.599
G01 X190.835 Y139.628
G01 X190.875 Y139.661
G01 X190.914 Y139.696
G01 X190.951 Y139.735
G01 X190.987 Y139.777
G01 X191.022 Y139.821
G01 X191.054 Y139.868
G01 X191.083 Y139.918
G01 X191.111 Y139.971
G01 X191.136 Y140.026
G01 X191.158 Y140.083
G01 X191.177 Y140.143
G01 X191.192 Y140.205
G01 X191.205 Y140.268
G01 X191.214 Y140.334
G01 X191.220 Y140.401
G01 X191.222 Y140.469
G01 X191.220 Y140.538
G01 X191.214 Y140.609
G01 X191.204 Y140.680
G01 X191.202 Y140.694
G01 X248.890 Y174.000
G01 X252.470 Y172.088
G01 X256.000 Y169.904
G01 X256.101 Y169.837
G01 X260.241 Y167.642
G01 X264.319 Y165.110
G01 X264.514 Y164.980
G01 X269.380 Y162.343
G01 X272.926 Y160.122
G01 X278.654 Y156.955
G01 X281.339 Y155.265
G01 X288.146 Y151.487
G01 X290.954 Y149.714
G01 X299.169 Y145.117
G01 X301.770 Y143.469
G01 X307.779 Y140.000
G01 X307.944 Y134.206
G01 X307.823 Y128.395
G01 X307.779 Y127.510
G01 X307.944 Y121.603
G01 X307.811 Y115.649
G01 X307.779 Y115.020
G01 X307.944 Y108.867
G01 X307.785 Y102.638
G01 X307.779 Y102.531
G01 X307.942 Y95.997
G01 X307.779 Y90.041
G01 X307.936 Y82.992
G01 X307.779 Y77.551
G01 X307.779 Y72.000
G01 X301.426 Y68.156
G01 X296.963 Y65.755
G01 X291.115 Y62.194
G01 X286.146 Y59.510
G01 X280.693 Y56.172
G01 X275.330 Y53.265
G01 X270.162 Y50.091
G01 X264.890 Y47.212
G01 X264.514 Y47.020
G01 X259.520 Y43.947
G01 X254.406 Y41.139
G01 X253.697 Y40.776
G01 X248.890 Y38.000
G01 X239.724 Y43.196
G01 X238.073 Y44.245
G01 X230.421 Y48.552
G01 X228.459 Y49.796
G01 X222.019 Y53.342
G01 X218.844 Y55.347
G01 X213.426 Y58.320
G01 X210.431 Y60.204
G01 X205.797 Y62.695
G01 X202.018 Y65.061
G01 X198.040 Y67.156
G01 X194.298 Y69.454
G01 X193.605 Y69.918
G01 X190.158 Y71.902
G01 X190.000 Y72.000
G01 X190.000 Y138.612
G01 X190.067 Y138.645
G01 X190.130 Y138.680
G01 X190.190 Y138.719
G01 X190.247 Y138.760
G01 X190.300 Y138.803
G01 X190.349 Y138.849
G01 X190.395 Y138.896
G01 X190.437 Y138.945
G01 X190.475 Y138.996
G01 X190.509 Y139.047
G01 X190.539 Y139.100
G01 X190.566 Y139.153
G01 X190.588 Y139.207
G01 X190.607 Y139.260
G01 X190.622 Y139.314
G01 X190.633 Y139.367
G01 X190.641 Y139.419
G01 X190.645 Y139.471
G01 X190.645 Y139.522
G01 X190.642 Y139.571
G01 X190.636 Y139.619
G01 X190.627 Y139.665
G01 X190.615 Y139.709
G01 X190.600 Y139.752
G01 X190.582 Y139.792
G01 X190.562 Y139.829
G01 X190.540 Y139.865
G01 X190.516 Y139.897
G01 X190.490 Y139.927
G01 X190.462 Y139.954
G01 X190.433 Y139.979
G01 X190.403 Y140.000
G01 X190.372 Y140.018
G01 X190.340 Y140.033
G01 X190.307 Y140.046
G01 X190.275 Y140.055
G01 X190.242 Y140.061
G01 X190.209 Y140.063
G01 X190.177 Y140.063
G01 X190.145 Y140.060
G01 X190.114 Y140.054
G01 X190.084 Y140.045
G01 X190.055 Y140.033
G01 X190.028 Y140.019
G01 X190.003 Y140.002
G01 X190.000 Y140.000
G01 X190.088 Y140.059
G01 X190.181 Y140.110
G01 X190.279 Y140.151
G01 X190.382 Y140.183
G01 X190.488 Y140.205
G01 X190.597 Y140.217
G01 X190.708 Y140.219
G01 X190.821 Y140.210
G01 X190.934 Y140.191
G01 X191.047 Y140.161
G01 X191.159 Y140.120
G01 X191.269 Y140.069
G01 X191.377 Y140.007
G01 X191.388 Y140.000
G01 X258.000 Y140.000
G01 X260.144 Y136.554
G01 X262.109 Y132.898
G01 X262.163 Y132.789
G01 X264.652 Y128.818
G01 X266.917 Y124.587
G01 X267.020 Y124.376
G01 X269.917 Y119.660
G01 X271.878 Y115.963
G01 X275.254 Y110.357
G01 X276.735 Y107.551
G01 X280.741 Y100.875
G01 X282.286 Y97.936
G01 X287.102 Y89.847
G01 X288.531 Y87.119
G01 X292.000 Y81.110
G01 X289.245 Y76.010
G01 X286.235 Y71.039
G01 X285.755 Y70.294
G01 X282.944 Y65.095
G01 X279.852 Y60.006
G01 X279.510 Y59.477
G01 X276.576 Y54.066
G01 X273.324 Y48.751
G01 X273.265 Y48.661
G01 X270.139 Y42.921
G01 X267.020 Y37.844
G01 X263.632 Y31.662
G01 X260.776 Y27.028
G01 X258.000 Y22.221
G01 X250.576 Y22.068
G01 X245.510 Y22.221
G01 X238.665 Y22.060
G01 X233.020 Y22.221
G01 X226.629 Y22.056
G01 X220.531 Y22.221
G01 X214.468 Y22.056
G01 X208.462 Y22.199
G01 X208.041 Y22.221
G01 X202.180 Y22.056
G01 X196.347 Y22.181
G01 X195.551 Y22.221
G01 X190.000 Y22.221
G01 X184.660 Y31.303
G01 X183.755 Y33.037
G01 X179.282 Y40.593
G01 X178.204 Y42.652
G01 X174.400 Y48.942
G01 X172.653 Y52.266
G01 X169.448 Y57.550
G01 X167.796 Y60.679
G01 X165.028 Y65.154
G01 X162.939 Y69.092
G01 X160.541 Y72.895
G01 X158.449 Y76.757
G01 X158.082 Y77.505
G01 X156.088 Y80.947
G01 X156.000 Y81.110
G01 X189.306 Y138.798
G01 X189.268 Y138.864
G01 X189.234 Y138.931
G01 X189.205 Y138.998
G01 X189.180 Y139.065
G01 X189.160 Y139.132
G01 X189.145 Y139.199
G01 X189.134 Y139.265
G01 X189.128 Y139.331
G01 X189.126 Y139.395
G01 X189.128 Y139.457
G01 X189.134 Y139.518
G01 X189.143 Y139.577
G01 X189.157 Y139.634
G01 X189.173 Y139.689
G01 X189.193 Y139.741
G01 X189.217 Y139.790
G01 X189.242 Y139.836
G01 X189.271 Y139.880
G01 X189.302 Y139.920
G01 X189.334 Y139.956
G01 X189.369 Y139.990
G01 X189.405 Y140.019
G01 X189.443 Y140.046
G01 X189.482 Y140.068
G01 X189.521 Y140.087
G01 X189.561 Y140.102
G01 X189.601 Y140.114
G01 X189.641 Y140.122
G01 X189.681 Y140.126
G01 X189.721 Y140.127
G01 X189.759 Y140.124
G01 X189.797 Y140.117
G01 X189.833 Y140.108
G01 X189.868 Y140.095
G01 X189.901 Y140.079
G01 X189.932 Y140.060
G01 X189.961 Y140.038
G01 X189.988 Y140.013
G01 X190.000 Y140.000
G01 X189.985 Y140.019
G01 X189.972 Y140.039
G01 X189.960 Y140.061
G01 X189.951 Y140.083
G01 X189.944 Y140.107
G01 X189.939 Y140.131
G01 X189.937 Y140.157
G01 X189.936 Y140.182
G01 X189.939 Y140.208
G01 X189.943 Y140.235
G01 X189.950 Y140.261
G01 X189.960 Y140.287
G01 X189.972 Y140.313
G01 X189.986 Y140.338
G01 X190.003 Y140.362
G01 X190.022 Y140.386
G01 X190.044 Y140.408
G01 X190.067 Y140.429
G01 X190.093 Y140.449
G01 X190.121 Y140.467
G01 X190.151 Y140.484
G01 X190.183 Y140.498
G01 X190.217 Y140.511
G01 X190.252 Y140.522
G01 X190.289 Y140.530
G01 X190.327 Y140.536
G01 X190.367 Y140.539
G01 X190.407 Y140.539
G01 X190.449 Y140.537
G01 X190.491 Y140.532
G01 X190.534 Y140.525
G01 X190.577 Y140.514
G01 X190.620 Y140.500
G01 X190.663 Y140.483
G01 X190.706 Y140.463
G01 X190.749 Y140.440
G01 X190.791 Y140.414
G01 X190.832 Y140.385
G01 X190.873 Y140.353
G01 X190.912 Y140.318
G01 X190.949 Y140.279
G01 X190.985 Y140.238
G01 X191.020 Y140.194
G01 X191.052 Y140.147
G01 X191.082 Y140.097
G01 X191.109 Y140.045
G01 X191.134 Y139.990
G01 X191.157 Y139.933
G01 X191.176 Y139.874
G01 X191.192 Y139.813
G01 X191.205 Y139.750
G01 X191.215 Y139.685
G01 X191.221 Y139.618
G01 X191.223 Y139.551
G01 X191.222 Y139.482
G01 X191.217 Y139.412
G01 X191.208 Y139.341
G01 X191.202 Y139.306
G01 X248.890 Y106.000
G01 X249.024 Y101.943
G01 X248.897 Y97.795
G01 X248.890 Y97.673
G01 X249.059 Y92.990
G01 X248.905 Y88.193
G01 X248.890 Y87.959
G01 X249.040 Y82.426
G01 X248.890 Y78.245
G01 X249.010 Y71.701
G01 X248.890 Y68.531
G01 X249.021 Y60.746
G01 X248.890 Y57.429
G01 X249.017 Y48.015
G01 X248.890 Y44.939
G01 X248.890 Y38.000
G01 X243.954 Y34.960
G01 X238.862 Y32.160
G01 X238.073 Y31.755
G01 X233.040 Y28.659
G01 X227.817 Y25.797
G01 X227.257 Y25.510
G01 X222.010 Y22.291
G01 X216.536 Y19.314
G01 X216.440 Y19.265
G01 X210.863 Y15.858
G01 X205.624 Y13.020
G01 X199.598 Y9.360
G01 X194.807 Y6.776
G01 X190.000 Y4.000
G01 X183.495 Y7.580
G01 X179.184 Y10.245
G01 X173.175 Y13.529
G01 X168.367 Y16.490
G01 X162.750 Y19.543
G01 X157.551 Y22.735
G01 X152.217 Y25.623
G01 X147.088 Y28.750
G01 X146.734 Y28.980
G01 X141.576 Y31.767
G01 X136.587 Y34.792
G01 X135.918 Y35.224
G01 X131.110 Y38.000
G01 X131.027 Y48.535
G01 X131.110 Y50.490
G01 X131.014 Y59.270
G01 X131.110 Y61.592
G01 X130.961 Y68.942
G01 X131.110 Y72.694
G01 X130.976 Y78.873
G01 X131.110 Y82.408
G01 X130.951 Y87.667
G01 X131.110 Y92.122
G01 X130.935 Y96.615
G01 X131.055 Y101.005
G01 X131.110 Y101.837
G01 X131.104 Y105.815
G01 X131.110 Y106.000
G01 X188.798 Y139.306
G01 X188.858 Y139.414
G01 X188.926 Y139.513
G01 X189.001 Y139.605
G01 X189.081 Y139.688
G01 X189.167 Y139.762
G01 X189.258 Y139.827
G01 X189.353 Y139.882
G01 X189.452 Y139.928
G01 X189.553 Y139.963
G01 X189.656 Y139.989
G01 X189.760 Y140.004
G01 X189.865 Y140.009
G01 X189.969 Y140.004
G01 X190.000 Y140.000
G01 X189.983 Y140.003
G01 X189.967 Y140.008
G01 X189.952 Y140.014
G01 X189.936 Y140.021
G01 X189.922 Y140.031
G01 X189.908 Y140.041
G01 X189.895 Y140.053
G01 X189.884 Y140.067
G01 X189.873 Y140.082
G01 X189.863 Y140.097
G01 X189.855 Y140.114
G01 X189.848 Y140.132
G01 X189.843 Y140.151
G01 X189.839 Y140.171
G01 X189.837 Y140.192
G01 X189.836 Y140.213
G01 X189.837 Y140.234
G01 X189.840 Y140.256
G01 X189.845 Y140.278
G01 X189.851 Y140.301
G01 X189.859 Y140.323
G01 X189.869 Y140.345
G01 X189.881 Y140.367
G01 X189.895 Y140.389
G01 X189.911 Y140.410
G01 X189.928 Y140.430
G01 X189.947 Y140.450
G01 X189.968 Y140.469
G01 X189.991 Y140.487
G01 X190.016 Y140.503
G01 X190.042 Y140.519
G01 X190.069 Y140.532
G01 X190.098 Y140.545
G01 X190.129 Y140.556
G01 X190.160 Y140.565
G01 X190.193 Y140.572
G01 X190.227 Y140.578
G01 X190.262 Y140.581
G01 X190.298 Y140.583
G01 X190.335 Y140.582
G01 X190.372 Y140.579
G01 X190.409 Y140.574
G01 X190.448 Y140.566
G01 X190.486 Y140.556
G01 X190.524 Y140.544
G01 X190.562 Y140.529
G01 X190.600 Y140.511
G01 X190.638 Y140.491
G01 X190.675 Y140.469
G01 X190.712 Y140.444
G01 X190.747 Y140.417
G01 X190.782 Y140.387
G01 X190.815 Y140.355
G01 X190.847 Y140.321
G01 X190.878 Y140.284
G01 X190.907 Y140.245
G01 X190.935 Y140.204
G01 X190.960 Y140.160
G01 X190.983 Y140.115
G01 X191.005 Y140.068
G01 X191.023 Y140.019
G01 X191.040 Y139.968
G01 X191.054 Y139.915
G01 X191.065 Y139.862
G01 X191.073 Y139.807
G01 X191.079 Y139.750
G01 X191.082 Y139.693
G01 X191.081 Y139.635
G01 X191.078 Y139.576
G01 X191.071 Y139.517
G01 X191.061 Y139.458
G01 X191.047 Y139.398
G01 X191.031 Y139.338
G01 X191.011 Y139.279
G01 X190.987 Y139.219
G01 X190.960 Y139.161
G01 X190.930 Y139.103
G01 X190.896 Y139.046
G01 X190.859 Y138.991
G01 X190.819 Y138.936
G01 X190.775 Y138.884
G01 X190.729 Y138.833
G01 X190.694 Y138.798
G01 X224.000 Y81.110
G01 X222.088 Y77.530
G01 X219.904 Y74.000
G01 X219.837 Y73.899
G01 X217.642 Y69.759
G01 X215.110 Y65.681
G01 X214.980 Y65.486
G01 X212.343 Y60.620
G01 X210.122 Y57.074
G01 X206.955 Y51.346
G01 X205.265 Y48.661
G01 X201.487 Y41.854
G01 X199.714 Y39.046
G01 X195.117 Y30.831
G01 X193.469 Y28.230
G01 X190.000 Y22.221
G01 X184.206 Y22.056
G01 X178.395 Y22.177
G01 X177.510 Y22.221
G01 X171.603 Y22.056
G01 X165.649 Y22.189
G01 X165.020 Y22.221
G01 X158.867 Y22.056
G01 X152.638 Y22.215
G01 X152.531 Y22.221
G01 X145.997 Y22.058
G01 X140.041 Y22.221
G01 X132.992 Y22.064
G01 X127.551 Y22.221
G01 X122.000 Y22.221
G01 X118.156 Y28.574
G01 X115.755 Y33.037
G01 X112.194 Y38.885
G01 X109.510 Y43.854
G01 X106.172 Y49.307
G01 X103.265 Y54.670
G01 X100.091 Y59.838
G01 X97.212 Y65.110
G01 X97.020 Y65.486
G01 X93.947 Y70.480
G01 X91.139 Y75.594
G01 X90.776 Y76.303
G01 X88.000 Y81.110
G01 X93.196 Y90.276
G01 X94.245 Y91.927
G01 X98.552 Y99.579
G01 X99.796 Y101.541
G01 X103.342 Y107.981
G01 X105.347 Y111.156
G01 X108.320 Y116.574
G01 X110.204 Y119.569
G01 X112.695 Y124.203
G01 X115.061 Y127.982
G01 X117.156 Y131.960
G01 X119.454 Y135.702
G01 X119.918 Y136.395
G01 X121.902 Y139.842
G01 X122.000 Y140.000
G01 X188.612 Y140.000
G01 X188.742 Y140.062
G01 X188.874 Y140.111
G01 X189.008 Y140.147
G01 X189.142 Y140.171
G01 X189.276 Y140.181
G01 X189.409 Y140.179
G01 X189.539 Y140.165
G01 X189.666 Y140.138
G01 X189.789 Y140.100
G01 X189.908 Y140.049
G01 X190.000 Y140.000
G01 X189.971 Y140.015
G01 X189.941 Y140.027
G01 X189.910 Y140.036
G01 X189.878 Y140.043
G01 X189.844 Y140.046
G01 X189.811 Y140.046
G01 X189.777 Y140.042
G01 X189.743 Y140.036
G01 X189.709 Y140.026
G01 X189.676 Y140.013
G01 X189.643 Y139.997
G01 X189.612 Y139.977
G01 X189.581 Y139.955
G01 X189.552 Y139.929
G01 X189.524 Y139.901
G01 X189.498 Y139.869
G01 X189.474 Y139.835
G01 X189.452 Y139.798
G01 X189.433 Y139.759
G01 X189.417 Y139.718
G01 X189.403 Y139.674
G01 X189.392 Y139.628
G01 X189.384 Y139.580
G01 X189.379 Y139.531
G01 X189.378 Y139.480
G01 X189.381 Y139.428
G01 X189.387 Y139.376
G01 X189.397 Y139.322
G01 X189.410 Y139.268
G01 X189.428 Y139.214
G01 X189.449 Y139.160
G01 X189.475 Y139.106
G01 X189.504 Y139.052
G01 X189.538 Y139.000
G01 X189.575 Y138.948
G01 X189.617 Y138.898
G01 X189.662 Y138.849
G01 X189.712 Y138.803
G01 X189.765 Y138.758
G01 X189.821 Y138.716
G01 X189.882 Y138.676
G01 X189.946 Y138.640
G01 X190.000 Y138.612
G01 X190.000 Y72.000
G01 X186.554 Y69.856
G01 X182.898 Y67.891
G01 X182.789 Y67.837
G01 X178.818 Y65.348
G01 X174.587 Y63.083
G01 X174.376 Y62.980
G01 X169.660 Y60.083
G01 X165.963 Y58.122
G01 X160.357 Y54.746
G01 X157.551 Y53.265
G01 X150.875 Y49.259
G01 X147.936 Y47.714
G01 X139.847 Y42.898
G01 X137.119 Y41.469
G01 X131.110 Y38.000
G01 X126.010 Y40.755
G01 X121.039 Y43.765
G01 X120.294 Y44.245
G01 X115.095 Y47.056
G01 X110.006 Y50.148
G01 X109.477 Y50.490
G01 X104.066 Y53.424
G01 X98.751 Y56.676
G01 X98.661 Y56.735
G01 X92.921 Y59.861
G01 X87.844 Y62.980
G01 X81.662 Y66.368
G01 X77.028 Y69.224
G01 X72.221 Y72.000
G01 X72.068 Y79.424
G01 X72.221 Y84.490
G01 X72.060 Y91.335
G01 X72.221 Y96.980
G01 X72.056 Y103.371
G01 X72.221 Y109.469
G01 X72.056 Y115.532
G01 X72.199 Y121.538
G01 X72.221 Y121.959
G01 X72.056 Y127.820
G01 X72.181 Y133.653
G01 X72.221 Y134.449
G01 X72.221 Y140.000
G01 X81.303 Y145.340
G01 X83.037 Y146.245
G01 X90.593 Y150.718
G01 X92.652 Y151.796
G01 X98.942 Y155.600
G01 X102.266 Y157.347
G01 X107.550 Y160.552
G01 X110.679 Y162.204
G01 X115.154 Y164.972
G01 X119.092 Y167.061
G01 X122.895 Y169.459
G01 X126.757 Y171.551
G01 X127.505 Y171.918
G01 X130.947 Y173.912
G01 X131.110 Y174.000
G01 X188.798 Y140.694
G01 X188.927 Y140.692
G01 X189.053 Y140.678
G01 X189.175 Y140.655
G01 X189.292 Y140.621
G01 X189.404 Y140.577
G01 X189.509 Y140.524
G01 X189.607 Y140.463
G01 X189.699 Y140.393
G01 X189.782 Y140.315
G01 X189.856 Y140.231
G01 X189.922 Y140.140
G01 X189.978 Y140.044
G01 X190.000 Y140.000
G01 X189.985 Y140.028
G01 X189.968 Y140.054
G01 X189.948 Y140.078
G01 X189.926 Y140.101
G01 X189.902 Y140.121
G01 X189.875 Y140.139
G01 X189.846 Y140.155
G01 X189.816 Y140.169
G01 X189.784 Y140.179
G01 X189.750 Y140.187
G01 X189.715 Y140.192
G01 X189.680 Y140.194
G01 X189.643 Y140.193
G01 X189.606 Y140.189
G01 X189.568 Y140.181
G01 X189.530 Y140.171
G01 X189.493 Y140.157
G01 X189.455 Y140.139
G01 X189.419 Y140.119
G01 X189.383 Y140.095
G01 X189.348 Y140.068
G01 X189.314 Y140.037
G01 X189.282 Y140.004
G01 X189.251 Y139.967
G01 X189.223 Y139.927
G01 X189.196 Y139.885
G01 X189.172 Y139.840
G01 X189.151 Y139.792
G01 X189.132 Y139.742
G01 X189.116 Y139.689
G01 X189.104 Y139.634
G01 X189.094 Y139.577
G01 X189.089 Y139.519
G01 X189.086 Y139.459
G01 X189.088 Y139.397
G01 X189.094 Y139.335
G01 X189.103 Y139.272
G01 X189.117 Y139.208
G01 X189.134 Y139.143
G01 X189.156 Y139.079
G01 X189.183 Y139.014
G01 X189.213 Y138.951
G01 X189.248 Y138.887
G01 X189.288 Y138.825
G01 X189.306 Y138.798
G01 X156.000 Y81.110
G01 X151.943 Y80.976
G01 X147.795 Y81.103
G01 X147.673 Y81.110
G01 X142.990 Y80.941
G01 X138.193 Y81.095
G01 X137.959 Y81.110
G01 X132.426 Y80.960
G01 X128.245 Y81.110
G01 X121.701 Y80.990
G01 X118.531 Y81.110
G01 X110.746 Y80.979
G01 X107.429 Y81.110
G01 X98.015 Y80.983
G01 X94.939 Y81.110
G01 X88.000 Y81.110
G01 X84.960 Y86.046
G01 X82.160 Y91.138
G01 X81.755 Y91.927
G01 X78.659 Y96.960
G01 X75.797 Y102.183
G01 X75.510 Y102.743
G01 X72.291 Y107.990
G01 X69.314 Y113.464
G01 X69.265 Y113.560
G01 X65.858 Y119.137
G01 X63.020 Y124.376
G01 X59.360 Y130.402
G01 X56.776 Y135.193
G01 X54.000 Y140.000
G01 X57.580 Y146.505
G01 X60.245 Y150.816
G01 X63.529 Y156.825
G01 X66.490 Y161.633
G01 X69.543 Y167.250
G01 X72.735 Y172.449
G01 X75.623 Y177.783
G01 X78.750 Y182.912
G01 X78.980 Y183.266
G01 X81.767 Y188.424
G01 X84.792 Y193.413
G01 X85.224 Y194.082
G01 X88.000 Y198.890
G01 X98.535 Y198.973
G01 X100.490 Y198.890
G01 X109.270 Y198.986
G01 X111.592 Y198.890
G01 X118.942 Y199.039
G01 X122.694 Y198.890
G01 X128.873 Y199.024
G01 X132.408 Y198.890
G01 X137.667 Y199.049
G01 X142.122 Y198.890
G01 X146.615 Y199.065
G01 X151.005 Y198.945
G01 X151.837 Y198.890
G01 X155.815 Y198.896
G01 X156.000 Y198.890
G01 X189.306 Y141.202
G01 X189.482 Y141.009
G01 X189.636 Y140.803
G01 X189.769 Y140.584
G01 X189.879 Y140.355
G01 X189.967 Y140.117
G01 X190.000 Y140.000
G01 X189.989 Y140.035
G01 X189.974 Y140.069
G01 X189.957 Y140.102
G01 X189.935 Y140.133
G01 X189.911 Y140.162
G01 X189.884 Y140.189
G01 X189.854 Y140.214
G01 X189.821 Y140.236
G01 X189.786 Y140.256
G01 X189.749 Y140.272
G01 X189.709 Y140.285
G01 X189.668 Y140.295
G01 X189.625 Y140.302
G01 X189.581 Y140.305
G01 X189.535 Y140.304
G01 X189.489 Y140.300
G01 X189.442 Y140.292
G01 X189.395 Y140.279
G01 X189.348 Y140.263
G01 X189.301 Y140.243
G01 X189.254 Y140.219
G01 X189.208 Y140.191
G01 X189.163 Y140.159
G01 X189.120 Y140.122
G01 X189.078 Y140.082
G01 X189.038 Y140.038
G01 X189.000 Y139.991
G01 X188.965 Y139.940
G01 X188.932 Y139.885
G01 X188.903 Y139.827
G01 X188.876 Y139.766
G01 X188.853 Y139.702
G01 X188.834 Y139.635
G01 X188.819 Y139.565
G01 X188.807 Y139.493
G01 X188.800 Y139.419
G01 X188.798 Y139.343
G01 X188.798 Y139.306
G01 X131.110 Y106.000
G01 X127.530 Y107.912
G01 X124.000 Y110.096
G01 X123.899 Y110.163
G01 X119.759 Y112.358
G01 X115.681 Y114.890
G01 X115.486 Y115.020
G01 X110.620 Y117.657
G01 X107.074 Y119.878
G01 X101.346 Y123.045
G01 X98.661 Y124.735
G01 X91.854 Y128.513
G01 X89.046 Y130.286
G01 X80.831 Y134.883
G01 X78.230 Y136.531
G01 X72.221 Y140.000
G01 X72.056 Y145.794
G01 X72.177 Y151.605
G01 X72.221 Y152.490
G01 X72.056 Y158.397
G01 X72.189 Y164.351
G01 X72.221 Y164.980
G01 X72.056 Y171.133
G01 X72.215 Y177.362
G01 X72.221 Y177.469
G01 X72.058 Y184.003
G01 X72.221 Y189.959
G01 X72.064 Y197.008
G01 X72.221 Y202.449
G01 X72.221 Y208.000
G01 X78.574 Y211.844
G01 X83.037 Y214.245
G01 X88.885 Y217.806
G01 X93.854 Y220.490
G01 X99.307 Y223.828
G01 X104.670 Y226.735
G01 X109.838 Y229.909
G01 X115.110 Y232.788
G01 X115.486 Y232.980
G01 X120.480 Y236.053
G01 X125.594 Y238.861
G01 X126.303 Y239.224
G01 X131.110 Y242.000
G01 X140.276 Y236.804
G01 X141.927 Y235.755
G01 X149.579 Y231.448
G01 X151.541 Y230.204
G01 X157.981 Y226.658
G01 X161.156 Y224.653
G01 X166.574 Y221.680
G01 X169.569 Y219.796
G01 X174.203 Y217.305
G01 X177.982 Y214.939
G01 X181.960 Y212.844
G01 X185.702 Y210.546
G01 X186.395 Y210.082
G01 X189.842 Y208.098
G01 X190.000 Y208.000
G01 X190.000 Y141.388
G01 X190.000 Y140.000
G01 X189.997 Y140.044
G01 X189.989 Y140.087
G01 X189.977 Y140.130
G01 X189.961 Y140.172
G01 X189.941 Y140.212
G01 X189.917 Y140.251
G01 X189.889 Y140.288
G01 X189.857 Y140.322
G01 X189.822 Y140.354
G01 X189.783 Y140.383
G01 X189.741 Y140.409
G01 X189.696 Y140.432
G01 X189.648 Y140.452
G01 X189.597 Y140.467
G01 X189.545 Y140.479
G01 X189.490 Y140.486
G01 X189.433 Y140.489
G01 X189.375 Y140.488
G01 X189.316 Y140.482
G01 X189.256 Y140.472
G01 X189.195 Y140.456
G01 X189.135 Y140.436
G01 X189.074 Y140.411
G01 X189.014 Y140.381
G01 X188.954 Y140.346
G01 X188.896 Y140.306
G01 X188.840 Y140.261
G01 X188.785 Y140.211
G01 X188.732 Y140.157
G01 X188.682 Y140.098
G01 X188.635 Y140.034
G01 X188.612 Y140.000
G01 X122.000 Y140.000
G01 X119.856 Y143.446
G01 X117.891 Y147.102
G01 X117.837 Y147.211
G01 X115.348 Y151.182
G01 X113.083 Y155.413
G01 X112.980 Y155.624
G01 X110.083 Y160.340
G01 X108.122 Y164.037
G01 X104.746 Y169.643
G01 X103.265 Y172.449
G01 X99.259 Y179.125
G01 X97.714 Y182.064
G01 X92.898 Y190.153
G01 X91.469 Y192.881
G01 X88.000 Y198.890
G01 X90.755 Y203.990
G01 X93.765 Y208.961
G01 X94.245 Y209.706
G01 X97.056 Y214.905
G01 X100.148 Y219.994
G01 X100.490 Y220.523
G01 X103.424 Y225.934
G01 X106.676 Y231.249
G01 X106.735 Y231.339
G01 X109.861 Y237.079
G01 X112.980 Y242.156
G01 X116.368 Y248.338
G01 X119.224 Y252.972
G01 X122.000 Y257.779
G01 X129.424 Y257.932
G01 X134.490 Y257.779
G01 X141.335 Y257.940
G01 X146.980 Y257.779
G01 X153.371 Y257.944
G01 X159.469 Y257.779
G01 X165.532 Y257.944
G01 X171.538 Y257.801
G01 X171.959 Y257.779
G01 X177.820 Y257.944
G01 X183.653 Y257.819
G01 X184.449 Y257.779
G01 X190.000 Y257.779
G01 X195.340 Y248.697
G01 X196.245 Y246.963
G01 X200.718 Y239.407
G01 X201.796 Y237.348
G01 X205.600 Y231.058
G01 X207.347 Y227.734
G01 X210.552 Y222.450
G01 X212.204 Y219.321
G01 X214.972 Y214.846
G01 X217.061 Y210.908
G01 X219.459 Y207.105
G01 X221.551 Y203.243
G01 X221.918 Y202.495
G01 X223.912 Y199.053
G01 X224.000 Y198.890
G01 X190.694 Y141.202
G01 X190.537 Y141.046
G01 X190.398 Y140.878
G01 X190.276 Y140.699
G01 X190.173 Y140.511
G01 X190.090 Y140.315
G01 X190.026 Y140.112
G01 X190.000 Y140.000
G01 X190.008 Y140.054
G01 X190.011 Y140.108
G01 X190.009 Y140.163
G01 X190.001 Y140.218
G01 X189.988 Y140.272
G01 X189.970 Y140.326
G01 X189.946 Y140.378
G01 X189.917 Y140.428
G01 X189.884 Y140.477
G01 X189.845 Y140.523
G01 X189.801 Y140.566
G01 X189.753 Y140.606
G01 X189.701 Y140.642
G01 X189.644 Y140.675
G01 X189.584 Y140.704
G01 X189.520 Y140.728
G01 X189.452 Y140.748
G01 X189.382 Y140.762
G01 X189.309 Y140.772
G01 X189.234 Y140.776
G01 X189.156 Y140.774
G01 X189.077 Y140.766
G01 X188.997 Y140.753
G01 X188.917 Y140.733
G01 X188.835 Y140.708
G01 X188.798 Y140.694
G01 X131.110 Y174.000
G01 X130.976 Y178.057
G01 X131.103 Y182.205
G01 X131.110 Y182.327
G01 X130.941 Y187.010
G01 X131.095 Y191.807
G01 X131.110 Y192.041
G01 X130.960 Y197.574
G01 X131.110 Y201.755
G01 X130.990 Y208.299
G01 X131.110 Y211.469
G01 X130.979 Y219.254
G01 X131.110 Y222.571
G01 X130.983 Y231.985
G01 X131.110 Y235.061
G01 X131.110 Y242.000
G01 X136.046 Y245.040
G01 X141.138 Y247.840
G01 X141.927 Y248.245
G01 X146.960 Y251.341
G01 X152.183 Y254.203
G01 X152.743 Y254.490
G01 X157.990 Y257.709
G01 X163.464 Y260.686
G01 X163.560 Y260.735
G01 X169.137 Y264.142
G01 X174.376 Y266.980
G01 X180.402 Y270.640
G01 X185.193 Y273.224
G01 X190.000 Y276.000
G01 X196.505 Y272.420
G01 X200.816 Y269.755
G01 X206.825 Y266.471
G01 X211.633 Y263.510
G01 X217.250 Y260.457
G01 X222.449 Y257.265
G01 X227.783 Y254.377
G01 X232.912 Y251.250
G01 X233.266 Y251.020
G01 X238.424 Y248.233
G01 X243.413 Y245.208
G01 X244.082 Y244.776
G01 X248.890 Y242.000
G01 X248.973 Y231.465
G01 X248.890 Y229.510
G01 X248.986 Y220.730
G01 X248.890 Y218.408
G01 X249.039 Y211.058
G01 X248.890 Y207.306
G01 X249.024 Y201.127
G01 X248.890 Y197.592
G01 X249.049 Y192.333
G01 X248.890 Y187.878
G01 X249.065 Y183.385
G01 X248.945 Y178.995
G01 X248.890 Y178.163
G01 X248.896 Y174.185
G01 X248.890 Y174.000
G01 X191.202 Y140.694
G01 X191.112 Y140.717
G01 X191.023 Y140.733
G01 X190.936 Y140.743
G01 X190.850 Y140.745
G01 X190.766 Y140.741
G01 X190.684 Y140.731
G01 X190.606 Y140.714
G01 X190.531 Y140.692
G01 X190.460 Y140.664
G01 X190.393 Y140.632
G01 X190.330 Y140.594
G01 X190.272 Y140.551
G01 X190.219 Y140.505
G01 X190.171 Y140.455
G01 X190.129 Y140.401
G01 X190.092 Y140.345
G01 X190.062 Y140.286
G01 X190.037 Y140.225
G01 X190.019 Y140.163
G01 X190.007 Y140.099
G01 X190.001 Y140.035
G01 X190.000 Y140.000
G01 X189.992 Y140.133
G01 X189.971 Y140.264
G01 X189.937 Y140.393
G01 X189.891 Y140.520
G01 X189.832 Y140.642
G01 X189.761 Y140.760
G01 X189.678 Y140.872
G01 X189.583 Y140.977
G01 X189.478 Y141.075
G01 X189.362 Y141.164
G01 X189.306 Y141.202
G01 X156.000 Y198.890
G01 X157.912 Y202.470
G01 X160.096 Y206.000
G01 X160.163 Y206.101
G01 X162.358 Y210.241
G01 X164.890 Y214.319
G01 X165.020 Y214.514
G01 X167.657 Y219.380
G01 X169.878 Y222.926
G01 X173.045 Y228.654
G01 X174.735 Y231.339
G01 X178.513 Y238.146
G01 X180.286 Y240.954
G01 X184.883 Y249.169
G01 X186.531 Y251.770
G01 X190.000 Y257.779
G01 X195.794 Y257.944
G01 X201.605 Y257.823
G01 X202.490 Y257.779
G01 X208.397 Y257.944
G01 X214.351 Y257.811
G01 X214.980 Y257.779
G01 X221.133 Y257.944
G01 X227.362 Y257.785
G01 X227.469 Y257.779
G01 X234.003 Y257.942
G01 X239.959 Y257.779
G01 X247.008 Y257.936
G01 X252.449 Y257.779
G01 X258.000 Y257.779
G01 X261.844 Y251.426
G01 X264.245 Y246.963
G01 X267.806 Y241.115
G01 X270.490 Y236.146
G01 X273.828 Y230.693
G01 X276.735 Y225.330
G01 X279.909 Y220.162
G01 X282.788 Y214.890
G01 X282.980 Y214.514
G01 X286.053 Y209.520
G01 X288.861 Y204.406
G01 X289.224 Y203.697
G01 X292.000 Y198.890
G01 X286.804 Y189.724
G01 X285.755 Y188.073
G01 X281.448 Y180.421
G01 X280.204 Y178.459
G01 X276.658 Y172.019
G01 X274.653 Y168.844
G01 X271.680 Y163.426
G01 X269.796 Y160.431
G01 X267.305 Y155.797
G01 X264.939 Y152.018
G01 X262.844 Y148.040
G01 X260.546 Y144.298
G01 X260.082 Y143.605
G01 X258.098 Y140.158
G01 X258.000 Y140.000
G01 X191.388 Y140.000
G01 X191.352 Y140.066
G01 X191.313 Y140.129
G01 X191.271 Y140.189
G01 X191.227 Y140.244
G01 X191.180 Y140.296
G01 X191.132 Y140.343
G01 X191.081 Y140.387
G01 X191.030 Y140.426
G01 X190.977 Y140.462
G01 X190.923 Y140.493
G01 X190.868 Y140.520
G01 X190.813 Y140.543
G01 X190.758 Y140.562
G01 X190.703 Y140.577
G01 X190.649 Y140.588
G01 X190.595 Y140.595
G01 X190.542 Y140.598
G01 X190.490 Y140.597
G01 X190.440 Y140.593
G01 X190.391 Y140.586
G01 X190.345 Y140.575
G01 X190.300 Y140.561
G01 X190.257 Y140.544
G01 X190.217 Y140.525
G01 X190.180 Y140.502
G01 X190.145 Y140.478
G01 X190.113 Y140.451
G01 X190.084 Y140.423
G01 X190.058 Y140.393
G01 X190.036 Y140.361
G01 X190.016 Y140.328
G01 X190.000 Y140.294
G01 X189.987 Y140.260
G01 X189.978 Y140.225
G01 X189.972 Y140.190
G01 X189.969 Y140.155
G01 X189.970 Y140.120
G01 X189.974 Y140.086
G01 X189.981 Y140.052
G01 X189.992 Y140.020
G01 X190.000 Y140.000
G01 X189.941 Y140.150
G01 X189.897 Y140.305
G01 X189.868 Y140.465
G01 X189.855 Y140.628
G01 X189.858 Y140.793
G01 X189.876 Y140.958
G01 X189.911 Y141.124
G01 X189.961 Y141.288
G01 X190.000 Y141.388
G01 X190.000 Y208.000
G01 X193.446 Y210.144
G01 X197.102 Y212.109
G01 X197.211 Y212.163
G01 X201.182 Y214.652
G01 X205.413 Y216.917
G01 X205.624 Y217.020
G01 X210.340 Y219.917
G01 X214.037 Y221.878
G01 X219.643 Y225.254
G01 X222.449 Y226.735
G01 X229.125 Y230.741
G01 X232.064 Y232.286
G01 X240.153 Y237.102
G01 X242.881 Y238.531
G01 X248.890 Y242.000
G01 X253.990 Y239.245
G01 X258.961 Y236.235
G01 X259.706 Y235.755
G01 X264.905 Y232.944
G01 X269.994 Y229.852
G01 X270.523 Y229.510
G01 X275.934 Y226.576
G01 X281.249 Y223.324
G01 X281.339 Y223.265
G01 X287.079 Y220.139
G01 X292.156 Y217.020
G01 X298.338 Y213.632
G01 X302.972 Y210.776
G01 X307.779 Y208.000
G01 X307.932 Y200.576
G01 X307.779 Y195.510
G01 X307.940 Y188.665
G01 X307.779 Y183.020
G01 X307.944 Y176.629
G01 X307.779 Y170.531
G01 X307.944 Y164.468
G01 X307.801 Y158.462
G01 X307.779 Y158.041
G01 X307.944 Y152.180
G01 X307.819 Y146.347
G01 X307.779 Y145.551
G01 X307.779 Y140.000
G01 X298.697 Y134.660
G01 X296.963 Y133.755
G01 X289.407 Y129.282
G01 X287.348 Y128.204
G01 X281.058 Y124.400
G01 X277.734 Y122.653
G01 X272.450 Y119.448
G01 X269.321 Y117.796
G01 X264.846 Y115.028
G01 X260.908 Y112.939
G01 X257.105 Y110.541
G01 X253.243 Y108.449
G01 X252.495 Y108.082
G01 X249.053 Y106.088
G01 X248.890 Y106.000
G01 X191.202 Y139.306
G01 X191.151 Y139.258
G01 X191.098 Y139.213
G01 X191.044 Y139.171
G01 X190.988 Y139.133
G01 X190.931 Y139.099
G01 X190.874 Y139.067
G01 X190.815 Y139.039
G01 X190.756 Y139.015
G01 X190.696 Y138.994
G01 X190.636 Y138.977
G01 X190.576 Y138.963
G01 X190.517 Y138.952
G01 X190.457 Y138.945
G01 X190.399 Y138.941
G01 X190.341 Y138.940
G01 X190.283 Y138.942
G01 X190.227 Y138.948
G01 X190.172 Y138.956
G01 X190.119 Y138.967
G01 X190.067 Y138.980
G01 X190.016 Y138.997
G01 X189.968 Y139.015
G01 X189.921 Y139.036
G01 X189.876 Y139.059
G01 X189.833 Y139.085
G01 X189.793 Y139.112
G01 X189.755 Y139.141
G01 X189.719 Y139.171
G01 X189.685 Y139.203
G01 X189.654 Y139.236
G01 X189.625 Y139.270
G01 X189.599 Y139.305
G01 X189.575 Y139.341
G01 X189.554 Y139.378
G01 X189.535 Y139.415
G01 X189.519 Y139.452
G01 X189.506 Y139.489
G01 X189.495 Y139.527
G01 X189.486 Y139.564
G01 X189.480 Y139.601
G01 X189.476 Y139.637
G01 X189.474 Y139.673
G01 X189.475 Y139.708
G01 X189.477 Y139.742
G01 X189.482 Y139.775
G01 X189.489 Y139.808
G01 X189.497 Y139.839
G01 X189.508 Y139.868
G01 X189.520 Y139.896
G01 X189.533 Y139.923
G01 X189.548 Y139.948
G01 X189.564 Y139.971
G01 X189.582 Y139.993
G01 X189.600 Y140.013
G01 X189.620 Y140.031
G01 X189.640 Y140.047
G01 X189.661 Y140.062
G01 X189.682 Y140.074
G01 X189.703 Y140.085
G01 X189.725 Y140.093
G01 X189.747 Y140.100
G01 X189.769 Y140.105
G01 X189.791 Y140.107
G01 X189.812 Y140.108
G01 X189.833 Y140.108
G01 X189.853 Y140.105
G01 X189.873 Y140.101
G01 X189.892 Y140.095
G01 X189.910 Y140.087
G01 X189.927 Y140.078
G01 X189.943 Y140.068
G01 X189.957 Y140.056
G01 X189.970 Y140.043
G01 X189.982 Y140.029
G01 X189.992 Y140.014
G01 X190.000 Y140.000
G01 X189.972 Y140.063
G01 X189.951 Y140.129
G01 X189.935 Y140.196
G01 X189.927 Y140.266
G01 X189.925 Y140.336
G01 X189.930 Y140.407
G01 X189.942 Y140.479
G01 X189.960 Y140.550
G01 X189.986 Y140.620
G01 X190.018 Y140.689
G01 X190.057 Y140.756
G01 X190.102 Y140.820
G01 X190.154 Y140.882
G01 X190.212 Y140.941
G01 X190.277 Y140.996
G01 X190.347 Y141.046
G01 X190.423 Y141.092
G01 X190.504 Y141.133
G01 X190.590 Y141.169
G01 X190.681 Y141.198
G01 X190.694 Y141.202
G01 X209.429 Y173.651
G01 X211.791 Y173.796
G01 X214.212 Y173.788
G01 X216.367 Y173.651
G01 X219.264 Y173.792
G01 X222.235 Y173.726
G01 X223.306 Y173.651
G01 X226.883 Y173.777
G01 X230.245 Y173.651
G01 X234.716 Y173.804
G01 X238.571 Y173.651
G01 X244.323 Y173.816
G01 X248.286 Y173.651
G01 X250.079 Y170.860
G01 X251.739 Y167.973
G01 X253.143 Y165.238
G01 X254.997 Y162.347
G01 X256.717 Y159.335
G01 X258.000 Y156.826
G01 X259.986 Y153.712
G01 X261.827 Y150.444
G01 X262.857 Y148.413
G01 X265.045 Y144.951
G01 X267.065 Y141.294
G01 X267.714 Y140.000
G01 X265.756 Y136.278
G01 X263.624 Y132.749
G01 X262.857 Y131.587
G01 X261.108 Y128.229
G01 X259.207 Y125.022
G01 X258.000 Y123.174
G01 X256.392 Y120.068
G01 X254.645 Y117.079
G01 X253.143 Y114.762
G01 X251.611 Y111.793
G01 X249.941 Y108.914
G01 X248.286 Y106.349
G01 X242.447 Y106.184
G01 X238.571 Y106.349
G01 X234.010 Y106.196
G01 X230.245 Y106.349
G01 X226.586 Y106.223
G01 X223.306 Y106.349
G01 X220.312 Y106.207
G01 X217.387 Y106.276
G01 X216.367 Y106.349
G01 X213.902 Y106.202
G01 X211.487 Y106.214
G01 X209.429 Y106.349
G01 X190.694 Y138.798
G01 X190.625 Y138.784
G01 X190.555 Y138.774
G01 X190.487 Y138.768
G01 X190.419 Y138.765
G01 X190.352 Y138.766
G01 X190.287 Y138.771
G01 X190.222 Y138.779
G01 X190.159 Y138.790
G01 X190.098 Y138.804
G01 X190.039 Y138.822
G01 X189.981 Y138.842
G01 X189.926 Y138.865
G01 X189.872 Y138.891
G01 X189.822 Y138.919
G01 X189.773 Y138.950
G01 X189.727 Y138.983
G01 X189.684 Y139.017
G01 X189.644 Y139.053
G01 X189.606 Y139.091
G01 X189.571 Y139.130
G01 X189.539 Y139.171
G01 X189.510 Y139.212
G01 X189.484 Y139.254
G01 X189.461 Y139.297
G01 X189.440 Y139.340
G01 X189.423 Y139.384
G01 X189.408 Y139.427
G01 X189.397 Y139.471
G01 X189.388 Y139.514
G01 X189.382 Y139.557
G01 X189.378 Y139.599
G01 X189.377 Y139.641
G01 X189.379 Y139.681
G01 X189.383 Y139.721
G01 X189.390 Y139.759
G01 X189.398 Y139.796
G01 X189.409 Y139.831
G01 X189.422 Y139.865
G01 X189.437 Y139.897
G01 X189.453 Y139.928
G01 X189.471 Y139.957
G01 X189.490 Y139.983
G01 X189.511 Y140.008
G01 X189.533 Y140.031
G01 X189.556 Y140.051
G01 X189.579 Y140.069
G01 X189.604 Y140.086
G01 X189.628 Y140.100
G01 X189.654 Y140.111
G01 X189.679 Y140.121
G01 X189.705 Y140.128
G01 X189.730 Y140.133
G01 X189.755 Y140.136
G01 X189.780 Y140.137
G01 X189.804 Y140.136
G01 X189.828 Y140.132
G01 X189.850 Y140.127
G01 X189.872 Y140.120
G01 X189.892 Y140.111
G01 X189.912 Y140.101
G01 X189.930 Y140.088
G01 X189.946 Y140.075
G01 X189.961 Y140.060
G01 X189.975 Y140.044
G01 X189.987 Y140.026
G01 X189.997 Y140.008
G01 X190.000 Y140.000
G01 X189.984 Y140.044
G01 X189.972 Y140.089
G01 X189.964 Y140.136
G01 X189.961 Y140.183
G01 X189.963 Y140.231
G01 X189.969 Y140.280
G01 X189.980 Y140.328
G01 X189.995 Y140.375
G01 X190.015 Y140.422
G01 X190.040 Y140.467
G01 X190.069 Y140.511
G01 X190.103 Y140.553
G01 X190.140 Y140.593
G01 X190.182 Y140.631
G01 X190.228 Y140.665
G01 X190.278 Y140.697
G01 X190.331 Y140.725
G01 X190.388 Y140.749
G01 X190.448 Y140.770
G01 X190.511 Y140.786
G01 X190.576 Y140.798
G01 X190.644 Y140.806
G01 X190.714 Y140.808
G01 X190.785 Y140.806
G01 X190.858 Y140.798
G01 X190.932 Y140.786
G01 X191.007 Y140.767
G01 X191.082 Y140.743
G01 X191.157 Y140.714
G01 X191.202 Y140.694
G01 X223.651 Y159.429
G01 X225.770 Y158.373
G01 X227.863 Y157.155
G01 X229.660 Y155.959
G01 X232.239 Y154.633
G01 X234.779 Y153.090
G01 X235.670 Y152.490
G01 X238.830 Y150.810
G01 X241.679 Y149.020
G01 X245.627 Y146.917
G01 X248.890 Y144.857
G01 X253.953 Y142.124
G01 X257.303 Y140.000
G01 X257.460 Y136.686
G01 X257.454 Y133.356
G01 X257.303 Y130.286
G01 X257.462 Y126.855
G01 X257.446 Y123.386
G01 X257.303 Y120.571
G01 X257.466 Y116.882
G01 X257.426 Y113.131
G01 X257.303 Y110.857
G01 X257.467 Y106.765
G01 X257.387 Y102.588
G01 X257.303 Y101.143
G01 X253.746 Y98.899
G01 X250.134 Y96.908
G01 X248.890 Y96.286
G01 X245.696 Y94.252
G01 X242.446 Y92.425
G01 X240.477 Y91.429
G01 X237.532 Y89.542
G01 X234.524 Y87.827
G01 X232.064 Y86.571
G01 X229.253 Y84.766
G01 X226.367 Y83.108
G01 X223.651 Y81.714
G01 X218.512 Y84.491
G01 X215.238 Y86.571
G01 X211.212 Y88.720
G01 X208.027 Y90.735
G01 X204.796 Y92.455
G01 X202.018 Y94.204
G01 X199.355 Y95.579
G01 X196.856 Y97.100
G01 X196.009 Y97.673
G01 X193.801 Y98.779
G01 X191.715 Y99.996
G01 X190.000 Y101.143
G01 X190.000 Y138.612
G01 X189.933 Y138.638
G01 X189.869 Y138.667
G01 X189.807 Y138.698
G01 X189.748 Y138.733
G01 X189.692 Y138.770
G01 X189.639 Y138.809
G01 X189.589 Y138.851
G01 X189.542 Y138.895
G01 X189.499 Y138.940
G01 X189.459 Y138.987
G01 X189.422 Y139.035
G01 X189.388 Y139.085
G01 X189.359 Y139.135
G01 X189.332 Y139.186
G01 X189.309 Y139.238
G01 X189.289 Y139.289
G01 X189.273 Y139.341
G01 X189.260 Y139.393
G01 X189.250 Y139.444
G01 X189.244 Y139.495
G01 X189.240 Y139.545
G01 X189.240 Y139.594
G01 X189.243 Y139.642
G01 X189.248 Y139.689
G01 X189.256 Y139.734
G01 X189.267 Y139.778
G01 X189.280 Y139.820
G01 X189.296 Y139.860
G01 X189.313 Y139.898
G01 X189.333 Y139.934
G01 X189.354 Y139.968
G01 X189.378 Y140.000
G01 X189.402 Y140.029
G01 X189.428 Y140.056
G01 X189.455 Y140.081
G01 X189.483 Y140.103
G01 X189.512 Y140.122
G01 X189.542 Y140.139
G01 X189.572 Y140.153
G01 X189.602 Y140.165
G01 X189.632 Y140.174
G01 X189.662 Y140.181
G01 X189.692 Y140.185
G01 X189.721 Y140.186
G01 X189.750 Y140.186
G01 X189.778 Y140.182
G01 X189.805 Y140.177
G01 X189.830 Y140.170
G01 X189.855 Y140.160
G01 X189.878 Y140.148
G01 X189.900 Y140.135
G01 X189.920 Y140.120
G01 X189.938 Y140.103
G01 X189.955 Y140.085
G01 X189.969 Y140.065
G01 X189.981 Y140.045
G01 X189.992 Y140.023
G01 X190.000 Y140.001
G01 X189.991 Y140.035
G01 X189.986 Y140.072
G01 X189.984 Y140.108
G01 X189.986 Y140.145
G01 X189.991 Y140.183
G01 X190.000 Y140.219
G01 X190.013 Y140.255
G01 X190.029 Y140.291
G01 X190.049 Y140.325
G01 X190.072 Y140.358
G01 X190.098 Y140.390
G01 X190.128 Y140.419
G01 X190.161 Y140.447
G01 X190.196 Y140.472
G01 X190.235 Y140.495
G01 X190.276 Y140.515
G01 X190.320 Y140.532
G01 X190.366 Y140.546
G01 X190.414 Y140.557
G01 X190.464 Y140.564
G01 X190.516 Y140.568
G01 X190.569 Y140.568
G01 X190.623 Y140.564
G01 X190.679 Y140.556
G01 X190.734 Y140.543
G01 X190.791 Y140.527
G01 X190.847 Y140.506
G01 X190.903 Y140.481
G01 X190.959 Y140.452
G01 X191.013 Y140.418
G01 X191.067 Y140.380
G01 X191.119 Y140.338
G01 X191.170 Y140.292
G01 X191.219 Y140.241
G01 X191.265 Y140.186
G01 X191.309 Y140.127
G01 X191.351 Y140.065
G01 X191.388 Y140.000
G01 X228.857 Y140.000
G01 X230.164 Y138.027
G01 X231.368 Y135.926
G01 X232.327 Y133.991
G01 X233.897 Y131.552
G01 X235.325 Y128.946
G01 X235.796 Y127.982
G01 X237.693 Y124.947
G01 X239.265 Y121.973
G01 X241.633 Y118.177
G01 X243.429 Y114.762
G01 X246.447 Y109.863
G01 X248.286 Y106.349
G01 X246.765 Y103.400
G01 X245.095 Y100.520
G01 X243.429 Y97.936
G01 X241.852 Y94.885
G01 X240.103 Y91.889
G01 X238.571 Y89.523
G01 X236.868 Y86.247
G01 X234.958 Y83.018
G01 X233.714 Y81.110
G01 X231.810 Y77.484
G01 X229.653 Y73.907
G01 X228.857 Y72.697
G01 X224.655 Y72.533
G01 X220.532 Y72.614
G01 X219.143 Y72.697
G01 X215.360 Y72.533
G01 X211.632 Y72.576
G01 X209.429 Y72.697
G01 X205.935 Y72.537
G01 X202.472 Y72.555
G01 X199.714 Y72.697
G01 X196.378 Y72.540
G01 X193.049 Y72.547
G01 X190.000 Y72.697
G01 X186.938 Y77.672
G01 X185.143 Y81.110
G01 X182.730 Y84.984
G01 X180.980 Y88.321
G01 X179.041 Y91.427
G01 X177.510 Y94.330
G01 X175.891 Y96.853
G01 X174.487 Y99.420
G01 X174.041 Y100.340
G01 X172.681 Y102.401
G01 X171.484 Y104.498
G01 X170.571 Y106.349
G01 X189.306 Y138.798
G01 X189.263 Y138.857
G01 X189.224 Y138.917
G01 X189.189 Y138.978
G01 X189.158 Y139.040
G01 X189.131 Y139.102
G01 X189.108 Y139.165
G01 X189.090 Y139.228
G01 X189.075 Y139.290
G01 X189.064 Y139.352
G01 X189.057 Y139.413
G01 X189.053 Y139.474
G01 X189.053 Y139.533
G01 X189.057 Y139.591
G01 X189.064 Y139.648
G01 X189.074 Y139.702
G01 X189.087 Y139.755
G01 X189.103 Y139.806
G01 X189.122 Y139.855
G01 X189.144 Y139.901
G01 X189.167 Y139.945
G01 X189.193 Y139.987
G01 X189.221 Y140.025
G01 X189.251 Y140.061
G01 X189.283 Y140.094
G01 X189.315 Y140.125
G01 X189.349 Y140.152
G01 X189.384 Y140.176
G01 X189.420 Y140.197
G01 X189.456 Y140.215
G01 X189.492 Y140.230
G01 X189.529 Y140.242
G01 X189.565 Y140.251
G01 X189.601 Y140.257
G01 X189.637 Y140.260
G01 X189.672 Y140.261
G01 X189.706 Y140.258
G01 X189.739 Y140.253
G01 X189.770 Y140.245
G01 X189.800 Y140.235
G01 X189.829 Y140.223
G01 X189.856 Y140.208
G01 X189.881 Y140.192
G01 X189.904 Y140.173
G01 X189.925 Y140.153
G01 X189.943 Y140.131
G01 X189.960 Y140.107
G01 X189.973 Y140.083
G01 X189.985 Y140.057
G01 X189.993 Y140.031
G01 X189.999 Y140.004
G01 X190.000 Y140.000
G01 X189.997 Y140.030
G01 X189.996 Y140.060
G01 X189.999 Y140.091
G01 X190.005 Y140.121
G01 X190.013 Y140.151
G01 X190.025 Y140.180
G01 X190.039 Y140.208
G01 X190.057 Y140.235
G01 X190.077 Y140.261
G01 X190.099 Y140.286
G01 X190.125 Y140.309
G01 X190.152 Y140.330
G01 X190.182 Y140.349
G01 X190.215 Y140.365
G01 X190.249 Y140.380
G01 X190.285 Y140.392
G01 X190.323 Y140.401
G01 X190.362 Y140.407
G01 X190.403 Y140.410
G01 X190.445 Y140.411
G01 X190.488 Y140.408
G01 X190.531 Y140.401
G01 X190.575 Y140.392
G01 X190.620 Y140.379
G01 X190.664 Y140.363
G01 X190.708 Y140.343
G01 X190.752 Y140.320
G01 X190.795 Y140.293
G01 X190.838 Y140.262
G01 X190.879 Y140.229
G01 X190.919 Y140.191
G01 X190.957 Y140.151
G01 X190.993 Y140.107
G01 X191.027 Y140.060
G01 X191.059 Y140.010
G01 X191.089 Y139.956
G01 X191.115 Y139.900
G01 X191.139 Y139.842
G01 X191.160 Y139.780
G01 X191.177 Y139.716
G01 X191.191 Y139.650
G01 X191.201 Y139.583
G01 X191.207 Y139.513
G01 X191.209 Y139.441
G01 X191.207 Y139.369
G01 X191.202 Y139.306
G01 X223.651 Y120.571
G01 X223.796 Y118.209
G01 X223.788 Y115.788
G01 X223.651 Y113.633
G01 X223.792 Y110.736
G01 X223.726 Y107.765
G01 X223.651 Y106.694
G01 X223.777 Y103.117
G01 X223.651 Y99.755
G01 X223.804 Y95.284
G01 X223.651 Y91.429
G01 X223.816 Y85.677
G01 X223.651 Y81.714
G01 X220.860 Y79.921
G01 X217.973 Y78.261
G01 X215.238 Y76.857
G01 X212.347 Y75.003
G01 X209.335 Y73.283
G01 X206.826 Y72.000
G01 X203.712 Y70.014
G01 X200.444 Y68.173
G01 X198.413 Y67.143
G01 X194.951 Y64.955
G01 X191.294 Y62.935
G01 X190.000 Y62.286
G01 X186.278 Y64.244
G01 X182.749 Y66.376
G01 X181.587 Y67.143
G01 X178.229 Y68.892
G01 X175.022 Y70.793
G01 X173.174 Y72.000
G01 X170.068 Y73.608
G01 X167.079 Y75.355
G01 X164.762 Y76.857
G01 X161.793 Y78.389
G01 X158.914 Y80.059
G01 X156.349 Y81.714
G01 X156.184 Y87.553
G01 X156.349 Y91.429
G01 X156.196 Y95.990
G01 X156.349 Y99.755
G01 X156.223 Y103.414
G01 X156.349 Y106.694
G01 X156.207 Y109.688
G01 X156.276 Y112.613
G01 X156.349 Y113.633
G01 X156.202 Y116.098
G01 X156.214 Y118.513
G01 X156.349 Y120.571
G01 X188.798 Y139.306
G01 X188.795 Y139.381
G01 X188.796 Y139.454
G01 X188.801 Y139.526
G01 X188.811 Y139.596
G01 X188.824 Y139.664
G01 X188.841 Y139.730
G01 X188.861 Y139.793
G01 X188.885 Y139.853
G01 X188.912 Y139.911
G01 X188.942 Y139.965
G01 X188.975 Y140.017
G01 X189.009 Y140.065
G01 X189.047 Y140.110
G01 X189.086 Y140.151
G01 X189.126 Y140.189
G01 X189.168 Y140.223
G01 X189.212 Y140.253
G01 X189.256 Y140.280
G01 X189.301 Y140.303
G01 X189.346 Y140.323
G01 X189.391 Y140.338
G01 X189.437 Y140.350
G01 X189.481 Y140.359
G01 X189.526 Y140.364
G01 X189.569 Y140.365
G01 X189.612 Y140.364
G01 X189.653 Y140.358
G01 X189.693 Y140.350
G01 X189.731 Y140.339
G01 X189.767 Y140.325
G01 X189.801 Y140.309
G01 X189.833 Y140.290
G01 X189.862 Y140.268
G01 X189.889 Y140.245
G01 X189.913 Y140.219
G01 X189.935 Y140.192
G01 X189.953 Y140.163
G01 X189.969 Y140.133
G01 X189.981 Y140.102
G01 X189.991 Y140.070
G01 X189.997 Y140.038
G01 X190.000 Y140.005
G01 X190.000 Y140.000
G01 X190.001 Y140.026
G01 X190.004 Y140.051
G01 X190.009 Y140.077
G01 X190.018 Y140.102
G01 X190.028 Y140.126
G01 X190.041 Y140.149
G01 X190.056 Y140.171
G01 X190.074 Y140.192
G01 X190.094 Y140.212
G01 X190.116 Y140.230
G01 X190.140 Y140.247
G01 X190.165 Y140.261
G01 X190.193 Y140.274
G01 X190.222 Y140.285
G01 X190.252 Y140.293
G01 X190.284 Y140.299
G01 X190.317 Y140.302
G01 X190.351 Y140.303
G01 X190.386 Y140.301
G01 X190.421 Y140.297
G01 X190.457 Y140.290
G01 X190.493 Y140.280
G01 X190.529 Y140.267
G01 X190.565 Y140.251
G01 X190.601 Y140.232
G01 X190.636 Y140.211
G01 X190.671 Y140.186
G01 X190.704 Y140.159
G01 X190.736 Y140.128
G01 X190.767 Y140.095
G01 X190.797 Y140.059
G01 X190.824 Y140.021
G01 X190.850 Y139.980
G01 X190.874 Y139.936
G01 X190.895 Y139.890
G01 X190.914 Y139.842
G01 X190.931 Y139.792
G01 X190.944 Y139.739
G01 X190.955 Y139.685
G01 X190.962 Y139.630
G01 X190.966 Y139.572
G01 X190.967 Y139.514
G01 X190.965 Y139.454
G01 X190.958 Y139.394
G01 X190.949 Y139.333
G01 X190.935 Y139.271
G01 X190.918 Y139.209
G01 X190.896 Y139.147
G01 X190.871 Y139.086
G01 X190.842 Y139.025
G01 X190.809 Y138.964
G01 X190.772 Y138.905
G01 X190.731 Y138.846
G01 X190.694 Y138.798
G01 X209.429 Y106.349
G01 X208.373 Y104.230
G01 X207.155 Y102.137
G01 X205.959 Y100.340
G01 X204.633 Y97.761
G01 X203.090 Y95.221
G01 X202.490 Y94.330
G01 X200.810 Y91.170
G01 X199.020 Y88.321
G01 X196.917 Y84.373
G01 X194.857 Y81.110
G01 X192.124 Y76.047
G01 X190.000 Y72.697
G01 X186.686 Y72.540
G01 X183.356 Y72.546
G01 X180.286 Y72.697
G01 X176.855 Y72.538
G01 X173.386 Y72.554
G01 X170.571 Y72.697
G01 X166.882 Y72.534
G01 X163.131 Y72.574
G01 X160.857 Y72.697
G01 X156.765 Y72.533
G01 X152.588 Y72.613
G01 X151.143 Y72.697
G01 X148.899 Y76.254
G01 X146.908 Y79.866
G01 X146.286 Y81.110
G01 X144.252 Y84.304
G01 X142.425 Y87.554
G01 X141.429 Y89.523
G01 X139.542 Y92.468
G01 X137.827 Y95.476
G01 X136.571 Y97.936
G01 X134.766 Y100.747
G01 X133.108 Y103.633
G01 X131.714 Y106.349
G01 X134.491 Y111.488
G01 X136.571 Y114.762
G01 X138.720 Y118.788
G01 X140.735 Y121.973
G01 X142.455 Y125.204
G01 X144.204 Y127.982
G01 X145.579 Y130.645
G01 X147.100 Y133.144
G01 X147.673 Y133.991
G01 X148.779 Y136.199
G01 X149.996 Y138.285
G01 X151.143 Y140.000
G01 X188.612 Y140.000
G01 X188.654 Y140.066
G01 X188.700 Y140.128
G01 X188.747 Y140.186
G01 X188.798 Y140.239
G01 X188.850 Y140.288
G01 X188.905 Y140.332
G01 X188.960 Y140.372
G01 X189.017 Y140.407
G01 X189.075 Y140.437
G01 X189.133 Y140.463
G01 X189.192 Y140.484
G01 X189.250 Y140.501
G01 X189.308 Y140.513
G01 X189.366 Y140.521
G01 X189.422 Y140.524
G01 X189.477 Y140.523
G01 X189.530 Y140.518
G01 X189.582 Y140.509
G01 X189.632 Y140.497
G01 X189.679 Y140.480
G01 X189.724 Y140.461
G01 X189.766 Y140.438
G01 X189.805 Y140.412
G01 X189.841 Y140.384
G01 X189.874 Y140.353
G01 X189.903 Y140.320
G01 X189.929 Y140.285
G01 X189.951 Y140.249
G01 X189.969 Y140.211
G01 X189.983 Y140.172
G01 X189.994 Y140.132
G01 X190.000 Y140.092
G01 X190.003 Y140.051
G01 X190.001 Y140.011
G01 X190.000 Y140.000
G01 X190.004 Y140.022
G01 X190.009 Y140.044
G01 X190.017 Y140.065
G01 X190.027 Y140.086
G01 X190.039 Y140.105
G01 X190.053 Y140.124
G01 X190.069 Y140.141
G01 X190.087 Y140.157
G01 X190.106 Y140.172
G01 X190.127 Y140.185
G01 X190.150 Y140.197
G01 X190.174 Y140.206
G01 X190.199 Y140.214
G01 X190.225 Y140.220
G01 X190.253 Y140.223
G01 X190.281 Y140.225
G01 X190.310 Y140.224
G01 X190.339 Y140.220
G01 X190.369 Y140.215
G01 X190.399 Y140.207
G01 X190.429 Y140.196
G01 X190.459 Y140.183
G01 X190.489 Y140.168
G01 X190.518 Y140.150
G01 X190.547 Y140.129
G01 X190.575 Y140.107
G01 X190.601 Y140.081
G01 X190.627 Y140.054
G01 X190.651 Y140.024
G01 X190.674 Y139.991
G01 X190.696 Y139.957
G01 X190.715 Y139.920
G01 X190.732 Y139.882
G01 X190.748 Y139.841
G01 X190.761 Y139.799
G01 X190.771 Y139.755
G01 X190.779 Y139.710
G01 X190.785 Y139.663
G01 X190.788 Y139.615
G01 X190.787 Y139.566
G01 X190.784 Y139.516
G01 X190.778 Y139.465
G01 X190.769 Y139.414
G01 X190.756 Y139.363
G01 X190.741 Y139.311
G01 X190.722 Y139.259
G01 X190.699 Y139.208
G01 X190.674 Y139.157
G01 X190.645 Y139.107
G01 X190.612 Y139.057
G01 X190.577 Y139.009
G01 X190.538 Y138.962
G01 X190.495 Y138.916
G01 X190.450 Y138.873
G01 X190.401 Y138.831
G01 X190.350 Y138.791
G01 X190.295 Y138.753
G01 X190.238 Y138.718
G01 X190.178 Y138.686
G01 X190.115 Y138.656
G01 X190.050 Y138.630
G01 X190.000 Y138.612
G01 X190.000 Y101.143
G01 X188.027 Y99.836
G01 X185.926 Y98.632
G01 X183.991 Y97.673
G01 X181.552 Y96.103
G01 X178.946 Y94.675
G01 X177.982 Y94.204
G01 X174.947 Y92.307
G01 X171.973 Y90.735
G01 X168.177 Y88.367
G01 X164.762 Y86.571
G01 X159.863 Y83.553
G01 X156.349 Y81.714
G01 X153.400 Y83.235
G01 X150.520 Y84.905
G01 X147.936 Y86.571
G01 X144.885 Y88.148
G01 X141.889 Y89.897
G01 X139.523 Y91.429
G01 X136.247 Y93.132
G01 X133.018 Y95.042
G01 X131.110 Y96.286
G01 X127.484 Y98.190
G01 X123.907 Y100.347
G01 X122.697 Y101.143
G01 X122.533 Y105.345
G01 X122.614 Y109.468
G01 X122.697 Y110.857
G01 X122.533 Y114.640
G01 X122.576 Y118.368
G01 X122.697 Y120.571
G01 X122.537 Y124.065
G01 X122.555 Y127.528
G01 X122.697 Y130.286
G01 X122.540 Y133.622
G01 X122.547 Y136.951
G01 X122.697 Y140.000
G01 X127.672 Y143.062
G01 X131.110 Y144.857
G01 X134.984 Y147.270
G01 X138.321 Y149.020
G01 X141.427 Y150.959
G01 X144.330 Y152.490
G01 X146.853 Y154.109
G01 X149.420 Y155.513
G01 X150.340 Y155.959
G01 X152.401 Y157.319
G01 X154.498 Y158.516
G01 X156.349 Y159.429
G01 X188.798 Y140.694
G01 X188.879 Y140.723
G01 X188.959 Y140.746
G01 X189.039 Y140.763
G01 X189.118 Y140.774
G01 X189.195 Y140.779
G01 X189.271 Y140.778
G01 X189.345 Y140.772
G01 X189.416 Y140.761
G01 X189.485 Y140.744
G01 X189.550 Y140.723
G01 X189.612 Y140.698
G01 X189.671 Y140.668
G01 X189.725 Y140.634
G01 X189.776 Y140.596
G01 X189.821 Y140.556
G01 X189.863 Y140.512
G01 X189.899 Y140.466
G01 X189.931 Y140.417
G01 X189.958 Y140.367
G01 X189.979 Y140.315
G01 X189.996 Y140.262
G01 X190.007 Y140.208
G01 X190.013 Y140.154
G01 X190.013 Y140.100
G01 X190.008 Y140.047
G01 X190.000 Y140.000
G01 X190.004 Y140.024
G01 X190.006 Y140.048
G01 X190.005 Y140.072
G01 X190.003 Y140.096
G01 X189.997 Y140.120
G01 X189.990 Y140.143
G01 X189.980 Y140.167
G01 X189.968 Y140.189
G01 X189.953 Y140.211
G01 X189.937 Y140.231
G01 X189.918 Y140.251
G01 X189.897 Y140.269
G01 X189.874 Y140.285
G01 X189.850 Y140.300
G01 X189.824 Y140.313
G01 X189.796 Y140.325
G01 X189.766 Y140.334
G01 X189.735 Y140.341
G01 X189.703 Y140.346
G01 X189.670 Y140.348
G01 X189.636 Y140.348
G01 X189.601 Y140.346
G01 X189.566 Y140.340
G01 X189.530 Y140.332
G01 X189.494 Y140.322
G01 X189.458 Y140.309
G01 X189.423 Y140.292
G01 X189.387 Y140.274
G01 X189.352 Y140.252
G01 X189.318 Y140.227
G01 X189.284 Y140.200
G01 X189.252 Y140.170
G01 X189.221 Y140.137
G01 X189.191 Y140.102
G01 X189.163 Y140.064
G01 X189.137 Y140.023
G01 X189.113 Y139.980
G01 X189.091 Y139.935
G01 X189.072 Y139.888
G01 X189.055 Y139.838
G01 X189.040 Y139.787
G01 X189.029 Y139.734
G01 X189.020 Y139.679
G01 X189.015 Y139.623
G01 X189.013 Y139.565
G01 X189.014 Y139.507
G01 X189.018 Y139.447
G01 X189.026 Y139.387
G01 X189.038 Y139.326
G01 X189.053 Y139.265
G01 X189.072 Y139.204
G01 X189.095 Y139.143
G01 X189.122 Y139.082
G01 X189.152 Y139.022
G01 X189.186 Y138.963
G01 X189.224 Y138.904
G01 X189.266 Y138.847
G01 X189.306 Y138.798
G01 X170.571 Y106.349
G01 X168.209 Y106.204
G01 X165.788 Y106.212
G01 X163.633 Y106.349
G01 X160.736 Y106.208
G01 X157.765 Y106.274
G01 X156.694 Y106.349
G01 X153.117 Y106.223
G01 X149.755 Y106.349
G01 X145.284 Y106.196
G01 X141.429 Y106.349
G01 X135.677 Y106.184
G01 X131.714 Y106.349
G01 X129.921 Y109.140
G01 X128.261 Y112.027
G01 X126.857 Y114.762
G01 X125.003 Y117.653
G01 X123.283 Y120.665
G01 X122.000 Y123.174
G01 X120.014 Y126.288
G01 X118.173 Y129.556
G01 X117.143 Y131.587
G01 X114.955 Y135.049
G01 X112.935 Y138.706
G01 X112.286 Y140.000
G01 X114.244 Y143.722
G01 X116.376 Y147.251
G01 X117.143 Y148.413
G01 X118.892 Y151.771
G01 X120.793 Y154.978
G01 X122.000 Y156.826
G01 X123.608 Y159.932
G01 X125.355 Y162.921
G01 X126.857 Y165.238
G01 X128.389 Y168.207
G01 X130.059 Y171.086
G01 X131.714 Y173.651
G01 X137.553 Y173.816
G01 X141.429 Y173.651
G01 X145.990 Y173.804
G01 X149.755 Y173.651
G01 X153.414 Y173.777
G01 X156.694 Y173.651
G01 X159.688 Y173.793
G01 X162.613 Y173.724
G01 X163.633 Y173.651
G01 X166.098 Y173.798
G01 X168.513 Y173.786
G01 X170.571 Y173.651
G01 X189.306 Y141.202
G01 X189.403 Y141.162
G01 X189.494 Y141.117
G01 X189.579 Y141.065
G01 X189.658 Y141.008
G01 X189.730 Y140.945
G01 X189.795 Y140.879
G01 X189.853 Y140.808
G01 X189.903 Y140.734
G01 X189.946 Y140.657
G01 X189.981 Y140.578
G01 X190.008 Y140.498
G01 X190.027 Y140.416
G01 X190.038 Y140.334
G01 X190.042 Y140.252
G01 X190.037 Y140.170
G01 X190.024 Y140.090
G01 X190.004 Y140.012
G01 X190.000 Y140.000
G01 X190.008 Y140.027
G01 X190.012 Y140.055
G01 X190.014 Y140.083
G01 X190.014 Y140.112
G01 X190.010 Y140.141
G01 X190.004 Y140.169
G01 X189.995 Y140.198
G01 X189.983 Y140.225
G01 X189.969 Y140.252
G01 X189.952 Y140.278
G01 X189.932 Y140.303
G01 X189.909 Y140.326
G01 X189.885 Y140.348
G01 X189.857 Y140.369
G01 X189.828 Y140.387
G01 X189.797 Y140.403
G01 X189.763 Y140.417
G01 X189.728 Y140.429
G01 X189.691 Y140.438
G01 X189.652 Y140.445
G01 X189.612 Y140.449
G01 X189.571 Y140.450
G01 X189.529 Y140.447
G01 X189.487 Y140.442
G01 X189.443 Y140.434
G01 X189.399 Y140.422
G01 X189.356 Y140.407
G01 X189.312 Y140.389
G01 X189.268 Y140.368
G01 X189.225 Y140.343
G01 X189.183 Y140.314
G01 X189.142 Y140.283
G01 X189.102 Y140.248
G01 X189.063 Y140.210
G01 X189.026 Y140.168
G01 X188.991 Y140.124
G01 X188.958 Y140.076
G01 X188.927 Y140.026
G01 X188.899 Y139.972
G01 X188.874 Y139.916
G01 X188.851 Y139.857
G01 X188.832 Y139.796
G01 X188.816 Y139.733
G01 X188.803 Y139.668
G01 X188.794 Y139.601
G01 X188.789 Y139.532
G01 X188.787 Y139.461
G01 X188.790 Y139.390
G01 X188.797 Y139.317
G01 X188.798 Y139.306
G01 X156.349 Y120.571
G01 X154.230 Y121.627
G01 X152.137 Y122.845
G01 X150.340 Y124.041
G01 X147.761 Y125.367
G01 X145.221 Y126.910
G01 X144.330 Y127.510
G01 X141.170 Y129.190
G01 X138.321 Y130.980
G01 X134.373 Y133.083
G01 X131.110 Y135.143
G01 X126.047 Y137.876
G01 X122.697 Y140.000
G01 X122.540 Y143.314
G01 X122.546 Y146.644
G01 X122.697 Y149.714
G01 X122.538 Y153.145
G01 X122.554 Y156.614
G01 X122.697 Y159.429
G01 X122.534 Y163.118
G01 X122.574 Y166.869
G01 X122.697 Y169.143
G01 X122.533 Y173.235
G01 X122.613 Y177.412
G01 X122.697 Y178.857
G01 X126.254 Y181.101
G01 X129.866 Y183.092
G01 X131.110 Y183.714
G01 X134.304 Y185.748
G01 X137.554 Y187.575
G01 X139.523 Y188.571
G01 X142.468 Y190.458
G01 X145.476 Y192.173
G01 X147.936 Y193.429
G01 X150.747 Y195.234
G01 X153.633 Y196.892
G01 X156.349 Y198.286
G01 X161.488 Y195.509
G01 X164.762 Y193.429
G01 X168.788 Y191.280
G01 X171.973 Y189.265
G01 X175.204 Y187.545
G01 X177.982 Y185.796
G01 X180.645 Y184.421
G01 X183.144 Y182.900
G01 X183.991 Y182.327
G01 X186.199 Y181.221
G01 X188.285 Y180.004
G01 X190.000 Y178.857
G01 X190.000 Y141.388
G01 X190.056 Y141.146
G01 X190.089 Y140.903
G01 X190.098 Y140.661
G01 X190.083 Y140.420
G01 X190.046 Y140.182
G01 X190.000 Y140.000
G01 X190.009 Y140.036
G01 X190.014 Y140.072
G01 X190.015 Y140.109
G01 X190.013 Y140.146
G01 X190.007 Y140.184
G01 X189.998 Y140.220
G01 X189.985 Y140.257
G01 X189.968 Y140.292
G01 X189.948 Y140.326
G01 X189.925 Y140.359
G01 X189.898 Y140.391
G01 X189.868 Y140.420
G01 X189.834 Y140.448
G01 X189.798 Y140.473
G01 X189.759 Y140.496
G01 X189.717 Y140.515
G01 X189.673 Y140.532
G01 X189.627 Y140.546
G01 X189.578 Y140.556
G01 X189.528 Y140.563
G01 X189.476 Y140.566
G01 X189.423 Y140.565
G01 X189.368 Y140.561
G01 X189.313 Y140.552
G01 X189.257 Y140.539
G01 X189.200 Y140.522
G01 X189.144 Y140.501
G01 X189.088 Y140.475
G01 X189.032 Y140.445
G01 X188.978 Y140.411
G01 X188.924 Y140.372
G01 X188.872 Y140.329
G01 X188.821 Y140.282
G01 X188.773 Y140.231
G01 X188.726 Y140.175
G01 X188.683 Y140.116
G01 X188.642 Y140.052
G01 X188.612 Y140.000
G01 X151.143 Y140.000
G01 X149.836 Y141.973
G01 X148.632 Y144.074
G01 X147.673 Y146.009
G01 X146.103 Y148.448
G01 X144.675 Y151.054
G01 X144.204 Y152.018
G01 X142.307 Y155.053
G01 X140.735 Y158.027
G01 X138.367 Y161.823
G01 X136.571 Y165.238
G01 X133.553 Y170.137
G01 X131.714 Y173.651
G01 X133.235 Y176.600
G01 X134.905 Y179.480
G01 X136.571 Y182.064
G01 X138.148 Y185.115
G01 X139.897 Y188.111
G01 X141.429 Y190.477
G01 X143.132 Y193.753
G01 X145.042 Y196.982
G01 X146.286 Y198.890
G01 X148.190 Y202.516
G01 X150.347 Y206.093
G01 X151.143 Y207.303
G01 X155.345 Y207.467
G01 X159.468 Y207.386
G01 X160.857 Y207.303
G01 X164.640 Y207.467
G01 X168.368 Y207.424
G01 X170.571 Y207.303
G01 X174.065 Y207.463
G01 X177.528 Y207.445
G01 X180.286 Y207.303
G01 X183.622 Y207.460
G01 X186.951 Y207.453
G01 X190.000 Y207.303
G01 X193.062 Y202.328
G01 X194.857 Y198.890
G01 X197.270 Y195.016
G01 X199.020 Y191.679
G01 X200.959 Y188.573
G01 X202.490 Y185.670
G01 X204.109 Y183.147
G01 X205.513 Y180.580
G01 X205.959 Y179.660
G01 X207.319 Y177.599
G01 X208.516 Y175.502
G01 X209.429 Y173.651
G01 X190.694 Y141.202
G01 X190.560 Y141.090
G01 X190.439 Y140.969
G01 X190.331 Y140.838
G01 X190.238 Y140.700
G01 X190.158 Y140.555
G01 X190.094 Y140.404
G01 X190.045 Y140.249
G01 X190.012 Y140.090
G01 X190.000 Y140.000
G01 X190.003 Y140.059
G01 X190.001 Y140.118
G01 X189.992 Y140.177
G01 X189.978 Y140.236
G01 X189.958 Y140.293
G01 X189.933 Y140.349
G01 X189.901 Y140.403
G01 X189.865 Y140.454
G01 X189.823 Y140.503
G01 X189.776 Y140.548
G01 X189.725 Y140.590
G01 X189.668 Y140.628
G01 X189.608 Y140.662
G01 X189.543 Y140.692
G01 X189.475 Y140.716
G01 X189.403 Y140.735
G01 X189.328 Y140.749
G01 X189.251 Y140.757
G01 X189.171 Y140.760
G01 X189.089 Y140.756
G01 X189.005 Y140.746
G01 X188.921 Y140.729
G01 X188.836 Y140.706
G01 X188.798 Y140.694
G01 X156.349 Y159.429
G01 X156.204 Y161.791
G01 X156.212 Y164.212
G01 X156.349 Y166.367
G01 X156.208 Y169.264
G01 X156.274 Y172.235
G01 X156.349 Y173.306
G01 X156.223 Y176.883
G01 X156.349 Y180.245
G01 X156.196 Y184.716
G01 X156.349 Y188.571
G01 X156.184 Y194.323
G01 X156.349 Y198.286
G01 X159.140 Y200.079
G01 X162.027 Y201.739
G01 X164.762 Y203.143
G01 X167.653 Y204.997
G01 X170.665 Y206.717
G01 X173.174 Y208.000
G01 X176.288 Y209.986
G01 X179.556 Y211.827
G01 X181.587 Y212.857
G01 X185.049 Y215.045
G01 X188.706 Y217.065
G01 X190.000 Y217.714
G01 X193.722 Y215.756
G01 X197.251 Y213.624
G01 X198.413 Y212.857
G01 X201.771 Y211.108
G01 X204.978 Y209.207
G01 X206.826 Y208.000
G01 X209.932 Y206.392
G01 X212.921 Y204.645
G01 X215.238 Y203.143
G01 X218.207 Y201.611
G01 X221.086 Y199.941
G01 X223.651 Y198.286
G01 X223.816 Y192.447
G01 X223.651 Y188.571
G01 X223.804 Y184.010
G01 X223.651 Y180.245
G01 X223.777 Y176.586
G01 X223.651 Y173.306
G01 X223.793 Y170.312
G01 X223.724 Y167.387
G01 X223.651 Y166.367
G01 X223.798 Y163.902
G01 X223.786 Y161.487
G01 X223.651 Y159.429
G01 X191.202 Y140.694
G01 X191.120 Y140.722
G01 X191.038 Y140.744
G01 X190.957 Y140.759
G01 X190.876 Y140.769
G01 X190.798 Y140.772
G01 X190.721 Y140.770
G01 X190.646 Y140.762
G01 X190.574 Y140.749
G01 X190.505 Y140.730
G01 X190.440 Y140.707
G01 X190.378 Y140.679
G01 X190.319 Y140.647
G01 X190.265 Y140.611
G01 X190.215 Y140.571
G01 X190.170 Y140.528
G01 X190.129 Y140.483
G01 X190.094 Y140.434
G01 X190.063 Y140.383
G01 X190.038 Y140.331
G01 X190.018 Y140.277
G01 X190.004 Y140.222
G01 X189.995 Y140.166
G01 X189.991 Y140.111
G01 X189.993 Y140.055
G01 X190.000 Y140.000
G01 X189.955 Y140.193
G01 X189.891 Y140.381
G01 X189.809 Y140.563
G01 X189.709 Y140.737
G01 X189.591 Y140.903
G01 X189.457 Y141.058
G01 X189.306 Y141.202
G01 X170.571 Y173.651
G01 X171.627 Y175.770
G01 X172.845 Y177.863
G01 X174.041 Y179.660
G01 X175.367 Y182.239
G01 X176.910 Y184.779
G01 X177.510 Y185.670
G01 X179.190 Y188.830
G01 X180.980 Y191.679
G01 X183.083 Y195.627
G01 X185.143 Y198.890
G01 X187.876 Y203.953
G01 X190.000 Y207.303
G01 X193.314 Y207.460
G01 X196.644 Y207.454
G01 X199.714 Y207.303
G01 X203.145 Y207.462
G01 X206.614 Y207.446
G01 X209.429 Y207.303
G01 X213.118 Y207.466
G01 X216.869 Y207.426
G01 X219.143 Y207.303
G01 X223.235 Y207.467
G01 X227.412 Y207.387
G01 X228.857 Y207.303
G01 X231.101 Y203.746
G01 X233.092 Y200.134
G01 X233.714 Y198.890
G01 X235.748 Y195.696
G01 X237.575 Y192.446
G01 X238.571 Y190.477
G01 X240.458 Y187.532
G01 X242.173 Y184.524
G01 X243.429 Y182.064
G01 X245.234 Y179.253
G01 X246.892 Y176.367
G01 X248.286 Y173.651
G01 X245.509 Y168.512
G01 X243.429 Y165.238
G01 X241.280 Y161.212
G01 X239.265 Y158.027
G01 X237.545 Y154.796
G01 X235.796 Y152.018
G01 X234.421 Y149.355
G01 X232.900 Y146.856
G01 X232.327 Y146.009
G01 X231.221 Y143.801
G01 X230.004 Y141.715
G01 X228.857 Y140.000
G01 X191.388 Y140.000
G01 X191.351 Y140.066
G01 X191.310 Y140.129
G01 X191.267 Y140.188
G01 X191.221 Y140.243
G01 X191.173 Y140.294
G01 X191.123 Y140.341
G01 X191.072 Y140.384
G01 X191.019 Y140.422
G01 X190.965 Y140.456
G01 X190.910 Y140.486
G01 X190.854 Y140.512
G01 X190.798 Y140.534
G01 X190.743 Y140.551
G01 X190.687 Y140.564
G01 X190.632 Y140.573
G01 X190.578 Y140.578
G01 X190.525 Y140.580
G01 X190.474 Y140.577
G01 X190.424 Y140.571
G01 X190.375 Y140.561
G01 X190.329 Y140.549
G01 X190.285 Y140.533
G01 X190.243 Y140.514
G01 X190.204 Y140.492
G01 X190.168 Y140.468
G01 X190.134 Y140.442
G01 X190.103 Y140.413
G01 X190.076 Y140.383
G01 X190.052 Y140.351
G01 X190.031 Y140.318
G01 X190.014 Y140.283
G01 X190.000 Y140.248
G01 X189.990 Y140.212
G01 X189.983 Y140.176
G01 X189.979 Y140.139
G01 X189.979 Y140.103
G01 X189.983 Y140.068
G01 X189.990 Y140.033
G01 X190.000 Y140.000
G01 X189.942 Y140.191
G01 X189.904 Y140.387
G01 X189.884 Y140.587
G01 X189.885 Y140.789
G01 X189.904 Y140.993
G01 X189.944 Y141.195
G01 X190.000 Y141.388
G01 X190.000 Y178.857
G01 X191.973 Y180.164
G01 X194.074 Y181.368
G01 X196.009 Y182.327
G01 X198.448 Y183.897
G01 X201.054 Y185.325
G01 X202.018 Y185.796
G01 X205.053 Y187.693
G01 X208.027 Y189.265
G01 X211.823 Y191.633
G01 X215.238 Y193.429
G01 X220.137 Y196.447
G01 X223.651 Y198.286
G01 X226.600 Y196.765
G01 X229.480 Y195.095
G01 X232.064 Y193.429
G01 X235.115 Y191.852
G01 X238.111 Y190.103
G01 X240.477 Y188.571
G01 X243.753 Y186.868
G01 X246.982 Y184.958
G01 X248.890 Y183.714
G01 X252.516 Y181.810
G01 X256.093 Y179.653
G01 X257.303 Y178.857
G01 X257.467 Y174.655
G01 X257.386 Y170.532
G01 X257.303 Y169.143
G01 X257.467 Y165.360
G01 X257.424 Y161.632
G01 X257.303 Y159.429
G01 X257.463 Y155.935
G01 X257.445 Y152.472
G01 X257.303 Y149.714
G01 X257.460 Y146.378
G01 X257.453 Y143.049
G01 X257.303 Y140.000
G01 X252.328 Y136.938
G01 X248.890 Y135.143
G01 X245.016 Y132.730
G01 X241.679 Y130.980
G01 X238.573 Y129.041
G01 X235.670 Y127.510
G01 X233.147 Y125.891
G01 X230.580 Y124.487
G01 X229.660 Y124.041
G01 X227.599 Y122.681
G01 X225.502 Y121.484
G01 X223.651 Y120.571
G01 X191.202 Y139.306
G01 X191.151 Y139.258
G01 X191.099 Y139.212
G01 X191.045 Y139.171
G01 X190.990 Y139.132
G01 X190.933 Y139.097
G01 X190.875 Y139.065
G01 X190.817 Y139.037
G01 X190.758 Y139.012
G01 X190.698 Y138.991
G01 X190.638 Y138.973
G01 X190.579 Y138.959
G01 X190.519 Y138.948
G01 X190.460 Y138.940
G01 X190.401 Y138.935
G01 X190.343 Y138.934
G01 X190.285 Y138.936
G01 X190.229 Y138.941
G01 X190.174 Y138.948
G01 X190.120 Y138.959
G01 X190.067 Y138.972
G01 X190.017 Y138.988
G01 X189.967 Y139.006
G01 X189.920 Y139.027
G01 X189.875 Y139.049
G01 X189.832 Y139.074
G01 X189.790 Y139.101
G01 X189.751 Y139.130
G01 X189.715 Y139.160
G01 X189.680 Y139.191
G01 X189.649 Y139.224
G01 X189.619 Y139.258
G01 X189.592 Y139.293
G01 X189.568 Y139.329
G01 X189.546 Y139.366
G01 X189.526 Y139.403
G01 X189.509 Y139.440
G01 X189.495 Y139.478
G01 X189.483 Y139.516
G01 X189.473 Y139.553
G01 X189.466 Y139.590
G01 X189.461 Y139.627
G01 X189.459 Y139.664
G01 X189.459 Y139.699
G01 X189.461 Y139.734
G01 X189.465 Y139.768
G01 X189.471 Y139.801
G01 X189.479 Y139.832
G01 X189.488 Y139.863
G01 X189.500 Y139.892
G01 X189.512 Y139.920
G01 X189.527 Y139.946
G01 X189.543 Y139.970
G01 X189.560 Y139.993
G01 X189.578 Y140.014
G01 X189.597 Y140.033
G01 X189.616 Y140.050
G01 X189.637 Y140.066
G01 X189.658 Y140.080
G01 X189.680 Y140.092
G01 X189.701 Y140.101
G01 X189.723 Y140.109
G01 X189.745 Y140.115
G01 X189.767 Y140.120
G01 X189.789 Y140.122
G01 X189.810 Y140.122
G01 X189.831 Y140.121
G01 X189.851 Y140.118
G01 X189.870 Y140.114
G01 X189.889 Y140.107
G01 X189.907 Y140.100
G01 X189.923 Y140.091
G01 X189.939 Y140.080
G01 X189.953 Y140.068
G01 X189.966 Y140.055
G01 X189.977 Y140.041
G01 X189.987 Y140.026
G01 X189.995 Y140.011
G01 X190.000 Y140.000
G01 X189.976 Y140.072
G01 X189.958 Y140.145
G01 X189.948 Y140.221
G01 X189.946 Y140.298
G01 X189.950 Y140.375
G01 X189.962 Y140.452
G01 X189.982 Y140.529
G01 X190.009 Y140.605
G01 X190.044 Y140.679
G01 X190.086 Y140.751
G01 X190.135 Y140.821
G01 X190.191 Y140.887
G01 X190.253 Y140.950
G01 X190.323 Y141.008
G01 X190.398 Y141.062
G01 X190.480 Y141.110
G01 X190.567 Y141.153
G01 X190.660 Y141.190
G01 X190.694 Y141.202
G01 X201.102 Y159.229
G01 X202.456 Y159.319
G01 X203.844 Y159.320
G01 X205.262 Y159.230
G01 X205.265 Y159.229
G01 X206.986 Y159.364
G01 X208.755 Y159.375
G01 X210.564 Y159.256
G01 X210.816 Y159.229
G01 X213.133 Y159.354
G01 X215.508 Y159.296
G01 X216.367 Y159.229
G01 X219.523 Y159.386
G01 X222.752 Y159.275
G01 X223.306 Y159.229
G01 X224.361 Y157.650
G01 X225.342 Y156.013
G01 X226.244 Y154.322
G01 X226.776 Y153.220
G01 X227.885 Y151.554
G01 X228.919 Y149.810
G01 X229.872 Y147.993
G01 X230.245 Y147.211
G01 X231.475 Y145.347
G01 X232.616 Y143.379
G01 X233.663 Y141.312
G01 X233.714 Y141.202
G01 X234.408 Y140.000
G01 X233.335 Y137.871
G01 X232.163 Y135.847
G01 X230.939 Y133.991
G01 X230.001 Y132.106
G01 X228.979 Y130.299
G01 X227.877 Y128.573
G01 X227.469 Y127.982
G01 X226.610 Y126.242
G01 X225.671 Y124.558
G01 X224.655 Y122.932
G01 X224.000 Y121.973
G01 X223.306 Y120.771
G01 X220.067 Y120.614
G01 X216.897 Y120.726
G01 X216.367 Y120.771
G01 X213.974 Y120.645
G01 X211.635 Y120.705
G01 X210.816 Y120.771
G01 X209.002 Y120.634
G01 X207.227 Y120.627
G01 X205.499 Y120.745
G01 X205.265 Y120.771
G01 X203.848 Y120.680
G01 X202.459 Y120.681
G01 X201.105 Y120.770
G01 X201.102 Y120.771
G01 X190.694 Y138.798
G01 X190.625 Y138.784
G01 X190.556 Y138.773
G01 X190.487 Y138.766
G01 X190.420 Y138.763
G01 X190.353 Y138.764
G01 X190.287 Y138.768
G01 X190.223 Y138.776
G01 X190.160 Y138.787
G01 X190.098 Y138.801
G01 X190.039 Y138.818
G01 X189.981 Y138.838
G01 X189.925 Y138.860
G01 X189.872 Y138.886
G01 X189.821 Y138.914
G01 X189.772 Y138.944
G01 X189.726 Y138.976
G01 X189.682 Y139.010
G01 X189.641 Y139.046
G01 X189.603 Y139.084
G01 X189.567 Y139.123
G01 X189.535 Y139.163
G01 X189.505 Y139.204
G01 X189.478 Y139.246
G01 X189.454 Y139.289
G01 X189.433 Y139.332
G01 X189.415 Y139.376
G01 X189.400 Y139.419
G01 X189.388 Y139.463
G01 X189.378 Y139.506
G01 X189.371 Y139.549
G01 X189.367 Y139.592
G01 X189.366 Y139.634
G01 X189.367 Y139.675
G01 X189.370 Y139.715
G01 X189.376 Y139.753
G01 X189.384 Y139.791
G01 X189.394 Y139.827
G01 X189.406 Y139.862
G01 X189.420 Y139.895
G01 X189.436 Y139.926
G01 X189.454 Y139.955
G01 X189.472 Y139.983
G01 X189.493 Y140.008
G01 X189.514 Y140.032
G01 X189.537 Y140.053
G01 X189.560 Y140.073
G01 X189.584 Y140.090
G01 X189.609 Y140.105
G01 X189.634 Y140.118
G01 X189.659 Y140.128
G01 X189.685 Y140.137
G01 X189.710 Y140.143
G01 X189.736 Y140.147
G01 X189.760 Y140.149
G01 X189.785 Y140.149
G01 X189.809 Y140.147
G01 X189.832 Y140.143
G01 X189.854 Y140.137
G01 X189.875 Y140.129
G01 X189.895 Y140.120
G01 X189.914 Y140.109
G01 X189.931 Y140.096
G01 X189.947 Y140.082
G01 X189.961 Y140.067
G01 X189.974 Y140.051
G01 X189.985 Y140.033
G01 X189.994 Y140.015
G01 X190.000 Y140.000
G01 X189.986 Y140.047
G01 X189.977 Y140.096
G01 X189.972 Y140.145
G01 X189.972 Y140.195
G01 X189.977 Y140.245
G01 X189.987 Y140.295
G01 X190.002 Y140.344
G01 X190.021 Y140.393
G01 X190.046 Y140.440
G01 X190.075 Y140.486
G01 X190.108 Y140.530
G01 X190.146 Y140.572
G01 X190.189 Y140.611
G01 X190.235 Y140.647
G01 X190.286 Y140.680
G01 X190.340 Y140.709
G01 X190.398 Y140.735
G01 X190.459 Y140.757
G01 X190.523 Y140.774
G01 X190.590 Y140.787
G01 X190.659 Y140.795
G01 X190.731 Y140.798
G01 X190.804 Y140.795
G01 X190.879 Y140.788
G01 X190.954 Y140.775
G01 X191.031 Y140.756
G01 X191.108 Y140.732
G01 X191.185 Y140.701
G01 X191.202 Y140.694
G01 X209.229 Y151.102
G01 X210.446 Y150.502
G01 X211.649 Y149.809
G01 X212.832 Y149.022
G01 X212.835 Y149.020
G01 X214.393 Y148.277
G01 X215.930 Y147.401
G01 X217.437 Y146.394
G01 X217.642 Y146.245
G01 X219.711 Y145.195
G01 X221.739 Y143.956
G01 X222.449 Y143.469
G01 X225.260 Y142.027
G01 X228.001 Y140.317
G01 X228.459 Y140.000
G01 X228.583 Y138.105
G01 X228.613 Y136.197
G01 X228.549 Y134.282
G01 X228.459 Y133.061
G01 X228.587 Y131.063
G01 X228.610 Y129.036
G01 X228.526 Y126.986
G01 X228.459 Y126.122
G01 X228.592 Y123.893
G01 X228.596 Y121.618
G01 X228.469 Y119.305
G01 X228.459 Y119.184
G01 X228.459 Y117.796
G01 X226.465 Y116.489
G01 X224.438 Y115.322
G01 X222.449 Y114.327
G01 X220.695 Y113.163
G01 X218.907 Y112.109
G01 X217.089 Y111.165
G01 X216.440 Y110.857
G01 X214.826 Y109.780
G01 X213.170 Y108.791
G01 X211.478 Y107.891
G01 X210.431 Y107.388
G01 X209.229 Y106.694
G01 X206.345 Y108.178
G01 X203.657 Y109.859
G01 X203.220 Y110.163
G01 X201.084 Y111.251
G01 X199.089 Y112.473
G01 X198.413 Y112.939
G01 X196.774 Y113.727
G01 X195.233 Y114.609
G01 X193.795 Y115.575
G01 X193.605 Y115.714
G01 X192.333 Y116.345
G01 X191.131 Y117.040
G01 X190.003 Y117.794
G01 X190.000 Y117.796
G01 X190.000 Y138.612
G01 X189.933 Y138.638
G01 X189.869 Y138.666
G01 X189.807 Y138.698
G01 X189.748 Y138.732
G01 X189.692 Y138.769
G01 X189.638 Y138.808
G01 X189.588 Y138.850
G01 X189.542 Y138.893
G01 X189.498 Y138.939
G01 X189.458 Y138.985
G01 X189.421 Y139.034
G01 X189.387 Y139.083
G01 X189.357 Y139.133
G01 X189.330 Y139.184
G01 X189.307 Y139.236
G01 X189.287 Y139.287
G01 X189.271 Y139.339
G01 X189.257 Y139.391
G01 X189.248 Y139.442
G01 X189.241 Y139.493
G01 X189.237 Y139.543
G01 X189.237 Y139.592
G01 X189.239 Y139.640
G01 X189.244 Y139.687
G01 X189.252 Y139.732
G01 X189.263 Y139.776
G01 X189.275 Y139.819
G01 X189.291 Y139.859
G01 X189.308 Y139.897
G01 X189.328 Y139.934
G01 X189.349 Y139.968
G01 X189.372 Y140.000
G01 X189.396 Y140.030
G01 X189.422 Y140.057
G01 X189.449 Y140.082
G01 X189.477 Y140.104
G01 X189.506 Y140.124
G01 X189.535 Y140.141
G01 X189.565 Y140.156
G01 X189.595 Y140.168
G01 X189.625 Y140.177
G01 X189.655 Y140.184
G01 X189.685 Y140.189
G01 X189.714 Y140.191
G01 X189.743 Y140.190
G01 X189.771 Y140.188
G01 X189.798 Y140.183
G01 X189.824 Y140.176
G01 X189.849 Y140.167
G01 X189.872 Y140.155
G01 X189.894 Y140.142
G01 X189.915 Y140.128
G01 X189.933 Y140.111
G01 X189.950 Y140.094
G01 X189.965 Y140.074
G01 X189.978 Y140.054
G01 X189.988 Y140.033
G01 X189.997 Y140.011
G01 X190.000 Y140.000
G01 X189.992 Y140.036
G01 X189.987 Y140.073
G01 X189.986 Y140.110
G01 X189.989 Y140.147
G01 X189.995 Y140.185
G01 X190.005 Y140.222
G01 X190.019 Y140.258
G01 X190.036 Y140.294
G01 X190.056 Y140.328
G01 X190.080 Y140.361
G01 X190.108 Y140.392
G01 X190.139 Y140.422
G01 X190.172 Y140.449
G01 X190.209 Y140.474
G01 X190.249 Y140.496
G01 X190.291 Y140.515
G01 X190.336 Y140.532
G01 X190.382 Y140.545
G01 X190.431 Y140.555
G01 X190.482 Y140.561
G01 X190.535 Y140.563
G01 X190.588 Y140.562
G01 X190.643 Y140.556
G01 X190.699 Y140.547
G01 X190.755 Y140.533
G01 X190.811 Y140.516
G01 X190.868 Y140.493
G01 X190.924 Y140.467
G01 X190.980 Y140.436
G01 X191.034 Y140.401
G01 X191.088 Y140.361
G01 X191.140 Y140.317
G01 X191.190 Y140.269
G01 X191.238 Y140.217
G01 X191.284 Y140.160
G01 X191.327 Y140.100
G01 X191.368 Y140.036
G01 X191.388 Y140.000
G01 X212.204 Y140.000
G01 X212.958 Y138.872
G01 X213.654 Y137.670
G01 X214.284 Y136.398
G01 X214.286 Y136.395
G01 X215.263 Y134.972
G01 X216.157 Y133.445
G01 X216.958 Y131.819
G01 X217.061 Y131.587
G01 X218.328 Y129.644
G01 X219.465 Y127.557
G01 X219.837 Y126.780
G01 X221.550 Y124.125
G01 X223.069 Y121.274
G01 X223.306 Y120.771
G01 X222.466 Y119.067
G01 X221.539 Y117.400
G01 X220.525 Y115.773
G01 X219.837 Y114.762
G01 X218.949 Y112.967
G01 X217.955 Y111.200
G01 X216.858 Y109.466
G01 X216.367 Y108.752
G01 X215.368 Y106.755
G01 X214.234 Y104.783
G01 X212.967 Y102.843
G01 X212.898 Y102.743
G01 X212.204 Y101.541
G01 X209.824 Y101.406
G01 X207.485 Y101.410
G01 X205.265 Y101.541
G01 X203.165 Y101.411
G01 X201.088 Y101.393
G01 X199.042 Y101.484
G01 X198.327 Y101.541
G01 X196.390 Y101.416
G01 X194.462 Y101.387
G01 X192.546 Y101.454
G01 X191.388 Y101.541
G01 X190.000 Y101.541
G01 X188.245 Y104.269
G01 X186.757 Y107.069
G01 X186.531 Y107.551
G01 X185.225 Y109.561
G01 X184.108 Y111.616
G01 X183.755 Y112.358
G01 X182.730 Y113.860
G01 X181.836 Y115.394
G01 X181.074 Y116.950
G01 X180.980 Y117.165
G01 X180.193 Y118.348
G01 X179.499 Y119.551
G01 X178.899 Y120.768
G01 X178.898 Y120.771
G01 X189.306 Y138.798
G01 X189.263 Y138.857
G01 X189.224 Y138.917
G01 X189.189 Y138.979
G01 X189.159 Y139.041
G01 X189.132 Y139.103
G01 X189.110 Y139.166
G01 X189.091 Y139.229
G01 X189.077 Y139.291
G01 X189.066 Y139.353
G01 X189.059 Y139.415
G01 X189.056 Y139.475
G01 X189.056 Y139.535
G01 X189.060 Y139.593
G01 X189.068 Y139.649
G01 X189.078 Y139.704
G01 X189.092 Y139.757
G01 X189.108 Y139.807
G01 X189.127 Y139.856
G01 X189.149 Y139.902
G01 X189.173 Y139.946
G01 X189.200 Y139.987
G01 X189.228 Y140.025
G01 X189.258 Y140.061
G01 X189.290 Y140.094
G01 X189.323 Y140.123
G01 X189.357 Y140.150
G01 X189.392 Y140.174
G01 X189.427 Y140.194
G01 X189.464 Y140.212
G01 X189.500 Y140.226
G01 X189.537 Y140.238
G01 X189.573 Y140.246
G01 X189.609 Y140.252
G01 X189.645 Y140.254
G01 X189.680 Y140.254
G01 X189.714 Y140.251
G01 X189.746 Y140.245
G01 X189.778 Y140.237
G01 X189.808 Y140.227
G01 X189.836 Y140.213
G01 X189.863 Y140.198
G01 X189.887 Y140.181
G01 X189.910 Y140.162
G01 X189.930 Y140.141
G01 X189.949 Y140.119
G01 X189.964 Y140.095
G01 X189.978 Y140.070
G01 X189.988 Y140.044
G01 X189.996 Y140.017
G01 X190.000 Y140.000
G01 X189.996 Y140.030
G01 X189.995 Y140.060
G01 X189.997 Y140.090
G01 X190.002 Y140.120
G01 X190.009 Y140.149
G01 X190.020 Y140.178
G01 X190.034 Y140.207
G01 X190.050 Y140.234
G01 X190.069 Y140.260
G01 X190.091 Y140.285
G01 X190.115 Y140.308
G01 X190.142 Y140.330
G01 X190.171 Y140.349
G01 X190.203 Y140.367
G01 X190.236 Y140.382
G01 X190.272 Y140.394
G01 X190.309 Y140.404
G01 X190.348 Y140.411
G01 X190.388 Y140.416
G01 X190.429 Y140.417
G01 X190.472 Y140.415
G01 X190.515 Y140.410
G01 X190.559 Y140.402
G01 X190.603 Y140.390
G01 X190.647 Y140.375
G01 X190.691 Y140.357
G01 X190.735 Y140.335
G01 X190.779 Y140.310
G01 X190.821 Y140.281
G01 X190.863 Y140.248
G01 X190.903 Y140.213
G01 X190.942 Y140.173
G01 X190.979 Y140.131
G01 X191.014 Y140.085
G01 X191.047 Y140.037
G01 X191.077 Y139.985
G01 X191.105 Y139.930
G01 X191.130 Y139.872
G01 X191.152 Y139.812
G01 X191.170 Y139.750
G01 X191.186 Y139.685
G01 X191.197 Y139.618
G01 X191.205 Y139.549
G01 X191.209 Y139.479
G01 X191.209 Y139.407
G01 X191.205 Y139.334
G01 X191.202 Y139.306
G01 X209.229 Y128.898
G01 X209.319 Y127.544
G01 X209.320 Y126.156
G01 X209.230 Y124.738
G01 X209.229 Y124.735
G01 X209.364 Y123.014
G01 X209.375 Y121.245
G01 X209.256 Y119.436
G01 X209.229 Y119.184
G01 X209.354 Y116.867
G01 X209.296 Y114.492
G01 X209.229 Y113.633
G01 X209.386 Y110.477
G01 X209.275 Y107.248
G01 X209.229 Y106.694
G01 X207.650 Y105.639
G01 X206.013 Y104.658
G01 X204.322 Y103.756
G01 X203.220 Y103.224
G01 X201.554 Y102.115
G01 X199.810 Y101.081
G01 X197.993 Y100.128
G01 X197.211 Y99.755
G01 X195.347 Y98.525
G01 X193.379 Y97.384
G01 X191.312 Y96.337
G01 X191.202 Y96.286
G01 X190.000 Y95.592
G01 X187.871 Y96.665
G01 X185.847 Y97.837
G01 X183.991 Y99.061
G01 X182.106 Y99.999
G01 X180.299 Y101.021
G01 X178.573 Y102.123
G01 X177.982 Y102.531
G01 X176.242 Y103.390
G01 X174.558 Y104.329
G01 X172.932 Y105.345
G01 X171.973 Y106.000
G01 X170.771 Y106.694
G01 X170.614 Y109.933
G01 X170.726 Y113.103
G01 X170.771 Y113.633
G01 X170.645 Y116.026
G01 X170.705 Y118.365
G01 X170.771 Y119.184
G01 X170.634 Y120.998
G01 X170.627 Y122.773
G01 X170.745 Y124.501
G01 X170.771 Y124.735
G01 X170.680 Y126.152
G01 X170.681 Y127.541
G01 X170.770 Y128.895
G01 X170.771 Y128.898
G01 X188.798 Y139.306
G01 X188.796 Y139.381
G01 X188.798 Y139.455
G01 X188.804 Y139.528
G01 X188.815 Y139.598
G01 X188.829 Y139.666
G01 X188.848 Y139.731
G01 X188.869 Y139.794
G01 X188.894 Y139.854
G01 X188.923 Y139.912
G01 X188.954 Y139.966
G01 X188.987 Y140.017
G01 X189.023 Y140.064
G01 X189.061 Y140.108
G01 X189.101 Y140.148
G01 X189.143 Y140.185
G01 X189.186 Y140.218
G01 X189.230 Y140.247
G01 X189.275 Y140.273
G01 X189.321 Y140.294
G01 X189.367 Y140.312
G01 X189.412 Y140.327
G01 X189.458 Y140.337
G01 X189.503 Y140.344
G01 X189.548 Y140.347
G01 X189.591 Y140.347
G01 X189.634 Y140.343
G01 X189.675 Y140.336
G01 X189.714 Y140.326
G01 X189.752 Y140.313
G01 X189.787 Y140.297
G01 X189.820 Y140.279
G01 X189.851 Y140.258
G01 X189.880 Y140.234
G01 X189.905 Y140.209
G01 X189.928 Y140.182
G01 X189.948 Y140.153
G01 X189.965 Y140.122
G01 X189.979 Y140.091
G01 X189.989 Y140.058
G01 X189.997 Y140.025
G01 X190.000 Y140.000
G01 X189.999 Y140.025
G01 X190.000 Y140.050
G01 X190.004 Y140.075
G01 X190.010 Y140.100
G01 X190.019 Y140.124
G01 X190.030 Y140.148
G01 X190.043 Y140.170
G01 X190.059 Y140.192
G01 X190.077 Y140.213
G01 X190.097 Y140.232
G01 X190.119 Y140.249
G01 X190.143 Y140.265
G01 X190.169 Y140.279
G01 X190.196 Y140.292
G01 X190.225 Y140.302
G01 X190.256 Y140.310
G01 X190.288 Y140.315
G01 X190.321 Y140.319
G01 X190.354 Y140.319
G01 X190.389 Y140.317
G01 X190.425 Y140.313
G01 X190.460 Y140.305
G01 X190.496 Y140.295
G01 X190.532 Y140.282
G01 X190.568 Y140.267
G01 X190.604 Y140.248
G01 X190.639 Y140.226
G01 X190.673 Y140.202
G01 X190.707 Y140.175
G01 X190.739 Y140.145
G01 X190.770 Y140.112
G01 X190.800 Y140.076
G01 X190.828 Y140.038
G01 X190.854 Y139.997
G01 X190.878 Y139.954
G01 X190.899 Y139.909
G01 X190.919 Y139.861
G01 X190.935 Y139.811
G01 X190.949 Y139.759
G01 X190.960 Y139.705
G01 X190.968 Y139.650
G01 X190.973 Y139.593
G01 X190.975 Y139.535
G01 X190.973 Y139.476
G01 X190.967 Y139.416
G01 X190.958 Y139.355
G01 X190.946 Y139.294
G01 X190.929 Y139.232
G01 X190.909 Y139.171
G01 X190.885 Y139.109
G01 X190.857 Y139.048
G01 X190.825 Y138.988
G01 X190.789 Y138.929
G01 X190.750 Y138.870
G01 X190.706 Y138.813
G01 X190.694 Y138.798
G01 X201.102 Y120.771
G01 X200.502 Y119.554
G01 X199.809 Y118.351
G01 X199.022 Y117.168
G01 X199.020 Y117.165
G01 X198.277 Y115.607
G01 X197.401 Y114.070
G01 X196.394 Y112.563
G01 X196.245 Y112.358
G01 X195.195 Y110.289
G01 X193.956 Y108.261
G01 X193.469 Y107.551
G01 X192.027 Y104.740
G01 X190.317 Y101.999
G01 X190.000 Y101.541
G01 X188.105 Y101.417
G01 X186.197 Y101.387
G01 X184.282 Y101.451
G01 X183.061 Y101.541
G01 X181.063 Y101.413
G01 X179.036 Y101.390
G01 X176.986 Y101.474
G01 X176.122 Y101.541
G01 X173.893 Y101.408
G01 X171.618 Y101.404
G01 X169.305 Y101.531
G01 X169.184 Y101.541
G01 X167.796 Y101.541
G01 X166.489 Y103.535
G01 X165.322 Y105.562
G01 X164.327 Y107.551
G01 X163.163 Y109.305
G01 X162.109 Y111.093
G01 X161.165 Y112.911
G01 X160.857 Y113.560
G01 X159.780 Y115.174
G01 X158.791 Y116.830
G01 X157.891 Y118.522
G01 X157.388 Y119.569
G01 X156.694 Y120.771
G01 X158.178 Y123.655
G01 X159.859 Y126.343
G01 X160.163 Y126.780
G01 X161.251 Y128.916
G01 X162.473 Y130.911
G01 X162.939 Y131.587
G01 X163.727 Y133.226
G01 X164.609 Y134.767
G01 X165.575 Y136.205
G01 X165.714 Y136.395
G01 X166.345 Y137.667
G01 X167.040 Y138.869
G01 X167.794 Y139.997
G01 X167.796 Y140.000
G01 X188.612 Y140.000
G01 X188.658 Y140.066
G01 X188.706 Y140.127
G01 X188.757 Y140.184
G01 X188.811 Y140.237
G01 X188.866 Y140.284
G01 X188.924 Y140.327
G01 X188.982 Y140.364
G01 X189.042 Y140.397
G01 X189.102 Y140.425
G01 X189.162 Y140.448
G01 X189.223 Y140.466
G01 X189.283 Y140.479
G01 X189.343 Y140.487
G01 X189.401 Y140.491
G01 X189.459 Y140.491
G01 X189.514 Y140.486
G01 X189.568 Y140.476
G01 X189.620 Y140.463
G01 X189.669 Y140.446
G01 X189.716 Y140.425
G01 X189.760 Y140.401
G01 X189.800 Y140.374
G01 X189.837 Y140.344
G01 X189.871 Y140.311
G01 X189.901 Y140.275
G01 X189.928 Y140.238
G01 X189.950 Y140.199
G01 X189.969 Y140.158
G01 X189.983 Y140.116
G01 X189.993 Y140.073
G01 X189.999 Y140.030
G01 X190.000 Y140.000
G01 X189.999 Y140.022
G01 X189.995 Y140.043
G01 X189.989 Y140.065
G01 X189.982 Y140.085
G01 X189.972 Y140.105
G01 X189.960 Y140.125
G01 X189.946 Y140.143
G01 X189.931 Y140.160
G01 X189.913 Y140.176
G01 X189.894 Y140.191
G01 X189.874 Y140.204
G01 X189.851 Y140.215
G01 X189.828 Y140.225
G01 X189.803 Y140.233
G01 X189.777 Y140.239
G01 X189.750 Y140.243
G01 X189.722 Y140.244
G01 X189.693 Y140.244
G01 X189.664 Y140.241
G01 X189.634 Y140.236
G01 X189.604 Y140.229
G01 X189.574 Y140.219
G01 X189.544 Y140.207
G01 X189.514 Y140.192
G01 X189.484 Y140.175
G01 X189.455 Y140.156
G01 X189.427 Y140.134
G01 X189.400 Y140.110
G01 X189.373 Y140.083
G01 X189.348 Y140.054
G01 X189.325 Y140.022
G01 X189.303 Y139.989
G01 X189.282 Y139.953
G01 X189.264 Y139.916
G01 X189.247 Y139.876
G01 X189.233 Y139.835
G01 X189.221 Y139.792
G01 X189.211 Y139.747
G01 X189.204 Y139.701
G01 X189.200 Y139.654
G01 X189.198 Y139.605
G01 X189.200 Y139.556
G01 X189.204 Y139.506
G01 X189.211 Y139.455
G01 X189.222 Y139.403
G01 X189.235 Y139.352
G01 X189.252 Y139.300
G01 X189.272 Y139.249
G01 X189.295 Y139.198
G01 X189.322 Y139.147
G01 X189.352 Y139.097
G01 X189.385 Y139.048
G01 X189.422 Y139.000
G01 X189.462 Y138.953
G01 X189.505 Y138.908
G01 X189.551 Y138.865
G01 X189.600 Y138.824
G01 X189.652 Y138.785
G01 X189.707 Y138.748
G01 X189.765 Y138.714
G01 X189.826 Y138.682
G01 X189.889 Y138.653
G01 X189.954 Y138.628
G01 X190.000 Y138.612
G01 X190.000 Y117.796
G01 X188.872 Y117.042
G01 X187.670 Y116.346
G01 X186.398 Y115.716
G01 X186.395 Y115.714
G01 X184.972 Y114.737
G01 X183.445 Y113.843
G01 X181.819 Y113.042
G01 X181.587 Y112.939
G01 X179.644 Y111.672
G01 X177.557 Y110.535
G01 X176.780 Y110.163
G01 X174.125 Y108.450
G01 X171.274 Y106.931
G01 X170.771 Y106.694
G01 X169.067 Y107.534
G01 X167.400 Y108.461
G01 X165.773 Y109.475
G01 X164.762 Y110.163
G01 X162.967 Y111.051
G01 X161.200 Y112.045
G01 X159.466 Y113.142
G01 X158.752 Y113.633
G01 X156.755 Y114.632
G01 X154.783 Y115.766
G01 X152.843 Y117.033
G01 X152.743 Y117.102
G01 X151.541 Y117.796
G01 X151.406 Y120.176
G01 X151.410 Y122.515
G01 X151.541 Y124.735
G01 X151.411 Y126.835
G01 X151.393 Y128.912
G01 X151.484 Y130.958
G01 X151.541 Y131.673
G01 X151.416 Y133.610
G01 X151.387 Y135.538
G01 X151.454 Y137.454
G01 X151.541 Y138.612
G01 X151.541 Y140.000
G01 X154.269 Y141.755
G01 X157.069 Y143.243
G01 X157.551 Y143.469
G01 X159.561 Y144.775
G01 X161.616 Y145.892
G01 X162.358 Y146.245
G01 X163.860 Y147.270
G01 X165.394 Y148.164
G01 X166.950 Y148.926
G01 X167.165 Y149.020
G01 X168.348 Y149.807
G01 X169.551 Y150.501
G01 X170.768 Y151.101
G01 X170.771 Y151.102
G01 X188.798 Y140.694
G01 X188.887 Y140.718
G01 X188.975 Y140.735
G01 X189.062 Y140.745
G01 X189.147 Y140.748
G01 X189.230 Y140.745
G01 X189.311 Y140.736
G01 X189.389 Y140.720
G01 X189.463 Y140.699
G01 X189.534 Y140.673
G01 X189.601 Y140.641
G01 X189.664 Y140.605
G01 X189.722 Y140.564
G01 X189.775 Y140.519
G01 X189.823 Y140.470
G01 X189.866 Y140.418
G01 X189.903 Y140.363
G01 X189.934 Y140.305
G01 X189.959 Y140.246
G01 X189.979 Y140.184
G01 X189.992 Y140.122
G01 X189.999 Y140.059
G01 X190.000 Y140.000
G01 X189.999 Y140.026
G01 X189.996 Y140.051
G01 X189.991 Y140.077
G01 X189.983 Y140.101
G01 X189.972 Y140.126
G01 X189.960 Y140.149
G01 X189.944 Y140.171
G01 X189.927 Y140.192
G01 X189.907 Y140.212
G01 X189.885 Y140.230
G01 X189.862 Y140.247
G01 X189.836 Y140.262
G01 X189.809 Y140.274
G01 X189.780 Y140.285
G01 X189.749 Y140.293
G01 X189.718 Y140.300
G01 X189.685 Y140.303
G01 X189.651 Y140.304
G01 X189.616 Y140.303
G01 X189.581 Y140.298
G01 X189.545 Y140.291
G01 X189.509 Y140.281
G01 X189.473 Y140.269
G01 X189.437 Y140.253
G01 X189.401 Y140.234
G01 X189.366 Y140.213
G01 X189.331 Y140.189
G01 X189.298 Y140.161
G01 X189.265 Y140.131
G01 X189.234 Y140.098
G01 X189.205 Y140.063
G01 X189.177 Y140.024
G01 X189.151 Y139.983
G01 X189.127 Y139.940
G01 X189.106 Y139.894
G01 X189.087 Y139.846
G01 X189.070 Y139.796
G01 X189.056 Y139.744
G01 X189.046 Y139.690
G01 X189.038 Y139.634
G01 X189.033 Y139.577
G01 X189.032 Y139.519
G01 X189.035 Y139.459
G01 X189.041 Y139.399
G01 X189.050 Y139.338
G01 X189.063 Y139.276
G01 X189.080 Y139.215
G01 X189.101 Y139.153
G01 X189.126 Y139.091
G01 X189.155 Y139.030
G01 X189.188 Y138.969
G01 X189.224 Y138.910
G01 X189.265 Y138.851
G01 X189.306 Y138.798
G01 X178.898 Y120.771
G01 X177.544 Y120.681
G01 X176.156 Y120.680
G01 X174.738 Y120.770
G01 X174.735 Y120.771
G01 X173.014 Y120.636
G01 X171.245 Y120.625
G01 X169.436 Y120.744
G01 X169.184 Y120.771
G01 X166.867 Y120.646
G01 X164.492 Y120.704
G01 X163.633 Y120.771
G01 X160.477 Y120.614
G01 X157.248 Y120.725
G01 X156.694 Y120.771
G01 X155.639 Y122.350
G01 X154.658 Y123.987
G01 X153.756 Y125.678
G01 X153.224 Y126.780
G01 X152.115 Y128.446
G01 X151.081 Y130.190
G01 X150.128 Y132.007
G01 X149.755 Y132.789
G01 X148.525 Y134.653
G01 X147.384 Y136.621
G01 X146.337 Y138.688
G01 X146.286 Y138.798
G01 X145.592 Y140.000
G01 X146.665 Y142.129
G01 X147.837 Y144.153
G01 X149.061 Y146.009
G01 X149.999 Y147.894
G01 X151.021 Y149.701
G01 X152.123 Y151.427
G01 X152.531 Y152.018
G01 X153.390 Y153.758
G01 X154.329 Y155.442
G01 X155.345 Y157.068
G01 X156.000 Y158.027
G01 X156.694 Y159.229
G01 X159.933 Y159.386
G01 X163.103 Y159.274
G01 X163.633 Y159.229
G01 X166.026 Y159.355
G01 X168.365 Y159.295
G01 X169.184 Y159.229
G01 X170.998 Y159.366
G01 X172.773 Y159.373
G01 X174.501 Y159.255
G01 X174.735 Y159.229
G01 X176.152 Y159.320
G01 X177.541 Y159.319
G01 X178.895 Y159.230
G01 X178.898 Y159.229
G01 X189.306 Y141.202
G01 X189.422 Y141.126
G01 X189.528 Y141.041
G01 X189.625 Y140.949
G01 X189.711 Y140.851
G01 X189.787 Y140.746
G01 X189.852 Y140.636
G01 X189.905 Y140.523
G01 X189.947 Y140.405
G01 X189.977 Y140.285
G01 X189.995 Y140.164
G01 X190.001 Y140.042
G01 X190.000 Y140.000
G01 X189.999 Y140.032
G01 X189.996 Y140.064
G01 X189.989 Y140.095
G01 X189.979 Y140.126
G01 X189.966 Y140.157
G01 X189.950 Y140.186
G01 X189.931 Y140.213
G01 X189.910 Y140.240
G01 X189.885 Y140.264
G01 X189.858 Y140.287
G01 X189.829 Y140.308
G01 X189.797 Y140.326
G01 X189.763 Y140.342
G01 X189.727 Y140.356
G01 X189.689 Y140.366
G01 X189.650 Y140.374
G01 X189.609 Y140.379
G01 X189.567 Y140.380
G01 X189.524 Y140.378
G01 X189.480 Y140.373
G01 X189.435 Y140.365
G01 X189.390 Y140.352
G01 X189.345 Y140.337
G01 X189.300 Y140.317
G01 X189.256 Y140.294
G01 X189.212 Y140.268
G01 X189.169 Y140.238
G01 X189.127 Y140.204
G01 X189.086 Y140.167
G01 X189.048 Y140.126
G01 X189.011 Y140.081
G01 X188.976 Y140.034
G01 X188.943 Y139.983
G01 X188.914 Y139.929
G01 X188.887 Y139.872
G01 X188.863 Y139.813
G01 X188.842 Y139.750
G01 X188.825 Y139.685
G01 X188.811 Y139.618
G01 X188.801 Y139.549
G01 X188.795 Y139.478
G01 X188.794 Y139.406
G01 X188.796 Y139.332
G01 X188.798 Y139.306
G01 X170.771 Y128.898
G01 X169.554 Y129.498
G01 X168.351 Y130.191
G01 X167.168 Y130.978
G01 X167.165 Y130.980
G01 X165.607 Y131.723
G01 X164.070 Y132.599
G01 X162.563 Y133.606
G01 X162.358 Y133.755
G01 X160.289 Y134.805
G01 X158.261 Y136.044
G01 X157.551 Y136.531
G01 X154.740 Y137.973
G01 X151.999 Y139.683
G01 X151.541 Y140.000
G01 X151.417 Y141.895
G01 X151.387 Y143.803
G01 X151.451 Y145.718
G01 X151.541 Y146.939
G01 X151.413 Y148.937
G01 X151.390 Y150.964
G01 X151.474 Y153.014
G01 X151.541 Y153.878
G01 X151.408 Y156.107
G01 X151.404 Y158.382
G01 X151.531 Y160.695
G01 X151.541 Y160.816
G01 X151.541 Y162.204
G01 X153.535 Y163.511
G01 X155.562 Y164.678
G01 X157.551 Y165.673
G01 X159.305 Y166.837
G01 X161.093 Y167.891
G01 X162.911 Y168.835
G01 X163.560 Y169.143
G01 X165.174 Y170.220
G01 X166.830 Y171.209
G01 X168.522 Y172.109
G01 X169.569 Y172.612
G01 X170.771 Y173.306
G01 X173.655 Y171.822
G01 X176.343 Y170.141
G01 X176.780 Y169.837
G01 X178.916 Y168.749
G01 X180.911 Y167.527
G01 X181.587 Y167.061
G01 X183.226 Y166.273
G01 X184.767 Y165.391
G01 X186.205 Y164.425
G01 X186.395 Y164.286
G01 X187.667 Y163.655
G01 X188.869 Y162.960
G01 X189.997 Y162.206
G01 X190.000 Y162.204
G01 X190.000 Y140.000
G01 X189.997 Y140.044
G01 X189.989 Y140.087
G01 X189.978 Y140.130
G01 X189.962 Y140.172
G01 X189.942 Y140.212
G01 X189.918 Y140.251
G01 X189.890 Y140.287
G01 X189.858 Y140.322
G01 X189.823 Y140.354
G01 X189.784 Y140.383
G01 X189.742 Y140.409
G01 X189.697 Y140.432
G01 X189.650 Y140.452
G01 X189.599 Y140.467
G01 X189.547 Y140.479
G01 X189.492 Y140.487
G01 X189.435 Y140.490
G01 X189.378 Y140.489
G01 X189.318 Y140.483
G01 X189.258 Y140.473
G01 X189.198 Y140.458
G01 X189.137 Y140.438
G01 X189.077 Y140.413
G01 X189.017 Y140.383
G01 X188.957 Y140.348
G01 X188.899 Y140.308
G01 X188.842 Y140.264
G01 X188.788 Y140.214
G01 X188.735 Y140.160
G01 X188.685 Y140.101
G01 X188.637 Y140.038
G01 X188.612 Y140.000
G01 X167.796 Y140.000
G01 X167.042 Y141.128
G01 X166.346 Y142.330
G01 X165.716 Y143.602
G01 X165.714 Y143.605
G01 X164.737 Y145.028
G01 X163.843 Y146.555
G01 X163.042 Y148.181
G01 X162.939 Y148.413
G01 X161.672 Y150.356
G01 X160.535 Y152.443
G01 X160.163 Y153.220
G01 X158.450 Y155.875
G01 X156.931 Y158.726
G01 X156.694 Y159.229
G01 X157.534 Y160.933
G01 X158.461 Y162.600
G01 X159.475 Y164.227
G01 X160.163 Y165.238
G01 X161.051 Y167.033
G01 X162.045 Y168.800
G01 X163.142 Y170.534
G01 X163.633 Y171.248
G01 X164.632 Y173.245
G01 X165.766 Y175.217
G01 X167.033 Y177.157
G01 X167.102 Y177.257
G01 X167.796 Y178.459
G01 X170.176 Y178.594
G01 X172.515 Y178.590
G01 X174.735 Y178.459
G01 X176.835 Y178.589
G01 X178.912 Y178.607
G01 X180.958 Y178.516
G01 X181.673 Y178.459
G01 X183.610 Y178.584
G01 X185.538 Y178.613
G01 X187.454 Y178.546
G01 X188.612 Y178.459
G01 X190.000 Y178.459
G01 X191.755 Y175.731
G01 X193.243 Y172.931
G01 X193.469 Y172.449
G01 X194.775 Y170.439
G01 X195.892 Y168.384
G01 X196.245 Y167.642
G01 X197.270 Y166.140
G01 X198.164 Y164.606
G01 X198.926 Y163.050
G01 X199.020 Y162.835
G01 X199.807 Y161.652
G01 X200.501 Y160.449
G01 X201.101 Y159.232
G01 X201.102 Y159.229
G01 X190.694 Y141.202
G01 X190.587 Y141.143
G01 X190.487 Y141.076
G01 X190.396 Y141.002
G01 X190.313 Y140.923
G01 X190.239 Y140.838
G01 X190.174 Y140.748
G01 X190.119 Y140.654
G01 X190.073 Y140.556
G01 X190.037 Y140.456
G01 X190.012 Y140.354
G01 X189.996 Y140.251
G01 X189.990 Y140.148
G01 X189.995 Y140.044
G01 X190.000 Y140.000
G01 X189.986 Y140.073
G01 X189.965 Y140.145
G01 X189.937 Y140.215
G01 X189.903 Y140.283
G01 X189.861 Y140.347
G01 X189.813 Y140.408
G01 X189.759 Y140.464
G01 X189.699 Y140.516
G01 X189.633 Y140.564
G01 X189.562 Y140.605
G01 X189.486 Y140.641
G01 X189.405 Y140.671
G01 X189.321 Y140.695
G01 X189.233 Y140.712
G01 X189.142 Y140.721
G01 X189.048 Y140.723
G01 X188.952 Y140.718
G01 X188.854 Y140.705
G01 X188.798 Y140.694
G01 X170.771 Y151.102
G01 X170.681 Y152.456
G01 X170.680 Y153.844
G01 X170.770 Y155.262
G01 X170.771 Y155.265
G01 X170.636 Y156.986
G01 X170.625 Y158.755
G01 X170.744 Y160.564
G01 X170.771 Y160.816
G01 X170.646 Y163.133
G01 X170.704 Y165.508
G01 X170.771 Y166.367
G01 X170.614 Y169.523
G01 X170.725 Y172.752
G01 X170.771 Y173.306
G01 X172.350 Y174.361
G01 X173.987 Y175.342
G01 X175.678 Y176.244
G01 X176.780 Y176.776
G01 X178.446 Y177.885
G01 X180.190 Y178.919
G01 X182.007 Y179.872
G01 X182.789 Y180.245
G01 X184.653 Y181.475
G01 X186.621 Y182.616
G01 X188.688 Y183.663
G01 X188.798 Y183.714
G01 X190.000 Y184.408
G01 X192.129 Y183.335
G01 X194.153 Y182.163
G01 X196.009 Y180.939
G01 X197.894 Y180.001
G01 X199.701 Y178.979
G01 X201.427 Y177.877
G01 X202.018 Y177.469
G01 X203.758 Y176.610
G01 X205.442 Y175.671
G01 X207.068 Y174.655
G01 X208.027 Y174.000
G01 X209.229 Y173.306
G01 X209.386 Y170.067
G01 X209.274 Y166.897
G01 X209.229 Y166.367
G01 X209.355 Y163.974
G01 X209.295 Y161.635
G01 X209.229 Y160.816
G01 X209.366 Y159.002
G01 X209.373 Y157.227
G01 X209.255 Y155.499
G01 X209.229 Y155.265
G01 X209.320 Y153.848
G01 X209.319 Y152.459
G01 X209.230 Y151.105
G01 X209.229 Y151.102
G01 X191.202 Y140.694
G01 X191.123 Y140.724
G01 X191.044 Y140.748
G01 X190.966 Y140.766
G01 X190.888 Y140.779
G01 X190.812 Y140.786
G01 X190.737 Y140.787
G01 X190.664 Y140.783
G01 X190.593 Y140.773
G01 X190.525 Y140.759
G01 X190.460 Y140.740
G01 X190.398 Y140.717
G01 X190.340 Y140.689
G01 X190.285 Y140.657
G01 X190.234 Y140.622
G01 X190.188 Y140.584
G01 X190.145 Y140.542
G01 X190.108 Y140.498
G01 X190.075 Y140.452
G01 X190.046 Y140.404
G01 X190.023 Y140.354
G01 X190.005 Y140.303
G01 X189.992 Y140.252
G01 X189.984 Y140.200
G01 X189.981 Y140.147
G01 X189.983 Y140.095
G01 X189.990 Y140.044
G01 X190.000 Y140.000
G01 X189.829 Y140.514
G01 X189.608 Y141.010
G01 X189.338 Y141.484
G01 X189.022 Y141.934
G01 X188.660 Y142.354
G01 X188.612 Y142.404
G01 X178.898 Y159.229
G01 X179.498 Y160.446
G01 X180.191 Y161.649
G01 X180.978 Y162.832
G01 X180.980 Y162.835
G01 X181.723 Y164.393
G01 X182.599 Y165.930
G01 X183.606 Y167.437
G01 X183.755 Y167.642
G01 X184.805 Y169.711
G01 X186.044 Y171.739
G01 X186.531 Y172.449
G01 X187.973 Y175.260
G01 X189.683 Y178.001
G01 X190.000 Y178.459
G01 X191.895 Y178.583
G01 X193.803 Y178.613
G01 X195.718 Y178.549
G01 X196.939 Y178.459
G01 X198.937 Y178.587
G01 X200.964 Y178.610
G01 X203.014 Y178.526
G01 X203.878 Y178.459
G01 X206.107 Y178.592
G01 X208.382 Y178.596
G01 X210.695 Y178.469
G01 X210.816 Y178.459
G01 X212.204 Y178.459
G01 X213.511 Y176.465
G01 X214.678 Y174.438
G01 X215.673 Y172.449
G01 X216.837 Y170.695
G01 X217.891 Y168.907
G01 X218.835 Y167.089
G01 X219.143 Y166.440
G01 X220.220 Y164.826
G01 X221.209 Y163.170
G01 X222.109 Y161.478
G01 X222.612 Y160.431
G01 X223.306 Y159.229
G01 X221.822 Y156.345
G01 X220.141 Y153.657
G01 X219.837 Y153.220
G01 X218.749 Y151.084
G01 X217.527 Y149.089
G01 X217.061 Y148.413
G01 X216.273 Y146.774
G01 X215.391 Y145.233
G01 X214.425 Y143.795
G01 X214.286 Y143.605
G01 X213.655 Y142.333
G01 X212.960 Y141.131
G01 X212.206 Y140.003
G01 X212.204 Y140.000
G01 X191.388 Y140.000
G01 X191.351 Y140.066
G01 X191.311 Y140.129
G01 X191.268 Y140.188
G01 X191.222 Y140.243
G01 X191.174 Y140.294
G01 X191.125 Y140.341
G01 X191.073 Y140.384
G01 X191.020 Y140.423
G01 X190.966 Y140.457
G01 X190.912 Y140.487
G01 X190.856 Y140.513
G01 X190.801 Y140.535
G01 X190.745 Y140.552
G01 X190.690 Y140.566
G01 X190.635 Y140.575
G01 X190.581 Y140.581
G01 X190.528 Y140.582
G01 X190.476 Y140.580
G01 X190.426 Y140.574
G01 X190.378 Y140.565
G01 X190.331 Y140.553
G01 X190.287 Y140.537
G01 X190.245 Y140.518
G01 X190.206 Y140.497
G01 X190.169 Y140.473
G01 X190.136 Y140.447
G01 X190.105 Y140.419
G01 X190.077 Y140.389
G01 X190.053 Y140.357
G01 X190.032 Y140.324
G01 X190.014 Y140.290
G01 X190.000 Y140.255
G01 X189.989 Y140.219
G01 X189.982 Y140.183
G01 X189.978 Y140.147
G01 X189.978 Y140.111
G01 X189.981 Y140.075
G01 X189.988 Y140.040
G01 X189.998 Y140.006
G01 X190.000 Y140.000
G01 X189.942 Y140.184
G01 X189.903 Y140.373
G01 X189.882 Y140.567
G01 X189.880 Y140.762
G01 X189.896 Y140.959
G01 X189.932 Y141.156
G01 X189.987 Y141.351
G01 X190.000 Y141.388
G01 X190.000 Y162.204
G01 X191.128 Y162.958
G01 X192.330 Y163.654
G01 X193.602 Y164.284
G01 X193.605 Y164.286
G01 X195.028 Y165.263
G01 X196.555 Y166.157
G01 X198.181 Y166.958
G01 X198.413 Y167.061
G01 X200.356 Y168.328
G01 X202.443 Y169.465
G01 X203.220 Y169.837
G01 X205.875 Y171.550
G01 X208.726 Y173.069
G01 X209.229 Y173.306
G01 X210.933 Y172.466
G01 X212.600 Y171.539
G01 X214.227 Y170.525
G01 X215.238 Y169.837
G01 X217.033 Y168.949
G01 X218.800 Y167.955
G01 X220.534 Y166.858
G01 X221.248 Y166.367
G01 X223.245 Y165.368
G01 X225.217 Y164.234
G01 X227.157 Y162.967
G01 X227.257 Y162.898
G01 X228.459 Y162.204
G01 X228.594 Y159.824
G01 X228.590 Y157.485
G01 X228.459 Y155.265
G01 X228.589 Y153.165
G01 X228.607 Y151.088
G01 X228.516 Y149.042
G01 X228.459 Y148.327
G01 X228.584 Y146.390
G01 X228.613 Y144.462
G01 X228.546 Y142.546
G01 X228.459 Y141.388
G01 X228.459 Y140.000
G01 X225.731 Y138.245
G01 X222.931 Y136.757
G01 X222.449 Y136.531
G01 X220.439 Y135.225
G01 X218.384 Y134.108
G01 X217.642 Y133.755
G01 X216.140 Y132.730
G01 X214.606 Y131.836
G01 X213.050 Y131.074
G01 X212.835 Y130.980
G01 X211.652 Y130.193
G01 X210.449 Y129.499
G01 X209.232 Y128.899
G01 X209.229 Y128.898
G01 X191.202 Y139.306
G01 X191.151 Y139.258
G01 X191.099 Y139.212
G01 X191.045 Y139.171
G01 X190.990 Y139.132
G01 X190.933 Y139.097
G01 X190.875 Y139.065
G01 X190.817 Y139.037
G01 X190.758 Y139.012
G01 X190.698 Y138.991
G01 X190.639 Y138.973
G01 X190.579 Y138.959
G01 X190.519 Y138.948
G01 X190.460 Y138.940
G01 X190.401 Y138.935
G01 X190.343 Y138.934
G01 X190.285 Y138.936
G01 X190.229 Y138.940
G01 X190.174 Y138.948
G01 X190.120 Y138.958
G01 X190.067 Y138.972
G01 X190.017 Y138.987
G01 X189.967 Y139.006
G01 X189.920 Y139.026
G01 X189.875 Y139.049
G01 X189.831 Y139.074
G01 X189.790 Y139.101
G01 X189.751 Y139.129
G01 X189.715 Y139.159
G01 X189.680 Y139.191
G01 X189.648 Y139.224
G01 X189.619 Y139.258
G01 X189.592 Y139.293
G01 X189.567 Y139.329
G01 X189.545 Y139.366
G01 X189.526 Y139.403
G01 X189.509 Y139.440
G01 X189.494 Y139.478
G01 X189.482 Y139.515
G01 X189.473 Y139.553
G01 X189.466 Y139.590
G01 X189.461 Y139.627
G01 X189.459 Y139.663
G01 X189.458 Y139.699
G01 X189.460 Y139.734
G01 X189.464 Y139.768
G01 X189.470 Y139.801
G01 X189.478 Y139.832
G01 X189.488 Y139.863
G01 X189.499 Y139.892
G01 X189.512 Y139.919
G01 X189.526 Y139.945
G01 X189.542 Y139.970
G01 X189.559 Y139.993
G01 X189.577 Y140.014
G01 X189.596 Y140.033
G01 X189.616 Y140.051
G01 X189.636 Y140.066
G01 X189.657 Y140.080
G01 X189.679 Y140.092
G01 X189.701 Y140.102
G01 X189.723 Y140.110
G01 X189.745 Y140.116
G01 X189.766 Y140.120
G01 X189.788 Y140.122
G01 X189.809 Y140.123
G01 X189.830 Y140.122
G01 X189.850 Y140.119
G01 X189.870 Y140.114
G01 X189.888 Y140.108
G01 X189.906 Y140.100
G01 X189.923 Y140.091
G01 X189.938 Y140.081
G01 X189.952 Y140.069
G01 X189.965 Y140.056
G01 X189.977 Y140.042
G01 X189.987 Y140.027
G01 X189.995 Y140.012
G01 X190.000 Y140.000
G01 X189.978 Y140.066
G01 X189.962 Y140.133
G01 X189.953 Y140.203
G01 X189.951 Y140.273
G01 X189.955 Y140.344
G01 X189.967 Y140.415
G01 X189.985 Y140.485
G01 X190.010 Y140.555
G01 X190.042 Y140.623
G01 X190.080 Y140.689
G01 X190.126 Y140.752
G01 X190.177 Y140.813
G01 X190.235 Y140.870
G01 X190.299 Y140.924
G01 X190.368 Y140.973
G01 X190.443 Y141.017
G01 X190.523 Y141.056
G01 X190.608 Y141.090
G01 X190.634 Y141.099
G01 X196.344 Y150.988
G01 X197.147 Y151.085
G01 X197.975 Y151.129
G01 X198.823 Y151.117
G01 X199.689 Y151.048
G01 X200.150 Y150.988
G01 X201.299 Y151.087
G01 X202.480 Y151.098
G01 X203.688 Y151.018
G01 X203.957 Y150.988
G01 X205.655 Y151.126
G01 X207.398 Y151.121
G01 X209.032 Y150.988
G01 X209.660 Y150.098
G01 X210.245 Y149.173
G01 X210.787 Y148.215
G01 X211.284 Y147.225
G01 X211.570 Y146.593
G01 X212.249 Y145.623
G01 X212.885 Y144.602
G01 X213.473 Y143.533
G01 X214.011 Y142.416
G01 X214.107 Y142.198
G01 X214.817 Y141.038
G01 X215.376 Y140.000
G01 X214.799 Y138.782
G01 X214.165 Y137.620
G01 X213.478 Y136.517
G01 X212.838 Y135.605
G01 X212.348 Y134.550
G01 X211.809 Y133.532
G01 X211.224 Y132.554
G01 X210.597 Y131.618
G01 X210.301 Y131.209
G01 X209.789 Y130.251
G01 X209.232 Y129.322
G01 X209.032 Y129.012
G01 X207.257 Y128.873
G01 X205.518 Y128.880
G01 X203.957 Y129.012
G01 X202.744 Y128.912
G01 X201.556 Y128.903
G01 X200.400 Y128.983
G01 X200.150 Y129.012
G01 X199.277 Y128.912
G01 X198.419 Y128.870
G01 X197.580 Y128.885
G01 X196.764 Y128.954
G01 X196.344 Y129.012
G01 X190.634 Y138.901
G01 X190.571 Y138.888
G01 X190.508 Y138.879
G01 X190.446 Y138.873
G01 X190.384 Y138.870
G01 X190.323 Y138.870
G01 X190.262 Y138.874
G01 X190.204 Y138.881
G01 X190.146 Y138.891
G01 X190.090 Y138.904
G01 X190.035 Y138.920
G01 X189.983 Y138.938
G01 X189.932 Y138.959
G01 X189.883 Y138.983
G01 X189.836 Y139.008
G01 X189.792 Y139.036
G01 X189.750 Y139.065
G01 X189.710 Y139.097
G01 X189.672 Y139.130
G01 X189.638 Y139.164
G01 X189.605 Y139.200
G01 X189.576 Y139.236
