;  Created by Sandify
;  https://sandify.org
;  Version: 0.2.4
;
;  Machine type: Rectangular
;    Min X (mm): 0
;    Max X (mm): 380
;    Min Y (mm): 0
;    Max Y (mm): 280
;  Content type: shape
;  Layer:
;    Shape: FileImport
;    Name: HexagonAlleyTight.thr
;    From file:: HexagonAlleyTight.thr
;    Aspect Ratio: true
;    Comments: 
;    Visible: true
;    Initial width: 10
;    Initial height: 10
;    X offset: 0
;    Y offset: 0
;    Rotate (degrees): 0
;    Reverse path: false
;    Fine tuning:
;      Connect to next layer: line
;      Draw portion of path (%): 100
;      Backtrack at end (%): 0
;      Rotate starting point (%): 0
;  Reverse export path: false
;
; File name: 'HexagonAlleyTight'
;

G01 X190.000 Y140.000
G01 X190.013 Y140.260
G01 X190.051 Y140.518
G01 X190.115 Y140.772
G01 X190.203 Y141.021
G01 X190.316 Y141.262
G01 X190.359 Y141.340
G01 X207.600 Y205.683
G01 X211.483 Y206.862
G01 X215.523 Y207.814
G01 X215.643 Y207.838
G01 X220.122 Y209.214
G01 X224.796 Y210.307
G01 X225.026 Y210.352
G01 X230.331 Y211.930
G01 X234.409 Y212.867
G01 X240.699 Y214.676
G01 X243.792 Y215.381
G01 X251.277 Y217.523
G01 X254.516 Y218.254
G01 X263.576 Y220.813
G01 X266.580 Y221.487
G01 X273.283 Y223.283
G01 X277.496 Y219.302
G01 X281.519 Y215.108
G01 X282.114 Y214.451
G01 X286.408 Y210.390
G01 X290.524 Y206.086
G01 X290.946 Y205.619
G01 X295.414 Y201.385
G01 X299.706 Y196.868
G01 X299.778 Y196.788
G01 X304.512 Y192.283
G01 X308.609 Y187.956
G01 X313.704 Y183.083
G01 X317.441 Y179.125
G01 X321.366 Y175.199
G01 X319.592 Y167.989
G01 X318.133 Y163.135
G01 X316.517 Y156.482
G01 X314.901 Y151.071
G01 X313.405 Y144.855
G01 X311.668 Y139.007
G01 X310.258 Y133.108
G01 X308.566 Y127.344
G01 X308.436 Y126.943
G01 X307.078 Y121.239
G01 X305.447 Y115.637
G01 X305.203 Y114.878
G01 X303.766 Y109.516
G01 X293.611 Y106.709
G01 X291.702 Y106.284
G01 X283.246 Y103.919
G01 X280.978 Y103.410
G01 X273.918 Y101.364
G01 X270.255 Y100.537
G01 X264.321 Y98.808
G01 X260.871 Y98.023
G01 X255.833 Y96.507
G01 X251.488 Y95.509
G01 X247.194 Y94.177
G01 X242.922 Y93.156
G01 X242.105 Y92.994
G01 X238.264 Y91.959
G01 X238.083 Y91.917
G01 X190.981 Y139.019
G01 X190.968 Y139.123
G01 X190.947 Y139.223
G01 X190.919 Y139.319
G01 X190.884 Y139.410
G01 X190.842 Y139.496
G01 X190.794 Y139.576
G01 X190.740 Y139.650
G01 X190.681 Y139.718
G01 X190.618 Y139.779
G01 X190.550 Y139.833
G01 X190.479 Y139.880
G01 X190.404 Y139.920
G01 X190.327 Y139.951
G01 X190.248 Y139.976
G01 X190.168 Y139.992
G01 X190.087 Y140.000
G01 X190.006 Y140.000
G01 X190.000 Y140.000
G01 X190.068 Y140.007
G01 X190.135 Y140.021
G01 X190.201 Y140.041
G01 X190.266 Y140.067
G01 X190.327 Y140.101
G01 X190.386 Y140.140
G01 X190.442 Y140.185
G01 X190.494 Y140.236
G01 X190.543 Y140.292
G01 X190.586 Y140.354
G01 X190.625 Y140.421
G01 X190.658 Y140.492
G01 X190.686 Y140.567
G01 X190.708 Y140.646
G01 X190.724 Y140.729
G01 X190.733 Y140.815
G01 X190.735 Y140.903
G01 X190.731 Y140.993
G01 X190.719 Y141.085
G01 X190.700 Y141.177
G01 X190.694 Y141.202
G01 X224.000 Y198.890
G01 X228.057 Y199.024
G01 X232.205 Y198.897
G01 X232.327 Y198.890
G01 X237.010 Y199.059
G01 X241.807 Y198.905
G01 X242.041 Y198.890
G01 X247.574 Y199.040
G01 X251.755 Y198.890
G01 X258.299 Y199.010
G01 X261.469 Y198.890
G01 X269.254 Y199.021
G01 X272.571 Y198.890
G01 X281.985 Y199.017
G01 X285.061 Y198.890
G01 X292.000 Y198.890
G01 X295.040 Y193.954
G01 X297.840 Y188.862
G01 X298.245 Y188.073
G01 X301.341 Y183.040
G01 X304.203 Y177.817
G01 X304.490 Y177.257
G01 X307.709 Y172.010
G01 X310.686 Y166.536
G01 X310.735 Y166.440
G01 X314.142 Y160.863
G01 X316.980 Y155.624
G01 X320.640 Y149.598
G01 X323.224 Y144.807
G01 X326.000 Y140.000
G01 X322.420 Y133.495
G01 X319.755 Y129.184
G01 X316.471 Y123.175
G01 X313.510 Y118.367
G01 X310.457 Y112.750
G01 X307.265 Y107.551
G01 X304.377 Y102.217
G01 X301.250 Y97.088
G01 X301.020 Y96.734
G01 X298.233 Y91.576
G01 X295.208 Y86.587
G01 X294.776 Y85.918
G01 X292.000 Y81.110
G01 X281.465 Y81.027
G01 X279.510 Y81.110
G01 X270.730 Y81.014
G01 X268.408 Y81.110
G01 X261.058 Y80.961
G01 X257.306 Y81.110
G01 X251.127 Y80.976
G01 X247.592 Y81.110
G01 X242.333 Y80.951
G01 X237.878 Y81.110
G01 X233.385 Y80.935
G01 X228.995 Y81.055
G01 X228.163 Y81.110
G01 X224.185 Y81.104
G01 X224.000 Y81.110
G01 X190.694 Y138.798
G01 X190.625 Y138.784
G01 X190.556 Y138.774
G01 X190.487 Y138.767
G01 X190.420 Y138.764
G01 X190.353 Y138.765
G01 X190.287 Y138.769
G01 X190.223 Y138.777
G01 X190.160 Y138.788
G01 X190.098 Y138.802
G01 X190.039 Y138.819
G01 X189.981 Y138.840
G01 X189.925 Y138.863
G01 X189.872 Y138.888
G01 X189.821 Y138.916
G01 X189.772 Y138.946
G01 X189.726 Y138.979
G01 X189.683 Y139.013
G01 X189.642 Y139.049
G01 X189.604 Y139.087
G01 X189.569 Y139.126
G01 X189.537 Y139.166
G01 X189.507 Y139.208
G01 X189.481 Y139.250
G01 X189.457 Y139.292
G01 X189.436 Y139.336
G01 X189.419 Y139.379
G01 X189.404 Y139.423
G01 X189.392 Y139.466
G01 X189.382 Y139.510
G01 X189.376 Y139.553
G01 X189.372 Y139.595
G01 X189.371 Y139.637
G01 X189.372 Y139.677
G01 X189.376 Y139.717
G01 X189.382 Y139.756
G01 X189.390 Y139.793
G01 X189.401 Y139.829
G01 X189.413 Y139.863
G01 X189.427 Y139.896
G01 X189.443 Y139.927
G01 X189.461 Y139.956
G01 X189.480 Y139.983
G01 X189.501 Y140.008
G01 X189.522 Y140.031
G01 X189.545 Y140.052
G01 X189.569 Y140.071
G01 X189.593 Y140.088
G01 X189.617 Y140.102
G01 X189.643 Y140.115
G01 X189.668 Y140.125
G01 X189.694 Y140.133
G01 X189.719 Y140.139
G01 X189.744 Y140.142
G01 X189.769 Y140.144
G01 X189.793 Y140.143
G01 X189.817 Y140.140
G01 X189.840 Y140.136
G01 X189.862 Y140.129
G01 X189.883 Y140.121
G01 X189.902 Y140.111
G01 X189.921 Y140.100
G01 X189.938 Y140.087
G01 X189.953 Y140.072
G01 X189.967 Y140.057
G01 X189.980 Y140.040
G01 X189.990 Y140.022
G01 X189.999 Y140.003
G01 X190.000 Y140.000
G01 X189.981 Y140.056
G01 X189.969 Y140.114
G01 X189.961 Y140.173
G01 X189.960 Y140.233
G01 X189.964 Y140.293
G01 X189.974 Y140.353
G01 X189.990 Y140.413
G01 X190.012 Y140.472
G01 X190.039 Y140.530
G01 X190.072 Y140.586
G01 X190.111 Y140.640
G01 X190.155 Y140.691
G01 X190.205 Y140.740
G01 X190.259 Y140.785
G01 X190.319 Y140.826
G01 X190.383 Y140.864
G01 X190.451 Y140.897
G01 X190.524 Y140.925
G01 X190.600 Y140.948
G01 X190.680 Y140.966
G01 X190.763 Y140.978
G01 X190.849 Y140.984
G01 X190.937 Y140.984
G01 X190.981 Y140.981
G01 X238.083 Y188.083
G01 X242.036 Y187.163
G01 X246.011 Y185.967
G01 X246.126 Y185.928
G01 X250.694 Y184.880
G01 X255.288 Y183.490
G01 X255.509 Y183.414
G01 X260.893 Y182.127
G01 X264.893 Y180.900
G01 X271.245 Y179.322
G01 X274.276 Y178.385
G01 X281.829 Y176.498
G01 X285.000 Y175.512
G01 X294.125 Y173.198
G01 X297.064 Y172.279
G01 X303.766 Y170.484
G01 X305.425 Y164.929
G01 X306.812 Y159.286
G01 X306.999 Y158.419
G01 X308.687 Y152.756
G01 X310.099 Y146.971
G01 X310.231 Y146.355
G01 X311.983 Y140.454
G01 X313.442 Y134.396
G01 X313.464 Y134.291
G01 X315.312 Y128.022
G01 X316.697 Y122.227
G01 X318.673 Y115.459
G01 X319.929 Y110.162
G01 X321.366 Y104.801
G01 X316.224 Y99.443
G01 X312.534 Y95.969
G01 X307.807 Y91.015
G01 X303.703 Y87.137
G01 X299.299 Y82.502
G01 X294.871 Y78.306
G01 X290.701 Y73.902
G01 X286.353 Y69.757
G01 X286.039 Y69.474
G01 X282.012 Y65.214
G01 X277.799 Y61.177
G01 X277.208 Y60.643
G01 X273.283 Y56.717
G01 X263.085 Y59.364
G01 X261.218 Y59.950
G01 X252.713 Y62.130
G01 X250.495 Y62.823
G01 X243.357 Y64.582
G01 X239.771 Y65.697
G01 X233.768 Y67.167
G01 X230.388 Y68.211
G01 X225.267 Y69.418
G01 X221.004 Y70.725
G01 X216.620 Y71.719
G01 X212.410 Y72.970
G01 X211.621 Y73.240
G01 X207.777 Y74.263
G01 X207.600 Y74.317
G01 X190.359 Y138.660
G01 X190.285 Y138.680
G01 X190.214 Y138.704
G01 X190.146 Y138.732
G01 X190.081 Y138.763
G01 X190.020 Y138.798
G01 X189.962 Y138.835
G01 X189.908 Y138.875
G01 X189.858 Y138.918
G01 X189.811 Y138.963
G01 X189.769 Y139.009
G01 X189.731 Y139.058
G01 X189.697 Y139.107
G01 X189.667 Y139.157
G01 X189.641 Y139.209
G01 X189.620 Y139.260
G01 X189.603 Y139.312
G01 X189.589 Y139.363
G01 X189.580 Y139.414
G01 X189.575 Y139.465
G01 X189.574 Y139.514
G01 X189.576 Y139.562
G01 X189.582 Y139.609
G01 X189.592 Y139.654
G01 X189.605 Y139.697
G01 X189.621 Y139.738
G01 X189.640 Y139.776
G01 X189.662 Y139.812
G01 X189.686 Y139.845
G01 X189.713 Y139.876
G01 X189.742 Y139.903
G01 X189.773 Y139.927
G01 X189.805 Y139.948
G01 X189.839 Y139.965
G01 X189.874 Y139.979
G01 X189.910 Y139.990
G01 X189.947 Y139.996
G01 X189.984 Y140.000
G01 X190.000 Y140.000
G01 X189.974 Y140.001
G01 X189.948 Y140.005
G01 X189.923 Y140.012
G01 X189.898 Y140.021
G01 X189.874 Y140.032
G01 X189.851 Y140.046
G01 X189.828 Y140.062
G01 X189.808 Y140.081
G01 X189.788 Y140.101
G01 X189.771 Y140.124
G01 X189.755 Y140.149
G01 X189.741 Y140.175
G01 X189.729 Y140.203
G01 X189.719 Y140.233
G01 X189.712 Y140.264
G01 X189.707 Y140.297
G01 X189.704 Y140.330
G01 X189.704 Y140.364
G01 X189.707 Y140.400
G01 X189.713 Y140.435
G01 X189.721 Y140.471
G01 X189.732 Y140.507
G01 X189.747 Y140.544
G01 X189.764 Y140.579
G01 X189.784 Y140.615
G01 X189.807 Y140.650
G01 X189.833 Y140.684
G01 X189.861 Y140.717
G01 X189.893 Y140.749
G01 X189.928 Y140.779
G01 X189.965 Y140.808
G01 X190.005 Y140.834
G01 X190.047 Y140.859
G01 X190.092 Y140.882
G01 X190.139 Y140.902
G01 X190.188 Y140.920
G01 X190.240 Y140.935
G01 X190.293 Y140.947
G01 X190.348 Y140.956
G01 X190.404 Y140.961
G01 X190.462 Y140.964
G01 X190.522 Y140.963
G01 X190.582 Y140.959
G01 X190.643 Y140.950
G01 X190.704 Y140.939
G01 X190.766 Y140.923
G01 X190.828 Y140.904
G01 X190.890 Y140.880
G01 X190.951 Y140.853
G01 X191.012 Y140.822
G01 X191.072 Y140.786
G01 X191.131 Y140.747
G01 X191.189 Y140.704
G01 X191.202 Y140.694
G01 X248.890 Y174.000
G01 X252.470 Y172.088
G01 X256.000 Y169.904
G01 X256.101 Y169.837
G01 X260.241 Y167.642
G01 X264.319 Y165.110
G01 X264.514 Y164.980
G01 X269.380 Y162.343
G01 X272.926 Y160.122
G01 X278.654 Y156.955
G01 X281.339 Y155.265
G01 X288.146 Y151.487
G01 X290.954 Y149.714
G01 X299.169 Y145.117
G01 X301.770 Y143.469
G01 X307.779 Y140.000
G01 X307.944 Y134.206
G01 X307.823 Y128.395
G01 X307.779 Y127.510
G01 X307.944 Y121.603
G01 X307.811 Y115.649
G01 X307.779 Y115.020
G01 X307.944 Y108.867
G01 X307.785 Y102.638
G01 X307.779 Y102.531
G01 X307.942 Y95.997
G01 X307.779 Y90.041
G01 X307.936 Y82.992
G01 X307.779 Y77.551
G01 X307.779 Y72.000
G01 X301.426 Y68.156
G01 X296.963 Y65.755
G01 X291.115 Y62.194
G01 X286.146 Y59.510
G01 X280.693 Y56.172
G01 X275.330 Y53.265
G01 X270.162 Y50.091
G01 X264.890 Y47.212
G01 X264.514 Y47.020
G01 X259.520 Y43.947
G01 X254.406 Y41.139
G01 X253.697 Y40.776
G01 X248.890 Y38.000
G01 X239.724 Y43.196
G01 X238.073 Y44.245
G01 X230.421 Y48.552
G01 X228.459 Y49.796
G01 X222.019 Y53.342
G01 X218.844 Y55.347
G01 X213.426 Y58.320
G01 X210.431 Y60.204
G01 X205.797 Y62.695
G01 X202.018 Y65.061
G01 X198.040 Y67.156
G01 X194.298 Y69.454
G01 X193.605 Y69.918
G01 X190.158 Y71.902
G01 X190.000 Y72.000
G01 X190.000 Y138.612
G01 X189.935 Y138.678
G01 X189.877 Y138.747
G01 X189.825 Y138.819
G01 X189.780 Y138.892
G01 X189.741 Y138.967
G01 X189.710 Y139.043
G01 X189.685 Y139.119
G01 X189.667 Y139.195
G01 X189.655 Y139.271
G01 X189.650 Y139.346
G01 X189.652 Y139.419
G01 X189.659 Y139.490
G01 X189.673 Y139.559
G01 X189.693 Y139.626
G01 X189.718 Y139.689
G01 X189.749 Y139.749
G01 X189.785 Y139.805
G01 X189.826 Y139.857
G01 X189.871 Y139.904
G01 X189.920 Y139.946
G01 X189.973 Y139.984
G01 X190.000 Y140.000
G01 X189.980 Y139.987
G01 X189.961 Y139.973
G01 X189.944 Y139.956
G01 X189.929 Y139.938
G01 X189.915 Y139.919
G01 X189.902 Y139.897
G01 X189.892 Y139.875
G01 X189.884 Y139.851
G01 X189.878 Y139.826
G01 X189.874 Y139.801
G01 X189.872 Y139.774
G01 X189.873 Y139.747
G01 X189.876 Y139.720
G01 X189.881 Y139.692
G01 X189.889 Y139.664
G01 X189.899 Y139.636
G01 X189.912 Y139.609
G01 X189.928 Y139.582
G01 X189.945 Y139.555
G01 X189.965 Y139.529
G01 X189.988 Y139.505
G01 X190.013 Y139.481
G01 X190.040 Y139.459
G01 X190.069 Y139.438
G01 X190.101 Y139.419
G01 X190.135 Y139.402
G01 X190.170 Y139.386
G01 X190.207 Y139.373
G01 X190.246 Y139.362
G01 X190.287 Y139.353
G01 X190.329 Y139.347
G01 X190.372 Y139.343
G01 X190.417 Y139.342
G01 X190.462 Y139.344
G01 X190.508 Y139.349
G01 X190.555 Y139.357
G01 X190.602 Y139.368
G01 X190.649 Y139.382
G01 X190.697 Y139.399
G01 X190.744 Y139.420
G01 X190.791 Y139.443
G01 X190.837 Y139.470
G01 X190.883 Y139.500
G01 X190.927 Y139.534
G01 X190.971 Y139.570
G01 X191.013 Y139.610
G01 X191.053 Y139.652
G01 X191.091 Y139.698
G01 X191.128 Y139.747
G01 X191.162 Y139.799
G01 X191.194 Y139.853
G01 X191.223 Y139.910
G01 X191.250 Y139.970
G01 X191.273 Y140.032
G01 X191.294 Y140.096
G01 X191.311 Y140.162
G01 X191.325 Y140.230
G01 X191.335 Y140.300
G01 X191.340 Y140.359
G01 X255.683 Y157.600
G01 X258.646 Y154.826
G01 X261.490 Y151.803
G01 X261.571 Y151.712
G01 X265.002 Y148.520
G01 X268.286 Y145.019
G01 X268.440 Y144.843
G01 X272.458 Y141.037
G01 X275.309 Y137.974
G01 X280.021 Y133.432
G01 X282.178 Y131.105
G01 X287.775 Y125.693
G01 X290.028 Y123.255
G01 X296.774 Y116.688
G01 X298.860 Y114.423
G01 X303.766 Y109.516
G01 X302.426 Y103.877
G01 X300.805 Y98.296
G01 X300.534 Y97.452
G01 X299.164 Y91.703
G01 X297.494 Y85.987
G01 X297.301 Y85.388
G01 X295.867 Y79.402
G01 X294.102 Y73.426
G01 X294.068 Y73.324
G01 X292.535 Y66.971
G01 X290.836 Y61.260
G01 X289.163 Y54.411
G01 X287.603 Y49.195
G01 X286.167 Y43.833
G01 X279.035 Y41.765
G01 X274.102 Y40.601
G01 X267.532 Y38.674
G01 X262.038 Y37.368
G01 X255.907 Y35.556
G01 X249.974 Y34.136
G01 X244.160 Y32.407
G01 X238.323 Y30.991
G01 X237.910 Y30.903
G01 X232.291 Y29.227
G01 X226.625 Y27.838
G01 X225.845 Y27.670
G01 X220.484 Y26.234
G01 X212.975 Y33.625
G01 X211.652 Y35.065
G01 X205.376 Y41.206
G01 X203.802 Y42.916
G01 X198.499 Y48.007
G01 X195.951 Y50.766
G01 X191.488 Y55.040
G01 X189.082 Y57.635
G01 X185.251 Y61.241
G01 X182.213 Y64.504
G01 X178.913 Y67.557
G01 X175.893 Y70.746
G01 X175.344 Y71.373
G01 X172.527 Y74.182
G01 X172.400 Y74.317
G01 X189.641 Y138.660
G01 X189.602 Y138.762
G01 X189.573 Y138.865
G01 X189.553 Y138.968
G01 X189.541 Y139.070
G01 X189.539 Y139.170
G01 X189.545 Y139.268
G01 X189.559 Y139.363
G01 X189.582 Y139.455
G01 X189.612 Y139.543
G01 X189.650 Y139.627
G01 X189.695 Y139.705
G01 X189.747 Y139.778
G01 X189.805 Y139.845
G01 X189.869 Y139.906
G01 X189.938 Y139.960
G01 X190.000 Y140.000
G01 X189.978 Y139.986
G01 X189.958 Y139.969
G01 X189.939 Y139.951
G01 X189.922 Y139.931
G01 X189.907 Y139.909
G01 X189.894 Y139.885
G01 X189.883 Y139.860
G01 X189.874 Y139.833
G01 X189.868 Y139.806
G01 X189.864 Y139.777
G01 X189.863 Y139.748
G01 X189.864 Y139.718
G01 X189.867 Y139.688
G01 X189.874 Y139.657
G01 X189.883 Y139.626
G01 X189.895 Y139.596
G01 X189.910 Y139.566
G01 X189.927 Y139.536
G01 X189.947 Y139.507
G01 X189.970 Y139.479
G01 X189.995 Y139.452
G01 X190.023 Y139.426
G01 X190.054 Y139.402
G01 X190.087 Y139.380
G01 X190.122 Y139.359
G01 X190.159 Y139.340
G01 X190.199 Y139.324
G01 X190.240 Y139.310
G01 X190.284 Y139.298
G01 X190.329 Y139.289
G01 X190.375 Y139.283
G01 X190.423 Y139.280
G01 X190.472 Y139.280
G01 X190.522 Y139.283
G01 X190.573 Y139.289
G01 X190.625 Y139.298
G01 X190.677 Y139.311
G01 X190.729 Y139.328
G01 X190.781 Y139.348
G01 X190.833 Y139.371
G01 X190.885 Y139.398
G01 X190.935 Y139.428
G01 X190.985 Y139.463
G01 X191.034 Y139.500
G01 X191.081 Y139.541
G01 X191.127 Y139.586
G01 X191.171 Y139.634
G01 X191.213 Y139.685
G01 X191.252 Y139.740
G01 X191.289 Y139.798
G01 X191.323 Y139.858
G01 X191.355 Y139.922
G01 X191.383 Y139.988
G01 X191.388 Y140.000
G01 X258.000 Y140.000
G01 X260.144 Y136.554
G01 X262.109 Y132.898
G01 X262.163 Y132.789
G01 X264.652 Y128.818
G01 X266.917 Y124.587
G01 X267.020 Y124.376
G01 X269.917 Y119.660
G01 X271.878 Y115.963
G01 X275.254 Y110.357
G01 X276.735 Y107.551
G01 X280.741 Y100.875
G01 X282.286 Y97.936
G01 X287.102 Y89.847
G01 X288.531 Y87.119
G01 X292.000 Y81.110
G01 X289.245 Y76.010
G01 X286.235 Y71.039
G01 X285.755 Y70.294
G01 X282.944 Y65.095
G01 X279.852 Y60.006
G01 X279.510 Y59.477
G01 X276.576 Y54.066
G01 X273.324 Y48.751
G01 X273.265 Y48.661
G01 X270.139 Y42.921
G01 X267.020 Y37.844
G01 X263.632 Y31.662
G01 X260.776 Y27.028
G01 X258.000 Y22.221
G01 X250.576 Y22.068
G01 X245.510 Y22.221
G01 X238.665 Y22.060
G01 X233.020 Y22.221
G01 X226.629 Y22.056
G01 X220.531 Y22.221
G01 X214.468 Y22.056
G01 X208.462 Y22.199
G01 X208.041 Y22.221
G01 X202.180 Y22.056
G01 X196.347 Y22.181
G01 X195.551 Y22.221
G01 X190.000 Y22.221
G01 X184.660 Y31.303
G01 X183.755 Y33.037
G01 X179.282 Y40.593
G01 X178.204 Y42.652
G01 X174.400 Y48.942
G01 X172.653 Y52.266
G01 X169.448 Y57.550
G01 X167.796 Y60.679
G01 X165.028 Y65.154
G01 X162.939 Y69.092
G01 X160.541 Y72.895
G01 X158.449 Y76.757
G01 X158.082 Y77.505
G01 X156.088 Y80.947
G01 X156.000 Y81.110
G01 X189.306 Y138.798
G01 X189.324 Y138.952
G01 X189.356 Y139.101
G01 X189.400 Y139.244
G01 X189.457 Y139.381
G01 X189.525 Y139.509
G01 X189.605 Y139.630
G01 X189.694 Y139.741
G01 X189.794 Y139.842
G01 X189.902 Y139.932
G01 X190.000 Y140.000
G01 X189.976 Y139.983
G01 X189.954 Y139.964
G01 X189.933 Y139.942
G01 X189.915 Y139.919
G01 X189.899 Y139.894
G01 X189.885 Y139.866
G01 X189.873 Y139.838
G01 X189.864 Y139.808
G01 X189.858 Y139.776
G01 X189.855 Y139.744
G01 X189.854 Y139.711
G01 X189.857 Y139.677
G01 X189.862 Y139.643
G01 X189.871 Y139.609
G01 X189.882 Y139.575
G01 X189.897 Y139.541
G01 X189.914 Y139.507
G01 X189.935 Y139.475
G01 X189.959 Y139.443
G01 X189.985 Y139.412
G01 X190.015 Y139.382
G01 X190.047 Y139.355
G01 X190.083 Y139.328
G01 X190.120 Y139.304
G01 X190.161 Y139.282
G01 X190.204 Y139.263
G01 X190.249 Y139.246
G01 X190.296 Y139.231
G01 X190.345 Y139.220
G01 X190.396 Y139.212
G01 X190.449 Y139.206
G01 X190.503 Y139.204
G01 X190.559 Y139.206
G01 X190.615 Y139.211
G01 X190.672 Y139.220
G01 X190.730 Y139.233
G01 X190.788 Y139.249
G01 X190.846 Y139.269
G01 X190.904 Y139.294
G01 X190.962 Y139.322
G01 X191.019 Y139.354
G01 X191.075 Y139.391
G01 X191.130 Y139.431
G01 X191.183 Y139.475
G01 X191.235 Y139.523
G01 X191.285 Y139.575
G01 X191.332 Y139.631
G01 X191.340 Y139.641
G01 X255.683 Y122.400
G01 X256.862 Y118.517
G01 X257.814 Y114.477
G01 X257.838 Y114.357
G01 X259.214 Y109.878
G01 X260.307 Y105.204
G01 X260.352 Y104.974
G01 X261.930 Y99.669
G01 X262.867 Y95.591
G01 X264.676 Y89.301
G01 X265.381 Y86.208
G01 X267.523 Y78.723
G01 X268.254 Y75.484
G01 X270.813 Y66.424
G01 X271.487 Y63.420
G01 X273.283 Y56.717
G01 X269.302 Y52.504
G01 X265.108 Y48.481
G01 X264.451 Y47.886
G01 X260.390 Y43.592
G01 X256.086 Y39.476
G01 X255.619 Y39.054
G01 X251.385 Y34.586
G01 X246.868 Y30.294
G01 X246.788 Y30.222
G01 X242.283 Y25.488
G01 X237.956 Y21.391
G01 X233.083 Y16.296
G01 X229.125 Y12.559
G01 X225.199 Y8.634
G01 X217.989 Y10.408
G01 X213.135 Y11.867
G01 X206.482 Y13.483
G01 X201.071 Y15.099
G01 X194.855 Y16.595
G01 X189.007 Y18.332
G01 X183.108 Y19.742
G01 X177.344 Y21.434
G01 X176.943 Y21.564
G01 X171.239 Y22.922
G01 X165.637 Y24.553
G01 X164.878 Y24.797
G01 X159.516 Y26.234
G01 X156.709 Y36.389
G01 X156.284 Y38.298
G01 X153.919 Y46.754
G01 X153.410 Y49.022
G01 X151.364 Y56.082
G01 X150.537 Y59.745
G01 X148.808 Y65.679
G01 X148.023 Y69.129
G01 X146.507 Y74.167
G01 X145.509 Y78.512
G01 X144.177 Y82.806
G01 X143.156 Y87.078
G01 X142.994 Y87.895
G01 X141.959 Y91.736
G01 X141.917 Y91.917
G01 X189.019 Y139.019
G01 X189.189 Y139.265
G01 X189.380 Y139.491
G01 X189.590 Y139.696
G01 X189.819 Y139.879
G01 X190.000 Y140.000
G01 X189.973 Y139.981
G01 X189.948 Y139.960
G01 X189.924 Y139.936
G01 X189.903 Y139.910
G01 X189.885 Y139.882
G01 X189.869 Y139.852
G01 X189.856 Y139.820
G01 X189.846 Y139.786
G01 X189.838 Y139.751
G01 X189.834 Y139.715
G01 X189.833 Y139.678
G01 X189.835 Y139.640
G01 X189.841 Y139.602
G01 X189.850 Y139.563
G01 X189.862 Y139.525
G01 X189.878 Y139.487
G01 X189.898 Y139.449
G01 X189.920 Y139.412
G01 X189.946 Y139.376
G01 X189.976 Y139.341
G01 X190.009 Y139.307
G01 X190.045 Y139.276
G01 X190.084 Y139.246
G01 X190.126 Y139.219
G01 X190.171 Y139.193
G01 X190.219 Y139.171
G01 X190.269 Y139.151
G01 X190.322 Y139.134
G01 X190.377 Y139.121
G01 X190.434 Y139.111
G01 X190.493 Y139.104
G01 X190.554 Y139.102
G01 X190.616 Y139.103
G01 X190.679 Y139.108
G01 X190.743 Y139.117
G01 X190.808 Y139.130
G01 X190.874 Y139.148
G01 X190.939 Y139.170
G01 X191.004 Y139.197
G01 X191.069 Y139.228
G01 X191.134 Y139.263
G01 X191.197 Y139.303
G01 X191.202 Y139.306
G01 X248.890 Y106.000
G01 X249.024 Y101.943
G01 X248.897 Y97.795
G01 X248.890 Y97.673
G01 X249.059 Y92.990
G01 X248.905 Y88.193
G01 X248.890 Y87.959
G01 X249.040 Y82.426
G01 X248.890 Y78.245
G01 X249.010 Y71.701
G01 X248.890 Y68.531
G01 X249.021 Y60.746
G01 X248.890 Y57.429
G01 X249.017 Y48.015
G01 X248.890 Y44.939
G01 X248.890 Y38.000
G01 X243.954 Y34.960
G01 X238.862 Y32.160
G01 X238.073 Y31.755
G01 X233.040 Y28.659
G01 X227.817 Y25.797
G01 X227.257 Y25.510
G01 X222.010 Y22.291
G01 X216.536 Y19.314
G01 X216.440 Y19.265
G01 X210.863 Y15.858
G01 X205.624 Y13.020
G01 X199.598 Y9.360
G01 X194.807 Y6.776
G01 X190.000 Y4.000
G01 X183.495 Y7.580
G01 X179.184 Y10.245
G01 X173.175 Y13.529
G01 X168.367 Y16.490
G01 X162.750 Y19.543
G01 X157.551 Y22.735
G01 X152.217 Y25.623
G01 X147.088 Y28.750
G01 X146.734 Y28.980
G01 X141.576 Y31.767
G01 X136.587 Y34.792
G01 X135.918 Y35.224
G01 X131.110 Y38.000
G01 X131.027 Y48.535
G01 X131.110 Y50.490
G01 X131.014 Y59.270
G01 X131.110 Y61.592
G01 X130.961 Y68.942
G01 X131.110 Y72.694
G01 X130.976 Y78.873
G01 X131.110 Y82.408
G01 X130.951 Y87.667
G01 X131.110 Y92.122
G01 X130.935 Y96.615
G01 X131.055 Y101.005
G01 X131.110 Y101.837
G01 X131.104 Y105.815
G01 X131.110 Y106.000
G01 X188.798 Y139.306
G01 X189.327 Y139.654
G01 X189.886 Y139.948
G01 X190.000 Y140.000
G01 X189.969 Y139.984
G01 X189.939 Y139.965
G01 X189.911 Y139.944
G01 X189.885 Y139.919
G01 X189.861 Y139.892
G01 X189.840 Y139.863
G01 X189.822 Y139.831
G01 X189.806 Y139.797
G01 X189.793 Y139.761
G01 X189.784 Y139.724
G01 X189.777 Y139.685
G01 X189.774 Y139.644
G01 X189.774 Y139.603
G01 X189.778 Y139.561
G01 X189.786 Y139.519
G01 X189.797 Y139.476
G01 X189.812 Y139.434
G01 X189.831 Y139.391
G01 X189.853 Y139.349
G01 X189.879 Y139.308
G01 X189.909 Y139.268
G01 X189.942 Y139.230
G01 X189.979 Y139.193
G01 X190.019 Y139.158
G01 X190.063 Y139.125
G01 X190.110 Y139.094
G01 X190.161 Y139.066
G01 X190.214 Y139.041
G01 X190.270 Y139.018
G01 X190.329 Y138.999
G01 X190.390 Y138.984
G01 X190.454 Y138.972
G01 X190.519 Y138.964
G01 X190.587 Y138.961
G01 X190.656 Y138.961
G01 X190.726 Y138.966
G01 X190.798 Y138.975
G01 X190.870 Y138.989
G01 X190.943 Y139.007
G01 X190.981 Y139.019
G01 X238.083 Y91.917
G01 X237.163 Y87.964
G01 X235.967 Y83.989
G01 X235.928 Y83.874
G01 X234.880 Y79.306
G01 X233.490 Y74.712
G01 X233.414 Y74.491
G01 X232.127 Y69.107
G01 X230.900 Y65.107
G01 X229.322 Y58.755
G01 X228.385 Y55.724
G01 X226.498 Y48.171
G01 X225.512 Y45.000
G01 X223.198 Y35.875
G01 X222.279 Y32.936
G01 X220.484 Y26.234
G01 X214.929 Y24.575
G01 X209.286 Y23.188
G01 X208.419 Y23.001
G01 X202.756 Y21.313
G01 X196.971 Y19.901
G01 X196.355 Y19.769
G01 X190.454 Y18.017
G01 X184.396 Y16.558
G01 X184.291 Y16.536
G01 X178.022 Y14.688
G01 X172.227 Y13.303
G01 X165.459 Y11.327
G01 X160.162 Y10.071
G01 X154.801 Y8.634
G01 X149.443 Y13.776
G01 X145.969 Y17.466
G01 X141.015 Y22.193
G01 X137.137 Y26.297
G01 X132.502 Y30.701
G01 X128.306 Y35.129
G01 X123.902 Y39.299
G01 X119.757 Y43.647
G01 X119.474 Y43.961
G01 X115.214 Y47.988
G01 X111.177 Y52.201
G01 X110.643 Y52.792
G01 X106.717 Y56.717
G01 X109.364 Y66.915
G01 X109.950 Y68.782
G01 X112.130 Y77.287
G01 X112.823 Y79.505
G01 X114.582 Y86.643
G01 X115.697 Y90.229
G01 X117.167 Y96.232
G01 X118.211 Y99.612
G01 X119.418 Y104.733
G01 X120.725 Y108.996
G01 X121.719 Y113.380
G01 X122.970 Y117.590
G01 X123.240 Y118.379
G01 X124.263 Y122.223
G01 X124.317 Y122.400
G01 X188.660 Y139.641
G01 X189.823 Y139.943
G01 X190.000 Y140.000
G01 X189.964 Y139.986
G01 X189.930 Y139.969
G01 X189.897 Y139.948
G01 X189.866 Y139.924
G01 X189.838 Y139.897
G01 X189.812 Y139.868
G01 X189.788 Y139.835
G01 X189.768 Y139.800
G01 X189.750 Y139.762
G01 X189.735 Y139.722
G01 X189.724 Y139.681
G01 X189.717 Y139.637
G01 X189.713 Y139.592
G01 X189.712 Y139.546
G01 X189.716 Y139.500
G01 X189.724 Y139.452
G01 X189.735 Y139.404
G01 X189.751 Y139.356
G01 X189.771 Y139.308
G01 X189.795 Y139.261
G01 X189.823 Y139.214
G01 X189.855 Y139.169
G01 X189.891 Y139.124
G01 X189.932 Y139.082
G01 X189.976 Y139.041
G01 X190.024 Y139.003
G01 X190.076 Y138.967
G01 X190.131 Y138.934
G01 X190.190 Y138.904
G01 X190.251 Y138.877
G01 X190.316 Y138.854
G01 X190.384 Y138.834
G01 X190.455 Y138.819
G01 X190.528 Y138.807
G01 X190.603 Y138.800
G01 X190.680 Y138.798
G01 X190.694 Y138.798
G01 X224.000 Y81.110
G01 X222.088 Y77.530
G01 X219.904 Y74.000
G01 X219.837 Y73.899
G01 X217.642 Y69.759
G01 X215.110 Y65.681
G01 X214.980 Y65.486
G01 X212.343 Y60.620
G01 X210.122 Y57.074
G01 X206.955 Y51.346
G01 X205.265 Y48.661
G01 X201.487 Y41.854
G01 X199.714 Y39.046
G01 X195.117 Y30.831
G01 X193.469 Y28.230
G01 X190.000 Y22.221
G01 X184.206 Y22.056
G01 X178.395 Y22.177
G01 X177.510 Y22.221
G01 X171.603 Y22.056
G01 X165.649 Y22.189
G01 X165.020 Y22.221
G01 X158.867 Y22.056
G01 X152.638 Y22.215
G01 X152.531 Y22.221
G01 X145.997 Y22.058
G01 X140.041 Y22.221
G01 X132.992 Y22.064
G01 X127.551 Y22.221
G01 X122.000 Y22.221
G01 X118.156 Y28.574
G01 X115.755 Y33.037
G01 X112.194 Y38.885
G01 X109.510 Y43.854
G01 X106.172 Y49.307
G01 X103.265 Y54.670
G01 X100.091 Y59.838
G01 X97.212 Y65.110
G01 X97.020 Y65.486
G01 X93.947 Y70.480
G01 X91.139 Y75.594
G01 X90.776 Y76.303
G01 X88.000 Y81.110
G01 X93.196 Y90.276
G01 X94.245 Y91.927
G01 X98.552 Y99.579
G01 X99.796 Y101.541
G01 X103.342 Y107.981
G01 X105.347 Y111.156
G01 X108.320 Y116.574
G01 X110.204 Y119.569
G01 X112.695 Y124.203
G01 X115.061 Y127.982
G01 X117.156 Y131.960
G01 X119.454 Y135.702
G01 X119.918 Y136.395
G01 X121.902 Y139.842
G01 X122.000 Y140.000
G01 X188.612 Y140.000
G01 X188.763 Y139.939
G01 X188.916 Y139.893
G01 X189.071 Y139.862
G01 X189.225 Y139.846
G01 X189.379 Y139.844
G01 X189.530 Y139.858
G01 X189.679 Y139.885
G01 X189.823 Y139.927
G01 X189.962 Y139.982
G01 X190.000 Y140.000
G01 X189.957 Y139.976
G01 X189.916 Y139.948
G01 X189.878 Y139.916
G01 X189.843 Y139.880
G01 X189.811 Y139.840
G01 X189.783 Y139.798
G01 X189.759 Y139.752
G01 X189.738 Y139.703
G01 X189.722 Y139.652
G01 X189.711 Y139.599
G01 X189.704 Y139.543
G01 X189.702 Y139.487
G01 X189.705 Y139.429
G01 X189.713 Y139.370
G01 X189.726 Y139.310
G01 X189.744 Y139.251
G01 X189.767 Y139.192
G01 X189.796 Y139.133
G01 X189.829 Y139.076
G01 X189.868 Y139.019
G01 X189.913 Y138.965
G01 X189.962 Y138.912
G01 X190.016 Y138.862
G01 X190.075 Y138.815
G01 X190.138 Y138.771
G01 X190.206 Y138.730
G01 X190.279 Y138.694
G01 X190.355 Y138.661
G01 X190.359 Y138.660
G01 X207.600 Y74.317
G01 X204.826 Y71.354
G01 X201.803 Y68.510
G01 X201.712 Y68.429
G01 X198.520 Y64.998
G01 X195.019 Y61.714
G01 X194.843 Y61.560
G01 X191.037 Y57.542
G01 X187.974 Y54.691
G01 X183.432 Y49.979
G01 X181.105 Y47.822
G01 X175.693 Y42.225
G01 X173.255 Y39.972
G01 X166.688 Y33.226
G01 X164.423 Y31.140
G01 X159.516 Y26.234
G01 X153.877 Y27.574
G01 X148.296 Y29.195
G01 X147.452 Y29.466
G01 X141.703 Y30.836
G01 X135.987 Y32.506
G01 X135.388 Y32.699
G01 X129.402 Y34.133
G01 X123.426 Y35.898
G01 X123.324 Y35.932
G01 X116.971 Y37.465
G01 X111.260 Y39.164
G01 X104.411 Y40.837
G01 X99.195 Y42.397
G01 X93.833 Y43.833
G01 X91.765 Y50.965
G01 X90.601 Y55.898
G01 X88.674 Y62.468
G01 X87.368 Y67.962
G01 X85.556 Y74.093
G01 X84.136 Y80.026
G01 X82.407 Y85.840
G01 X80.991 Y91.677
G01 X80.903 Y92.090
G01 X79.227 Y97.709
G01 X77.838 Y103.375
G01 X77.670 Y104.155
G01 X76.234 Y109.516
G01 X83.625 Y117.025
G01 X85.065 Y118.348
G01 X91.206 Y124.624
G01 X92.916 Y126.198
G01 X98.007 Y131.501
G01 X100.766 Y134.049
G01 X105.040 Y138.512
G01 X107.635 Y140.918
G01 X111.241 Y144.749
G01 X114.504 Y147.787
G01 X117.557 Y151.087
G01 X120.746 Y154.107
G01 X121.373 Y154.656
G01 X124.182 Y157.473
G01 X124.317 Y157.600
G01 X188.660 Y140.359
G01 X188.689 Y140.283
G01 X188.723 Y140.211
G01 X188.761 Y140.143
G01 X188.802 Y140.079
G01 X188.847 Y140.019
G01 X188.894 Y139.964
G01 X188.944 Y139.913
G01 X188.996 Y139.868
G01 X189.050 Y139.827
G01 X189.105 Y139.791
G01 X189.161 Y139.760
G01 X189.218 Y139.735
G01 X189.276 Y139.714
G01 X189.334 Y139.698
G01 X189.391 Y139.687
G01 X189.448 Y139.681
G01 X189.503 Y139.680
G01 X189.558 Y139.683
G01 X189.610 Y139.691
G01 X189.661 Y139.703
G01 X189.710 Y139.719
G01 X189.756 Y139.740
G01 X189.800 Y139.764
G01 X189.840 Y139.791
G01 X189.877 Y139.822
G01 X189.911 Y139.856
G01 X189.941 Y139.893
G01 X189.967 Y139.932
G01 X189.989 Y139.974
G01 X190.000 Y140.000
G01 X189.942 Y139.830
G01 X189.900 Y139.655
G01 X189.876 Y139.475
G01 X189.869 Y139.293
G01 X189.880 Y139.109
G01 X189.909 Y138.926
G01 X189.955 Y138.743
G01 X190.000 Y138.612
G01 X190.000 Y72.000
G01 X186.554 Y69.856
G01 X182.898 Y67.891
G01 X182.789 Y67.837
G01 X178.818 Y65.348
G01 X174.587 Y63.083
G01 X174.376 Y62.980
G01 X169.660 Y60.083
G01 X165.963 Y58.122
G01 X160.357 Y54.746
G01 X157.551 Y53.265
G01 X150.875 Y49.259
G01 X147.936 Y47.714
G01 X139.847 Y42.898
G01 X137.119 Y41.469
G01 X131.110 Y38.000
G01 X126.010 Y40.755
G01 X121.039 Y43.765
G01 X120.294 Y44.245
G01 X115.095 Y47.056
G01 X110.006 Y50.148
G01 X109.477 Y50.490
G01 X104.066 Y53.424
G01 X98.751 Y56.676
G01 X98.661 Y56.735
G01 X92.921 Y59.861
G01 X87.844 Y62.980
G01 X81.662 Y66.368
G01 X77.028 Y69.224
G01 X72.221 Y72.000
G01 X72.068 Y79.424
G01 X72.221 Y84.490
G01 X72.060 Y91.335
G01 X72.221 Y96.980
G01 X72.056 Y103.371
G01 X72.221 Y109.469
G01 X72.056 Y115.532
G01 X72.199 Y121.538
G01 X72.221 Y121.959
G01 X72.056 Y127.820
G01 X72.181 Y133.653
G01 X72.221 Y134.449
G01 X72.221 Y140.000
G01 X81.303 Y145.340
G01 X83.037 Y146.245
G01 X90.593 Y150.718
G01 X92.652 Y151.796
G01 X98.942 Y155.600
G01 X102.266 Y157.347
G01 X107.550 Y160.552
G01 X110.679 Y162.204
G01 X115.154 Y164.972
G01 X119.092 Y167.061
G01 X122.895 Y169.459
G01 X126.757 Y171.551
G01 X127.505 Y171.918
G01 X130.947 Y173.912
G01 X131.110 Y174.000
G01 X188.798 Y140.694
G01 X188.795 Y140.619
G01 X188.796 Y140.545
G01 X188.802 Y140.474
G01 X188.811 Y140.404
G01 X188.825 Y140.336
G01 X188.842 Y140.270
G01 X188.863 Y140.207
G01 X188.887 Y140.147
G01 X188.914 Y140.089
G01 X188.944 Y140.035
G01 X188.977 Y139.983
G01 X189.012 Y139.935
G01 X189.049 Y139.891
G01 X189.088 Y139.849
G01 X189.129 Y139.812
G01 X189.171 Y139.778
G01 X189.215 Y139.748
G01 X189.259 Y139.721
G01 X189.304 Y139.698
G01 X189.349 Y139.679
G01 X189.395 Y139.664
G01 X189.440 Y139.652
G01 X189.485 Y139.644
G01 X189.530 Y139.639
G01 X189.573 Y139.638
G01 X189.616 Y139.640
G01 X189.657 Y139.645
G01 X189.696 Y139.654
G01 X189.734 Y139.665
G01 X189.770 Y139.679
G01 X189.804 Y139.696
G01 X189.836 Y139.716
G01 X189.865 Y139.738
G01 X189.892 Y139.761
G01 X189.916 Y139.787
G01 X189.937 Y139.815
G01 X189.955 Y139.844
G01 X189.971 Y139.874
G01 X189.983 Y139.905
G01 X189.992 Y139.937
G01 X189.998 Y139.970
G01 X190.000 Y140.000
G01 X189.948 Y139.396
G01 X189.836 Y138.798
G01 X189.666 Y138.211
G01 X189.438 Y137.639
G01 X189.282 Y137.319
G01 X172.400 Y74.317
G01 X168.517 Y73.138
G01 X164.477 Y72.186
G01 X164.357 Y72.162
G01 X159.878 Y70.786
G01 X155.204 Y69.693
G01 X154.974 Y69.648
G01 X149.669 Y68.070
G01 X145.591 Y67.133
G01 X139.301 Y65.324
G01 X136.208 Y64.619
G01 X128.723 Y62.477
G01 X125.484 Y61.746
G01 X116.424 Y59.187
G01 X113.420 Y58.513
G01 X106.717 Y56.717
G01 X102.504 Y60.698
G01 X98.481 Y64.892
G01 X97.886 Y65.549
G01 X93.592 Y69.610
G01 X89.476 Y73.914
G01 X89.054 Y74.381
G01 X84.586 Y78.615
G01 X80.294 Y83.132
G01 X80.222 Y83.212
G01 X75.488 Y87.717
G01 X71.391 Y92.044
G01 X66.296 Y96.917
G01 X62.559 Y100.875
G01 X58.634 Y104.801
G01 X60.408 Y112.011
G01 X61.867 Y116.865
G01 X63.483 Y123.518
G01 X65.099 Y128.929
G01 X66.595 Y135.145
G01 X68.332 Y140.993
G01 X69.742 Y146.892
G01 X71.434 Y152.656
G01 X71.564 Y153.057
G01 X72.922 Y158.761
G01 X74.553 Y164.363
G01 X74.797 Y165.122
G01 X76.234 Y170.484
G01 X86.389 Y173.291
G01 X88.298 Y173.716
G01 X96.754 Y176.081
G01 X99.022 Y176.590
G01 X106.082 Y178.636
G01 X109.745 Y179.463
G01 X115.679 Y181.192
G01 X119.129 Y181.977
G01 X124.167 Y183.493
G01 X128.512 Y184.491
G01 X132.806 Y185.823
G01 X137.078 Y186.844
G01 X137.895 Y187.006
G01 X141.736 Y188.041
G01 X141.917 Y188.083
G01 X189.019 Y140.981
G01 X189.080 Y141.015
G01 X189.142 Y141.045
G01 X189.205 Y141.072
G01 X189.268 Y141.095
G01 X189.332 Y141.114
G01 X189.396 Y141.130
G01 X189.460 Y141.142
G01 X189.523 Y141.151
G01 X189.586 Y141.157
G01 X189.649 Y141.159
G01 X189.710 Y141.157
G01 X189.771 Y141.153
G01 X189.830 Y141.145
G01 X189.888 Y141.134
G01 X189.945 Y141.121
G01 X190.000 Y141.104
G01 X190.053 Y141.085
G01 X190.105 Y141.064
G01 X190.154 Y141.040
G01 X190.202 Y141.014
G01 X190.247 Y140.985
G01 X190.290 Y140.955
G01 X190.330 Y140.923
G01 X190.368 Y140.889
G01 X190.404 Y140.854
G01 X190.437 Y140.818
G01 X190.468 Y140.780
G01 X190.496 Y140.742
G01 X190.521 Y140.702
G01 X190.543 Y140.662
G01 X190.563 Y140.622
G01 X190.581 Y140.581
G01 X190.595 Y140.540
G01 X190.607 Y140.498
G01 X190.617 Y140.457
G01 X190.624 Y140.417
G01 X190.628 Y140.377
G01 X190.630 Y140.337
G01 X190.630 Y140.298
G01 X190.628 Y140.260
G01 X190.623 Y140.223
G01 X190.616 Y140.187
G01 X190.608 Y140.152
G01 X190.597 Y140.119
G01 X190.584 Y140.087
G01 X190.570 Y140.056
G01 X190.555 Y140.027
G01 X190.538 Y140.000
G01 X190.519 Y139.974
G01 X190.500 Y139.951
G01 X190.479 Y139.929
G01 X190.458 Y139.909
G01 X190.436 Y139.891
G01 X190.413 Y139.875
G01 X190.390 Y139.861
G01 X190.366 Y139.848
G01 X190.342 Y139.838
G01 X190.318 Y139.830
G01 X190.294 Y139.824
G01 X190.270 Y139.819
G01 X190.247 Y139.817
G01 X190.224 Y139.816
G01 X190.202 Y139.817
G01 X190.180 Y139.820
G01 X190.159 Y139.825
G01 X190.139 Y139.831
G01 X190.120 Y139.838
G01 X190.102 Y139.847
G01 X190.085 Y139.858
G01 X190.070 Y139.869
G01 X190.056 Y139.882
G01 X190.043 Y139.896
G01 X190.032 Y139.910
G01 X190.022 Y139.926
G01 X190.014 Y139.942
G01 X190.008 Y139.959
G01 X190.004 Y139.976
G01 X190.001 Y139.994
G01 X190.000 Y140.000
G01 X190.003 Y139.887
G01 X189.996 Y139.774
G01 X189.977 Y139.662
G01 X189.948 Y139.552
G01 X189.907 Y139.443
G01 X189.856 Y139.338
G01 X189.794 Y139.237
G01 X189.722 Y139.141
G01 X189.641 Y139.050
G01 X189.549 Y138.965
G01 X189.449 Y138.888
G01 X189.340 Y138.818
G01 X189.306 Y138.798
G01 X156.000 Y81.110
G01 X151.943 Y80.976
G01 X147.795 Y81.103
G01 X147.673 Y81.110
G01 X142.990 Y80.941
G01 X138.193 Y81.095
G01 X137.959 Y81.110
G01 X132.426 Y80.960
G01 X128.245 Y81.110
G01 X121.701 Y80.990
G01 X118.531 Y81.110
G01 X110.746 Y80.979
G01 X107.429 Y81.110
G01 X98.015 Y80.983
G01 X94.939 Y81.110
G01 X88.000 Y81.110
G01 X84.960 Y86.046
G01 X82.160 Y91.138
G01 X81.755 Y91.927
G01 X78.659 Y96.960
G01 X75.797 Y102.183
G01 X75.510 Y102.743
G01 X72.291 Y107.990
G01 X69.314 Y113.464
G01 X69.265 Y113.560
G01 X65.858 Y119.137
G01 X63.020 Y124.376
G01 X59.360 Y130.402
G01 X56.776 Y135.193
G01 X54.000 Y140.000
G01 X57.580 Y146.505
G01 X60.245 Y150.816
G01 X63.529 Y156.825
G01 X66.490 Y161.633
G01 X69.543 Y167.250
G01 X72.735 Y172.449
G01 X75.623 Y177.783
G01 X78.750 Y182.912
G01 X78.980 Y183.266
G01 X81.767 Y188.424
G01 X84.792 Y193.413
G01 X85.224 Y194.082
G01 X88.000 Y198.890
G01 X98.535 Y198.973
G01 X100.490 Y198.890
G01 X109.270 Y198.986
G01 X111.592 Y198.890
G01 X118.942 Y199.039
G01 X122.694 Y198.890
G01 X128.873 Y199.024
G01 X132.408 Y198.890
G01 X137.667 Y199.049
G01 X142.122 Y198.890
G01 X146.615 Y199.065
G01 X151.005 Y198.945
G01 X151.837 Y198.890
G01 X155.815 Y198.896
G01 X156.000 Y198.890
G01 X189.306 Y141.202
G01 X189.374 Y141.218
G01 X189.443 Y141.230
G01 X189.511 Y141.238
G01 X189.578 Y141.243
G01 X189.645 Y141.244
G01 X189.710 Y141.242
G01 X189.775 Y141.236
G01 X189.838 Y141.227
G01 X189.900 Y141.215
G01 X189.961 Y141.200
G01 X190.019 Y141.181
G01 X190.076 Y141.160
G01 X190.131 Y141.137
G01 X190.183 Y141.110
G01 X190.234 Y141.082
G01 X190.282 Y141.051
G01 X190.327 Y141.018
G01 X190.370 Y140.983
G01 X190.410 Y140.947
G01 X190.448 Y140.909
G01 X190.483 Y140.869
G01 X190.515 Y140.828
G01 X190.544 Y140.787
G01 X190.571 Y140.744
G01 X190.595 Y140.701
G01 X190.616 Y140.657
G01 X190.634 Y140.613
G01 X190.649 Y140.569
G01 X190.661 Y140.525
G01 X190.671 Y140.481
G01 X190.678 Y140.437
G01 X190.683 Y140.394
G01 X190.684 Y140.352
G01 X190.684 Y140.310
G01 X190.681 Y140.269
G01 X190.675 Y140.229
G01 X190.668 Y140.191
G01 X190.658 Y140.153
G01 X190.646 Y140.118
G01 X190.633 Y140.083
G01 X190.617 Y140.051
G01 X190.600 Y140.020
G01 X190.582 Y139.990
G01 X190.562 Y139.963
G01 X190.541 Y139.938
G01 X190.519 Y139.914
G01 X190.496 Y139.893
G01 X190.472 Y139.874
G01 X190.447 Y139.856
G01 X190.422 Y139.841
G01 X190.396 Y139.828
G01 X190.371 Y139.817
G01 X190.345 Y139.808
G01 X190.319 Y139.802
G01 X190.294 Y139.797
G01 X190.268 Y139.794
G01 X190.244 Y139.793
G01 X190.220 Y139.794
G01 X190.196 Y139.797
G01 X190.174 Y139.802
G01 X190.152 Y139.808
G01 X190.132 Y139.816
G01 X190.112 Y139.826
G01 X190.094 Y139.837
G01 X190.078 Y139.849
G01 X190.062 Y139.862
G01 X190.049 Y139.877
G01 X190.036 Y139.893
G01 X190.026 Y139.909
G01 X190.017 Y139.926
G01 X190.010 Y139.944
G01 X190.005 Y139.962
G01 X190.002 Y139.980
G01 X190.000 Y139.999
G01 X190.000 Y140.000
G01 X189.998 Y139.916
G01 X189.989 Y139.833
G01 X189.971 Y139.751
G01 X189.945 Y139.670
G01 X189.911 Y139.592
G01 X189.869 Y139.516
G01 X189.820 Y139.444
G01 X189.763 Y139.375
G01 X189.699 Y139.311
G01 X189.628 Y139.252
G01 X189.551 Y139.198
G01 X189.468 Y139.150
G01 X189.379 Y139.109
G01 X189.285 Y139.074
G01 X189.187 Y139.047
G01 X189.084 Y139.027
G01 X189.019 Y139.019
G01 X141.917 Y91.917
G01 X137.964 Y92.837
G01 X133.989 Y94.033
G01 X133.874 Y94.072
G01 X129.306 Y95.120
G01 X124.712 Y96.510
G01 X124.491 Y96.586
G01 X119.107 Y97.873
G01 X115.107 Y99.100
G01 X108.755 Y100.678
G01 X105.724 Y101.615
G01 X98.171 Y103.502
G01 X95.000 Y104.488
G01 X85.875 Y106.802
G01 X82.936 Y107.721
G01 X76.234 Y109.516
G01 X74.575 Y115.071
G01 X73.188 Y120.714
G01 X73.001 Y121.581
G01 X71.313 Y127.244
G01 X69.901 Y133.029
G01 X69.769 Y133.645
G01 X68.017 Y139.546
G01 X66.558 Y145.604
G01 X66.536 Y145.709
G01 X64.688 Y151.978
G01 X63.303 Y157.773
G01 X61.327 Y164.541
G01 X60.071 Y169.838
G01 X58.634 Y175.199
G01 X63.776 Y180.557
G01 X67.466 Y184.031
G01 X72.193 Y188.985
G01 X76.297 Y192.863
G01 X80.701 Y197.498
G01 X85.129 Y201.694
G01 X89.299 Y206.098
G01 X93.647 Y210.243
G01 X93.961 Y210.526
G01 X97.988 Y214.786
G01 X102.201 Y218.823
G01 X102.792 Y219.357
G01 X106.717 Y223.283
G01 X116.915 Y220.636
G01 X118.782 Y220.050
G01 X127.287 Y217.870
G01 X129.505 Y217.177
G01 X136.643 Y215.418
G01 X140.229 Y214.303
G01 X146.232 Y212.833
G01 X149.612 Y211.789
G01 X154.733 Y210.582
G01 X158.996 Y209.275
G01 X163.380 Y208.281
G01 X167.590 Y207.030
G01 X168.379 Y206.760
G01 X172.223 Y205.737
G01 X172.400 Y205.683
G01 X189.641 Y141.340
G01 X189.583 Y141.298
G01 X189.528 Y141.254
G01 X189.477 Y141.207
G01 X189.429 Y141.159
G01 X189.384 Y141.108
G01 X189.343 Y141.057
G01 X189.306 Y141.003
G01 X189.272 Y140.949
G01 X189.242 Y140.894
G01 X189.215 Y140.838
G01 X189.192 Y140.782
G01 X189.173 Y140.726
G01 X189.157 Y140.669
G01 X189.144 Y140.613
G01 X189.135 Y140.557
G01 X189.130 Y140.502
G01 X189.127 Y140.448
G01 X189.128 Y140.395
G01 X189.132 Y140.343
G01 X189.139 Y140.292
G01 X189.149 Y140.243
G01 X189.161 Y140.196
G01 X189.176 Y140.150
G01 X189.194 Y140.106
G01 X189.213 Y140.065
G01 X189.235 Y140.025
G01 X189.259 Y139.988
G01 X189.284 Y139.953
G01 X189.311 Y139.921
G01 X189.339 Y139.891
G01 X189.369 Y139.864
G01 X189.399 Y139.839
G01 X189.431 Y139.817
G01 X189.463 Y139.798
G01 X189.495 Y139.781
G01 X189.528 Y139.767
G01 X189.561 Y139.756
G01 X189.594 Y139.747
G01 X189.626 Y139.741
G01 X189.658 Y139.738
G01 X189.690 Y139.737
G01 X189.721 Y139.738
G01 X189.751 Y139.742
G01 X189.779 Y139.748
G01 X189.807 Y139.757
G01 X189.833 Y139.767
G01 X189.858 Y139.779
G01 X189.880 Y139.793
G01 X189.902 Y139.809
G01 X189.921 Y139.826
G01 X189.939 Y139.844
G01 X189.954 Y139.864
G01 X189.967 Y139.885
G01 X189.978 Y139.907
G01 X189.987 Y139.930
G01 X189.994 Y139.953
G01 X189.998 Y139.976
G01 X190.000 Y140.000
G01 X189.994 Y139.933
G01 X189.982 Y139.867
G01 X189.964 Y139.802
G01 X189.939 Y139.738
G01 X189.908 Y139.677
G01 X189.870 Y139.618
G01 X189.827 Y139.563
G01 X189.778 Y139.511
G01 X189.723 Y139.462
G01 X189.664 Y139.418
G01 X189.599 Y139.379
G01 X189.530 Y139.345
G01 X189.457 Y139.316
G01 X189.379 Y139.293
G01 X189.299 Y139.276
G01 X189.215 Y139.266
G01 X189.129 Y139.262
G01 X189.040 Y139.264
G01 X188.950 Y139.274
G01 X188.858 Y139.291
G01 X188.798 Y139.306
G01 X131.110 Y106.000
G01 X127.530 Y107.912
G01 X124.000 Y110.096
G01 X123.899 Y110.163
G01 X119.759 Y112.358
G01 X115.681 Y114.890
G01 X115.486 Y115.020
G01 X110.620 Y117.657
G01 X107.074 Y119.878
G01 X101.346 Y123.045
G01 X98.661 Y124.735
G01 X91.854 Y128.513
G01 X89.046 Y130.286
G01 X80.831 Y134.883
G01 X78.230 Y136.531
G01 X72.221 Y140.000
G01 X72.056 Y145.794
G01 X72.177 Y151.605
G01 X72.221 Y152.490
G01 X72.056 Y158.397
G01 X72.189 Y164.351
G01 X72.221 Y164.980
G01 X72.056 Y171.133
G01 X72.215 Y177.362
G01 X72.221 Y177.469
G01 X72.058 Y184.003
G01 X72.221 Y189.959
G01 X72.064 Y197.008
G01 X72.221 Y202.449
G01 X72.221 Y208.000
G01 X78.574 Y211.844
G01 X83.037 Y214.245
G01 X88.885 Y217.806
G01 X93.854 Y220.490
G01 X99.307 Y223.828
G01 X104.670 Y226.735
G01 X109.838 Y229.909
G01 X115.110 Y232.788
G01 X115.486 Y232.980
G01 X120.480 Y236.053
G01 X125.594 Y238.861
G01 X126.303 Y239.224
G01 X131.110 Y242.000
G01 X140.276 Y236.804
G01 X141.927 Y235.755
G01 X149.579 Y231.448
G01 X151.541 Y230.204
G01 X157.981 Y226.658
G01 X161.156 Y224.653
G01 X166.574 Y221.680
G01 X169.569 Y219.796
G01 X174.203 Y217.305
G01 X177.982 Y214.939
G01 X181.960 Y212.844
G01 X185.702 Y210.546
G01 X186.395 Y210.082
G01 X189.842 Y208.098
G01 X190.000 Y208.000
G01 X190.000 Y141.388
G01 X189.933 Y141.364
G01 X189.868 Y141.336
G01 X189.806 Y141.306
G01 X189.747 Y141.273
G01 X189.690 Y141.237
G01 X189.636 Y141.198
G01 X189.586 Y141.158
G01 X189.538 Y141.115
G01 X189.493 Y141.071
G01 X189.452 Y141.025
G01 X189.414 Y140.977
G01 X189.379 Y140.929
G01 X189.348 Y140.879
G01 X189.320 Y140.829
G01 X189.295 Y140.777
G01 X189.274 Y140.726
G01 X189.256 Y140.674
G01 X189.241 Y140.623
G01 X189.230 Y140.571
G01 X189.221 Y140.520
G01 X189.216 Y140.470
G01 X189.214 Y140.420
G01 X189.215 Y140.371
G01 X189.218 Y140.324
G01 X189.225 Y140.277
G01 X189.233 Y140.233
G01 X189.245 Y140.189
G01 X189.259 Y140.147
G01 X189.275 Y140.108
G01 X189.293 Y140.070
G01 X189.313 Y140.034
G01 X189.334 Y140.000
G01 X189.358 Y139.968
G01 X189.382 Y139.939
G01 X189.409 Y139.912
G01 X189.436 Y139.888
G01 X189.464 Y139.866
G01 X189.493 Y139.846
G01 X189.522 Y139.829
G01 X189.552 Y139.814
G01 X189.582 Y139.802
G01 X189.612 Y139.793
G01 X189.642 Y139.785
G01 X189.672 Y139.781
G01 X189.701 Y139.778
G01 X189.730 Y139.778
G01 X189.758 Y139.780
G01 X189.785 Y139.785
G01 X189.811 Y139.791
G01 X189.835 Y139.799
G01 X189.859 Y139.810
G01 X189.881 Y139.822
G01 X189.901 Y139.836
G01 X189.920 Y139.851
G01 X189.937 Y139.867
G01 X189.953 Y139.885
G01 X189.966 Y139.904
G01 X189.977 Y139.925
G01 X189.986 Y139.945
G01 X189.993 Y139.967
G01 X189.998 Y139.989
G01 X190.000 Y140.000
G01 X189.990 Y139.943
G01 X189.975 Y139.888
G01 X189.954 Y139.834
G01 X189.928 Y139.782
G01 X189.897 Y139.732
G01 X189.860 Y139.685
G01 X189.819 Y139.641
G01 X189.773 Y139.600
G01 X189.723 Y139.563
G01 X189.669 Y139.530
G01 X189.611 Y139.502
G01 X189.550 Y139.478
G01 X189.485 Y139.459
G01 X189.418 Y139.446
G01 X189.348 Y139.437
G01 X189.275 Y139.435
G01 X189.202 Y139.438
G01 X189.126 Y139.447
G01 X189.050 Y139.462
G01 X188.974 Y139.484
G01 X188.897 Y139.511
G01 X188.821 Y139.545
G01 X188.746 Y139.586
G01 X188.671 Y139.633
G01 X188.660 Y139.641
G01 X124.317 Y122.400
G01 X121.354 Y125.174
G01 X118.510 Y128.197
G01 X118.429 Y128.288
G01 X114.998 Y131.480
G01 X111.714 Y134.981
G01 X111.560 Y135.157
G01 X107.542 Y138.963
G01 X104.691 Y142.026
G01 X99.979 Y146.568
G01 X97.822 Y148.895
G01 X92.225 Y154.307
G01 X89.972 Y156.745
G01 X83.226 Y163.312
G01 X81.140 Y165.577
G01 X76.234 Y170.484
G01 X77.574 Y176.123
G01 X79.195 Y181.704
G01 X79.466 Y182.548
G01 X80.836 Y188.297
G01 X82.506 Y194.013
G01 X82.699 Y194.612
G01 X84.133 Y200.598
G01 X85.898 Y206.574
G01 X85.932 Y206.676
G01 X87.465 Y213.029
G01 X89.164 Y218.740
G01 X90.837 Y225.589
G01 X92.397 Y230.805
G01 X93.833 Y236.167
G01 X100.965 Y238.235
G01 X105.898 Y239.399
G01 X112.468 Y241.326
G01 X117.962 Y242.632
G01 X124.093 Y244.444
G01 X130.026 Y245.864
G01 X135.840 Y247.593
G01 X141.677 Y249.009
G01 X142.090 Y249.097
G01 X147.709 Y250.773
G01 X153.375 Y252.162
G01 X154.155 Y252.330
G01 X159.516 Y253.766
G01 X167.025 Y246.375
G01 X168.348 Y244.935
G01 X174.624 Y238.794
G01 X176.198 Y237.084
G01 X181.501 Y231.993
G01 X184.049 Y229.234
G01 X188.512 Y224.960
G01 X190.918 Y222.365
G01 X194.749 Y218.759
G01 X197.787 Y215.496
G01 X201.087 Y212.443
G01 X204.107 Y209.254
G01 X204.656 Y208.627
G01 X207.473 Y205.818
G01 X207.600 Y205.683
G01 X190.359 Y141.340
G01 X190.288 Y141.336
G01 X190.219 Y141.327
G01 X190.151 Y141.315
G01 X190.085 Y141.300
G01 X190.021 Y141.281
G01 X189.959 Y141.259
G01 X189.899 Y141.234
G01 X189.841 Y141.207
G01 X189.786 Y141.177
G01 X189.733 Y141.144
G01 X189.683 Y141.109
G01 X189.636 Y141.072
G01 X189.592 Y141.033
G01 X189.550 Y140.992
G01 X189.512 Y140.950
G01 X189.477 Y140.906
G01 X189.444 Y140.862
G01 X189.415 Y140.816
G01 X189.389 Y140.770
G01 X189.366 Y140.723
G01 X189.346 Y140.676
G01 X189.329 Y140.628
G01 X189.316 Y140.581
G01 X189.305 Y140.533
G01 X189.297 Y140.486
G01 X189.292 Y140.440
G01 X189.290 Y140.395
G01 X189.291 Y140.350
G01 X189.294 Y140.306
G01 X189.300 Y140.264
G01 X189.308 Y140.222
G01 X189.318 Y140.183
G01 X189.331 Y140.144
G01 X189.346 Y140.108
G01 X189.363 Y140.073
G01 X189.381 Y140.041
G01 X189.401 Y140.010
G01 X189.423 Y139.981
G01 X189.445 Y139.955
G01 X189.469 Y139.930
G01 X189.495 Y139.908
G01 X189.520 Y139.888
G01 X189.547 Y139.871
G01 X189.574 Y139.855
G01 X189.601 Y139.843
G01 X189.629 Y139.832
G01 X189.657 Y139.824
G01 X189.684 Y139.818
G01 X189.712 Y139.814
G01 X189.738 Y139.812
G01 X189.765 Y139.813
G01 X189.790 Y139.816
G01 X189.815 Y139.821
G01 X189.838 Y139.827
G01 X189.861 Y139.836
G01 X189.882 Y139.846
G01 X189.902 Y139.858
G01 X189.920 Y139.871
G01 X189.937 Y139.886
G01 X189.952 Y139.902
G01 X189.965 Y139.920
G01 X189.977 Y139.938
G01 X189.986 Y139.957
G01 X189.994 Y139.977
G01 X190.000 Y139.998
G01 X190.000 Y140.000
G01 X189.987 Y139.952
G01 X189.970 Y139.905
G01 X189.948 Y139.859
G01 X189.921 Y139.816
G01 X189.891 Y139.775
G01 X189.856 Y139.737
G01 X189.817 Y139.702
G01 X189.774 Y139.670
G01 X189.728 Y139.642
G01 X189.679 Y139.617
G01 X189.626 Y139.597
G01 X189.571 Y139.581
G01 X189.514 Y139.569
G01 X189.454 Y139.562
G01 X189.393 Y139.560
G01 X189.330 Y139.563
G01 X189.266 Y139.572
G01 X189.202 Y139.585
G01 X189.137 Y139.604
G01 X189.072 Y139.628
G01 X189.008 Y139.658
G01 X188.944 Y139.693
G01 X188.882 Y139.733
G01 X188.821 Y139.779
G01 X188.762 Y139.831
G01 X188.706 Y139.887
G01 X188.652 Y139.949
G01 X188.612 Y140.000
G01 X122.000 Y140.000
G01 X119.856 Y143.446
G01 X117.891 Y147.102
G01 X117.837 Y147.211
G01 X115.348 Y151.182
G01 X113.083 Y155.413
G01 X112.980 Y155.624
G01 X110.083 Y160.340
G01 X108.122 Y164.037
G01 X104.746 Y169.643
G01 X103.265 Y172.449
G01 X99.259 Y179.125
G01 X97.714 Y182.064
G01 X92.898 Y190.153
G01 X91.469 Y192.881
G01 X88.000 Y198.890
G01 X90.755 Y203.990
G01 X93.765 Y208.961
G01 X94.245 Y209.706
G01 X97.056 Y214.905
G01 X100.148 Y219.994
G01 X100.490 Y220.523
G01 X103.424 Y225.934
G01 X106.676 Y231.249
G01 X106.735 Y231.339
G01 X109.861 Y237.079
G01 X112.980 Y242.156
G01 X116.368 Y248.338
G01 X119.224 Y252.972
G01 X122.000 Y257.779
G01 X129.424 Y257.932
G01 X134.490 Y257.779
G01 X141.335 Y257.940
G01 X146.980 Y257.779
G01 X153.371 Y257.944
G01 X159.469 Y257.779
G01 X165.532 Y257.944
G01 X171.538 Y257.801
G01 X171.959 Y257.779
G01 X177.820 Y257.944
G01 X183.653 Y257.819
G01 X184.449 Y257.779
G01 X190.000 Y257.779
G01 X195.340 Y248.697
G01 X196.245 Y246.963
G01 X200.718 Y239.407
G01 X201.796 Y237.348
G01 X205.600 Y231.058
G01 X207.347 Y227.734
G01 X210.552 Y222.450
G01 X212.204 Y219.321
G01 X214.972 Y214.846
G01 X217.061 Y210.908
G01 X219.459 Y207.105
G01 X221.551 Y203.243
G01 X221.918 Y202.495
G01 X223.912 Y199.053
G01 X224.000 Y198.890
G01 X190.694 Y141.202
G01 X190.625 Y141.216
G01 X190.556 Y141.227
G01 X190.488 Y141.234
G01 X190.420 Y141.238
G01 X190.353 Y141.237
G01 X190.288 Y141.233
G01 X190.223 Y141.226
G01 X190.160 Y141.216
G01 X190.099 Y141.202
G01 X190.039 Y141.185
G01 X189.981 Y141.165
G01 X189.925 Y141.143
G01 X189.871 Y141.118
G01 X189.820 Y141.090
G01 X189.771 Y141.060
G01 X189.725 Y141.028
G01 X189.681 Y140.994
G01 X189.639 Y140.958
G01 X189.601 Y140.921
G01 X189.565 Y140.882
G01 X189.532 Y140.842
G01 X189.502 Y140.801
G01 X189.475 Y140.759
G01 X189.450 Y140.716
G01 X189.429 Y140.673
G01 X189.410 Y140.629
G01 X189.395 Y140.586
G01 X189.382 Y140.542
G01 X189.372 Y140.498
G01 X189.365 Y140.455
G01 X189.360 Y140.413
G01 X189.358 Y140.371
G01 X189.359 Y140.329
G01 X189.362 Y140.289
G01 X189.367 Y140.250
G01 X189.375 Y140.212
G01 X189.385 Y140.176
G01 X189.396 Y140.141
G01 X189.410 Y140.107
G01 X189.425 Y140.076
G01 X189.443 Y140.046
G01 X189.461 Y140.018
G01 X189.481 Y139.992
G01 X189.502 Y139.967
G01 X189.525 Y139.945
G01 X189.548 Y139.925
G01 X189.572 Y139.908
G01 X189.596 Y139.892
G01 X189.621 Y139.878
G01 X189.647 Y139.867
G01 X189.672 Y139.858
G01 X189.698 Y139.851
G01 X189.723 Y139.846
G01 X189.748 Y139.843
G01 X189.773 Y139.843
G01 X189.797 Y139.844
G01 X189.820 Y139.847
G01 X189.843 Y139.853
G01 X189.864 Y139.859
G01 X189.884 Y139.868
G01 X189.904 Y139.879
G01 X189.921 Y139.890
G01 X189.938 Y139.904
G01 X189.953 Y139.918
G01 X189.966 Y139.934
G01 X189.978 Y139.951
G01 X189.988 Y139.968
G01 X189.996 Y139.987
G01 X190.000 Y140.000
G01 X189.985 Y139.958
G01 X189.966 Y139.918
G01 X189.943 Y139.880
G01 X189.917 Y139.844
G01 X189.886 Y139.810
G01 X189.853 Y139.779
G01 X189.815 Y139.751
G01 X189.775 Y139.726
G01 X189.733 Y139.705
G01 X189.687 Y139.687
G01 X189.639 Y139.673
G01 X189.589 Y139.663
G01 X189.538 Y139.657
G01 X189.485 Y139.655
G01 X189.431 Y139.658
G01 X189.375 Y139.666
G01 X189.320 Y139.678
G01 X189.264 Y139.695
G01 X189.208 Y139.716
G01 X189.153 Y139.743
G01 X189.098 Y139.774
G01 X189.045 Y139.810
G01 X188.993 Y139.850
G01 X188.943 Y139.895
G01 X188.894 Y139.945
G01 X188.849 Y139.999
G01 X188.806 Y140.058
G01 X188.766 Y140.121
G01 X188.730 Y140.188
G01 X188.697 Y140.259
G01 X188.668 Y140.333
G01 X188.660 Y140.359
G01 X124.317 Y157.600
G01 X123.138 Y161.483
G01 X122.186 Y165.523
G01 X122.162 Y165.643
G01 X120.786 Y170.122
G01 X119.693 Y174.796
G01 X119.648 Y175.026
G01 X118.070 Y180.331
G01 X117.133 Y184.409
G01 X115.324 Y190.699
G01 X114.619 Y193.792
G01 X112.477 Y201.277
G01 X111.746 Y204.516
G01 X109.187 Y213.576
G01 X108.513 Y216.580
G01 X106.717 Y223.283
G01 X110.698 Y227.496
G01 X114.892 Y231.519
G01 X115.549 Y232.114
G01 X119.610 Y236.408
G01 X123.914 Y240.524
G01 X124.381 Y240.946
G01 X128.615 Y245.414
G01 X133.132 Y249.706
G01 X133.212 Y249.778
G01 X137.717 Y254.512
G01 X142.044 Y258.609
G01 X146.917 Y263.704
G01 X150.875 Y267.441
G01 X154.801 Y271.366
G01 X162.011 Y269.592
G01 X166.865 Y268.133
G01 X173.518 Y266.517
G01 X178.929 Y264.901
G01 X185.145 Y263.405
G01 X190.993 Y261.668
G01 X196.892 Y260.258
G01 X202.656 Y258.566
G01 X203.057 Y258.436
G01 X208.761 Y257.078
G01 X214.363 Y255.447
G01 X215.122 Y255.203
G01 X220.484 Y253.766
G01 X223.291 Y243.611
G01 X223.716 Y241.702
G01 X226.081 Y233.246
G01 X226.590 Y230.978
G01 X228.636 Y223.918
G01 X229.463 Y220.255
G01 X231.192 Y214.321
G01 X231.977 Y210.871
G01 X233.493 Y205.833
G01 X234.491 Y201.488
G01 X235.823 Y197.194
G01 X236.844 Y192.922
G01 X237.006 Y192.105
G01 X238.041 Y188.264
G01 X238.083 Y188.083
G01 X190.981 Y140.981
G01 X190.919 Y141.014
G01 X190.856 Y141.043
G01 X190.792 Y141.068
G01 X190.728 Y141.090
G01 X190.664 Y141.108
G01 X190.600 Y141.122
G01 X190.536 Y141.133
G01 X190.472 Y141.140
G01 X190.409 Y141.143
G01 X190.347 Y141.144
G01 X190.286 Y141.141
G01 X190.226 Y141.135
G01 X190.167 Y141.125
G01 X190.110 Y141.113
G01 X190.054 Y141.098
G01 X190.000 Y141.080
G01 X189.948 Y141.059
G01 X189.898 Y141.036
G01 X189.850 Y141.011
G01 X189.804 Y140.983
G01 X189.761 Y140.954
G01 X189.720 Y140.923
G01 X189.682 Y140.890
G01 X189.646 Y140.855
G01 X189.612 Y140.819
G01 X189.582 Y140.782
G01 X189.554 Y140.744
G01 X189.528 Y140.706
G01 X189.506 Y140.666
G01 X189.486 Y140.626
G01 X189.469 Y140.586
G01 X189.454 Y140.546
G01 X189.442 Y140.505
G01 X189.433 Y140.465
G01 X189.427 Y140.425
G01 X189.422 Y140.386
G01 X189.421 Y140.347
G01 X189.421 Y140.309
G01 X189.424 Y140.272
G01 X189.429 Y140.236
G01 X189.437 Y140.202
G01 X189.446 Y140.168
G01 X189.457 Y140.136
G01 X189.470 Y140.105
G01 X189.484 Y140.077
G01 X189.500 Y140.049
G01 X189.518 Y140.024
G01 X189.536 Y140.000
G01 X189.556 Y139.978
G01 X189.577 Y139.958
G01 X189.599 Y139.940
G01 X189.621 Y139.925
G01 X189.644 Y139.911
G01 X189.667 Y139.899
G01 X189.690 Y139.889
G01 X189.714 Y139.882
G01 X189.738 Y139.876
G01 X189.761 Y139.872
G01 X189.784 Y139.871
G01 X189.807 Y139.871
G01 X189.829 Y139.873
G01 X189.850 Y139.877
G01 X189.870 Y139.883
G01 X189.890 Y139.890
G01 X189.908 Y139.899
G01 X189.926 Y139.909
G01 X189.942 Y139.921
G01 X189.956 Y139.935
G01 X189.969 Y139.949
G01 X189.981 Y139.965
G01 X189.991 Y139.981
G01 X189.999 Y139.999
G01 X190.000 Y140.000
G01 X189.983 Y139.964
G01 X189.963 Y139.929
G01 X189.939 Y139.897
G01 X189.912 Y139.867
G01 X189.882 Y139.839
G01 X189.849 Y139.814
G01 X189.813 Y139.792
G01 X189.775 Y139.773
G01 X189.735 Y139.758
G01 X189.692 Y139.745
G01 X189.648 Y139.737
G01 X189.603 Y139.732
G01 X189.556 Y139.731
G01 X189.508 Y139.734
G01 X189.460 Y139.742
G01 X189.411 Y139.753
G01 X189.362 Y139.769
G01 X189.313 Y139.789
G01 X189.265 Y139.813
G01 X189.217 Y139.841
G01 X189.171 Y139.874
G01 X189.126 Y139.910
G01 X189.083 Y139.951
G01 X189.042 Y139.996
G01 X189.003 Y140.045
G01 X188.966 Y140.098
G01 X188.933 Y140.154
G01 X188.902 Y140.214
G01 X188.875 Y140.277
G01 X188.852 Y140.343
G01 X188.833 Y140.412
G01 X188.817 Y140.484
G01 X188.806 Y140.559
G01 X188.800 Y140.635
G01 X188.798 Y140.694
G01 X131.110 Y174.000
G01 X130.976 Y178.057
G01 X131.103 Y182.205
G01 X131.110 Y182.327
G01 X130.941 Y187.010
G01 X131.095 Y191.807
G01 X131.110 Y192.041
G01 X130.960 Y197.574
G01 X131.110 Y201.755
G01 X130.990 Y208.299
G01 X131.110 Y211.469
G01 X130.979 Y219.254
G01 X131.110 Y222.571
G01 X130.983 Y231.985
G01 X131.110 Y235.061
G01 X131.110 Y242.000
G01 X136.046 Y245.040
G01 X141.138 Y247.840
G01 X141.927 Y248.245
G01 X146.960 Y251.341
G01 X152.183 Y254.203
G01 X152.743 Y254.490
G01 X157.990 Y257.709
G01 X163.464 Y260.686
G01 X163.560 Y260.735
G01 X169.137 Y264.142
G01 X174.376 Y266.980
G01 X180.402 Y270.640
G01 X185.193 Y273.224
G01 X190.000 Y276.000
G01 X196.505 Y272.420
G01 X200.816 Y269.755
G01 X206.825 Y266.471
G01 X211.633 Y263.510
G01 X217.250 Y260.457
G01 X222.449 Y257.265
G01 X227.783 Y254.377
G01 X232.912 Y251.250
G01 X233.266 Y251.020
G01 X238.424 Y248.233
G01 X243.413 Y245.208
G01 X244.082 Y244.776
G01 X248.890 Y242.000
G01 X248.973 Y231.465
G01 X248.890 Y229.510
G01 X248.986 Y220.730
G01 X248.890 Y218.408
G01 X249.039 Y211.058
G01 X248.890 Y207.306
G01 X249.024 Y201.127
G01 X248.890 Y197.592
G01 X249.049 Y192.333
G01 X248.890 Y187.878
G01 X249.065 Y183.385
G01 X248.945 Y178.995
G01 X248.890 Y178.163
G01 X248.896 Y174.185
G01 X248.890 Y174.000
G01 X191.202 Y140.694
G01 X191.151 Y140.742
G01 X191.099 Y140.787
G01 X191.045 Y140.829
G01 X190.989 Y140.867
G01 X190.932 Y140.902
G01 X190.875 Y140.934
G01 X190.816 Y140.962
G01 X190.757 Y140.986
G01 X190.697 Y141.007
G01 X190.637 Y141.025
G01 X190.578 Y141.039
G01 X190.518 Y141.050
G01 X190.459 Y141.058
G01 X190.400 Y141.062
G01 X190.342 Y141.063
G01 X190.284 Y141.061
G01 X190.228 Y141.056
G01 X190.173 Y141.049
G01 X190.119 Y141.038
G01 X190.067 Y141.024
G01 X190.017 Y141.008
G01 X189.968 Y140.990
G01 X189.921 Y140.969
G01 X189.875 Y140.946
G01 X189.832 Y140.921
G01 X189.791 Y140.894
G01 X189.753 Y140.866
G01 X189.716 Y140.835
G01 X189.682 Y140.804
G01 X189.651 Y140.771
G01 X189.622 Y140.737
G01 X189.595 Y140.701
G01 X189.571 Y140.666
G01 X189.549 Y140.629
G01 X189.530 Y140.592
G01 X189.514 Y140.555
G01 X189.499 Y140.517
G01 X189.488 Y140.480
G01 X189.479 Y140.442
G01 X189.472 Y140.405
G01 X189.468 Y140.368
G01 X189.465 Y140.332
G01 X189.466 Y140.297
G01 X189.468 Y140.262
G01 X189.472 Y140.229
G01 X189.478 Y140.196
G01 X189.487 Y140.165
G01 X189.497 Y140.135
G01 X189.508 Y140.106
G01 X189.521 Y140.079
G01 X189.536 Y140.053
G01 X189.552 Y140.029
G01 X189.569 Y140.007
G01 X189.587 Y139.986
G01 X189.607 Y139.968
G01 X189.627 Y139.951
G01 X189.647 Y139.936
G01 X189.668 Y139.923
G01 X189.690 Y139.911
G01 X189.712 Y139.902
G01 X189.734 Y139.895
G01 X189.756 Y139.889
G01 X189.777 Y139.886
G01 X189.799 Y139.884
G01 X189.820 Y139.884
G01 X189.841 Y139.886
G01 X189.861 Y139.889
G01 X189.880 Y139.894
G01 X189.898 Y139.901
G01 X189.915 Y139.910
G01 X189.932 Y139.919
G01 X189.947 Y139.930
G01 X189.960 Y139.943
G01 X189.973 Y139.956
G01 X189.984 Y139.971
G01 X189.993 Y139.986
G01 X190.000 Y140.000
G01 X189.984 Y139.969
G01 X189.965 Y139.939
G01 X189.944 Y139.911
G01 X189.919 Y139.885
G01 X189.892 Y139.861
G01 X189.863 Y139.840
G01 X189.831 Y139.822
G01 X189.797 Y139.806
G01 X189.761 Y139.793
G01 X189.724 Y139.784
G01 X189.685 Y139.777
G01 X189.644 Y139.774
G01 X189.603 Y139.774
G01 X189.561 Y139.778
G01 X189.519 Y139.786
G01 X189.476 Y139.797
G01 X189.434 Y139.812
G01 X189.391 Y139.831
G01 X189.349 Y139.853
G01 X189.308 Y139.879
G01 X189.268 Y139.909
G01 X189.230 Y139.942
G01 X189.193 Y139.979
G01 X189.158 Y140.019
G01 X189.125 Y140.063
G01 X189.094 Y140.110
G01 X189.066 Y140.161
G01 X189.041 Y140.214
G01 X189.018 Y140.270
G01 X188.999 Y140.329
G01 X188.984 Y140.390
G01 X188.972 Y140.454
G01 X188.964 Y140.519
G01 X188.961 Y140.587
G01 X188.961 Y140.656
G01 X188.966 Y140.726
G01 X188.975 Y140.798
G01 X188.989 Y140.870
G01 X189.007 Y140.943
G01 X189.019 Y140.981
G01 X141.917 Y188.083
G01 X142.837 Y192.036
G01 X144.033 Y196.011
G01 X144.072 Y196.126
G01 X145.120 Y200.694
G01 X146.510 Y205.288
G01 X146.586 Y205.509
G01 X147.873 Y210.893
G01 X149.100 Y214.893
G01 X150.678 Y221.245
G01 X151.615 Y224.276
G01 X153.502 Y231.829
G01 X154.488 Y235.000
G01 X156.802 Y244.125
G01 X157.721 Y247.064
G01 X159.516 Y253.766
G01 X165.071 Y255.425
G01 X170.714 Y256.812
G01 X171.581 Y256.999
G01 X177.244 Y258.687
G01 X183.029 Y260.099
G01 X183.645 Y260.231
G01 X189.546 Y261.983
G01 X195.604 Y263.442
G01 X195.709 Y263.464
G01 X201.978 Y265.312
G01 X207.773 Y266.697
G01 X214.541 Y268.673
G01 X219.838 Y269.929
G01 X225.199 Y271.366
G01 X230.557 Y266.224
G01 X234.031 Y262.534
G01 X238.985 Y257.807
G01 X242.863 Y253.703
G01 X247.498 Y249.299
G01 X251.694 Y244.871
G01 X256.098 Y240.701
G01 X260.243 Y236.353
G01 X260.526 Y236.039
G01 X264.786 Y232.012
G01 X268.823 Y227.799
G01 X269.357 Y227.208
G01 X273.283 Y223.283
G01 X270.636 Y213.085
G01 X270.050 Y211.218
G01 X267.870 Y202.713
G01 X267.177 Y200.495
G01 X265.418 Y193.357
G01 X264.303 Y189.771
G01 X262.833 Y183.768
G01 X261.789 Y180.388
G01 X260.582 Y175.267
G01 X259.275 Y171.004
G01 X258.281 Y166.620
G01 X257.030 Y162.410
G01 X256.760 Y161.621
G01 X255.737 Y157.777
G01 X255.683 Y157.600
G01 X191.340 Y140.359
G01 X191.305 Y140.419
G01 X191.266 Y140.477
G01 X191.225 Y140.531
G01 X191.182 Y140.583
G01 X191.137 Y140.632
G01 X191.089 Y140.677
G01 X191.041 Y140.720
G01 X190.990 Y140.760
G01 X190.938 Y140.796
G01 X190.885 Y140.829
G01 X190.831 Y140.859
G01 X190.777 Y140.886
G01 X190.722 Y140.909
G01 X190.666 Y140.929
G01 X190.610 Y140.946
G01 X190.554 Y140.960
G01 X190.498 Y140.970
G01 X190.443 Y140.978
G01 X190.388 Y140.982
G01 X190.334 Y140.983
G01 X190.280 Y140.982
G01 X190.228 Y140.977
G01 X190.177 Y140.970
G01 X190.126 Y140.960
G01 X190.078 Y140.948
G01 X190.031 Y140.933
G01 X189.985 Y140.916
G01 X189.941 Y140.897
G01 X189.899 Y140.875
G01 X189.859 Y140.852
G01 X189.821 Y140.827
G01 X189.785 Y140.801
G01 X189.752 Y140.773
G01 X189.720 Y140.743
G01 X189.691 Y140.712
G01 X189.664 Y140.681
G01 X189.640 Y140.648
G01 X189.618 Y140.615
G01 X189.598 Y140.581
G01 X189.580 Y140.547
G01 X189.565 Y140.512
G01 X189.553 Y140.477
G01 X189.542 Y140.443
G01 X189.534 Y140.408
G01 X189.529 Y140.374
G01 X189.525 Y140.340
G01 X189.524 Y140.307
G01 X189.524 Y140.275
G01 X189.527 Y140.243
G01 X189.531 Y140.212
G01 X189.538 Y140.183
G01 X189.546 Y140.154
G01 X189.556 Y140.127
G01 X189.567 Y140.101
G01 X189.580 Y140.076
G01 X189.594 Y140.053
G01 X189.609 Y140.032
G01 X189.625 Y140.012
G01 X189.643 Y139.994
G01 X189.661 Y139.978
G01 X189.680 Y139.963
G01 X189.699 Y139.950
G01 X189.719 Y139.939
G01 X189.739 Y139.930
G01 X189.760 Y139.923
G01 X189.780 Y139.917
G01 X189.800 Y139.913
G01 X189.821 Y139.911
G01 X189.840 Y139.911
G01 X189.860 Y139.913
G01 X189.879 Y139.916
G01 X189.897 Y139.921
G01 X189.914 Y139.927
G01 X189.930 Y139.935
G01 X189.946 Y139.944
G01 X189.960 Y139.955
G01 X189.973 Y139.966
G01 X189.985 Y139.979
G01 X189.996 Y139.993
G01 X190.000 Y140.000
G01 X189.981 Y139.973
G01 X189.960 Y139.947
G01 X189.937 Y139.924
G01 X189.911 Y139.903
G01 X189.882 Y139.885
G01 X189.852 Y139.869
G01 X189.820 Y139.856
G01 X189.787 Y139.845
G01 X189.752 Y139.838
G01 X189.716 Y139.834
G01 X189.679 Y139.832
G01 X189.641 Y139.835
G01 X189.603 Y139.840
G01 X189.564 Y139.849
G01 X189.526 Y139.861
G01 X189.487 Y139.877
G01 X189.450 Y139.896
G01 X189.413 Y139.919
G01 X189.376 Y139.945
G01 X189.342 Y139.974
G01 X189.308 Y140.007
G01 X189.277 Y140.043
G01 X189.247 Y140.082
G01 X189.219 Y140.124
G01 X189.194 Y140.169
G01 X189.171 Y140.217
G01 X189.152 Y140.267
G01 X189.135 Y140.320
G01 X189.121 Y140.375
G01 X189.111 Y140.432
G01 X189.104 Y140.491
G01 X189.101 Y140.551
G01 X189.102 Y140.613
G01 X189.107 Y140.676
G01 X189.116 Y140.741
G01 X189.129 Y140.805
G01 X189.147 Y140.871
G01 X189.169 Y140.936
G01 X189.195 Y141.001
G01 X189.226 Y141.066
G01 X189.261 Y141.131
G01 X189.301 Y141.194
G01 X189.306 Y141.202
G01 X156.000 Y198.890
G01 X157.912 Y202.470
G01 X160.096 Y206.000
G01 X160.163 Y206.101
G01 X162.358 Y210.241
G01 X164.890 Y214.319
G01 X165.020 Y214.514
G01 X167.657 Y219.380
G01 X169.878 Y222.926
G01 X173.045 Y228.654
G01 X174.735 Y231.339
G01 X178.513 Y238.146
G01 X180.286 Y240.954
G01 X184.883 Y249.169
G01 X186.531 Y251.770
G01 X190.000 Y257.779
G01 X195.794 Y257.944
G01 X201.605 Y257.823
G01 X202.490 Y257.779
G01 X208.397 Y257.944
G01 X214.351 Y257.811
G01 X214.980 Y257.779
G01 X221.133 Y257.944
G01 X227.362 Y257.785
G01 X227.469 Y257.779
G01 X234.003 Y257.942
G01 X239.959 Y257.779
G01 X247.008 Y257.936
G01 X252.449 Y257.779
G01 X258.000 Y257.779
G01 X261.844 Y251.426
G01 X264.245 Y246.963
G01 X267.806 Y241.115
G01 X270.490 Y236.146
G01 X273.828 Y230.693
G01 X276.735 Y225.330
G01 X279.909 Y220.162
G01 X282.788 Y214.890
G01 X282.980 Y214.514
G01 X286.053 Y209.520
G01 X288.861 Y204.406
G01 X289.224 Y203.697
G01 X292.000 Y198.890
G01 X286.804 Y189.724
G01 X285.755 Y188.073
G01 X281.448 Y180.421
G01 X280.204 Y178.459
G01 X276.658 Y172.019
G01 X274.653 Y168.844
G01 X271.680 Y163.426
G01 X269.796 Y160.431
G01 X267.305 Y155.797
G01 X264.939 Y152.018
G01 X262.844 Y148.040
G01 X260.546 Y144.298
G01 X260.082 Y143.605
G01 X258.098 Y140.158
G01 X258.000 Y140.000
G01 X191.388 Y140.000
G01 X191.356 Y139.933
G01 X191.320 Y139.870
G01 X191.282 Y139.810
G01 X191.241 Y139.753
G01 X191.198 Y139.700
G01 X191.153 Y139.650
G01 X191.105 Y139.605
G01 X191.056 Y139.562
G01 X191.006 Y139.524
G01 X190.954 Y139.490
G01 X190.902 Y139.459
G01 X190.849 Y139.433
G01 X190.796 Y139.410
G01 X190.742 Y139.391
G01 X190.689 Y139.376
G01 X190.635 Y139.365
G01 X190.583 Y139.357
G01 X190.531 Y139.353
G01 X190.481 Y139.352
G01 X190.431 Y139.354
G01 X190.383 Y139.360
G01 X190.337 Y139.369
G01 X190.293 Y139.381
G01 X190.250 Y139.396
G01 X190.210 Y139.413
G01 X190.172 Y139.432
G01 X190.137 Y139.454
G01 X190.104 Y139.478
G01 X190.074 Y139.504
G01 X190.046 Y139.531
G01 X190.022 Y139.560
G01 X190.000 Y139.590
G01 X189.981 Y139.621
G01 X189.966 Y139.653
G01 X189.953 Y139.685
G01 X189.944 Y139.718
G01 X189.938 Y139.751
G01 X189.934 Y139.783
G01 X189.934 Y139.816
G01 X189.937 Y139.847
G01 X189.942 Y139.878
G01 X189.951 Y139.908
G01 X189.962 Y139.937
G01 X189.976 Y139.964
G01 X189.993 Y139.990
G01 X190.000 Y140.000
G01 X189.980 Y139.977
G01 X189.958 Y139.955
G01 X189.934 Y139.936
G01 X189.908 Y139.919
G01 X189.880 Y139.905
G01 X189.850 Y139.893
G01 X189.819 Y139.884
G01 X189.787 Y139.878
G01 X189.754 Y139.875
G01 X189.720 Y139.874
G01 X189.686 Y139.877
G01 X189.651 Y139.883
G01 X189.616 Y139.892
G01 X189.582 Y139.904
G01 X189.547 Y139.919
G01 X189.513 Y139.938
G01 X189.480 Y139.959
G01 X189.448 Y139.984
G01 X189.418 Y140.012
G01 X189.388 Y140.042
G01 X189.361 Y140.076
G01 X189.335 Y140.112
G01 X189.311 Y140.151
G01 X189.290 Y140.193
G01 X189.271 Y140.237
G01 X189.255 Y140.283
G01 X189.242 Y140.332
G01 X189.231 Y140.382
G01 X189.224 Y140.435
G01 X189.221 Y140.488
G01 X189.220 Y140.544
G01 X189.224 Y140.600
G01 X189.231 Y140.657
G01 X189.242 Y140.715
G01 X189.256 Y140.774
G01 X189.275 Y140.832
G01 X189.298 Y140.891
G01 X189.325 Y140.949
G01 X189.356 Y141.007
G01 X189.391 Y141.064
G01 X189.430 Y141.120
G01 X189.473 Y141.175
G01 X189.520 Y141.228
G01 X189.571 Y141.279
G01 X189.626 Y141.328
G01 X189.641 Y141.340
G01 X172.400 Y205.683
G01 X175.174 Y208.646
G01 X178.197 Y211.490
G01 X178.288 Y211.571
G01 X181.480 Y215.002
G01 X184.981 Y218.286
G01 X185.157 Y218.440
G01 X188.963 Y222.458
G01 X192.026 Y225.309
G01 X196.568 Y230.021
G01 X198.895 Y232.178
G01 X204.307 Y237.775
G01 X206.745 Y240.028
G01 X213.312 Y246.774
G01 X215.577 Y248.860
G01 X220.484 Y253.766
G01 X226.123 Y252.426
G01 X231.704 Y250.805
G01 X232.548 Y250.534
G01 X238.297 Y249.164
G01 X244.013 Y247.494
G01 X244.612 Y247.301
G01 X250.598 Y245.867
G01 X256.574 Y244.102
G01 X256.676 Y244.068
G01 X263.029 Y242.535
G01 X268.740 Y240.836
G01 X275.589 Y239.163
G01 X280.805 Y237.603
G01 X286.167 Y236.167
G01 X288.235 Y229.035
G01 X289.399 Y224.102
G01 X291.326 Y217.532
G01 X292.632 Y212.038
G01 X294.444 Y205.907
G01 X295.864 Y199.974
G01 X297.593 Y194.160
G01 X299.009 Y188.323
G01 X299.097 Y187.910
G01 X300.773 Y182.291
G01 X302.162 Y176.625
G01 X302.330 Y175.845
G01 X303.766 Y170.484
G01 X296.375 Y162.975
G01 X294.935 Y161.652
G01 X288.794 Y155.376
G01 X287.084 Y153.802
G01 X281.993 Y148.499
G01 X279.234 Y145.951
G01 X274.960 Y141.488
G01 X272.365 Y139.082
G01 X268.759 Y135.251
G01 X265.496 Y132.213
G01 X262.443 Y128.913
G01 X259.254 Y125.893
G01 X258.627 Y125.344
G01 X255.818 Y122.527
G01 X255.683 Y122.400
G01 X191.340 Y139.641
G01 X191.290 Y139.586
G01 X191.237 Y139.535
G01 X191.182 Y139.488
G01 X191.126 Y139.445
G01 X191.068 Y139.406
G01 X191.010 Y139.372
G01 X190.950 Y139.342
G01 X190.891 Y139.317
G01 X190.831 Y139.295
G01 X190.771 Y139.278
G01 X190.712 Y139.265
G01 X190.653 Y139.256
G01 X190.595 Y139.250
G01 X190.538 Y139.249
G01 X190.483 Y139.251
G01 X190.429 Y139.257
G01 X190.377 Y139.267
G01 X190.327 Y139.279
G01 X190.279 Y139.295
G01 X190.233 Y139.313
G01 X190.190 Y139.335
G01 X190.150 Y139.358
G01 X190.112 Y139.384
G01 X190.077 Y139.413
G01 X190.046 Y139.442
G01 X190.017 Y139.474
G01 X189.992 Y139.507
G01 X189.970 Y139.541
G01 X189.951 Y139.576
G01 X189.936 Y139.612
G01 X189.924 Y139.648
G01 X189.915 Y139.684
G01 X189.910 Y139.720
G01 X189.908 Y139.756
G01 X189.909 Y139.791
G01 X189.914 Y139.825
G01 X189.921 Y139.859
G01 X189.932 Y139.891
G01 X189.946 Y139.921
G01 X189.962 Y139.951
G01 X189.981 Y139.978
G01 X190.000 Y140.000
G01 X189.980 Y139.980
G01 X189.957 Y139.962
G01 X189.933 Y139.947
G01 X189.908 Y139.933
G01 X189.881 Y139.922
G01 X189.853 Y139.914
G01 X189.823 Y139.908
G01 X189.793 Y139.905
G01 X189.762 Y139.905
G01 X189.731 Y139.907
G01 X189.700 Y139.912
G01 X189.668 Y139.921
G01 X189.637 Y139.932
G01 X189.605 Y139.946
G01 X189.575 Y139.963
G01 X189.545 Y139.982
G01 X189.516 Y140.005
G01 X189.489 Y140.031
G01 X189.463 Y140.059
G01 X189.438 Y140.089
G01 X189.415 Y140.123
G01 X189.395 Y140.158
G01 X189.376 Y140.197
G01 X189.360 Y140.237
G01 X189.346 Y140.279
G01 X189.335 Y140.323
G01 X189.327 Y140.369
G01 X189.321 Y140.417
G01 X189.319 Y140.466
G01 X189.320 Y140.516
G01 X189.324 Y140.567
G01 X189.332 Y140.618
G01 X189.343 Y140.671
G01 X189.358 Y140.724
G01 X189.377 Y140.776
G01 X189.399 Y140.829
G01 X189.425 Y140.881
G01 X189.454 Y140.933
G01 X189.487 Y140.984
G01 X189.524 Y141.034
G01 X189.565 Y141.082
G01 X189.609 Y141.129
G01 X189.657 Y141.174
G01 X189.709 Y141.217
G01 X189.764 Y141.258
G01 X189.822 Y141.296
G01 X189.883 Y141.332
G01 X189.947 Y141.364
G01 X190.000 Y141.388
G01 X190.000 Y208.000
G01 X193.446 Y210.144
G01 X197.102 Y212.109
G01 X197.211 Y212.163
G01 X201.182 Y214.652
G01 X205.413 Y216.917
G01 X205.624 Y217.020
G01 X210.340 Y219.917
G01 X214.037 Y221.878
G01 X219.643 Y225.254
G01 X222.449 Y226.735
G01 X229.125 Y230.741
G01 X232.064 Y232.286
G01 X240.153 Y237.102
G01 X242.881 Y238.531
G01 X248.890 Y242.000
G01 X253.990 Y239.245
G01 X258.961 Y236.235
G01 X259.706 Y235.755
G01 X264.905 Y232.944
G01 X269.994 Y229.852
G01 X270.523 Y229.510
G01 X275.934 Y226.576
G01 X281.249 Y223.324
G01 X281.339 Y223.265
G01 X287.079 Y220.139
G01 X292.156 Y217.020
G01 X298.338 Y213.632
G01 X302.972 Y210.776
G01 X307.779 Y208.000
G01 X307.932 Y200.576
G01 X307.779 Y195.510
G01 X307.940 Y188.665
G01 X307.779 Y183.020
G01 X307.944 Y176.629
G01 X307.779 Y170.531
G01 X307.944 Y164.468
G01 X307.801 Y158.462
G01 X307.779 Y158.041
G01 X307.944 Y152.180
G01 X307.819 Y146.347
G01 X307.779 Y145.551
G01 X307.779 Y140.000
G01 X298.697 Y134.660
G01 X296.963 Y133.755
G01 X289.407 Y129.282
G01 X287.348 Y128.204
G01 X281.058 Y124.400
G01 X277.734 Y122.653
G01 X272.450 Y119.448
G01 X269.321 Y117.796
G01 X264.846 Y115.028
G01 X260.908 Y112.939
G01 X257.105 Y110.541
G01 X253.243 Y108.449
G01 X252.495 Y108.082
G01 X249.053 Y106.088
G01 X248.890 Y106.000
G01 X191.202 Y139.306
G01 X191.137 Y139.267
G01 X191.070 Y139.233
G01 X191.004 Y139.203
G01 X190.937 Y139.178
G01 X190.870 Y139.158
G01 X190.803 Y139.142
G01 X190.737 Y139.131
G01 X190.672 Y139.124
G01 X190.608 Y139.121
G01 X190.546 Y139.122
G01 X190.485 Y139.127
G01 X190.426 Y139.137
G01 X190.369 Y139.149
G01 X190.314 Y139.165
G01 X190.262 Y139.185
G01 X190.213 Y139.207
G01 X190.166 Y139.232
G01 X190.122 Y139.260
G01 X190.082 Y139.290
G01 X190.044 Y139.322
G01 X190.011 Y139.356
G01 X189.980 Y139.392
G01 X189.953 Y139.429
G01 X189.930 Y139.467
G01 X189.910 Y139.506
G01 X189.894 Y139.545
G01 X189.881 Y139.585
G01 X189.873 Y139.625
G01 X189.867 Y139.665
G01 X189.866 Y139.704
G01 X189.868 Y139.742
G01 X189.873 Y139.780
G01 X189.881 Y139.816
G01 X189.893 Y139.851
G01 X189.908 Y139.884
G01 X189.926 Y139.915
G01 X189.946 Y139.944
G01 X189.969 Y139.971
G01 X189.995 Y139.996
G01 X190.000 Y140.000
G01 X189.987 Y139.988
G01 X189.975 Y139.974
G01 X189.964 Y139.959
G01 X189.954 Y139.944
G01 X189.947 Y139.927
G01 X189.940 Y139.909
G01 X189.936 Y139.891
G01 X189.933 Y139.872
G01 X189.931 Y139.852
G01 X189.932 Y139.832
G01 X189.934 Y139.812
G01 X189.938 Y139.791
G01 X189.944 Y139.771
G01 X189.952 Y139.751
G01 X189.962 Y139.731
G01 X189.974 Y139.711
G01 X189.987 Y139.692
G01 X190.002 Y139.674
G01 X190.019 Y139.656
G01 X190.038 Y139.639
G01 X190.059 Y139.624
G01 X190.081 Y139.609
G01 X190.104 Y139.596
G01 X190.129 Y139.584
G01 X190.156 Y139.574
G01 X190.184 Y139.566
G01 X190.213 Y139.559
G01 X190.243 Y139.554
G01 X190.274 Y139.551
G01 X190.306 Y139.550
G01 X190.338 Y139.551
G01 X190.371 Y139.554
G01 X190.405 Y139.559
G01 X190.439 Y139.567
G01 X190.473 Y139.577
G01 X190.508 Y139.589
G01 X190.542 Y139.604
G01 X190.576 Y139.621
G01 X190.609 Y139.641
G01 X190.642 Y139.663
G01 X190.674 Y139.687
G01 X190.706 Y139.714
G01 X190.736 Y139.743
G01 X190.765 Y139.774
G01 X190.793 Y139.807
G01 X190.819 Y139.843
G01 X190.844 Y139.881
G01 X190.867 Y139.921
G01 X190.888 Y139.963
G01 X190.907 Y140.007
G01 X190.923 Y140.052
G01 X190.938 Y140.099
G01 X190.950 Y140.148
G01 X190.959 Y140.198
G01 X190.966 Y140.249
G01 X190.970 Y140.302
G01 X190.971 Y140.355
G01 X190.969 Y140.410
G01 X190.964 Y140.464
G01 X190.956 Y140.520
G01 X190.945 Y140.576
G01 X190.930 Y140.631
G01 X190.913 Y140.687
G01 X190.892 Y140.743
G01 X190.868 Y140.798
G01 X190.840 Y140.852
G01 X190.809 Y140.906
G01 X190.775 Y140.959
G01 X190.738 Y141.010
G01 X190.698 Y141.061
G01 X190.654 Y141.109
G01 X190.607 Y141.156
G01 X190.557 Y141.201
G01 X190.505 Y141.244
G01 X190.449 Y141.284
G01 X190.391 Y141.322
G01 X190.359 Y141.340
G01 X200.057 Y177.533
G01 X202.301 Y178.285
G01 X204.642 Y178.904
G01 X206.759 Y179.329
G01 X209.521 Y180.215
G01 X212.408 Y180.920
G01 X213.462 Y181.125
G01 X216.884 Y182.172
G01 X220.164 Y182.921
G01 X224.443 Y184.226
G01 X228.207 Y185.076
G01 X233.720 Y186.724
G01 X237.590 Y187.590
G01 X240.045 Y185.358
G01 X242.395 Y182.999
G01 X244.459 Y180.721
G01 X246.998 Y178.408
G01 X249.439 Y175.944
G01 X251.328 Y173.852
G01 X254.052 Y171.359
G01 X256.677 Y168.678
G01 X258.197 Y166.983
G01 X261.207 Y164.205
G01 X264.104 Y161.196
G01 X265.066 Y160.114
G01 X264.138 Y156.012
G01 X262.992 Y152.051
G01 X262.552 Y150.731
G01 X261.731 Y147.034
G01 X260.726 Y143.444
G01 X260.038 Y141.347
G01 X259.289 Y137.931
G01 X258.375 Y134.591
G01 X257.524 Y131.964
G01 X256.812 Y128.700
G01 X255.944 Y125.487
G01 X255.009 Y122.581
G01 X249.412 Y120.911
G01 X245.626 Y120.067
G01 X241.260 Y118.739
G01 X237.583 Y117.912
G01 X234.082 Y116.843
G01 X230.881 Y116.116
G01 X228.025 Y115.204
G01 X225.183 Y114.513
G01 X224.178 Y114.320
G01 X221.835 Y113.540
G01 X219.500 Y112.926
G01 X217.476 Y112.524
G01 X190.981 Y139.019
G01 X190.905 Y139.001
G01 X190.830 Y138.988
G01 X190.756 Y138.980
G01 X190.683 Y138.977
G01 X190.612 Y138.979
G01 X190.543 Y138.985
G01 X190.475 Y138.995
G01 X190.410 Y139.010
G01 X190.348 Y139.028
G01 X190.288 Y139.050
G01 X190.232 Y139.075
G01 X190.178 Y139.103
G01 X190.128 Y139.135
G01 X190.082 Y139.169
G01 X190.039 Y139.205
G01 X190.000 Y139.244
G01 X189.965 Y139.284
G01 X189.934 Y139.326
G01 X189.906 Y139.369
G01 X189.883 Y139.413
G01 X189.864 Y139.458
G01 X189.849 Y139.503
G01 X189.838 Y139.548
G01 X189.831 Y139.593
G01 X189.829 Y139.638
G01 X189.830 Y139.681
G01 X189.834 Y139.724
G01 X189.843 Y139.765
G01 X189.855 Y139.805
G01 X189.871 Y139.843
G01 X189.890 Y139.878
G01 X189.912 Y139.912
G01 X189.937 Y139.943
G01 X189.965 Y139.971
G01 X189.995 Y139.996
G01 X190.000 Y140.000
G01 X189.985 Y139.988
G01 X189.971 Y139.975
G01 X189.959 Y139.960
G01 X189.948 Y139.944
G01 X189.939 Y139.926
G01 X189.931 Y139.908
G01 X189.925 Y139.889
G01 X189.920 Y139.869
G01 X189.918 Y139.849
G01 X189.917 Y139.828
G01 X189.918 Y139.806
G01 X189.921 Y139.784
G01 X189.926 Y139.762
G01 X189.933 Y139.741
G01 X189.942 Y139.719
G01 X189.953 Y139.697
G01 X189.966 Y139.676
G01 X189.980 Y139.656
G01 X189.997 Y139.636
G01 X190.016 Y139.617
G01 X190.036 Y139.600
G01 X190.059 Y139.583
G01 X190.083 Y139.568
G01 X190.108 Y139.553
G01 X190.135 Y139.541
G01 X190.164 Y139.530
G01 X190.194 Y139.521
G01 X190.225 Y139.514
G01 X190.258 Y139.508
G01 X190.291 Y139.505
G01 X190.326 Y139.504
G01 X190.361 Y139.505
G01 X190.397 Y139.509
G01 X190.433 Y139.514
G01 X190.470 Y139.523
G01 X190.507 Y139.533
G01 X190.544 Y139.546
G01 X190.581 Y139.562
G01 X190.618 Y139.580
G01 X190.654 Y139.601
G01 X190.689 Y139.625
G01 X190.724 Y139.651
G01 X190.758 Y139.679
G01 X190.791 Y139.710
G01 X190.822 Y139.743
G01 X190.853 Y139.779
G01 X190.881 Y139.818
G01 X190.908 Y139.858
G01 X190.933 Y139.901
G01 X190.956 Y139.946
G01 X190.976 Y139.992
G01 X190.995 Y140.041
G01 X191.010 Y140.092
G01 X191.024 Y140.144
G01 X191.034 Y140.197
G01 X191.042 Y140.252
G01 X191.047 Y140.309
G01 X191.048 Y140.366
G01 X191.047 Y140.424
G01 X191.042 Y140.483
G01 X191.034 Y140.542
G01 X191.023 Y140.602
G01 X191.008 Y140.662
G01 X190.990 Y140.722
G01 X190.968 Y140.782
G01 X190.943 Y140.841
G01 X190.914 Y140.900
G01 X190.882 Y140.958
G01 X190.846 Y141.014
G01 X190.807 Y141.070
G01 X190.764 Y141.124
G01 X190.718 Y141.177
G01 X190.694 Y141.202
G01 X209.429 Y173.651
G01 X211.791 Y173.796
G01 X214.212 Y173.788
G01 X216.367 Y173.651
G01 X219.264 Y173.792
G01 X222.235 Y173.726
G01 X223.306 Y173.651
G01 X226.883 Y173.777
G01 X230.245 Y173.651
G01 X234.716 Y173.804
G01 X238.571 Y173.651
G01 X244.323 Y173.816
G01 X248.286 Y173.651
G01 X250.079 Y170.860
G01 X251.739 Y167.973
G01 X253.143 Y165.238
G01 X254.997 Y162.347
G01 X256.717 Y159.335
G01 X258.000 Y156.826
G01 X259.986 Y153.712
G01 X261.827 Y150.444
G01 X262.857 Y148.413
G01 X265.045 Y144.951
G01 X267.065 Y141.294
G01 X267.714 Y140.000
G01 X265.756 Y136.278
G01 X263.624 Y132.749
G01 X262.857 Y131.587
G01 X261.108 Y128.229
G01 X259.207 Y125.022
G01 X258.000 Y123.174
G01 X256.392 Y120.068
G01 X254.645 Y117.079
G01 X253.143 Y114.762
G01 X251.611 Y111.793
G01 X249.941 Y108.914
G01 X248.286 Y106.349
G01 X242.447 Y106.184
G01 X238.571 Y106.349
G01 X234.010 Y106.196
G01 X230.245 Y106.349
G01 X226.586 Y106.223
G01 X223.306 Y106.349
G01 X220.312 Y106.207
G01 X217.387 Y106.276
G01 X216.367 Y106.349
G01 X213.902 Y106.202
G01 X211.487 Y106.214
G01 X209.429 Y106.349
G01 X190.694 Y138.798
G01 X190.614 Y138.805
G01 X190.536 Y138.817
G01 X190.461 Y138.834
G01 X190.389 Y138.855
G01 X190.320 Y138.881
G01 X190.254 Y138.910
G01 X190.192 Y138.943
G01 X190.134 Y138.979
G01 X190.081 Y139.018
G01 X190.031 Y139.060
G01 X189.985 Y139.104
G01 X189.944 Y139.151
G01 X189.908 Y139.199
G01 X189.876 Y139.248
G01 X189.849 Y139.299
G01 X189.826 Y139.350
G01 X189.808 Y139.402
G01 X189.795 Y139.454
G01 X189.786 Y139.506
G01 X189.782 Y139.557
G01 X189.782 Y139.608
G01 X189.787 Y139.657
G01 X189.795 Y139.704
G01 X189.808 Y139.750
G01 X189.825 Y139.794
G01 X189.846 Y139.836
G01 X189.870 Y139.874
G01 X189.898 Y139.910
G01 X189.929 Y139.943
G01 X189.962 Y139.973
G01 X189.998 Y139.999
G01 X190.000 Y140.000
G01 X189.983 Y139.988
G01 X189.968 Y139.975
G01 X189.954 Y139.960
G01 X189.942 Y139.944
G01 X189.930 Y139.926
G01 X189.921 Y139.907
G01 X189.913 Y139.887
G01 X189.907 Y139.867
G01 X189.903 Y139.845
G01 X189.901 Y139.823
G01 X189.901 Y139.800
G01 X189.903 Y139.777
G01 X189.907 Y139.753
G01 X189.913 Y139.730
G01 X189.921 Y139.706
G01 X189.931 Y139.683
G01 X189.943 Y139.660
G01 X189.958 Y139.637
G01 X189.974 Y139.615
G01 X189.993 Y139.594
G01 X190.013 Y139.574
G01 X190.036 Y139.555
G01 X190.060 Y139.537
G01 X190.086 Y139.521
G01 X190.114 Y139.506
G01 X190.144 Y139.492
G01 X190.175 Y139.481
G01 X190.208 Y139.471
G01 X190.242 Y139.463
G01 X190.277 Y139.458
G01 X190.314 Y139.454
G01 X190.351 Y139.453
G01 X190.389 Y139.455
G01 X190.428 Y139.459
G01 X190.467 Y139.465
G01 X190.507 Y139.474
G01 X190.547 Y139.486
G01 X190.587 Y139.500
G01 X190.627 Y139.517
G01 X190.667 Y139.537
G01 X190.706 Y139.559
G01 X190.744 Y139.584
G01 X190.782 Y139.612
G01 X190.819 Y139.643
G01 X190.854 Y139.677
G01 X190.888 Y139.713
G01 X190.921 Y139.751
G01 X190.952 Y139.792
G01 X190.981 Y139.836
G01 X191.008 Y139.882
G01 X191.033 Y139.930
G01 X191.055 Y139.981
G01 X191.075 Y140.033
G01 X191.093 Y140.087
G01 X191.107 Y140.144
G01 X191.119 Y140.201
G01 X191.127 Y140.260
G01 X191.133 Y140.321
G01 X191.135 Y140.383
G01 X191.133 Y140.445
G01 X191.129 Y140.509
G01 X191.120 Y140.573
G01 X191.109 Y140.637
G01 X191.093 Y140.702
G01 X191.074 Y140.766
G01 X191.051 Y140.831
G01 X191.024 Y140.895
G01 X190.994 Y140.958
G01 X190.981 Y140.981
G01 X217.476 Y167.476
G01 X219.795 Y167.005
G01 X222.132 Y166.370
G01 X224.178 Y165.680
G01 X227.013 Y165.066
G01 X229.866 Y164.234
G01 X230.881 Y163.884
G01 X234.369 Y163.080
G01 X237.583 Y162.088
G01 X241.941 Y161.079
G01 X245.626 Y159.933
G01 X251.224 Y158.604
G01 X255.009 Y157.419
G01 X256.019 Y154.259
G01 X256.875 Y151.041
G01 X257.524 Y148.036
G01 X258.566 Y144.764
G01 X259.448 Y141.408
G01 X260.038 Y138.653
G01 X261.150 Y135.131
G01 X262.083 Y131.498
G01 X262.552 Y129.269
G01 X263.770 Y125.359
G01 X264.774 Y121.304
G01 X265.066 Y119.886
G01 X262.211 Y116.798
G01 X259.238 Y113.941
G01 X258.197 Y113.017
G01 X255.638 Y110.226
G01 X252.973 Y107.620
G01 X251.328 Y106.148
G01 X248.971 Y103.564
G01 X246.510 Y101.128
G01 X244.459 Y99.279
G01 X242.211 Y96.808
G01 X239.853 Y94.459
G01 X237.590 Y92.410
G01 X231.908 Y93.762
G01 X228.207 Y94.924
G01 X223.762 Y95.957
G01 X220.164 Y97.079
G01 X216.598 Y97.905
G01 X213.462 Y98.875
G01 X210.533 Y99.514
G01 X207.726 Y100.336
G01 X206.759 Y100.671
G01 X204.340 Y101.167
G01 X202.011 Y101.803
G01 X200.057 Y102.467
G01 X190.359 Y138.660
G01 X190.282 Y138.694
G01 X190.209 Y138.734
G01 X190.141 Y138.777
G01 X190.077 Y138.823
G01 X190.018 Y138.873
G01 X189.965 Y138.926
G01 X189.916 Y138.981
G01 X189.873 Y139.038
G01 X189.836 Y139.096
G01 X189.803 Y139.156
G01 X189.776 Y139.217
G01 X189.755 Y139.278
G01 X189.739 Y139.340
G01 X189.729 Y139.401
G01 X189.723 Y139.461
G01 X189.723 Y139.521
G01 X189.728 Y139.579
G01 X189.738 Y139.635
G01 X189.753 Y139.689
G01 X189.773 Y139.741
G01 X189.796 Y139.790
G01 X189.824 Y139.835
G01 X189.856 Y139.878
G01 X189.892 Y139.917
G01 X189.931 Y139.952
G01 X189.973 Y139.983
G01 X190.000 Y140.000
G01 X189.982 Y139.988
G01 X189.965 Y139.975
G01 X189.949 Y139.959
G01 X189.935 Y139.943
G01 X189.922 Y139.924
G01 X189.911 Y139.905
G01 X189.902 Y139.884
G01 X189.895 Y139.862
G01 X189.889 Y139.839
G01 X189.886 Y139.815
G01 X189.885 Y139.791
G01 X189.885 Y139.766
G01 X189.888 Y139.741
G01 X189.894 Y139.715
G01 X189.901 Y139.690
G01 X189.911 Y139.664
G01 X189.923 Y139.639
G01 X189.937 Y139.614
G01 X189.954 Y139.590
G01 X189.973 Y139.567
G01 X189.994 Y139.544
G01 X190.017 Y139.523
G01 X190.042 Y139.503
G01 X190.069 Y139.484
G01 X190.098 Y139.466
G01 X190.130 Y139.451
G01 X190.162 Y139.437
G01 X190.197 Y139.425
G01 X190.233 Y139.415
G01 X190.270 Y139.408
G01 X190.309 Y139.402
G01 X190.349 Y139.399
G01 X190.390 Y139.399
G01 X190.431 Y139.401
G01 X190.474 Y139.406
G01 X190.517 Y139.414
G01 X190.560 Y139.424
G01 X190.603 Y139.438
G01 X190.647 Y139.454
G01 X190.690 Y139.473
G01 X190.733 Y139.495
G01 X190.775 Y139.521
G01 X190.817 Y139.549
G01 X190.857 Y139.580
G01 X190.897 Y139.614
G01 X190.935 Y139.651
G01 X190.972 Y139.690
G01 X191.007 Y139.733
G01 X191.040 Y139.778
G01 X191.071 Y139.826
G01 X191.100 Y139.876
G01 X191.126 Y139.929
G01 X191.150 Y139.984
G01 X191.171 Y140.041
G01 X191.189 Y140.101
G01 X191.204 Y140.162
G01 X191.216 Y140.225
G01 X191.225 Y140.289
G01 X191.230 Y140.355
G01 X191.232 Y140.422
G01 X191.230 Y140.490
G01 X191.224 Y140.558
G01 X191.215 Y140.628
G01 X191.202 Y140.694
G01 X223.651 Y159.429
G01 X225.770 Y158.373
G01 X227.863 Y157.155
G01 X229.660 Y155.959
G01 X232.239 Y154.633
G01 X234.779 Y153.090
G01 X235.670 Y152.490
G01 X238.830 Y150.810
G01 X241.679 Y149.020
G01 X245.627 Y146.917
G01 X248.890 Y144.857
G01 X253.953 Y142.124
G01 X257.303 Y140.000
G01 X257.460 Y136.686
G01 X257.454 Y133.356
G01 X257.303 Y130.286
G01 X257.462 Y126.855
G01 X257.446 Y123.386
G01 X257.303 Y120.571
G01 X257.466 Y116.882
G01 X257.426 Y113.131
G01 X257.303 Y110.857
G01 X257.467 Y106.765
G01 X257.387 Y102.588
G01 X257.303 Y101.143
G01 X253.746 Y98.899
G01 X250.134 Y96.908
G01 X248.890 Y96.286
G01 X245.696 Y94.252
G01 X242.446 Y92.425
G01 X240.477 Y91.429
G01 X237.532 Y89.542
G01 X234.524 Y87.827
G01 X232.064 Y86.571
G01 X229.253 Y84.766
G01 X226.367 Y83.108
G01 X223.651 Y81.714
G01 X218.512 Y84.491
G01 X215.238 Y86.571
G01 X211.212 Y88.720
G01 X208.027 Y90.735
G01 X204.796 Y92.455
G01 X202.018 Y94.204
G01 X199.355 Y95.579
G01 X196.856 Y97.100
G01 X196.009 Y97.673
G01 X193.801 Y98.779
G01 X191.715 Y99.996
G01 X190.000 Y101.143
G01 X190.000 Y138.612
G01 X189.935 Y138.677
G01 X189.876 Y138.745
G01 X189.824 Y138.815
G01 X189.779 Y138.887
G01 X189.739 Y138.960
G01 X189.707 Y139.034
G01 X189.681 Y139.109
G01 X189.662 Y139.184
G01 X189.650 Y139.259
G01 X189.643 Y139.333
G01 X189.644 Y139.405
G01 X189.650 Y139.476
G01 X189.662 Y139.544
G01 X189.680 Y139.610
G01 X189.704 Y139.673
G01 X189.733 Y139.733
G01 X189.767 Y139.789
G01 X189.806 Y139.840
G01 X189.849 Y139.888
G01 X189.896 Y139.930
G01 X189.947 Y139.968
G01 X190.000 Y140.000
G01 X189.980 Y139.988
G01 X189.961 Y139.974
G01 X189.944 Y139.958
G01 X189.928 Y139.941
G01 X189.913 Y139.921
G01 X189.901 Y139.901
G01 X189.890 Y139.879
G01 X189.881 Y139.855
G01 X189.875 Y139.831
G01 X189.870 Y139.805
G01 X189.868 Y139.779
G01 X189.868 Y139.752
G01 X189.870 Y139.725
G01 X189.875 Y139.697
G01 X189.882 Y139.669
G01 X189.892 Y139.642
G01 X189.904 Y139.614
G01 X189.918 Y139.587
G01 X189.935 Y139.560
G01 X189.954 Y139.534
G01 X189.976 Y139.509
G01 X190.000 Y139.485
G01 X190.027 Y139.463
G01 X190.055 Y139.441
G01 X190.086 Y139.422
G01 X190.119 Y139.404
G01 X190.154 Y139.387
G01 X190.191 Y139.373
G01 X190.229 Y139.361
G01 X190.269 Y139.352
G01 X190.311 Y139.345
G01 X190.353 Y139.340
G01 X190.397 Y139.338
G01 X190.442 Y139.339
G01 X190.488 Y139.343
G01 X190.535 Y139.349
G01 X190.582 Y139.359
G01 X190.629 Y139.372
G01 X190.677 Y139.388
G01 X190.724 Y139.407
G01 X190.771 Y139.429
G01 X190.817 Y139.455
G01 X190.863 Y139.483
G01 X190.908 Y139.515
G01 X190.952 Y139.551
G01 X190.995 Y139.589
G01 X191.036 Y139.630
G01 X191.075 Y139.675
G01 X191.112 Y139.722
G01 X191.147 Y139.773
G01 X191.180 Y139.826
G01 X191.211 Y139.882
G01 X191.239 Y139.940
G01 X191.263 Y140.001
G01 X191.285 Y140.064
G01 X191.304 Y140.129
G01 X191.319 Y140.197
G01 X191.331 Y140.266
G01 X191.339 Y140.336
G01 X191.340 Y140.359
G01 X227.533 Y150.057
G01 X229.306 Y148.489
G01 X231.013 Y146.771
G01 X232.440 Y145.151
G01 X234.587 Y143.202
G01 X236.641 Y141.054
G01 X237.346 Y140.244
G01 X239.964 Y137.804
G01 X242.252 Y135.338
G01 X245.522 Y132.284
G01 X248.140 Y129.450
G01 X252.324 Y125.500
G01 X255.009 Y122.581
G01 X254.304 Y119.339
G01 X253.436 Y116.124
G01 X252.495 Y113.198
G01 X251.762 Y109.843
G01 X250.848 Y106.496
G01 X249.981 Y103.814
G01 X249.183 Y100.208
G01 X248.174 Y96.595
G01 X247.467 Y94.431
G01 X246.566 Y90.436
G01 X245.408 Y86.422
G01 X244.952 Y85.048
G01 X240.936 Y83.801
G01 X236.932 Y82.813
G01 X235.569 Y82.533
G01 X231.957 Y81.396
G01 X228.346 Y80.472
G01 X226.186 Y80.019
G01 X222.853 Y78.960
G01 X219.503 Y78.081
G01 X216.802 Y77.505
G01 X213.620 Y76.489
G01 X210.403 Y75.634
G01 X207.419 Y74.991
G01 X203.174 Y79.003
G01 X200.550 Y81.860
G01 X197.217 Y84.977
G01 X194.662 Y87.748
G01 X191.987 Y90.246
G01 X189.756 Y92.654
G01 X187.539 Y94.671
G01 X185.519 Y96.787
G01 X184.849 Y97.560
G01 X183.002 Y99.200
G01 X181.303 Y100.916
G01 X179.943 Y102.467
G01 X189.641 Y138.660
G01 X189.600 Y138.756
G01 X189.568 Y138.853
G01 X189.545 Y138.950
G01 X189.530 Y139.046
G01 X189.523 Y139.142
G01 X189.524 Y139.235
G01 X189.533 Y139.326
G01 X189.550 Y139.414
G01 X189.575 Y139.499
G01 X189.606 Y139.579
G01 X189.644 Y139.655
G01 X189.689 Y139.727
G01 X189.739 Y139.793
G01 X189.795 Y139.853
G01 X189.856 Y139.907
G01 X189.922 Y139.955
G01 X189.992 Y139.996
G01 X190.000 Y140.000
G01 X189.978 Y139.987
G01 X189.957 Y139.973
G01 X189.938 Y139.956
G01 X189.920 Y139.937
G01 X189.904 Y139.916
G01 X189.890 Y139.894
G01 X189.877 Y139.870
G01 X189.867 Y139.845
G01 X189.859 Y139.819
G01 X189.854 Y139.791
G01 X189.851 Y139.763
G01 X189.850 Y139.733
G01 X189.852 Y139.704
G01 X189.856 Y139.673
G01 X189.863 Y139.643
G01 X189.873 Y139.612
G01 X189.886 Y139.582
G01 X189.901 Y139.552
G01 X189.919 Y139.523
G01 X189.939 Y139.494
G01 X189.962 Y139.466
G01 X189.988 Y139.439
G01 X190.016 Y139.414
G01 X190.047 Y139.390
G01 X190.080 Y139.368
G01 X190.115 Y139.347
G01 X190.153 Y139.329
G01 X190.192 Y139.313
G01 X190.234 Y139.299
G01 X190.277 Y139.287
G01 X190.322 Y139.279
G01 X190.369 Y139.272
G01 X190.417 Y139.269
G01 X190.466 Y139.269
G01 X190.516 Y139.272
G01 X190.567 Y139.278
G01 X190.618 Y139.288
G01 X190.670 Y139.300
G01 X190.722 Y139.317
G01 X190.774 Y139.336
G01 X190.826 Y139.359
G01 X190.877 Y139.386
G01 X190.928 Y139.416
G01 X190.978 Y139.450
G01 X191.026 Y139.487
G01 X191.073 Y139.528
G01 X191.119 Y139.572
G01 X191.163 Y139.620
G01 X191.205 Y139.670
G01 X191.244 Y139.724
G01 X191.282 Y139.782
G01 X191.316 Y139.842
G01 X191.348 Y139.905
G01 X191.376 Y139.970
G01 X191.388 Y140.000
G01 X228.857 Y140.000
G01 X230.164 Y138.027
G01 X231.368 Y135.926
G01 X232.327 Y133.991
G01 X233.897 Y131.552
G01 X235.325 Y128.946
G01 X235.796 Y127.982
G01 X237.693 Y124.947
G01 X239.265 Y121.973
G01 X241.633 Y118.177
G01 X243.429 Y114.762
G01 X246.447 Y109.863
G01 X248.286 Y106.349
G01 X246.765 Y103.400
G01 X245.095 Y100.520
G01 X243.429 Y97.936
G01 X241.852 Y94.885
G01 X240.103 Y91.889
G01 X238.571 Y89.523
G01 X236.868 Y86.247
G01 X234.958 Y83.018
G01 X233.714 Y81.110
G01 X231.810 Y77.484
G01 X229.653 Y73.907
G01 X228.857 Y72.697
G01 X224.655 Y72.533
G01 X220.532 Y72.614
G01 X219.143 Y72.697
G01 X215.360 Y72.533
G01 X211.632 Y72.576
G01 X209.429 Y72.697
G01 X205.935 Y72.537
G01 X202.472 Y72.555
G01 X199.714 Y72.697
G01 X196.378 Y72.540
G01 X193.049 Y72.547
G01 X190.000 Y72.697
G01 X186.938 Y77.672
G01 X185.143 Y81.110
G01 X182.730 Y84.984
G01 X180.980 Y88.321
G01 X179.041 Y91.427
G01 X177.510 Y94.330
G01 X175.891 Y96.853
G01 X174.487 Y99.420
G01 X174.041 Y100.340
G01 X172.681 Y102.401
G01 X171.484 Y104.498
G01 X170.571 Y106.349
G01 X189.306 Y138.798
G01 X189.311 Y138.931
G01 X189.326 Y139.060
G01 X189.353 Y139.184
G01 X189.390 Y139.304
G01 X189.437 Y139.418
G01 X189.493 Y139.525
G01 X189.558 Y139.625
G01 X189.632 Y139.718
G01 X189.714 Y139.802
G01 X189.803 Y139.877
G01 X189.898 Y139.943
G01 X189.999 Y139.999
G01 X190.000 Y140.000
G01 X189.975 Y139.986
G01 X189.952 Y139.970
G01 X189.931 Y139.952
G01 X189.911 Y139.932
G01 X189.893 Y139.909
G01 X189.877 Y139.885
G01 X189.863 Y139.859
G01 X189.852 Y139.831
G01 X189.843 Y139.802
G01 X189.836 Y139.772
G01 X189.832 Y139.740
G01 X189.831 Y139.708
G01 X189.833 Y139.675
G01 X189.837 Y139.641
G01 X189.845 Y139.608
G01 X189.855 Y139.574
G01 X189.868 Y139.540
G01 X189.885 Y139.507
G01 X189.904 Y139.474
G01 X189.926 Y139.442
G01 X189.951 Y139.411
G01 X189.979 Y139.382
G01 X190.010 Y139.353
G01 X190.044 Y139.326
G01 X190.080 Y139.301
G01 X190.119 Y139.278
G01 X190.160 Y139.258
G01 X190.203 Y139.239
G01 X190.249 Y139.223
G01 X190.297 Y139.210
G01 X190.346 Y139.200
G01 X190.398 Y139.193
G01 X190.450 Y139.189
G01 X190.504 Y139.188
G01 X190.560 Y139.190
G01 X190.616 Y139.196
G01 X190.673 Y139.206
G01 X190.730 Y139.220
G01 X190.788 Y139.237
G01 X190.845 Y139.258
G01 X190.903 Y139.283
G01 X190.960 Y139.311
G01 X191.016 Y139.344
G01 X191.071 Y139.381
G01 X191.125 Y139.421
G01 X191.178 Y139.465
G01 X191.229 Y139.513
G01 X191.278 Y139.565
G01 X191.325 Y139.621
G01 X191.340 Y139.641
G01 X227.533 Y129.943
G01 X228.285 Y127.699
G01 X228.904 Y125.358
G01 X229.329 Y123.241
G01 X230.215 Y120.479
G01 X230.920 Y117.592
G01 X231.125 Y116.538
G01 X232.172 Y113.116
G01 X232.921 Y109.836
G01 X234.226 Y105.557
G01 X235.076 Y101.793
G01 X236.724 Y96.280
G01 X237.590 Y92.410
G01 X235.358 Y89.955
G01 X232.999 Y87.605
G01 X230.721 Y85.541
G01 X228.408 Y83.002
G01 X225.944 Y80.561
G01 X223.852 Y78.672
G01 X221.359 Y75.948
G01 X218.678 Y73.323
G01 X216.983 Y71.803
G01 X214.205 Y68.793
G01 X211.196 Y65.896
G01 X210.114 Y64.934
G01 X206.012 Y65.862
G01 X202.051 Y67.008
G01 X200.731 Y67.448
G01 X197.034 Y68.269
G01 X193.444 Y69.274
G01 X191.347 Y69.962
G01 X187.931 Y70.711
G01 X184.591 Y71.625
G01 X181.964 Y72.476
G01 X178.700 Y73.188
G01 X175.487 Y74.056
G01 X172.581 Y74.991
G01 X170.911 Y80.588
G01 X170.067 Y84.374
G01 X168.739 Y88.740
G01 X167.912 Y92.417
G01 X166.843 Y95.918
G01 X166.116 Y99.119
G01 X165.204 Y101.975
G01 X164.513 Y104.817
G01 X164.320 Y105.822
G01 X163.540 Y108.165
G01 X162.926 Y110.500
G01 X162.524 Y112.524
G01 X189.019 Y139.019
G01 X189.134 Y139.215
G01 X189.266 Y139.397
G01 X189.413 Y139.565
G01 X189.574 Y139.716
G01 X189.749 Y139.849
G01 X189.935 Y139.965
G01 X190.000 Y140.000
G01 X189.972 Y139.984
G01 X189.947 Y139.966
G01 X189.922 Y139.944
G01 X189.900 Y139.921
G01 X189.881 Y139.895
G01 X189.863 Y139.867
G01 X189.848 Y139.838
G01 X189.835 Y139.806
G01 X189.826 Y139.773
G01 X189.819 Y139.739
G01 X189.815 Y139.703
G01 X189.815 Y139.667
G01 X189.817 Y139.630
G01 X189.823 Y139.592
G01 X189.832 Y139.554
G01 X189.844 Y139.516
G01 X189.860 Y139.478
G01 X189.879 Y139.441
G01 X189.901 Y139.404
G01 X189.927 Y139.369
G01 X189.956 Y139.334
G01 X189.988 Y139.301
G01 X190.024 Y139.270
G01 X190.062 Y139.240
G01 X190.103 Y139.212
G01 X190.148 Y139.187
G01 X190.195 Y139.164
G01 X190.244 Y139.144
G01 X190.296 Y139.127
G01 X190.350 Y139.113
G01 X190.406 Y139.103
G01 X190.464 Y139.095
G01 X190.524 Y139.092
G01 X190.585 Y139.092
G01 X190.648 Y139.096
G01 X190.711 Y139.104
G01 X190.775 Y139.116
G01 X190.840 Y139.132
G01 X190.904 Y139.153
G01 X190.969 Y139.177
G01 X191.033 Y139.207
G01 X191.097 Y139.240
G01 X191.160 Y139.278
G01 X191.202 Y139.306
G01 X223.651 Y120.571
G01 X223.796 Y118.209
G01 X223.788 Y115.788
G01 X223.651 Y113.633
G01 X223.792 Y110.736
G01 X223.726 Y107.765
G01 X223.651 Y106.694
G01 X223.777 Y103.117
G01 X223.651 Y99.755
G01 X223.804 Y95.284
G01 X223.651 Y91.429
G01 X223.816 Y85.677
G01 X223.651 Y81.714
G01 X220.860 Y79.921
G01 X217.973 Y78.261
G01 X215.238 Y76.857
G01 X212.347 Y75.003
G01 X209.335 Y73.283
G01 X206.826 Y72.000
G01 X203.712 Y70.014
G01 X200.444 Y68.173
G01 X198.413 Y67.143
G01 X194.951 Y64.955
G01 X191.294 Y62.935
G01 X190.000 Y62.286
G01 X186.278 Y64.244
G01 X182.749 Y66.376
G01 X181.587 Y67.143
G01 X178.229 Y68.892
G01 X175.022 Y70.793
G01 X173.174 Y72.000
G01 X170.068 Y73.608
G01 X167.079 Y75.355
G01 X164.762 Y76.857
G01 X161.793 Y78.389
G01 X158.914 Y80.059
G01 X156.349 Y81.714
G01 X156.184 Y87.553
G01 X156.349 Y91.429
G01 X156.196 Y95.990
G01 X156.349 Y99.755
G01 X156.223 Y103.414
G01 X156.349 Y106.694
G01 X156.207 Y109.688
G01 X156.276 Y112.613
G01 X156.349 Y113.633
G01 X156.202 Y116.098
G01 X156.214 Y118.513
G01 X156.349 Y120.571
G01 X190.000 Y140.000
G01 X189.969 Y139.980
G01 X189.940 Y139.956
G01 X189.913 Y139.930
G01 X189.888 Y139.901
G01 X189.867 Y139.869
G01 X189.848 Y139.835
G01 X189.832 Y139.800
G01 X189.820 Y139.762
G01 X189.811 Y139.722
G01 X189.805 Y139.682
G01 X189.803 Y139.640
G01 X189.805 Y139.597
G01 X189.810 Y139.554
G01 X189.819 Y139.510
G01 X189.833 Y139.466
G01 X189.850 Y139.422
G01 X189.871 Y139.379
G01 X189.895 Y139.336
G01 X189.924 Y139.295
G01 X189.957 Y139.255
G01 X189.993 Y139.216
G01 X190.033 Y139.180
G01 X190.076 Y139.145
G01 X190.123 Y139.113
G01 X190.174 Y139.083
G01 X190.227 Y139.057
G01 X190.284 Y139.033
G01 X190.343 Y139.013
G01 X190.405 Y138.996
G01 X190.469 Y138.984
G01 X190.536 Y138.975
G01 X190.604 Y138.970
G01 X190.675 Y138.970
G01 X190.746 Y138.974
G01 X190.819 Y138.983
G01 X190.893 Y138.996
G01 X190.967 Y139.015
G01 X190.981 Y139.019
G01 X217.476 Y112.524
G01 X217.005 Y110.205
G01 X216.370 Y107.868
G01 X215.680 Y105.822
G01 X215.066 Y102.987
G01 X214.234 Y100.134
G01 X213.884 Y99.119
G01 X213.080 Y95.631
G01 X212.088 Y92.417
G01 X211.079 Y88.059
G01 X209.933 Y84.374
G01 X208.604 Y78.776
G01 X207.419 Y74.991
G01 X204.259 Y73.981
G01 X201.041 Y73.125
G01 X198.036 Y72.476
G01 X194.764 Y71.434
G01 X191.408 Y70.552
G01 X188.653 Y69.962
G01 X185.131 Y68.850
G01 X181.498 Y67.917
G01 X179.269 Y67.448
G01 X175.359 Y66.230
G01 X171.304 Y65.226
G01 X169.886 Y64.934
G01 X166.798 Y67.789
G01 X163.941 Y70.762
G01 X163.017 Y71.803
G01 X160.226 Y74.362
G01 X157.620 Y77.027
G01 X156.148 Y78.672
G01 X153.564 Y81.029
G01 X151.128 Y83.490
G01 X149.279 Y85.541
G01 X146.808 Y87.789
G01 X144.459 Y90.147
G01 X142.410 Y92.410
G01 X143.762 Y98.092
G01 X144.924 Y101.793
G01 X145.957 Y106.238
G01 X147.079 Y109.836
G01 X147.905 Y113.402
G01 X148.875 Y116.538
G01 X149.514 Y119.467
G01 X150.336 Y122.274
G01 X150.671 Y123.241
G01 X151.167 Y125.660
G01 X151.803 Y127.989
G01 X152.467 Y129.943
G01 X188.660 Y139.641
G01 X188.860 Y139.634
G01 X189.057 Y139.645
G01 X189.250 Y139.675
G01 X189.437 Y139.722
G01 X189.617 Y139.787
G01 X189.789 Y139.869
G01 X189.952 Y139.967
G01 X190.000 Y140.000
G01 X189.964 Y139.971
G01 X189.930 Y139.939
G01 X189.900 Y139.904
G01 X189.873 Y139.865
G01 X189.850 Y139.824
G01 X189.831 Y139.780
G01 X189.816 Y139.734
G01 X189.804 Y139.686
G01 X189.797 Y139.637
G01 X189.795 Y139.586
G01 X189.797 Y139.534
G01 X189.804 Y139.481
G01 X189.815 Y139.428
G01 X189.832 Y139.375
G01 X189.853 Y139.323
G01 X189.879 Y139.271
G01 X189.909 Y139.220
G01 X189.944 Y139.170
G01 X189.984 Y139.122
G01 X190.029 Y139.076
G01 X190.078 Y139.033
G01 X190.131 Y138.992
G01 X190.189 Y138.954
G01 X190.250 Y138.919
G01 X190.316 Y138.889
G01 X190.385 Y138.862
G01 X190.457 Y138.839
G01 X190.533 Y138.821
G01 X190.611 Y138.807
G01 X190.692 Y138.798
G01 X190.694 Y138.798
G01 X209.429 Y106.349
G01 X208.373 Y104.230
G01 X207.155 Y102.137
G01 X205.959 Y100.340
G01 X204.633 Y97.761
G01 X203.090 Y95.221
G01 X202.490 Y94.330
G01 X200.810 Y91.170
G01 X199.020 Y88.321
G01 X196.917 Y84.373
G01 X194.857 Y81.110
G01 X192.124 Y76.047
G01 X190.000 Y72.697
G01 X186.686 Y72.540
G01 X183.356 Y72.546
G01 X180.286 Y72.697
G01 X176.855 Y72.538
G01 X173.386 Y72.554
G01 X170.571 Y72.697
G01 X166.882 Y72.534
G01 X163.131 Y72.574
G01 X160.857 Y72.697
G01 X156.765 Y72.533
G01 X152.588 Y72.613
G01 X151.143 Y72.697
G01 X148.899 Y76.254
G01 X146.908 Y79.866
G01 X146.286 Y81.110
G01 X144.252 Y84.304
G01 X142.425 Y87.554
G01 X141.429 Y89.523
G01 X139.542 Y92.468
G01 X137.827 Y95.476
G01 X136.571 Y97.936
G01 X134.766 Y100.747
G01 X133.108 Y103.633
G01 X131.714 Y106.349
G01 X134.491 Y111.488
G01 X136.571 Y114.762
G01 X138.720 Y118.788
G01 X140.735 Y121.973
G01 X142.455 Y125.204
G01 X144.204 Y127.982
G01 X145.579 Y130.645
G01 X147.100 Y133.144
G01 X147.673 Y133.991
G01 X148.779 Y136.199
G01 X149.996 Y138.285
G01 X151.143 Y140.000
G01 X188.612 Y140.000
G01 X188.706 Y139.936
G01 X188.803 Y139.882
G01 X188.901 Y139.837
G01 X189.001 Y139.801
G01 X189.101 Y139.775
G01 X189.202 Y139.758
G01 X189.301 Y139.750
G01 X189.400 Y139.751
G01 X189.496 Y139.762
G01 X189.590 Y139.781
G01 X189.680 Y139.808
G01 X189.767 Y139.844
G01 X189.849 Y139.888
G01 X189.926 Y139.939
G01 X189.997 Y139.997
G01 X190.000 Y140.000
G01 X189.956 Y139.956
G01 X189.917 Y139.908
G01 X189.882 Y139.855
G01 X189.852 Y139.800
G01 X189.828 Y139.741
G01 X189.809 Y139.679
G01 X189.795 Y139.615
G01 X189.788 Y139.549
G01 X189.787 Y139.482
G01 X189.792 Y139.413
G01 X189.803 Y139.344
G01 X189.820 Y139.275
G01 X189.844 Y139.206
G01 X189.874 Y139.138
G01 X189.910 Y139.070
G01 X189.953 Y139.005
G01 X190.002 Y138.942
G01 X190.057 Y138.881
G01 X190.118 Y138.823
G01 X190.185 Y138.769
G01 X190.258 Y138.718
G01 X190.336 Y138.672
G01 X190.359 Y138.660
G01 X200.057 Y102.467
G01 X198.489 Y100.694
G01 X196.771 Y98.987
G01 X195.151 Y97.560
G01 X193.202 Y95.413
G01 X191.054 Y93.359
G01 X190.244 Y92.654
G01 X187.804 Y90.036
G01 X185.338 Y87.748
G01 X182.284 Y84.478
G01 X179.450 Y81.860
G01 X175.500 Y77.676
G01 X172.581 Y74.991
G01 X169.339 Y75.696
G01 X166.124 Y76.564
G01 X163.198 Y77.505
G01 X159.843 Y78.238
G01 X156.496 Y79.152
G01 X153.814 Y80.019
G01 X150.208 Y80.817
G01 X146.595 Y81.826
G01 X144.431 Y82.533
G01 X140.436 Y83.434
G01 X136.422 Y84.592
G01 X135.048 Y85.048
G01 X133.801 Y89.064
G01 X132.813 Y93.068
G01 X132.533 Y94.431
G01 X131.396 Y98.043
G01 X130.472 Y101.654
G01 X130.019 Y103.814
G01 X128.960 Y107.147
G01 X128.081 Y110.497
G01 X127.505 Y113.198
G01 X126.489 Y116.380
G01 X125.634 Y119.597
G01 X124.991 Y122.581
G01 X129.003 Y126.826
G01 X131.860 Y129.450
G01 X134.977 Y132.783
G01 X137.748 Y135.338
G01 X140.246 Y138.013
G01 X142.654 Y140.244
G01 X144.671 Y142.461
G01 X146.787 Y144.481
G01 X147.560 Y145.151
G01 X149.200 Y146.998
G01 X150.916 Y148.697
G01 X152.467 Y150.057
G01 X188.660 Y140.359
G01 X188.703 Y140.280
G01 X188.751 Y140.206
G01 X188.802 Y140.138
G01 X188.858 Y140.075
G01 X188.916 Y140.018
G01 X188.977 Y139.967
G01 X189.040 Y139.921
G01 X189.106 Y139.882
G01 X189.172 Y139.849
G01 X189.240 Y139.823
G01 X189.308 Y139.802
G01 X189.376 Y139.788
G01 X189.443 Y139.780
G01 X189.510 Y139.778
G01 X189.576 Y139.782
G01 X189.639 Y139.792
G01 X189.701 Y139.807
G01 X189.760 Y139.828
