;  Created by Sandify
;  https://sandify.org
;  Version: 0.2.4
;
;  Machine type: Rectangular
;    Min X (mm): 0
;    Max X (mm): 380
;    Min Y (mm): 0
;    Max Y (mm): 280
;  Content type: shape
;  Layer:
;    Shape: FileImport
;    Name: LinedCircles3.thr
;    From file:: LinedCircles3.thr
;    Aspect Ratio: true
;    Comments: 
;    Visible: true
;    Initial width: 10
;    Initial height: 10
;    X offset: 0
;    Y offset: 0
;    Rotate (degrees): 0
;    Reverse path: false
;    Fine tuning:
;      Connect to next layer: line
;      Draw portion of path (%): 100
;      Backtrack at end (%): 0
;      Rotate starting point (%): 0
;  Reverse export path: false
;
; File name: 'LinedCircles3'
;

G01 X190.000 Y140.000
G01 X189.997 Y140.063
G01 X189.988 Y140.125
G01 X189.972 Y140.186
G01 X189.951 Y140.246
G01 X189.924 Y140.304
G01 X189.891 Y140.360
G01 X189.852 Y140.413
G01 X189.808 Y140.464
G01 X189.759 Y140.510
G01 X189.704 Y140.553
G01 X189.645 Y140.592
G01 X189.582 Y140.626
G01 X189.514 Y140.655
G01 X189.443 Y140.679
G01 X189.368 Y140.697
G01 X189.290 Y140.710
G01 X189.210 Y140.716
G01 X189.127 Y140.716
G01 X189.043 Y140.710
G01 X188.957 Y140.697
G01 X188.870 Y140.677
G01 X188.833 Y140.667
G01 X165.500 Y154.000
G01 X165.875 Y155.403
G01 X166.191 Y156.404
G01 X167.236 Y157.391
G01 X168.319 Y158.316
G01 X168.342 Y158.335
G01 X169.961 Y158.728
G01 X171.560 Y159.008
G01 X173.755 Y158.479
G01 X175.303 Y157.984
G01 X178.285 Y155.641
G01 X180.268 Y152.679
G01 X180.852 Y150.779
G01 X181.387 Y149.433
G01 X181.476 Y148.462
G01 X181.637 Y147.524
G01 X181.708 Y147.214
G01 X181.660 Y146.566
G01 X181.655 Y145.931
G01 X181.691 Y145.311
G01 X181.725 Y145.001
G01 X181.620 Y144.519
G01 X181.542 Y144.038
G01 X181.491 Y143.561
G01 X181.466 Y143.089
G01 X181.463 Y142.828
G01 X181.318 Y142.410
G01 X181.193 Y141.985
G01 X181.088 Y141.554
G01 X181.005 Y141.117
G01 X180.949 Y140.721
G01 X180.739 Y140.281
G01 X180.551 Y139.823
G01 X180.385 Y139.347
G01 X180.245 Y138.854
G01 X180.206 Y138.700
G01 X179.810 Y138.135
G01 X179.447 Y137.528
G01 X179.120 Y136.881
G01 X178.832 Y136.196
G01 X178.713 Y135.869
G01 X177.883 Y134.877
G01 X177.124 Y133.795
G01 X176.828 Y133.313
G01 X174.567 Y131.188
G01 X173.817 Y130.386
G01 X169.448 Y127.556
G01 X162.624 Y125.194
G01 X158.279 Y124.806
G01 X153.839 Y124.813
G01 X153.432 Y124.834
G01 X149.836 Y125.608
G01 X146.234 Y126.702
G01 X142.759 Y128.068
G01 X139.788 Y129.910
G01 X136.889 Y132.015
G01 X134.082 Y134.382
G01 X133.077 Y135.316
G01 X130.898 Y138.049
G01 X128.856 Y140.983
G01 X126.963 Y144.114
G01 X126.319 Y145.292
G01 X125.081 Y148.620
G01 X124.021 Y152.081
G01 X123.147 Y155.666
G01 X122.913 Y156.814
G01 X122.692 Y160.428
G01 X122.666 Y164.103
G01 X122.842 Y167.829
G01 X122.921 Y168.802
G01 X123.722 Y172.397
G01 X124.715 Y175.983
G01 X125.903 Y179.548
G01 X126.539 Y181.242
G01 X128.334 Y184.526
G01 X130.299 Y187.733
G01 X132.431 Y190.854
G01 X133.419 Y192.195
G01 X136.046 Y194.911
G01 X138.803 Y197.495
G01 X141.684 Y199.941
G01 X143.723 Y201.532
G01 X146.991 Y203.444
G01 X150.335 Y205.185
G01 X153.745 Y206.751
G01 X157.076 Y208.088
G01 X160.713 Y209.017
G01 X164.362 Y209.754
G01 X168.011 Y210.300
G01 X171.653 Y210.659
G01 X174.673 Y210.814
G01 X178.304 Y210.651
G01 X181.881 Y210.304
G01 X182.877 Y210.174
G01 X186.606 Y205.110
G01 X188.498 Y202.146
G01 X191.450 Y198.177
G01 X193.316 Y195.265
G01 X195.708 Y192.152
G01 X197.803 Y188.945
G01 X198.134 Y188.384
G01 X200.052 Y185.889
G01 X201.745 Y183.326
G01 X202.149 Y182.650
G01 X203.756 Y180.611
G01 X205.193 Y178.521
G01 X206.164 Y176.916
G01 X207.528 Y175.220
G01 X208.767 Y173.481
G01 X209.877 Y171.707
G01 X210.179 Y171.182
G01 X211.372 Y169.719
G01 X212.470 Y168.216
G01 X213.474 Y166.677
G01 X214.194 Y165.448
G01 X215.290 Y164.112
G01 X216.313 Y162.731
G01 X217.262 Y161.307
G01 X218.135 Y159.845
G01 X218.209 Y159.714
G01 X219.290 Y158.399
G01 X220.309 Y157.025
G01 X221.263 Y155.594
G01 X222.150 Y154.112
G01 X222.224 Y153.980
G01 X223.376 Y152.572
G01 X224.466 Y151.084
G01 X225.489 Y149.520
G01 X226.239 Y148.246
G01 X227.548 Y146.625
G01 X228.784 Y144.895
G01 X229.938 Y143.060
G01 X230.254 Y142.512
G01 X231.057 Y141.365
G01 X231.772 Y139.338
G01 X231.831 Y139.152
G01 X231.483 Y137.119
G01 X231.436 Y136.884
G01 X230.024 Y135.005
G01 X229.664 Y134.562
G01 X226.653 Y133.128
G01 X226.354 Y133.002
G01 X222.494 Y132.953
G01 X219.098 Y134.118
G01 X216.393 Y136.001
G01 X216.267 Y136.081
G01 X215.066 Y137.510
G01 X214.031 Y138.580
G01 X213.418 Y139.768
G01 X212.747 Y140.891
G01 X212.389 Y141.432
G01 X212.074 Y142.504
G01 X211.708 Y143.549
G01 X211.323 Y144.496
G01 X211.200 Y145.569
G01 X211.022 Y146.641
G01 X210.801 Y147.662
G01 X210.853 Y148.866
G01 X210.835 Y150.093
G01 X210.790 Y150.843
G01 X211.065 Y152.338
G01 X211.242 Y153.884
G01 X211.249 Y153.968
G01 X212.000 Y156.061
G01 X212.521 Y157.949
G01 X214.387 Y161.475
G01 X214.457 Y161.624
G01 X217.659 Y165.668
G01 X222.406 Y169.583
G01 X228.812 Y172.730
G01 X234.562 Y173.982
G01 X237.766 Y174.456
G01 X242.620 Y174.162
G01 X247.552 Y173.469
G01 X247.796 Y173.424
G01 X252.007 Y171.907
G01 X256.202 Y170.053
G01 X257.095 Y169.612
G01 X260.625 Y167.112
G01 X264.065 Y164.336
G01 X265.032 Y163.489
G01 X267.754 Y160.211
G01 X270.332 Y156.721
G01 X271.675 Y154.727
G01 X273.440 Y150.850
G01 X275.019 Y146.835
G01 X275.808 Y144.560
G01 X276.557 Y140.347
G01 X277.097 Y136.071
G01 X277.303 Y133.704
G01 X277.032 Y129.411
G01 X276.549 Y125.129
G01 X276.199 Y122.816
G01 X274.942 Y118.685
G01 X273.488 Y114.635
G01 X272.235 Y111.573
G01 X270.027 Y107.859
G01 X267.655 Y104.292
G01 X265.128 Y100.880
G01 X265.093 Y100.835
G01 X262.052 Y97.801
G01 X258.895 Y94.969
G01 X255.637 Y92.344
G01 X253.908 Y91.062
G01 X250.233 Y88.998
G01 X246.513 Y87.174
G01 X242.761 Y85.591
G01 X238.993 Y84.245
G01 X237.660 Y83.826
G01 X233.781 Y82.944
G01 X231.696 Y82.568
G01 X226.395 Y84.314
G01 X222.487 Y85.920
G01 X218.232 Y87.307
G01 X214.593 Y88.793
G01 X211.085 Y89.942
G01 X208.016 Y91.187
G01 X205.044 Y92.129
G01 X202.209 Y93.240
G01 X201.438 Y93.582
G01 X198.896 Y94.363
G01 X196.458 Y95.278
G01 X194.860 Y95.976
G01 X192.642 Y96.641
G01 X190.501 Y97.416
G01 X188.443 Y98.295
G01 X188.282 Y98.370
G01 X186.283 Y98.961
G01 X184.337 Y99.647
G01 X182.450 Y100.425
G01 X181.704 Y100.764
G01 X179.816 Y101.319
G01 X177.961 Y101.965
G01 X176.146 Y102.699
G01 X175.126 Y103.158
G01 X173.236 Y103.714
G01 X171.364 Y104.367
G01 X169.516 Y105.116
G01 X168.549 Y105.552
G01 X166.538 Y106.147
G01 X164.535 Y106.857
G01 X162.546 Y107.684
G01 X161.971 Y107.946
G01 X159.721 Y108.624
G01 X157.471 Y109.446
G01 X155.393 Y110.341
G01 X152.904 Y111.241
G01 X152.762 Y111.298
G01 X150.825 Y112.761
G01 X150.815 Y112.770
G01 X149.971 Y115.003
G01 X149.912 Y115.173
G01 X150.152 Y117.525
G01 X151.183 Y119.615
G01 X153.085 Y121.552
G01 X156.420 Y123.192
G01 X159.898 Y123.671
G01 X162.532 Y123.306
G01 X163.263 Y123.243
G01 X164.983 Y122.554
G01 X166.372 Y122.092
G01 X167.632 Y121.250
G01 X168.918 Y120.488
G01 X169.139 Y120.366
G01 X170.144 Y119.383
G01 X171.195 Y118.452
G01 X171.512 Y118.189
G01 X172.371 Y117.004
G01 X173.303 Y115.852
G01 X173.463 Y115.666
G01 X174.234 Y114.159
G01 X174.979 Y112.889
G01 X175.626 Y110.759
G01 X176.323 Y108.926
G01 X176.788 Y105.480
G01 X176.913 Y104.812
G01 X176.647 Y99.658
G01 X175.362 Y94.689
G01 X172.638 Y89.201
G01 X168.107 Y83.719
G01 X163.216 Y80.034
G01 X161.580 Y78.939
G01 X156.785 Y76.925
G01 X153.127 Y75.667
G01 X148.407 Y75.042
G01 X143.540 Y74.731
G01 X143.137 Y74.720
G01 X138.612 Y75.365
G01 X134.041 Y76.301
G01 X133.283 Y76.484
G01 X129.143 Y78.236
G01 X125.041 Y80.243
G01 X124.216 Y80.681
G01 X120.642 Y83.374
G01 X117.175 Y86.276
G01 X116.441 Y86.929
G01 X113.583 Y90.380
G01 X110.887 Y93.984
G01 X110.322 Y94.788
G01 X108.311 Y98.809
G01 X106.503 Y102.918
G01 X105.778 Y104.738
G01 X104.770 Y109.138
G01 X103.990 Y113.552
G01 X103.601 Y116.452
G01 X103.699 Y120.973
G01 X104.031 Y125.428
G01 X104.514 Y129.309
G01 X105.737 Y133.640
G01 X107.176 Y137.826
G01 X108.818 Y141.855
G01 X109.063 Y142.404
G01 X111.341 Y146.209
G01 X113.793 Y149.798
G01 X116.402 Y153.161
G01 X119.153 Y156.293
G01 X119.574 Y156.739
G01 X122.713 Y159.527
G01 X125.950 Y162.049
G01 X129.267 Y164.301
G01 X132.645 Y166.284
G01 X134.169 Y167.081
G01 X138.227 Y168.331
G01 X142.266 Y169.252
G01 X142.282 Y169.255
G01 X145.646 Y170.284
G01 X148.991 Y171.057
G01 X149.044 Y171.067
G01 X151.895 Y171.967
G01 X154.733 Y172.666
G01 X155.805 Y172.879
G01 X158.255 Y173.673
G01 X160.699 Y174.309
G01 X162.567 Y174.690
G01 X164.724 Y175.403
G01 X166.885 Y175.989
G01 X169.041 Y176.450
G01 X169.328 Y176.502
G01 X171.301 Y177.161
G01 X173.289 Y177.714
G01 X175.285 Y178.163
G01 X176.090 Y178.314
G01 X177.987 Y178.949
G01 X179.913 Y179.491
G01 X181.863 Y179.937
G01 X182.851 Y180.126
G01 X184.785 Y180.772
G01 X186.765 Y181.325
G01 X188.786 Y181.781
G01 X189.613 Y181.937
G01 X191.700 Y182.630
G01 X193.854 Y183.217
G01 X196.070 Y183.693
G01 X196.374 Y183.749
G01 X198.736 Y184.519
G01 X201.188 Y185.159
G01 X203.136 Y185.561
G01 X205.894 Y186.436
G01 X208.769 Y187.146
G01 X209.897 Y187.373
G01 X213.148 Y188.322
G01 X215.306 Y188.822
G01 X217.564 Y188.764
G01 X219.646 Y187.384
G01 X220.797 Y185.334
G01 X221.125 Y183.004
G01 X220.619 Y180.353
G01 X218.741 Y177.170
G01 X216.094 Y174.888
G01 X213.042 Y173.439
G01 X210.355 Y172.885
G01 X209.812 Y172.747
G01 X207.692 Y172.773
G01 X206.562 Y172.733
G01 X204.756 Y173.104
G01 X203.405 Y173.319
G01 X201.764 Y173.968
G01 X200.424 Y174.430
G01 X198.859 Y175.448
G01 X197.219 Y176.395
G01 X196.830 Y176.603
G01 X195.201 Y178.180
G01 X193.758 Y179.420
G01 X191.928 Y181.926
G01 X191.272 Y182.734
G01 X189.406 Y186.408
G01 X187.961 Y191.324
G01 X187.488 Y196.405
G01 X188.141 Y202.467
G01 X190.438 Y209.167
G01 X194.163 Y215.035
G01 X194.805 Y215.945
G01 X199.015 Y219.959
G01 X201.477 Y222.044
G01 X206.104 Y224.614
G01 X209.461 Y226.236
G01 X214.328 Y227.550
G01 X218.203 Y228.376
G01 X223.107 Y228.495
G01 X228.090 Y228.343
G01 X228.180 Y228.338
G01 X232.917 Y227.271
G01 X237.640 Y225.949
G01 X237.836 Y225.889
G01 X242.189 Y223.753
G01 X246.447 Y221.396
G01 X246.652 Y221.276
G01 X250.432 Y218.217
G01 X254.048 Y214.984
G01 X254.214 Y214.827
G01 X257.249 Y210.995
G01 X260.064 Y207.048
G01 X260.722 Y206.061
G01 X262.811 Y201.608
G01 X264.635 Y197.111
G01 X265.360 Y195.107
G01 X266.333 Y190.263
G01 X267.015 Y185.458
G01 X267.305 Y182.384
G01 X267.046 Y177.449
G01 X266.494 Y172.643
G01 X265.662 Y167.984
G01 X265.592 Y167.656
G01 X264.015 Y163.029
G01 X262.173 Y158.626
G01 X260.085 Y154.461
G01 X257.768 Y150.547
G01 X257.275 Y149.788
G01 X254.490 Y146.170
G01 X251.520 Y142.851
G01 X250.071 Y141.400
G01 X247.858 Y138.508
G01 X245.511 Y135.836
G01 X244.672 Y134.965
G01 X242.776 Y132.513
G01 X240.775 Y130.235
G01 X240.172 Y129.603
G01 X238.516 Y127.435
G01 X236.770 Y125.404
G01 X235.673 Y124.241
G01 X234.189 Y122.282
G01 X232.624 Y120.429
G01 X231.173 Y118.878
G01 X229.796 Y117.052
G01 X228.339 Y115.309
G01 X226.808 Y113.653
G01 X226.674 Y113.516
G01 X225.338 Y111.742
G01 X223.917 Y110.035
G01 X222.413 Y108.399
G01 X222.174 Y108.154
G01 X220.815 Y106.349
G01 X219.355 Y104.602
G01 X217.798 Y102.917
G01 X217.675 Y102.791
G01 X216.222 Y100.871
G01 X214.647 Y99.006
G01 X213.175 Y97.429
G01 X211.558 Y95.308
G01 X209.787 Y93.246
G01 X208.676 Y92.067
G01 X206.818 Y89.661
G01 X204.768 Y87.327
G01 X204.176 Y86.704
G01 X202.015 Y83.875
G01 X199.608 Y81.135
G01 X198.777 Y80.270
G01 X196.110 Y77.088
G01 X196.077 Y77.052
G01 X194.088 Y75.801
G01 X191.946 Y75.773
G01 X189.849 Y76.757
G01 X188.249 Y78.482
G01 X187.181 Y80.951
G01 X186.980 Y84.627
G01 X187.938 Y87.974
G01 X189.705 Y90.840
G01 X192.020 Y93.137
G01 X192.042 Y93.160
G01 X194.225 Y94.538
G01 X194.769 Y94.912
G01 X196.893 Y95.733
G01 X197.744 Y96.099
G01 X199.912 Y96.432
G01 X201.901 Y96.835
G01 X204.261 Y96.693
G01 X206.081 Y96.671
G01 X208.854 Y95.956
G01 X210.117 Y95.693
G01 X213.620 Y94.104
G01 X213.882 Y93.998
G01 X217.280 Y91.686
G01 X220.906 Y88.082
G01 X223.756 Y83.862
G01 X226.082 Y78.239
G01 X227.258 Y71.266
G01 X226.679 Y63.609
G01 X226.634 Y63.239
G01 X224.657 Y57.150
G01 X224.081 Y55.625
G01 X221.060 Y50.717
G01 X219.215 Y48.042
G01 X215.320 Y44.252
G01 X212.650 Y41.897
G01 X208.114 Y39.206
G01 X204.844 Y37.464
G01 X199.887 Y35.880
G01 X196.255 Y34.891
G01 X191.093 Y34.411
G01 X187.325 Y34.221
G01 X182.166 Y34.853
G01 X177.493 Y35.651
G01 X172.562 Y37.416
G01 X168.226 Y39.209
G01 X163.745 Y42.034
G01 X159.487 Y45.051
G01 X159.172 Y45.289
G01 X155.400 Y49.115
G01 X151.926 Y53.077
G01 X151.139 Y54.044
G01 X148.339 Y58.729
G01 X145.902 Y63.476
G01 X145.038 Y65.364
G01 X143.464 Y70.689
G01 X142.299 Y75.982
G01 X141.704 Y79.799
G01 X141.652 Y85.450
G01 X142.031 Y90.953
G01 X142.826 Y96.279
G01 X143.280 Y98.453
G01 X144.984 Y103.763
G01 X147.087 Y108.798
G01 X148.473 Y111.567
G01 X148.598 Y114.543
G01 X148.911 Y117.436
G01 X149.083 Y118.541
G01 X149.168 Y121.078
G01 X149.400 Y123.555
G01 X149.693 Y125.514
G01 X149.753 Y127.729
G01 X149.931 Y129.903
G01 X150.224 Y132.030
G01 X150.303 Y132.487
G01 X150.350 Y134.495
G01 X150.498 Y136.480
G01 X150.744 Y138.438
G01 X150.913 Y139.461
G01 X150.956 Y141.378
G01 X151.092 Y143.291
G01 X151.322 Y145.193
G01 X151.523 Y146.434
G01 X151.567 Y148.384
G01 X151.710 Y150.344
G01 X151.954 Y152.311
G01 X152.134 Y153.407
G01 X152.186 Y155.516
G01 X152.356 Y157.652
G01 X152.646 Y159.807
G01 X152.744 Y160.381
G01 X152.817 Y162.779
G01 X153.039 Y165.218
G01 X153.354 Y167.354
G01 X153.465 Y170.172
G01 X153.767 Y173.043
G01 X153.964 Y174.328
G01 X154.131 Y177.694
G01 X154.546 Y181.123
G01 X154.574 Y181.301
G01 X154.772 Y185.401
G01 X155.291 Y189.576
G01 X155.306 Y189.669
G01 X155.713 Y194.611
G01 X155.794 Y195.248
G01 X156.600 Y197.246
G01 X158.230 Y198.488
G01 X160.439 Y198.922
G01 X162.710 Y198.462
G01 X165.005 Y197.051
G01 X167.239 Y194.132
G01 X168.299 Y190.825
G01 X168.401 Y187.468
G01 X167.710 Y184.256
G01 X166.462 Y181.529
G01 X166.372 Y181.312
G01 X164.895 Y179.286
G01 X164.509 Y178.715
G01 X162.792 Y177.210
G01 X161.399 Y175.872
G01 X159.375 Y174.764
G01 X157.779 Y173.792
G01 X155.275 Y173.012
G01 X153.842 Y172.491
G01 X150.557 Y172.088
G01 X149.754 Y171.954
G01 X145.655 Y172.148
G01 X140.691 Y173.340
G01 X136.076 Y175.478
G01 X131.198 Y179.105
G01 X126.637 Y184.499
G01 X123.454 Y190.783
G01 X121.808 Y197.547
G01 X121.603 Y198.592
G01 X121.624 Y204.654
G01 X121.788 Y207.594
G01 X123.209 Y213.022
G01 X124.225 Y216.244
G01 X126.797 Y220.979
G01 X128.653 Y224.048
G01 X132.173 Y227.989
G01 X134.741 Y230.623
G01 X139.011 Y233.672
G01 X142.116 Y235.697
G01 X146.952 Y237.742
G01 X151.344 Y239.364
G01 X156.555 Y240.275
G01 X161.153 Y240.856
G01 X166.503 Y240.584
G01 X171.755 Y240.034
G01 X172.020 Y239.998
G01 X177.243 Y238.489
G01 X182.273 Y236.713
G01 X182.391 Y236.667
G01 X187.230 Y233.973
G01 X191.787 Y231.043
G01 X192.543 Y230.516
G01 X196.700 Y226.652
G01 X200.486 Y222.608
G01 X202.179 Y220.597
G01 X205.257 Y215.631
G01 X207.880 Y210.568
G01 X209.575 Y206.655
G01 X211.138 Y200.772
G01 X212.174 Y194.907
G01 X212.691 Y189.099
G01 X212.748 Y187.233
G01 X212.286 Y180.997
G01 X211.674 Y176.948
G01 X212.937 Y175.039
G01 X214.065 Y173.097
G01 X215.060 Y171.131
G01 X215.174 Y170.886
G01 X216.296 Y169.210
G01 X217.314 Y167.499
G01 X218.229 Y165.759
G01 X218.674 Y164.824
G01 X219.716 Y163.276
G01 X220.675 Y161.686
G01 X221.550 Y160.058
G01 X222.174 Y158.762
G01 X223.202 Y157.236
G01 X224.157 Y155.655
G01 X225.036 Y154.021
G01 X225.674 Y152.700
G01 X226.758 Y151.086
G01 X227.767 Y149.396
G01 X228.699 Y147.633
G01 X229.174 Y146.637
G01 X230.383 Y144.818
G01 X231.505 Y142.896
G01 X232.533 Y140.875
G01 X232.674 Y140.575
G01 X234.074 Y138.430
G01 X235.362 Y136.149
G01 X236.174 Y134.513
G01 X237.826 Y131.920
G01 X239.331 Y129.152
G01 X239.674 Y128.451
G01 X241.708 Y125.269
G01 X243.542 Y121.863
G01 X243.874 Y121.176
G01 X246.369 Y117.143
G01 X248.074 Y113.902
G01 X251.201 Y108.801
G01 X252.974 Y105.415
G01 X253.674 Y104.202
G01 X254.129 Y102.017
G01 X253.295 Y99.927
G01 X251.303 Y98.306
G01 X248.763 Y97.653
G01 X246.193 Y97.901
G01 X242.940 Y99.420
G01 X240.470 Y101.790
G01 X238.779 Y104.652
G01 X237.827 Y107.770
G01 X237.559 Y110.974
G01 X238.002 Y113.845
G01 X238.151 Y115.162
G01 X239.158 Y117.624
G01 X239.681 Y119.058
G01 X241.227 Y121.310
G01 X241.987 Y122.513
G01 X244.208 Y124.682
G01 X244.912 Y125.426
G01 X248.116 Y127.593
G01 X248.310 Y127.734
G01 X252.045 Y129.404
G01 X256.998 Y130.581
G01 X262.069 Y130.762
G01 X268.048 Y129.738
G01 X274.545 Y126.999
G01 X280.216 Y122.839
G01 X285.154 Y117.010
G01 X285.385 Y116.714
G01 X288.374 Y110.801
G01 X288.941 Y109.549
G01 X290.404 Y103.616
G01 X290.778 Y101.776
G01 X290.868 Y95.967
G01 X290.779 Y92.810
G01 X289.545 Y87.285
G01 X288.695 Y84.100
G01 X286.280 Y79.042
G01 X284.722 Y76.085
G01 X281.273 Y71.663
G01 X279.123 Y69.119
G01 X274.769 Y65.507
G01 X271.370 Y62.935
G01 X266.245 Y60.336
G01 X262.445 Y58.629
G01 X256.742 Y57.186
G01 X251.825 Y56.224
G01 X245.747 Y56.138
G01 X239.960 Y56.428
G01 X233.769 Y57.885
G01 X227.847 Y59.740
G01 X227.578 Y59.835
G01 X221.589 Y62.990
G01 X216.445 Y66.224
G01 X210.894 Y71.263
G01 X206.570 Y75.879
G01 X201.678 Y83.492
G01 X199.849 Y86.802
G01 X196.229 Y97.035
G01 X194.875 Y104.532
G01 X193.048 Y105.261
G01 X191.304 Y106.081
G01 X189.800 Y106.898
G01 X188.207 Y107.521
G01 X186.676 Y108.220
G01 X185.208 Y108.988
G01 X184.724 Y109.265
G01 X183.281 Y109.824
G01 X181.880 Y110.449
G01 X180.524 Y111.139
G01 X179.649 Y111.632
G01 X178.266 Y112.165
G01 X176.910 Y112.766
G01 X175.585 Y113.433
G01 X174.574 Y113.998
G01 X173.157 Y114.545
G01 X171.757 Y115.170
G01 X170.378 Y115.870
G01 X169.498 Y116.365
G01 X167.951 Y116.968
G01 X166.414 Y117.668
G01 X164.893 Y118.463
G01 X164.423 Y118.732
G01 X162.646 Y119.438
G01 X160.879 Y120.269
G01 X159.348 Y121.098
G01 X157.196 Y121.930
G01 X155.055 Y122.930
G01 X153.004 Y124.057
G01 X150.297 Y125.155
G01 X147.614 Y126.482
G01 X146.659 Y127.015
G01 X143.254 Y128.461
G01 X140.315 Y129.973
G01 X135.972 Y131.832
G01 X132.702 Y133.523
G01 X127.029 Y135.998
G01 X123.820 Y137.665
G01 X118.745 Y140.032
G01 X117.245 Y141.388
G01 X116.676 Y143.426
G01 X117.248 Y145.804
G01 X118.872 Y147.823
G01 X121.111 Y149.133
G01 X124.649 Y149.757
G01 X128.023 Y149.197
G01 X131.020 Y147.769
G01 X133.535 Y145.702
G01 X135.517 Y143.177
G01 X136.868 Y140.487
G01 X136.946 Y140.342
G01 X137.578 Y137.763
G01 X138.004 Y136.287
G01 X138.047 Y133.716
G01 X138.137 Y132.134
G01 X137.617 Y129.403
G01 X137.419 Y128.068
G01 X136.202 Y124.981
G01 X135.942 Y124.235
G01 X133.804 Y120.748
G01 X130.359 Y117.001
G01 X126.243 Y114.037
G01 X120.689 Y111.604
G01 X114.757 Y110.436
G01 X107.728 Y110.644
G01 X100.057 Y112.802
G01 X100.015 Y112.816
G01 X94.185 Y116.116
G01 X93.084 Y116.805
G01 X88.623 Y120.942
G01 X87.285 Y122.293
G01 X84.093 Y127.055
G01 X82.416 Y129.820
G01 X80.517 Y135.041
G01 X79.493 Y138.282
G01 X78.854 Y143.729
G01 X78.590 Y147.179
G01 X79.170 Y152.626
G01 X79.673 Y156.047
G01 X81.410 Y161.282
G01 X82.616 Y164.475
G01 X85.463 Y169.290
G01 X87.833 Y172.898
G01 X91.747 Y177.051
G01 X94.775 Y179.958
G01 X99.635 Y183.249
G01 X103.945 Y185.812
G01 X109.652 Y187.976
G01 X115.166 Y189.645
G01 X121.574 Y190.398
G01 X127.866 Y190.649
G01 X127.960 Y190.649
G01 X134.936 Y189.651
G01 X141.537 Y188.132
G01 X149.065 Y184.855
G01 X153.157 Y182.712
G01 X162.105 Y175.746
G01 X162.481 Y175.421
G01 X168.344 Y168.750
G01 X172.142 Y162.978
G01 X174.827 Y157.703
G01 X176.040 Y158.006
G01 X177.245 Y158.234
G01 X178.438 Y158.388
G01 X178.963 Y158.433
G01 X180.014 Y158.702
G01 X181.065 Y158.914
G01 X182.112 Y159.068
G01 X183.099 Y159.162
G01 X184.067 Y159.413
G01 X185.043 Y159.616
G01 X186.025 Y159.770
G01 X187.010 Y159.874
G01 X187.235 Y159.891
G01 X188.202 Y160.143
G01 X189.187 Y160.347
G01 X190.188 Y160.502
G01 X191.202 Y160.608
G01 X191.372 Y160.621
G01 X192.424 Y160.891
G01 X193.506 Y161.107
G01 X194.614 Y161.266
G01 X195.508 Y161.350
G01 X196.736 Y161.656
G01 X198.007 Y161.890
G01 X199.316 Y162.051
G01 X199.644 Y162.079
G01 X201.165 Y162.484
G01 X202.748 Y162.791
G01 X204.386 Y162.994
G01 X205.159 Y163.052
G01 X207.194 Y163.543
G01 X209.311 Y163.887
G01 X210.674 Y164.024
G01 X213.443 Y164.682
G01 X216.324 Y165.122
G01 X217.567 Y165.240
G01 X221.420 Y166.052
G01 X224.461 Y166.455
G01 X229.747 Y167.523
G01 X232.733 Y167.914
G01 X240.091 Y169.318
G01 X242.385 Y169.616
G01 X252.812 Y171.549
G01 X254.793 Y171.804
G01 X257.551 Y172.290
G01 X259.623 Y171.986
G01 X261.305 Y170.391
G01 X261.995 Y167.692
G01 X261.416 Y165.037
G01 X259.221 Y162.060
G01 X256.269 Y160.240
G01 X253.023 Y159.424
G01 X249.752 Y159.474
G01 X246.629 Y160.259
G01 X243.771 Y161.658
G01 X241.327 Y163.663
G01 X240.502 Y164.287
G01 X238.824 Y166.505
G01 X237.951 Y167.571
G01 X236.801 Y170.058
G01 X236.171 Y171.298
G01 X235.477 Y174.201
G01 X235.174 Y175.284
G01 X234.988 Y178.840
G01 X234.941 Y179.367
G01 X235.434 Y183.413
G01 X236.989 Y188.243
G01 X239.466 Y192.653
G01 X243.459 Y197.198
G01 X248.323 Y200.769
G01 X254.760 Y203.571
G01 X262.651 Y204.897
G01 X269.602 Y204.370
G01 X270.612 Y204.251
G01 X276.617 Y202.341
G01 X278.190 Y201.768
G01 X283.314 Y198.751
G01 X285.014 Y197.660
G01 X289.187 Y193.718
G01 X291.425 Y191.422
G01 X294.524 Y186.695
G01 X296.215 Y183.877
G01 X298.177 Y178.590
G01 X299.202 Y175.463
G01 X299.987 Y169.839
G01 X300.309 Y166.610
G01 X299.863 Y160.858
G01 X299.356 Y156.754
G01 X297.602 Y151.116
G01 X296.232 Y147.365
G01 X293.174 Y142.077
G01 X290.554 Y138.091
G01 X286.133 Y133.446
G01 X282.126 Y129.758
G01 X276.328 Y126.085
G01 X271.940 Y123.710
G01 X264.664 Y121.306
G01 X259.653 Y120.044
G01 X250.372 Y119.448
G01 X247.832 Y119.435
G01 X237.123 Y121.181
G01 X228.760 Y124.164
G01 X222.648 Y127.383
G01 X217.755 Y130.718
G01 X215.214 Y132.923
G01 X213.960 Y133.871
G01 X212.597 Y135.388
G01 X211.147 Y136.755
G01 X210.449 Y137.337
G01 X209.563 Y138.311
G01 X208.834 Y137.438
G01 X208.068 Y136.632
G01 X207.269 Y135.894
G01 X206.593 Y135.341
G01 X206.025 Y134.639
G01 X205.430 Y133.981
G01 X204.809 Y133.369
G01 X204.166 Y132.802
G01 X203.623 Y132.371
G01 X203.143 Y131.768
G01 X202.636 Y131.193
G01 X202.105 Y130.648
G01 X201.551 Y130.134
G01 X200.976 Y129.652
G01 X200.653 Y129.401
G01 X200.189 Y128.816
G01 X199.692 Y128.251
G01 X199.165 Y127.708
G01 X198.608 Y127.188
G01 X198.021 Y126.694
G01 X197.683 Y126.431
G01 X197.157 Y125.775
G01 X196.585 Y125.138
G01 X195.967 Y124.523
G01 X195.304 Y123.934
G01 X194.713 Y123.461
G01 X194.037 Y122.644
G01 X193.292 Y121.855
G01 X192.478 Y121.098
G01 X191.743 Y120.492
G01 X190.824 Y119.431
G01 X189.805 Y118.415
G01 X188.774 Y117.522
G01 X187.511 Y116.055
G01 X186.101 Y114.662
G01 X184.814 Y113.562
G01 X182.948 Y111.527
G01 X180.871 Y109.616
G01 X180.854 Y109.602
G01 X178.184 Y106.740
G01 X175.904 Y104.652
G01 X171.977 Y100.550
G01 X169.965 Y98.713
G01 X164.073 Y92.640
G01 X162.045 Y90.793
G01 X153.135 Y81.884
G01 X150.166 Y78.914
G01 X148.508 Y78.032
G01 X146.370 Y78.236
G01 X144.298 Y79.811
G01 X143.146 Y82.207
G01 X142.947 Y84.734
G01 X143.906 Y88.139
G01 X145.858 Y90.902
G01 X148.433 Y92.954
G01 X151.378 Y94.289
G01 X154.502 Y94.936
G01 X157.662 Y94.942
G01 X160.481 Y94.292
G01 X161.738 Y94.056
G01 X164.116 Y92.888
G01 X165.478 Y92.283
G01 X167.608 Y90.604
G01 X168.744 Y89.779
G01 X170.740 Y87.449
G01 X171.439 Y86.696
G01 X173.360 Y83.411
G01 X173.508 Y83.180
G01 X174.919 Y79.367
G01 X175.752 Y74.372
G01 X175.576 Y69.326
G01 X174.118 Y63.465
G01 X170.885 Y57.228
G01 X166.276 Y51.948
G01 X160.194 Y47.672
G01 X159.725 Y47.371
G01 X153.713 Y45.034
G01 X152.267 Y44.541
G01 X146.368 Y43.727
G01 X144.364 Y43.534
G01 X138.694 Y44.034
G01 X136.446 Y44.320
G01 X131.170 Y46.032
G01 X127.988 Y47.211
G01 X123.296 Y50.078
G01 X120.441 Y51.983
G01 X116.499 Y55.838
G01 X114.158 Y58.318
G01 X111.108 Y62.985
G01 X109.396 Y65.857
G01 X107.384 Y71.175
G01 X106.085 Y75.182
G01 X105.294 Y80.972
G01 X104.953 Y85.007
G01 X105.491 Y91.061
G01 X106.203 Y95.804
G01 X108.271 Y101.897
G01 X110.363 Y106.895
G01 X114.176 Y112.761
G01 X117.098 Y116.635
G01 X122.971 Y122.092
G01 X125.939 Y124.505
G01 X134.929 Y129.509
G01 X135.432 Y129.758
G01 X144.832 Y132.747
G01 X152.646 Y133.866
G01 X159.552 Y133.911
G01 X163.943 Y133.445
G01 X164.461 Y133.417
G01 X166.950 Y132.835
G01 X169.307 Y132.493
G01 X170.858 Y131.972
G01 X172.408 Y131.584
G01 X173.114 Y131.451
G01 X174.164 Y130.980
G01 X175.218 Y130.591
G01 X176.270 Y130.283
G01 X176.839 Y130.149
G01 X177.594 Y129.727
G01 X178.359 Y129.356
G01 X179.130 Y129.034
G01 X179.903 Y128.761
G01 X180.465 Y128.594
G01 X181.075 Y128.191
G01 X181.702 Y127.821
G01 X182.343 Y127.484
G01 X182.998 Y127.180
G01 X183.663 Y126.910
G01 X183.977 Y126.796
G01 X184.592 Y126.414
G01 X185.229 Y126.061
G01 X185.460 Y125.943
G01 X185.926 Y129.225
G01 X186.432 Y131.458
G01 X186.498 Y132.651
G01 X186.670 Y133.814
G01 X186.947 Y134.940
G01 X187.162 Y135.594
G01 X187.211 Y136.105
G01 X187.304 Y136.600
G01 X187.405 Y136.973
G01 X187.409 Y137.262
G01 X187.436 Y137.544
G01 X187.483 Y137.816
G01 X187.551 Y138.077
G01 X187.637 Y138.325
G01 X187.648 Y138.352
G01 X187.634 Y138.509
G01 X187.629 Y138.664
G01 X187.634 Y138.816
G01 X187.648 Y138.964
G01 X187.671 Y139.108
G01 X187.702 Y139.247
G01 X187.741 Y139.380
G01 X187.787 Y139.508
G01 X187.840 Y139.630
G01 X187.891 Y139.730
G01 X187.877 Y139.834
G01 X187.868 Y139.938
G01 X187.864 Y140.043
G01 X187.866 Y140.148
G01 X187.872 Y140.253
G01 X187.884 Y140.357
G01 X187.901 Y140.461
G01 X187.923 Y140.565
G01 X187.950 Y140.667
G01 X187.982 Y140.768
G01 X188.019 Y140.867
G01 X188.061 Y140.965
G01 X188.108 Y141.061
G01 X188.134 Y141.109
G01 X188.119 Y141.247
G01 X188.113 Y141.388
G01 X188.117 Y141.534
G01 X188.131 Y141.682
G01 X188.154 Y141.832
G01 X188.188 Y141.984
G01 X188.233 Y142.137
G01 X188.289 Y142.290
G01 X188.355 Y142.442
G01 X188.377 Y142.488
G01 X188.382 Y142.769
G01 X188.410 Y143.055
G01 X188.463 Y143.345
G01 X188.541 Y143.636
G01 X188.620 Y143.866
G01 X188.636 Y144.510
G01 X188.712 Y145.160
G01 X188.849 Y145.812
G01 X189.047 Y146.462
G01 X189.106 Y146.624
G01 X189.290 Y148.338
G01 X189.639 Y150.046
G01 X189.836 Y150.760
G01 X190.530 Y155.660
G01 X191.294 Y159.033
G01 X193.726 Y172.820
G01 X198.101 Y197.637
G01 X200.046 Y208.667
G01 X201.337 Y211.963
G01 X203.896 Y214.633
G01 X207.757 Y216.367
G01 X211.825 Y216.673
G01 X215.657 Y215.792
G01 X216.255 Y215.636
G01 X219.698 Y213.670
G01 X220.914 Y212.919
G01 X223.778 Y209.912
G01 X225.164 Y208.327
G01 X227.216 Y204.345
G01 X228.295 Y201.956
G01 X229.271 Y197.071
G01 X229.678 Y194.121
G01 X229.227 Y188.339
G01 X228.796 Y185.334
G01 X226.309 Y178.437
G01 X225.793 Y177.217
G01 X221.115 Y170.082
G01 X215.953 Y164.791
G01 X210.914 Y161.019
G01 X206.946 Y158.791
G01 X206.380 Y158.432
G01 X204.054 Y157.470
G01 X202.582 Y156.730
G01 X201.052 Y156.304
G01 X199.596 Y155.770
G01 X198.667 Y155.356
G01 X197.588 Y155.136
G01 X196.553 Y154.848
G01 X195.671 Y154.539
G01 X194.828 Y154.432
G01 X194.009 Y154.278
G01 X193.217 Y154.080
G01 X192.637 Y153.902
G01 X191.930 Y153.859
G01 X191.234 Y153.781
G01 X190.550 Y153.669
G01 X189.880 Y153.523
G01 X189.576 Y153.444
G01 X188.914 Y153.444
G01 X188.251 Y153.410
G01 X187.589 Y153.344
G01 X186.929 Y153.245
G01 X186.500 Y153.163
G01 X185.786 Y153.201
G01 X185.060 Y153.201
G01 X184.324 Y153.160
G01 X183.581 Y153.079
G01 X183.417 Y153.055
G01 X182.554 Y153.122
G01 X181.669 Y153.134
G01 X180.829 Y153.096
G01 X181.975 Y150.340
G01 X183.196 Y148.020
G01 X183.592 Y146.842
G01 X184.086 Y145.724
G01 X184.672 Y144.673
G01 X184.971 Y144.214
G01 X185.093 Y143.717
G01 X185.252 Y143.243
G01 X185.444 Y142.794
G01 X185.668 Y142.373
G01 X185.922 Y141.980
G01 X186.154 Y141.676
G01 X186.223 Y141.430
G01 X186.307 Y141.195
G01 X186.404 Y140.971
G01 X186.514 Y140.760
G01 X186.636 Y140.562
G01 X186.746 Y140.407
G01 X186.784 Y140.243
G01 X186.829 Y140.084
G01 X186.883 Y139.929
G01 X186.944 Y139.780
G01 X187.012 Y139.637
G01 X187.087 Y139.500
G01 X187.168 Y139.369
G01 X187.254 Y139.246
G01 X187.337 Y139.139
G01 X187.367 Y139.003
G01 X187.403 Y138.868
G01 X187.446 Y138.734
G01 X187.496 Y138.602
G01 X187.553 Y138.471
G01 X187.616 Y138.343
G01 X187.687 Y138.218
G01 X187.764 Y138.095
G01 X187.847 Y137.976
G01 X187.929 Y137.870
G01 X187.970 Y137.696
G01 X188.023 Y137.521
G01 X188.089 Y137.345
G01 X188.167 Y137.171
G01 X188.257 Y136.997
G01 X188.361 Y136.827
G01 X188.477 Y136.659
G01 X188.521 Y136.601
G01 X188.608 Y136.317
G01 X188.719 Y136.034
G01 X188.856 Y135.753
G01 X189.016 Y135.477
G01 X189.112 Y135.332
G01 X189.270 Y134.772
G01 X189.480 Y134.217
G01 X189.743 Y133.671
G01 X190.058 Y133.139
G01 X190.296 Y132.794
G01 X190.771 Y131.470
G01 X191.376 Y130.178
G01 X192.071 Y128.988
G01 X193.424 Y125.695
G01 X195.029 Y122.644
G01 X198.881 Y114.165
G01 X199.762 Y112.493
G01 X207.454 Y95.998
G01 X216.329 Y76.966
G01 X217.097 Y73.703
G01 X216.486 Y70.222
G01 X214.467 Y66.996
G01 X211.237 Y64.527
G01 X211.110 Y64.436
G01 X207.436 Y63.231
G01 X206.473 Y62.948
G01 X202.557 Y62.942
G01 X201.190 Y62.987
G01 X197.240 Y64.186
G01 X195.343 Y64.851
G01 X191.591 Y67.338
G01 X189.586 Y68.823
G01 X186.303 Y72.725
G01 X184.651 Y74.944
G01 X182.166 Y80.591
G01 X181.274 Y83.012
G01 X180.120 Y91.515
G01 X180.119 Y91.520
G01 X180.744 Y98.916
G01 X182.357 Y105.018
G01 X184.378 Y109.842
G01 X186.354 Y113.201
G01 X186.947 Y114.370
G01 X188.344 Y116.191
G01 X189.357 Y117.750
G01 X190.428 Y118.846
G01 X191.389 Y119.991
G01 X192.049 Y120.895
G01 X192.894 Y121.587
G01 X193.677 Y122.316
G01 X194.395 Y123.075
G01 X194.992 Y123.789
G01 X195.691 Y124.303
G01 X196.352 Y124.846
G01 X196.974 Y125.415
G01 X197.348 Y125.789
G01 X198.026 Y126.185
G01 X198.683 Y126.613
G01 X199.318 Y127.071
G01 X199.928 Y127.560
G01 X200.513 Y128.078
G01 X200.665 Y128.221
G01 X201.409 Y128.579
G01 X202.143 Y128.982
G01 X202.865 Y129.430
G01 X203.572 Y129.923
G01 X204.157 Y130.376
G01 X205.128 Y130.768
G01 X206.093 Y131.232
G01 X207.048 Y131.770
G01 X207.799 Y132.251
G01 X209.203 Y132.738
G01 X210.600 Y133.346
G01 X211.566 Y133.842
G01 X213.803 Y134.450
G01 X216.026 Y135.265
G01 X216.415 Y135.429
G01 X217.627 Y135.752
G01 X214.991 Y137.404
G01 X212.777 Y138.552
G01 X211.107 Y139.696
G01 X209.384 Y140.672
G01 X207.927 Y141.352
G01 X206.853 Y142.106
G01 X205.749 Y142.759
G01 X204.625 Y143.309
G01 X204.290 Y143.452
G01 X203.583 Y143.996
G01 X202.859 Y144.479
G01 X202.121 Y144.901
G01 X201.374 Y145.263
G01 X200.653 Y145.552
G01 X200.130 Y145.928
G01 X199.596 Y146.268
G01 X199.054 Y146.569
G01 X198.506 Y146.833
G01 X198.228 Y146.952
G01 X197.795 Y147.270
G01 X197.350 Y147.563
G01 X196.895 Y147.830
G01 X196.433 Y148.071
G01 X195.963 Y148.285
G01 X195.803 Y148.352
G01 X195.401 Y148.649
G01 X194.983 Y148.927
G01 X194.551 Y149.185
G01 X194.105 Y149.422
G01 X193.648 Y149.637
G01 X193.378 Y149.752
G01 X192.944 Y150.071
G01 X192.487 Y150.371
G01 X192.007 Y150.650
G01 X191.505 Y150.907
G01 X190.983 Y151.139
G01 X190.953 Y151.152
G01 X190.418 Y151.536
G01 X189.847 Y151.894
G01 X189.242 Y152.222
G01 X188.604 Y152.520
G01 X188.528 Y152.552
G01 X187.808 Y153.101
G01 X187.030 Y153.609
G01 X186.197 Y154.071
G01 X185.312 Y154.482
G01 X184.891 Y154.652
G01 X183.751 Y155.439
G01 X182.522 Y156.148
G01 X181.254 Y156.752
G01 X179.477 Y157.949
G01 X177.564 Y159.008
G01 X176.404 Y159.552
G01 X173.489 Y161.419
G01 X170.363 Y163.042
G01 X170.342 Y163.052
G01 X165.559 Y165.964
G01 X163.067 Y167.252
G01 X155.223 Y171.895
G01 X153.368 Y172.852
G01 X144.881 Y177.752
G01 X142.548 Y179.846
G01 X141.181 Y182.810
G01 X141.077 Y186.716
G01 X142.193 Y189.988
G01 X144.206 Y192.847
G01 X144.223 Y192.871
G01 X146.860 Y195.070
G01 X147.368 Y195.469
G01 X150.543 Y196.914
G01 X151.980 Y197.505
G01 X155.592 Y198.047
G01 X157.881 Y198.281
G01 X161.764 Y197.771
G01 X164.644 Y197.221
G01 X168.597 Y195.506
G01 X171.650 Y193.927
G01 X175.454 Y190.797
G01 X178.146 Y188.222
G01 X181.620 Y183.117
G01 X183.320 Y180.188
G01 X185.996 Y172.227
G01 X186.902 Y164.990
G01 X186.772 Y159.806
G01 X186.346 Y157.091
G01 X186.227 Y155.706
G01 X185.836 Y154.221
G01 X185.581 Y152.738
G01 X185.574 Y152.681
G01 X185.227 Y151.782
G01 X184.958 Y150.880
G01 X184.764 Y149.982
G01 X184.721 Y149.712
G01 X184.430 Y149.147
G01 X184.181 Y148.577
G01 X183.975 Y148.006
G01 X183.810 Y147.436
G01 X183.686 Y146.869
G01 X183.675 Y146.811
G01 X183.427 Y146.416
G01 X183.203 Y146.013
G01 X183.002 Y145.603
G01 X182.824 Y145.189
G01 X182.671 Y144.771
G01 X182.540 Y144.350
G01 X182.447 Y143.988
G01 X182.197 Y143.643
G01 X181.962 Y143.282
G01 X181.744 Y142.907
G01 X181.543 Y142.519
G01 X181.361 Y142.118
G01 X181.198 Y141.705
G01 X181.055 Y141.281
G01 X181.046 Y141.252
G01 X180.711 Y140.837
G01 X180.396 Y140.392
G01 X180.103 Y139.918
G01 X179.834 Y139.416
G01 X179.592 Y138.888
G01 X179.480 Y138.612
G01 X178.956 Y137.987
G01 X178.469 Y137.308
G01 X178.024 Y136.577
G01 X177.759 Y136.075
G01 X176.804 Y135.043
G01 X175.924 Y133.908
G01 X175.239 Y132.866
G01 X173.196 Y130.835
G01 X171.758 Y129.150
G01 X167.150 Y125.156
G01 X161.627 Y121.387
G01 X164.567 Y121.469
G01 X167.426 Y121.791
G01 X168.600 Y121.997
G01 X170.657 Y122.034
G01 X172.655 Y122.227
G01 X174.179 Y122.485
G01 X175.703 Y122.520
G01 X177.185 Y122.660
G01 X178.363 Y122.851
G01 X179.556 Y122.856
G01 X180.721 Y122.935
G01 X181.851 Y123.086
G01 X182.547 Y123.217
G01 X183.509 Y123.207
G01 X184.454 Y123.251
G01 X185.379 Y123.346
G01 X186.281 Y123.491
G01 X186.731 Y123.583
G01 X187.559 Y123.569
G01 X188.381 Y123.597
G01 X189.194 Y123.665
G01 X189.996 Y123.774
G01 X190.786 Y123.921
G01 X190.915 Y123.949
G01 X191.710 Y123.934
G01 X192.508 Y123.959
G01 X193.308 Y124.024
G01 X194.108 Y124.129
G01 X194.906 Y124.274
G01 X195.099 Y124.315
G01 X195.970 Y124.302
G01 X196.854 Y124.337
G01 X197.749 Y124.421
G01 X198.652 Y124.556
G01 X199.283 Y124.681
G01 X200.346 Y124.677
G01 X201.431 Y124.742
G01 X202.533 Y124.878
G01 X203.467 Y125.047
G01 X204.837 Y125.069
G01 X206.237 Y125.190
G01 X207.651 Y125.413
G01 X209.504 Y125.432
G01 X211.395 Y125.599
G01 X213.230 Y125.901
G01 X215.837 Y126.005
G01 X218.485 Y126.334
G01 X218.808 Y126.389
G01 X222.474 Y126.565
G01 X225.782 Y126.999
G01 X231.071 Y127.322
G01 X234.150 Y127.732
G01 X241.823 Y128.305
G01 X243.912 Y128.586
G01 X245.307 Y128.708
G01 X248.373 Y128.295
G01 X251.030 Y126.635
G01 X253.021 Y123.815
G01 X253.920 Y120.390
G01 X253.737 Y116.968
G01 X253.714 Y116.688
G01 X252.626 Y113.534
G01 X252.390 Y112.911
G01 X250.470 Y110.137
G01 X249.516 Y108.862
G01 X246.783 Y106.645
G01 X244.881 Y105.245
G01 X241.408 Y103.792
G01 X238.561 Y102.793
G01 X234.457 Y102.335
G01 X230.904 Y102.188
G01 X226.275 Y103.005
G01 X222.504 Y103.975
G01 X217.282 Y106.604
G01 X214.142 Y108.491
G01 X208.028 Y114.192
G01 X203.839 Y120.126
G01 X201.543 Y124.754
G01 X200.734 Y127.181
G01 X200.129 Y128.625
G01 X199.830 Y129.995
G01 X199.423 Y131.307
G01 X199.315 Y131.600
G01 X199.230 Y132.464
G01 X199.084 Y133.298
G01 X198.879 Y134.099
G01 X198.710 Y134.619
G01 X198.717 Y135.189
G01 X198.690 Y135.746
G01 X198.629 Y136.289
G01 X198.537 Y136.815
G01 X198.415 Y137.323
G01 X198.312 Y137.667
G01 X198.353 Y138.092
G01 X198.372 Y138.515
G01 X198.370 Y138.936
G01 X198.347 Y139.353
G01 X198.304 Y139.766
G01 X198.240 Y140.172
G01 X198.157 Y140.571
G01 X198.118 Y140.730
G01 X198.186 Y141.143
G01 X198.234 Y141.565
G01 X198.259 Y141.994
G01 X198.262 Y142.430
G01 X198.242 Y142.870
G01 X198.198 Y143.314
G01 X198.130 Y143.761
G01 X198.124 Y143.795
G01 X198.241 Y144.354
G01 X198.322 Y144.934
G01 X198.365 Y145.532
G01 X198.369 Y146.145
G01 X198.332 Y146.772
G01 X198.325 Y146.849
G01 X198.525 Y147.745
G01 X198.655 Y148.676
G01 X198.714 Y149.638
G01 X198.717 Y149.881
G01 X199.145 Y151.453
G01 X199.438 Y153.089
G01 X199.526 Y153.869
G01 X200.591 Y157.168
G01 X200.980 Y158.735
G01 X203.789 Y165.249
G01 X208.600 Y172.969
G01 X212.123 Y177.249
G01 X207.973 Y173.954
G01 X205.688 Y171.849
G01 X202.842 Y169.660
G01 X200.326 Y167.350
G01 X198.336 Y165.853
G01 X196.519 Y164.232
G01 X196.036 Y163.750
G01 X194.588 Y162.660
G01 X193.263 Y161.489
G01 X192.818 Y161.051
G01 X191.705 Y160.253
G01 X190.678 Y159.398
G01 X189.738 Y158.494
G01 X189.601 Y158.351
G01 X188.740 Y157.763
G01 X187.935 Y157.136
G01 X187.189 Y156.474
G01 X186.503 Y155.781
G01 X186.384 Y155.651
G01 X185.694 Y155.195
G01 X185.039 Y154.710
G01 X184.422 Y154.198
G01 X183.843 Y153.662
G01 X183.303 Y153.103
G01 X183.166 Y152.951
G01 X182.564 Y152.559
G01 X181.983 Y152.138
G01 X181.426 Y151.691
G01 X180.893 Y151.219
G01 X180.386 Y150.722
G01 X179.949 Y150.252
G01 X179.340 Y149.855
G01 X178.746 Y149.424
G01 X178.169 Y148.957
G01 X177.611 Y148.457
G01 X177.074 Y147.922
G01 X176.731 Y147.552
G01 X176.014 Y147.076
G01 X175.311 Y146.547
G01 X174.628 Y145.965
G01 X173.967 Y145.332
G01 X173.514 Y144.852
G01 X172.587 Y144.209
G01 X171.685 Y143.486
G01 X170.814 Y142.684
G01 X170.297 Y142.153
G01 X169.068 Y141.252
G01 X167.882 Y140.235
G01 X167.079 Y139.453
G01 X165.367 Y138.200
G01 X163.726 Y136.778
G01 X162.789 Y135.853
G01 X160.281 Y133.966
G01 X157.898 Y131.823
G01 X157.427 Y131.354
G01 X153.679 Y128.424
G01 X150.992 Y125.954
G01 X147.775 Y123.255
G01 X145.269 Y121.945
G01 X142.131 Y121.801
G01 X138.781 Y123.167
G01 X136.601 Y125.311
G01 X136.056 Y125.889
G01 X134.820 Y128.426
G01 X134.349 Y129.488
G01 X133.979 Y132.242
G01 X133.772 Y134.564
G01 X134.320 Y137.365
G01 X135.005 Y140.099
G01 X135.082 Y140.372
G01 X136.544 Y142.989
G01 X138.126 Y145.464
G01 X138.631 Y146.189
G01 X140.947 Y148.369
G01 X143.349 Y150.338
G01 X144.486 Y151.177
G01 X147.588 Y152.651
G01 X150.718 Y153.850
G01 X153.858 Y154.775
G01 X154.491 Y154.928
G01 X158.246 Y155.224
G01 X161.937 Y155.190
G01 X165.542 Y154.835
G01 X169.037 Y154.167
G01 X169.073 Y154.158
G01 X173.174 Y152.630
G01 X177.067 Y150.739
G01 X180.726 Y148.504
G01 X184.127 Y145.942
G01 X185.120 Y145.088
G01 X188.657 Y141.379
G01 X188.985 Y140.945
G01 X189.308 Y140.590
G01 X189.294 Y140.545
G01 X189.282 Y140.500
G01 X189.272 Y140.455
G01 X189.265 Y140.411
G01 X189.261 Y140.367
G01 X189.259 Y140.323
G01 X189.260 Y140.281
G01 X189.263 Y140.239
G01 X189.268 Y140.198
G01 X189.276 Y140.158
G01 X189.286 Y140.120
G01 X189.297 Y140.083
G01 X189.311 Y140.047
G01 X189.326 Y140.013
G01 X189.343 Y139.980
G01 X189.362 Y139.949
G01 X189.381 Y139.920
G01 X189.403 Y139.893
G01 X189.425 Y139.867
G01 X189.448 Y139.844
G01 X189.472 Y139.822
G01 X189.497 Y139.803
G01 X189.523 Y139.785
G01 X189.549 Y139.770
G01 X189.575 Y139.756
G01 X189.602 Y139.745
G01 X189.629 Y139.735
G01 X189.655 Y139.728
G01 X189.682 Y139.722
G01 X189.708 Y139.719
G01 X189.733 Y139.717
G01 X189.759 Y139.717
G01 X189.783 Y139.719
G01 X189.807 Y139.722
G01 X189.829 Y139.727
G01 X189.851 Y139.734
G01 X189.872 Y139.742
G01 X189.891 Y139.751
G01 X189.910 Y139.762
G01 X189.927 Y139.774
G01 X189.941 Y139.785
G01 X189.938 Y139.723
G01 X189.941 Y139.660
G01 X189.951 Y139.596
G01 X189.966 Y139.533
G01 X189.988 Y139.471
G01 X190.015 Y139.410
G01 X190.049 Y139.350
G01 X190.088 Y139.293
G01 X190.133 Y139.237
G01 X190.184 Y139.185
G01 X190.240 Y139.136
G01 X190.302 Y139.091
G01 X190.368 Y139.050
G01 X190.439 Y139.013
G01 X190.514 Y138.981
G01 X190.554 Y138.967
G01 X192.543 Y135.769
G01 X193.325 Y134.681
G01 X195.423 Y130.294
G01 X197.093 Y125.699
G01 X198.320 Y120.927
G01 X199.092 Y116.011
G01 X199.396 Y110.984
G01 X199.226 Y105.881
G01 X198.575 Y100.736
G01 X197.892 Y97.388
G01 X196.403 Y92.518
G01 X194.453 Y87.703
G01 X194.217 Y87.191
G01 X196.036 Y93.384
G01 X196.753 Y96.657
G01 X198.043 Y101.053
G01 X198.565 Y103.418
G01 X199.576 Y106.581
G01 X200.300 Y109.748
G01 X200.376 Y110.180
G01 X201.124 Y112.466
G01 X201.673 Y114.751
G01 X201.826 Y115.589
G01 X202.424 Y117.269
G01 X202.887 Y118.947
G01 X203.217 Y120.613
G01 X203.275 Y120.998
G01 X203.718 Y122.284
G01 X204.068 Y123.565
G01 X204.327 Y124.837
G01 X204.362 Y125.055
G01 X204.737 Y126.099
G01 X205.045 Y127.143
G01 X205.287 Y128.184
G01 X205.449 Y129.112
G01 X205.777 Y130.002
G01 X206.054 Y130.898
G01 X206.283 Y131.797
G01 X206.462 Y132.697
G01 X206.536 Y133.169
G01 X206.842 Y133.992
G01 X207.106 Y134.829
G01 X207.329 Y135.677
G01 X207.509 Y136.534
G01 X207.623 Y137.226
G01 X207.937 Y138.072
G01 X208.209 Y138.943
G01 X208.439 Y139.836
G01 X208.624 Y140.749
G01 X208.710 Y141.282
G01 X209.063 Y142.251
G01 X209.364 Y143.256
G01 X209.611 Y144.297
G01 X209.798 Y145.339
G01 X210.214 Y146.531
G01 X210.560 Y147.776
G01 X210.830 Y149.070
G01 X210.885 Y149.396
G01 X211.446 Y150.944
G01 X211.902 Y152.568
G01 X212.249 Y154.262
G01 X212.334 Y154.805
G01 X213.047 Y156.963
G01 X213.599 Y159.224
G01 X213.783 Y160.215
G01 X214.757 Y163.229
G01 X215.488 Y166.382
G01 X215.595 Y166.976
G01 X215.957 Y168.328
G01 X217.243 Y170.760
G01 X219.544 Y172.496
G01 X222.391 Y173.214
G01 X225.336 Y172.844
G01 X226.030 Y172.727
G01 X228.333 Y171.530
G01 X229.474 Y170.874
G01 X231.170 Y169.062
G01 X232.783 Y167.157
G01 X232.870 Y167.048
G01 X233.855 Y164.748
G01 X234.718 Y162.417
G01 X235.018 Y161.512
G01 X235.207 Y158.937
G01 X235.253 Y156.396
G01 X235.207 Y154.727
G01 X234.535 Y152.126
G01 X233.719 Y149.627
G01 X232.769 Y147.238
G01 X232.418 Y146.456
G01 X230.849 Y144.179
G01 X229.164 Y142.072
G01 X227.374 Y140.141
G01 X225.494 Y138.390
G01 X223.872 Y137.076
G01 X221.789 Y135.676
G01 X219.654 Y134.472
G01 X217.482 Y133.467
G01 X215.288 Y132.661
G01 X213.085 Y132.053
G01 X210.888 Y131.642
G01 X209.405 Y131.473
G01 X207.695 Y131.165
G01 X206.004 Y131.003
G01 X204.342 Y130.983
G01 X202.720 Y131.103
G01 X202.197 Y131.172
G01 X201.052 Y131.143
G01 X199.935 Y131.204
G01 X198.853 Y131.351
G01 X197.810 Y131.582
G01 X197.099 Y131.794
G01 X196.365 Y131.869
G01 X195.655 Y131.995
G01 X194.974 Y132.170
G01 X194.325 Y132.392
G01 X194.103 Y132.481
G01 X193.607 Y132.541
G01 X193.127 Y132.632
G01 X192.664 Y132.751
G01 X192.222 Y132.897
G01 X191.800 Y133.068
G01 X191.400 Y133.263
G01 X191.172 Y133.391
G01 X190.833 Y133.442
G01 X190.503 Y133.510
G01 X190.181 Y133.595
G01 X189.868 Y133.695
G01 X189.566 Y133.810
G01 X189.275 Y133.939
G01 X188.995 Y134.082
G01 X188.728 Y134.237
G01 X188.473 Y134.404
G01 X188.321 Y134.514
G01 X188.042 Y134.573
G01 X187.766 Y134.645
G01 X187.492 Y134.732
G01 X187.221 Y134.832
G01 X186.954 Y134.947
G01 X186.691 Y135.075
G01 X186.434 Y135.217
G01 X186.183 Y135.373
G01 X185.938 Y135.542
G01 X185.701 Y135.723
G01 X185.562 Y135.839
G01 X185.223 Y135.942
G01 X184.884 Y136.069
G01 X184.546 Y136.220
G01 X184.211 Y136.395
G01 X183.880 Y136.594
G01 X183.555 Y136.817
G01 X183.238 Y137.064
G01 X182.929 Y137.334
G01 X182.909 Y137.353
G01 X182.406 Y137.583
G01 X181.910 Y137.856
G01 X181.423 Y138.172
G01 X180.948 Y138.531
G01 X180.489 Y138.933
G01 X180.370 Y139.047
G01 X179.613 Y139.484
G01 X178.877 Y139.994
G01 X178.168 Y140.575
G01 X177.491 Y141.226
G01 X177.180 Y141.562
G01 X176.053 Y142.398
G01 X174.980 Y143.349
G01 X173.970 Y144.410
G01 X173.031 Y145.577
G01 X172.848 Y145.829
G01 X171.377 Y147.367
G01 X170.020 Y149.061
G01 X168.788 Y150.905
G01 X167.998 Y152.297
G01 X166.418 Y154.744
G01 X165.030 Y157.372
G01 X163.848 Y160.168
G01 X162.886 Y163.118
G01 X162.855 Y163.227
G01 X161.714 Y166.716
G01 X160.856 Y170.368
G01 X160.293 Y174.162
G01 X160.038 Y178.079
G01 X160.100 Y182.098
G01 X160.244 Y184.044
G01 X160.692 Y188.335
G01 X160.710 Y188.458
G01 X164.499 Y177.861
G01 X165.020 Y176.618
G01 X167.271 Y170.039
G01 X168.372 Y167.409
G01 X169.784 Y163.183
G01 X170.766 Y160.831
G01 X171.675 Y157.990
G01 X172.681 Y155.569
G01 X173.208 Y153.667
G01 X173.876 Y151.857
G01 X174.596 Y150.307
G01 X174.935 Y149.043
G01 X175.359 Y147.838
G01 X175.862 Y146.698
G01 X176.033 Y146.360
G01 X176.235 Y145.469
G01 X176.490 Y144.614
G01 X176.795 Y143.798
G01 X177.146 Y143.023
G01 X177.469 Y142.413
G01 X177.642 Y141.756
G01 X177.848 Y141.122
G01 X178.085 Y140.513
G01 X178.353 Y139.929
G01 X178.427 Y139.782
G01 X178.569 Y139.223
G01 X178.738 Y138.676
G01 X178.933 Y138.145
G01 X179.152 Y137.629
G01 X179.385 Y137.151
G01 X179.516 Y136.627
G01 X179.674 Y136.109
G01 X179.857 Y135.598
G01 X180.066 Y135.096
G01 X180.299 Y134.604
G01 X180.342 Y134.520
G01 X180.483 Y133.964
G01 X180.655 Y133.409
G01 X180.859 Y132.856
G01 X181.096 Y132.308
G01 X181.300 Y131.889
G01 X181.440 Y131.196
G01 X181.628 Y130.497
G01 X181.864 Y129.797
G01 X182.150 Y129.098
G01 X182.485 Y128.402
G01 X182.737 Y127.942
G01 X182.981 Y126.938
G01 X183.308 Y125.930
G01 X183.717 Y124.925
G01 X184.173 Y123.995
G01 X184.594 Y122.527
G01 X185.145 Y121.065
G01 X185.609 Y120.049
G01 X186.256 Y117.858
G01 X187.107 Y115.687
G01 X187.525 Y114.786
G01 X188.610 Y111.521
G01 X189.440 Y109.524
G01 X189.754 Y106.884
G01 X188.714 Y104.031
G01 X186.778 Y102.110
G01 X186.400 Y101.767
G01 X184.383 Y100.982
G01 X182.431 Y100.349
G01 X180.401 Y100.385
G01 X178.374 Y100.525
G01 X176.477 Y101.217
G01 X174.620 Y102.000
G01 X173.790 Y102.386
G01 X172.186 Y103.679
G01 X170.670 Y105.038
G01 X169.442 Y106.250
G01 X168.313 Y108.040
G01 X167.309 Y109.857
G01 X166.430 Y111.694
G01 X165.828 Y113.140
G01 X165.385 Y115.210
G01 X165.085 Y117.257
G01 X164.925 Y119.272
G01 X164.900 Y121.246
G01 X165.006 Y123.171
G01 X165.237 Y125.038
G01 X165.590 Y126.841
G01 X166.057 Y128.572
G01 X166.633 Y130.224
G01 X167.310 Y131.791
G01 X168.082 Y133.266
G01 X168.942 Y134.646
G01 X169.581 Y135.538
G01 X170.275 Y136.694
G01 X171.032 Y137.771
G01 X171.844 Y138.766
G01 X172.706 Y139.675
G01 X173.490 Y140.394
G01 X174.135 Y141.159
G01 X174.814 Y141.862
G01 X175.522 Y142.502
G01 X176.255 Y143.077
G01 X177.008 Y143.586
G01 X177.373 Y143.805
G01 X177.917 Y144.299
G01 X178.477 Y144.748
G01 X179.052 Y145.153
G01 X179.639 Y145.514
G01 X180.233 Y145.830
G01 X180.803 Y146.088
G01 X181.252 Y146.430
G01 X181.712 Y146.743
G01 X182.181 Y147.026
G01 X182.658 Y147.279
G01 X183.140 Y147.504
G01 X183.627 Y147.698
G01 X184.115 Y147.863
G01 X184.459 Y147.962
G01 X184.864 Y148.212
G01 X185.280 Y148.441
G01 X185.706 Y148.650
G01 X186.141 Y148.837
G01 X186.585 Y149.002
G01 X187.035 Y149.145
G01 X187.491 Y149.265
G01 X187.952 Y149.363
G01 X188.287 Y149.420
G01 X188.733 Y149.632
G01 X189.196 Y149.824
G01 X189.674 Y149.992
G01 X190.167 Y150.137
G01 X190.674 Y150.258
G01 X191.193 Y150.353
G01 X191.722 Y150.421
G01 X192.240 Y150.461
G01 X192.836 Y150.657
G01 X193.455 Y150.820
G01 X194.098 Y150.946
G01 X194.761 Y151.035
G01 X195.442 Y151.084
G01 X196.139 Y151.093
G01 X196.270 Y151.090
G01 X197.122 Y151.268
G01 X198.006 Y151.388
G01 X198.918 Y151.447
G01 X199.855 Y151.443
G01 X200.811 Y151.374
G01 X201.352 Y151.306
G01 X202.598 Y151.372
G01 X203.877 Y151.342
G01 X205.181 Y151.212
G01 X206.504 Y150.980
G01 X207.416 Y150.761
G01 X209.144 Y150.568
G01 X210.893 Y150.229
G01 X212.652 Y149.743
G01 X214.410 Y149.108
G01 X215.254 Y148.748
G01 X217.465 Y148.028
G01 X219.662 Y147.111
G01 X221.831 Y145.997
G01 X223.958 Y144.686
G01 X225.183 Y143.824
G01 X227.657 Y142.231
G01 X230.054 Y140.404
G01 X232.356 Y138.347
G01 X234.548 Y136.065
G01 X236.612 Y133.565
G01 X237.027 Y133.015
G01 X239.164 Y130.210
G01 X241.133 Y127.181
G01 X242.917 Y123.936
G01 X244.500 Y120.487
G01 X245.867 Y116.846
G01 X247.001 Y113.026
G01 X247.889 Y109.042
G01 X248.196 Y107.258
G01 X233.288 Y117.697
G01 X222.967 Y124.924
G01 X217.103 Y129.180
G01 X214.939 Y130.545
G01 X211.744 Y132.956
G01 X209.205 Y134.560
G01 X207.465 Y135.967
G01 X205.639 Y137.189
G01 X204.618 Y137.772
G01 X203.657 Y138.600
G01 X202.653 Y139.328
G01 X201.614 Y139.954
G01 X201.177 Y140.181
G01 X200.586 Y140.692
G01 X199.973 Y141.146
G01 X199.342 Y141.541
G01 X198.883 Y141.787
G01 X198.502 Y142.149
G01 X198.106 Y142.479
G01 X197.700 Y142.774
G01 X197.285 Y143.036
G01 X196.863 Y143.265
G01 X196.590 Y143.393
G01 X196.325 Y143.660
G01 X196.050 Y143.910
G01 X195.766 Y144.141
G01 X195.474 Y144.354
G01 X195.175 Y144.548
G01 X194.871 Y144.724
G01 X194.562 Y144.881
G01 X194.296 Y144.999
G01 X194.068 Y145.233
G01 X193.828 Y145.457
G01 X193.575 Y145.669
G01 X193.310 Y145.869
G01 X193.035 Y146.057
G01 X192.749 Y146.233
G01 X192.453 Y146.394
G01 X192.148 Y146.542
G01 X192.003 Y146.605
G01 X191.724 Y146.886
G01 X191.422 Y147.154
G01 X191.098 Y147.408
G01 X190.752 Y147.648
G01 X190.385 Y147.871
G01 X189.999 Y148.076
G01 X189.709 Y148.211
G01 X189.270 Y148.614
G01 X188.792 Y148.992
G01 X188.274 Y149.342
G01 X187.719 Y149.663
G01 X187.415 Y149.817
G01 X186.680 Y150.491
G01 X185.872 Y151.114
G01 X184.997 Y151.681
G01 X184.056 Y152.187
G01 X183.975 Y152.226
G01 X182.603 Y153.319
G01 X181.112 Y154.303
G01 X180.534 Y154.636
G01 X179.388 Y155.439
G01 X177.693 Y157.350
G01 X176.976 Y160.415
G01 X176.972 Y160.432
G01 X177.366 Y162.141
G01 X177.893 Y163.842
G01 X178.789 Y165.051
G01 X179.775 Y166.229
G01 X179.997 Y166.475
G01 X181.213 Y167.231
G01 X182.478 Y167.931
G01 X183.791 Y168.571
G01 X184.660 Y168.950
G01 X186.091 Y169.151
G01 X187.528 Y169.281
G01 X188.969 Y169.341
G01 X190.409 Y169.329
G01 X190.634 Y169.321
G01 X192.052 Y168.969
G01 X193.436 Y168.549
G01 X194.785 Y168.064
G01 X196.094 Y167.516
G01 X197.361 Y166.907
G01 X198.010 Y166.564
G01 X199.162 Y165.740
G01 X200.252 Y164.868
G01 X201.280 Y163.952
G01 X202.243 Y162.996
G01 X203.139 Y162.004
G01 X203.968 Y160.980
G01 X204.729 Y159.929
G01 X205.421 Y158.855
G01 X206.044 Y157.761
G01 X206.597 Y156.652
G01 X207.081 Y155.533
G01 X207.496 Y154.407
G01 X207.842 Y153.278
G01 X208.120 Y152.151
G01 X208.332 Y151.029
G01 X208.478 Y149.916
G01 X208.492 Y149.768
G01 X208.707 Y148.736
G01 X208.865 Y147.706
G01 X208.968 Y146.682
G01 X209.016 Y145.667
G01 X209.011 Y144.663
G01 X208.954 Y143.674
G01 X208.847 Y142.701
G01 X208.690 Y141.748
G01 X208.629 Y141.444
G01 X208.572 Y140.526
G01 X208.470 Y139.616
G01 X208.323 Y138.717
G01 X208.134 Y137.832
G01 X207.901 Y136.963
G01 X207.628 Y136.111
G01 X207.314 Y135.278
G01 X206.961 Y134.467
G01 X206.937 Y134.415
G01 X206.697 Y133.570
G01 X206.415 Y132.735
G01 X206.091 Y131.912
G01 X205.726 Y131.103
G01 X205.320 Y130.311
G01 X204.874 Y129.537
G01 X204.389 Y128.784
G01 X203.866 Y128.053
G01 X203.790 Y127.953
G01 X203.353 Y127.127
G01 X202.868 Y126.314
G01 X202.335 Y125.519
G01 X201.754 Y124.743
G01 X201.127 Y123.990
G01 X200.454 Y123.262
G01 X199.735 Y122.562
G01 X199.428 Y122.284
G01 X198.733 Y121.449
G01 X197.978 Y120.640
G01 X197.164 Y119.862
G01 X196.293 Y119.118
G01 X195.366 Y118.411
G01 X194.384 Y117.747
G01 X194.090 Y117.563
G01 X193.071 Y116.734
G01 X191.980 Y115.953
G01 X190.819 Y115.224
G01 X189.592 Y114.553
G01 X188.301 Y113.944
G01 X187.093 Y113.455
G01 X185.651 Y112.729
G01 X184.130 Y112.083
G01 X182.536 Y111.522
G01 X180.874 Y111.053
G01 X179.148 Y110.680
G01 X178.470 Y110.564
G01 X176.555 Y110.089
G01 X174.567 Y109.733
G01 X172.514 Y109.502
G01 X170.402 Y109.403
G01 X168.239 Y109.439
G01 X166.437 Y109.574
G01 X164.032 Y109.669
G01 X161.582 Y109.928
G01 X159.097 Y110.358
G01 X156.588 Y110.962
G01 X154.067 Y111.742
G01 X151.545 Y112.702
G01 X149.877 Y113.439
G01 X147.228 Y114.613
G01 X144.600 Y115.984
G01 X142.008 Y117.553
G01 X139.464 Y119.321
G01 X136.981 Y121.286
G01 X134.573 Y123.446
G01 X132.253 Y125.799
G01 X130.035 Y128.340
G01 X127.930 Y131.065
G01 X125.952 Y133.970
G01 X124.114 Y137.047
G01 X122.754 Y139.623
G01 X170.354 Y139.623
G01 X184.354 Y139.623
G01 X185.458 Y139.472
G01 X186.560 Y139.428
G01 X187.653 Y139.490
G01 X188.554 Y139.623
G01 X188.618 Y139.567
G01 X188.684 Y139.515
G01 X188.752 Y139.469
G01 X188.820 Y139.428
G01 X188.890 Y139.393
G01 X188.960 Y139.363
G01 X189.030 Y139.339
G01 X189.101 Y139.320
G01 X189.170 Y139.306
G01 X189.239 Y139.297
G01 X189.306 Y139.293
G01 X189.372 Y139.294
G01 X189.436 Y139.300
G01 X189.498 Y139.310
G01 X189.558 Y139.324
G01 X189.615 Y139.343
G01 X189.668 Y139.365
G01 X189.719 Y139.391
G01 X189.767 Y139.421
G01 X189.810 Y139.453
G01 X189.850 Y139.488
G01 X189.886 Y139.526
G01 X189.918 Y139.566
G01 X189.946 Y139.608
G01 X189.954 Y139.623
G01 X189.970 Y139.586
G01 X189.990 Y139.550
G01 X190.013 Y139.514
G01 X190.040 Y139.480
G01 X190.070 Y139.447
G01 X190.103 Y139.417
G01 X190.139 Y139.388
G01 X190.178 Y139.361
G01 X190.221 Y139.337
G01 X190.266 Y139.316
G01 X190.314 Y139.297
G01 X190.364 Y139.282
G01 X190.416 Y139.269
G01 X190.471 Y139.261
G01 X190.527 Y139.256
G01 X190.585 Y139.255
G01 X190.644 Y139.257
G01 X190.704 Y139.264
G01 X190.765 Y139.275
G01 X190.826 Y139.291
G01 X190.888 Y139.310
G01 X190.950 Y139.334
G01 X191.012 Y139.363
G01 X191.073 Y139.396
G01 X191.133 Y139.433
G01 X191.192 Y139.475
G01 X191.249 Y139.522
G01 X191.305 Y139.572
G01 X191.354 Y139.623
G01 X192.104 Y139.525
G01 X192.864 Y139.499
G01 X193.630 Y139.548
G01 X194.154 Y139.623
G01 X201.735 Y139.515
G01 X203.954 Y139.623
G01 X206.754 Y139.623
G01 X209.337 Y138.939
G01 X210.513 Y137.861
G01 X211.504 Y136.807
G01 X211.913 Y135.638
G01 X212.258 Y134.421
G01 X212.535 Y133.160
G01 X212.539 Y133.135
G01 X212.394 Y131.959
G01 X212.187 Y130.781
G01 X211.918 Y129.603
G01 X211.879 Y129.452
G01 X211.296 Y128.412
G01 X210.664 Y127.404
G01 X209.984 Y126.430
G01 X209.259 Y125.493
G01 X209.022 Y125.205
G01 X208.055 Y124.477
G01 X207.064 Y123.807
G01 X206.050 Y123.197
G01 X205.019 Y122.646
G01 X203.972 Y122.156
G01 X202.914 Y121.727
G01 X201.880 Y121.367
G01 X200.770 Y121.125
G01 X199.665 Y120.947
G01 X198.569 Y120.830
G01 X197.485 Y120.774
G01 X196.416 Y120.778
G01 X195.366 Y120.840
G01 X194.338 Y120.957
G01 X193.335 Y121.128
G01 X192.359 Y121.351
G01 X191.413 Y121.623
G01 X190.499 Y121.943
G01 X189.621 Y122.307
G01 X188.779 Y122.712
G01 X188.044 Y123.117
G01 X187.254 Y123.449
G01 X186.491 Y123.817
G01 X185.758 Y124.220
G01 X185.056 Y124.656
G01 X184.386 Y125.121
G01 X183.750 Y125.615
G01 X183.149 Y126.135
G01 X182.583 Y126.679
G01 X182.054 Y127.245
G01 X181.973 Y127.337
G01 X181.400 Y127.800
G01 X180.853 Y128.290
G01 X180.333 Y128.803
G01 X179.841 Y129.339
G01 X179.379 Y129.896
G01 X178.947 Y130.473
G01 X178.545 Y131.068
G01 X178.175 Y131.679
G01 X177.929 Y132.128
G01 X177.485 Y132.688
G01 X177.066 Y133.272
G01 X176.675 Y133.879
G01 X176.313 Y134.509
G01 X175.981 Y135.160
G01 X175.679 Y135.830
G01 X175.410 Y136.518
G01 X175.174 Y137.223
G01 X175.051 Y137.644
G01 X174.704 Y138.354
G01 X174.391 Y139.091
G01 X174.113 Y139.856
G01 X173.874 Y140.646
G01 X173.675 Y141.459
G01 X173.518 Y142.293
G01 X173.403 Y143.146
G01 X173.361 Y143.592
G01 X173.133 Y144.518
G01 X172.957 Y145.474
G01 X172.836 Y146.458
G01 X172.771 Y147.467
G01 X172.764 Y148.498
G01 X172.818 Y149.547
G01 X172.833 Y149.722
G01 X172.779 Y150.902
G01 X172.802 Y152.109
G01 X172.902 Y153.340
G01 X173.083 Y154.589
G01 X173.347 Y155.851
G01 X173.606 Y156.824
G01 X173.855 Y158.284
G01 X174.208 Y159.758
G01 X174.669 Y161.240
G01 X175.239 Y162.723
G01 X175.919 Y164.199
G01 X176.592 Y165.460
G01 X177.365 Y167.146
G01 X178.272 Y168.815
G01 X179.313 Y170.458
G01 X180.488 Y172.066
G01 X181.796 Y173.629
G01 X183.235 Y175.138
G01 X183.507 Y175.402
G01 X185.066 Y177.079
G01 X186.774 Y178.684
G01 X188.628 Y180.208
G01 X190.623 Y181.640
G01 X192.756 Y182.969
G01 X195.021 Y184.186
G01 X197.411 Y185.281
G01 X199.920 Y186.244
G01 X200.224 Y186.349
G01 X202.875 Y187.218
G01 X205.635 Y187.936
G01 X208.495 Y188.494
G01 X211.447 Y188.882
G01 X214.480 Y189.095
G01 X217.584 Y189.125
G01 X220.748 Y188.965
G01 X223.960 Y188.610
G01 X227.210 Y188.055
G01 X230.485 Y187.295
G01 X233.773 Y186.327
G01 X236.434 Y185.389
G01 X239.558 Y183.899
G01 X242.645 Y182.210
G01 X245.683 Y180.323
G01 X248.660 Y178.236
G01 X251.564 Y175.954
G01 X254.382 Y173.476
G01 X254.579 Y173.293
G01 X255.836 Y172.004
G01 X243.221 Y163.171
G01 X234.003 Y156.640
G01 X232.899 Y155.943
G01 X227.165 Y151.772
G01 X224.872 Y150.322
G01 X221.146 Y147.579
G01 X219.138 Y146.307
G01 X216.615 Y144.407
G01 X214.550 Y143.095
G01 X212.890 Y141.751
G01 X211.161 Y140.577
G01 X209.963 Y139.883
G01 X208.841 Y138.964
G01 X207.680 Y138.154
G01 X206.523 Y137.474
G01 X205.750 Y136.795
G01 X204.952 Y136.184
G01 X204.133 Y135.644
G01 X203.299 Y135.175
G01 X203.082 Y135.065
G01 X202.535 Y134.555
G01 X201.971 Y134.086
G01 X201.391 Y133.659
G01 X200.799 Y133.274
G01 X200.197 Y132.932
G01 X199.642 Y132.656
G01 X199.210 Y132.242
G01 X198.761 Y131.853
G01 X198.296 Y131.489
G01 X197.817 Y131.151
G01 X197.324 Y130.839
G01 X196.820 Y130.554
G01 X196.306 Y130.296
G01 X196.201 Y130.247
G01 X195.780 Y129.841
G01 X195.333 Y129.453
G01 X194.863 Y129.085
G01 X194.369 Y128.737
G01 X193.852 Y128.412
G01 X193.314 Y128.111
G01 X192.761 Y127.838
G01 X192.227 Y127.338
G01 X191.652 Y126.863
G01 X191.034 Y126.414
G01 X190.377 Y125.995
G01 X189.680 Y125.608
G01 X189.320 Y125.429
G01 X188.542 Y124.807
G01 X187.700 Y124.228
G01 X187.027 Y123.823
G01 X186.116 Y123.477
G01 X185.165 Y123.182
G01 X184.176 Y122.942
G01 X184.086 Y122.923
G01 X183.211 Y123.123
G01 X182.341 Y123.368
G01 X181.479 Y123.658
G01 X181.033 Y123.828
G01 X180.342 Y124.435
G01 X179.689 Y125.070
G01 X179.074 Y125.732
G01 X178.604 Y126.287
G01 X178.222 Y127.164
G01 X177.898 Y128.046
G01 X177.632 Y128.927
G01 X177.422 Y129.805
G01 X177.267 Y130.677
G01 X177.190 Y131.293
G01 X177.195 Y132.187
G01 X177.256 Y133.058
G01 X177.371 Y133.904
G01 X177.537 Y134.722
G01 X177.752 Y135.508
G01 X178.012 Y136.260
G01 X178.316 Y136.975
G01 X178.660 Y137.651
G01 X179.041 Y138.286
G01 X179.456 Y138.877
G01 X179.711 Y139.200
G01 X179.999 Y139.715
G01 X180.312 Y140.199
G01 X180.648 Y140.652
G01 X181.005 Y141.073
G01 X181.379 Y141.460
G01 X181.769 Y141.814
G01 X182.172 Y142.133
G01 X182.586 Y142.417
G01 X182.757 Y142.522
G01 X183.030 Y142.817
G01 X183.314 Y143.092
G01 X183.609 Y143.346
G01 X183.912 Y143.579
G01 X184.221 Y143.790
G01 X184.537 Y143.979
G01 X184.857 Y144.147
G01 X185.180 Y144.294
G01 X185.477 Y144.409
G01 X185.719 Y144.604
G01 X185.969 Y144.786
G01 X186.227 Y144.954
G01 X186.491 Y145.109
G01 X186.761 Y145.250
G01 X187.037 Y145.376
G01 X187.318 Y145.489
G01 X187.602 Y145.586
G01 X187.889 Y145.670
G01 X188.179 Y145.738
G01 X188.436 Y145.786
G01 X188.704 Y145.940
G01 X188.983 Y146.080
G01 X189.273 Y146.208
G01 X189.572 Y146.321
G01 X189.881 Y146.420
G01 X190.199 Y146.504
G01 X190.525 Y146.571
G01 X190.858 Y146.623
G01 X191.197 Y146.657
G01 X191.541 Y146.673
G01 X191.929 Y146.809
G01 X192.333 Y146.922
G01 X192.753 Y147.011
G01 X193.187 Y147.075
G01 X193.634 Y147.113
G01 X194.092 Y147.123
G01 X194.560 Y147.105
G01 X194.714 Y147.093
G01 X195.312 Y147.200
G01 X195.931 Y147.264
G01 X196.569 Y147.285
G01 X197.222 Y147.259
G01 X197.888 Y147.186
G01 X198.563 Y147.064
G01 X198.941 Y146.975
G01 X199.852 Y146.936
G01 X200.779 Y146.823
G01 X201.717 Y146.635
G01 X202.661 Y146.371
G01 X203.606 Y146.029
G01 X204.054 Y145.839
G01 X205.288 Y145.488
G01 X206.520 Y145.030
G01 X207.741 Y144.464
G01 X208.943 Y143.789
G01 X210.120 Y143.006
G01 X210.582 Y142.663
G01 X212.031 Y141.757
G01 X213.438 Y140.715
G01 X214.792 Y139.539
G01 X216.084 Y138.232
G01 X217.304 Y136.797
G01 X218.443 Y135.239
G01 X219.249 Y133.974
G01 X220.402 Y132.164
G01 X221.444 Y130.227
G01 X222.366 Y128.169
G01 X223.158 Y125.999
G01 X223.812 Y123.724
G01 X224.320 Y121.353
G01 X224.672 Y118.895
G01 X224.863 Y116.359
G01 X224.886 Y113.756
G01 X224.734 Y111.095
G01 X224.403 Y108.389
G01 X223.886 Y105.648
G01 X223.181 Y102.884
G01 X222.284 Y100.109
G01 X221.192 Y97.336
G01 X221.108 Y97.142
G01 X219.687 Y94.567
G01 X218.086 Y92.031
G01 X216.306 Y89.546
G01 X214.348 Y87.122
G01 X212.215 Y84.772
G01 X210.252 Y82.829
G01 X207.728 Y80.887
G01 X205.061 Y79.058
G01 X202.256 Y77.351
G01 X199.320 Y75.774
G01 X196.258 Y74.337
G01 X195.733 Y74.111
G01 X192.523 Y73.116
G01 X189.229 Y72.280
G01 X185.859 Y71.607
G01 X182.422 Y71.104
G01 X179.159 Y70.792
G01 X175.671 Y70.899
G01 X172.167 Y71.183
G01 X168.657 Y71.645
G01 X165.150 Y72.287
G01 X161.654 Y73.110
G01 X161.455 Y73.162
G01 X158.080 Y74.376
G01 X154.756 Y75.760
G01 X151.490 Y77.314
G01 X150.203 Y77.982
G01 X154.771 Y90.612
G01 X154.991 Y91.138
G01 X157.979 Y99.648
G01 X158.822 Y101.662
G01 X160.864 Y107.564
G01 X161.695 Y109.555
G01 X163.113 Y113.787
G01 X164.089 Y116.133
G01 X165.011 Y119.154
G01 X166.162 Y122.022
G01 X166.483 Y122.711
G01 X167.114 Y124.847
G01 X167.894 Y126.876
G01 X168.398 Y127.973
G01 X168.875 Y129.562
G01 X169.452 Y131.073
G01 X169.835 Y131.920
G01 X170.183 Y133.168
G01 X170.603 Y134.361
G01 X171.091 Y135.496
G01 X171.271 Y135.867
G01 X171.533 Y136.866
G01 X171.847 Y137.829
G01 X172.210 Y138.754
G01 X172.618 Y139.638
G01 X172.708 Y139.814
G01 X172.920 Y140.655
G01 X173.173 Y141.474
G01 X173.465 Y142.271
G01 X173.794 Y143.042
G01 X174.144 Y143.760
G01 X174.338 Y144.537
G01 X174.570 Y145.303
G01 X174.839 Y146.058
G01 X175.145 Y146.799
G01 X175.487 Y147.524
G01 X175.581 Y147.707
G01 X175.784 Y148.520
G01 X176.034 Y149.332
G01 X176.329 Y150.139
G01 X176.670 Y150.939
G01 X177.017 Y151.654
G01 X177.266 Y152.612
G01 X177.578 Y153.573
G01 X177.955 Y154.533
G01 X178.397 Y155.488
G01 X178.454 Y155.600
G01 X178.853 Y156.718
G01 X178.932 Y156.916
G01 X179.548 Y157.827
G01 X180.227 Y158.718
G01 X180.508 Y159.059
G01 X181.459 Y159.493
G01 X182.429 Y159.880
G01 X183.197 Y160.147
G01 X184.301 Y160.079
G01 X185.382 Y159.951
G01 X186.378 Y159.779
G01 X187.456 Y159.153
G01 X188.464 Y158.471
G01 X189.399 Y157.738
G01 X190.258 Y156.960
G01 X190.462 Y156.759
G01 X191.192 Y155.521
G01 X191.802 Y154.256
G01 X192.291 Y152.971
G01 X192.658 Y151.675
G01 X192.905 Y150.377
G01 X193.032 Y149.086
G01 X193.040 Y147.810
G01 X192.930 Y146.558
G01 X192.707 Y145.338
G01 X192.372 Y144.158
G01 X192.065 Y143.341
G01 X191.903 Y142.765
G01 X191.690 Y142.215
G01 X191.429 Y141.693
G01 X191.199 Y141.318
G01 X191.162 Y141.158
G01 X191.112 Y141.004
G01 X191.050 Y140.859
G01 X190.977 Y140.722
G01 X190.893 Y140.594
G01 X190.800 Y140.477
G01 X190.697 Y140.371
G01 X190.682 Y140.357
G01 X190.694 Y140.321
G01 X190.704 Y140.284
G01 X190.713 Y140.248
G01 X190.719 Y140.211
G01 X190.724 Y140.174
G01 X190.726 Y140.138
G01 X190.727 Y140.101
G01 X190.727 Y140.065
G01 X190.724 Y140.029
G01 X190.719 Y139.994
G01 X190.713 Y139.959
G01 X190.705 Y139.924
G01 X190.696 Y139.890
G01 X190.685 Y139.857
G01 X190.672 Y139.825
G01 X190.658 Y139.794
G01 X190.643 Y139.764
G01 X190.626 Y139.734
G01 X190.607 Y139.706
G01 X190.588 Y139.679
G01 X190.567 Y139.653
G01 X190.545 Y139.629
G01 X190.522 Y139.605
G01 X190.499 Y139.583
G01 X190.474 Y139.563
G01 X190.448 Y139.544
G01 X190.422 Y139.526
G01 X190.395 Y139.510
G01 X190.368 Y139.495
G01 X190.340 Y139.482
G01 X190.311 Y139.470
G01 X190.283 Y139.460
G01 X190.254 Y139.451
G01 X190.225 Y139.444
G01 X190.195 Y139.438
G01 X190.166 Y139.434
G01 X190.137 Y139.431
G01 X190.112 Y139.430
G01 X190.097 Y139.337
G01 X190.073 Y139.244
G01 X190.040 Y139.151
G01 X189.998 Y139.061
G01 X189.947 Y138.973
G01 X189.888 Y138.887
G01 X189.820 Y138.805
G01 X189.744 Y138.728
G01 X189.660 Y138.655
G01 X189.568 Y138.587
G01 X189.494 Y138.541
G01 X189.200 Y138.011
G01 X188.852 Y137.508
G01 X188.454 Y137.035
G01 X188.007 Y136.597
G01 X187.514 Y136.197
G01 X187.385 Y136.104
G01 X186.208 Y134.909
G01 X184.909 Y133.824
G01 X183.498 Y132.857
G01 X181.982 Y132.016
G01 X180.371 Y131.310
G01 X178.674 Y130.745
G01 X178.419 Y130.675
G01 X176.328 Y130.056
G01 X174.153 Y129.623
G01 X171.905 Y129.382
G01 X169.601 Y129.339
G01 X167.253 Y129.499
G01 X164.876 Y129.866
G01 X162.484 Y130.443
G01 X160.094 Y131.231
G01 X157.719 Y132.233
G01 X155.375 Y133.447
G01 X153.078 Y134.874
G01 X150.842 Y136.511
G01 X148.682 Y138.355
G01 X146.614 Y140.404
G01 X146.119 Y140.941
G01 X144.448 Y143.218
G01 X142.900 Y145.661
G01 X141.485 Y148.263
G01 X140.217 Y151.017
G01 X139.106 Y153.914
G01 X138.396 Y156.133
G01 X137.866 Y159.154
G01 X137.511 Y162.265
G01 X137.339 Y165.456
G01 X137.357 Y168.715
G01 X137.492 Y171.114
G01 X138.114 Y174.293
G01 X138.924 Y177.484
G01 X139.924 Y180.676
G01 X141.117 Y183.859
G01 X141.790 Y185.452
G01 X143.498 Y188.366
G01 X145.378 Y191.221
G01 X147.427 Y194.006
G01 X149.643 Y196.712
G01 X150.446 Y197.626
G01 X153.047 Y199.943
G01 X155.780 Y202.142
G01 X158.641 Y204.216
G01 X161.623 Y206.158
G01 X162.355 Y206.603
G01 X165.580 Y208.090
G01 X168.885 Y209.421
G01 X172.262 Y210.591
G01 X175.704 Y211.596
G01 X177.288 Y211.998
G01 X180.844 Y212.477
G01 X184.415 Y212.780
G01 X187.995 Y212.907
G01 X191.573 Y212.859
G01 X195.102 Y212.638
G01 X198.634 Y212.081
G01 X199.969 Y211.824
G01 X202.126 Y204.084
G01 X202.506 Y202.358
G01 X204.245 Y196.492
G01 X205.042 Y192.892
G01 X206.393 Y188.464
G01 X207.216 Y184.778
G01 X208.276 Y181.352
G01 X209.028 Y178.017
G01 X209.909 Y175.331
G01 X210.575 Y172.655
G01 X210.840 Y171.255
G01 X211.536 Y169.098
G01 X212.073 Y166.950
G01 X212.289 Y165.846
G01 X212.891 Y164.049
G01 X213.371 Y162.256
G01 X213.732 Y160.476
G01 X213.739 Y160.437
G01 X214.266 Y158.899
G01 X214.701 Y157.360
G01 X215.045 Y155.825
G01 X215.188 Y155.028
G01 X215.666 Y153.652
G01 X216.071 Y152.266
G01 X216.402 Y150.873
G01 X216.637 Y149.618
G01 X217.096 Y148.306
G01 X217.490 Y146.971
G01 X217.819 Y145.617
G01 X218.080 Y144.249
G01 X218.087 Y144.209
G01 X218.559 Y142.856
G01 X218.965 Y141.466
G01 X219.303 Y140.044
G01 X219.536 Y138.800
G01 X220.054 Y137.297
G01 X220.493 Y135.741
G01 X220.851 Y134.135
G01 X220.986 Y133.391
G01 X221.483 Y131.651
G01 X221.710 Y130.686
G01 X221.698 Y128.974
G01 X221.661 Y128.180
G01 X220.764 Y126.761
G01 X220.061 Y125.750
G01 X218.312 Y124.835
G01 X217.087 Y124.279
G01 X214.262 Y124.279
G01 X213.182 Y124.342
G01 X209.720 Y125.867
G01 X207.064 Y128.236
G01 X205.820 Y130.202
G01 X205.168 Y131.095
G01 X204.816 Y132.253
G01 X204.388 Y133.354
G01 X203.979 Y134.223
G01 X203.918 Y135.032
G01 X203.813 Y135.822
G01 X203.665 Y136.589
G01 X203.475 Y137.331
G01 X203.436 Y137.465
G01 X203.508 Y138.132
G01 X203.548 Y138.800
G01 X203.554 Y139.468
G01 X203.528 Y140.133
G01 X203.479 Y140.708
G01 X203.670 Y141.393
G01 X203.826 Y142.099
G01 X203.945 Y142.823
G01 X204.026 Y143.564
G01 X204.048 Y143.866
G01 X204.430 Y144.745
G01 X204.758 Y145.669
G01 X205.029 Y146.637
G01 X205.085 Y146.875
G01 X205.831 Y148.176
G01 X206.484 Y149.566
G01 X206.533 Y149.684
G01 X208.269 Y151.942
G01 X209.011 Y153.054
G01 X212.821 Y156.578
G01 X218.155 Y159.704
G01 X224.180 Y161.503
G01 X226.025 Y161.933
G01 X230.594 Y162.061
G01 X235.255 Y161.789
G01 X236.170 Y161.689
G01 X240.053 Y160.579
G01 X243.932 Y159.138
G01 X246.618 Y157.937
G01 X249.838 Y155.772
G01 X252.976 Y153.332
G01 X255.393 Y151.205
G01 X257.811 Y148.219
G01 X260.089 Y145.022
G01 X262.211 Y141.621
G01 X262.342 Y141.396
G01 X263.783 Y137.801
G01 X265.042 Y134.068
G01 X266.109 Y130.207
G01 X266.153 Y130.024
G01 X266.548 Y126.123
G01 X266.742 Y122.159
G01 X266.728 Y118.143
G01 X266.725 Y118.068
G01 X266.081 Y114.152
G01 X265.235 Y110.246
G01 X264.196 Y106.388
G01 X262.575 Y102.727
G01 X260.772 Y99.145
G01 X258.793 Y95.651
G01 X258.323 Y94.876
G01 X255.803 Y91.741
G01 X253.141 Y88.745
G01 X250.344 Y85.894
G01 X248.974 Y84.595
G01 X245.733 Y82.237
G01 X242.403 Y80.061
G01 X238.995 Y78.073
G01 X236.379 Y76.697
G01 X232.678 Y75.315
G01 X228.955 Y74.141
G01 X225.220 Y73.175
G01 X221.485 Y72.414
G01 X219.197 Y72.049
G01 X218.477 Y71.975
G01 X213.032 Y76.385
G01 X210.970 Y78.274
G01 X206.652 Y81.740
G01 X204.535 Y83.674
G01 X201.063 Y86.378
G01 X198.100 Y89.073
G01 X195.319 Y91.235
G01 X192.770 Y93.541
G01 X192.738 Y93.573
G01 X190.439 Y95.313
G01 X188.317 Y97.162
G01 X187.376 Y98.072
G01 X185.460 Y99.486
G01 X183.676 Y100.984
G01 X182.028 Y102.557
G01 X182.013 Y102.572
G01 X180.383 Y103.752
G01 X178.850 Y105.000
G01 X177.415 Y106.309
G01 X176.651 Y107.071
G01 X175.208 Y108.105
G01 X173.834 Y109.199
G01 X172.532 Y110.351
G01 X171.303 Y111.556
G01 X171.289 Y111.571
G01 X169.929 Y112.541
G01 X168.619 Y113.575
G01 X167.363 Y114.672
G01 X166.162 Y115.829
G01 X165.926 Y116.070
G01 X164.538 Y117.061
G01 X163.189 Y118.131
G01 X161.885 Y119.279
G01 X160.630 Y120.503
G01 X160.564 Y120.570
G01 X159.030 Y121.673
G01 X157.536 Y122.881
G01 X156.087 Y124.193
G01 X155.202 Y125.069
G01 X154.129 Y125.969
G01 X153.016 Y127.589
G01 X152.809 Y127.912
G01 X152.633 Y129.853
G01 X152.611 Y130.221
G01 X153.479 Y132.340
G01 X153.753 Y132.937
G01 X156.409 Y135.151
G01 X156.585 Y135.284
G01 X160.301 Y136.293
G01 X163.876 Y136.018
G01 X166.114 Y135.150
G01 X167.107 Y134.833
G01 X168.291 Y133.967
G01 X169.503 Y133.204
G01 X169.899 Y132.979
G01 X170.631 Y132.149
G01 X171.395 Y131.373
G01 X172.187 Y130.652
G01 X172.206 Y130.636
G01 X172.709 Y129.786
G01 X173.251 Y128.964
G01 X173.833 Y128.170
G01 X174.012 Y127.942
G01 X174.381 Y126.970
G01 X174.808 Y126.006
G01 X175.292 Y125.054
G01 X175.315 Y125.011
G01 X175.584 Y123.762
G01 X175.940 Y122.505
G01 X176.130 Y121.937
G01 X176.270 Y120.178
G01 X176.476 Y118.799
G01 X176.264 Y115.940
G01 X176.251 Y114.626
G01 X175.307 Y110.582
G01 X173.230 Y105.861
G01 X169.627 Y100.875
G01 X164.628 Y96.615
G01 X163.369 Y95.659
G01 X158.867 Y93.497
G01 X155.023 Y91.997
G01 X150.676 Y91.250
G01 X146.176 Y90.819
G01 X145.020 Y90.763
G01 X140.862 Y91.247
G01 X136.648 Y92.025
G01 X135.105 Y92.383
G01 X131.321 Y93.945
G01 X127.562 Y95.768
G01 X125.146 Y97.088
G01 X121.948 Y99.627
G01 X118.846 Y102.379
G01 X116.859 Y104.308
G01 X114.421 Y107.607
G01 X112.132 Y111.061
G01 X110.720 Y113.400
G01 X109.160 Y117.224
G01 X107.785 Y121.137
G01 X106.998 Y123.704
G01 X106.394 Y127.811
G01 X105.993 Y131.937
G01 X105.808 Y135.575
G01 X106.237 Y139.714
G01 X106.868 Y143.799
G01 X107.697 Y147.822
G01 X107.815 Y148.323
G01 X109.271 Y152.202
G01 X110.907 Y155.959
G01 X112.715 Y159.585
G01 X113.480 Y160.991
G01 X115.865 Y164.306
G01 X118.387 Y167.439
G01 X121.036 Y170.384
G01 X123.798 Y173.137
G01 X124.443 Y173.738
G01 X127.551 Y176.120
G01 X130.732 Y178.280
G01 X133.970 Y180.216
G01 X137.253 Y181.930
G01 X139.249 Y182.855
G01 X144.366 Y182.540
G01 X147.617 Y182.123
G01 X151.767 Y181.923
G01 X155.791 Y181.423
G01 X155.985 Y181.391
G01 X159.384 Y181.223
G01 X162.682 Y180.825
G01 X162.958 Y180.781
G01 X165.819 Y180.668
G01 X168.601 Y180.377
G01 X169.932 Y180.171
G01 X172.372 Y180.096
G01 X174.755 Y179.881
G01 X176.905 Y179.561
G01 X179.042 Y179.508
G01 X181.141 Y179.342
G01 X183.197 Y179.067
G01 X183.878 Y178.951
G01 X185.829 Y178.909
G01 X187.760 Y178.770
G01 X189.668 Y178.535
G01 X190.852 Y178.341
G01 X192.736 Y178.302
G01 X194.618 Y178.171
G01 X196.493 Y177.947
G01 X197.825 Y177.731
G01 X199.768 Y177.689
G01 X201.725 Y177.547
G01 X203.691 Y177.303
G01 X204.798 Y177.120
G01 X206.930 Y177.068
G01 X209.091 Y176.894
G01 X211.276 Y176.595
G01 X211.772 Y176.510
G01 X214.225 Y176.433
G01 X216.722 Y176.201
G01 X218.745 Y175.900
G01 X221.578 Y175.697
G01 X222.929 Y175.534
G01 X225.194 Y174.612
G01 X226.606 Y172.626
G01 X226.688 Y172.505
G01 X227.050 Y170.147
G01 X226.566 Y167.843
G01 X225.211 Y165.502
G01 X222.398 Y163.082
G01 X219.156 Y161.745
G01 X215.835 Y161.318
G01 X215.794 Y161.311
G01 X213.639 Y161.567
G01 X212.497 Y161.640
G01 X210.906 Y162.185
G01 X209.386 Y162.610
G01 X208.102 Y163.339
G01 X206.794 Y163.998
G01 X206.541 Y164.116
G01 X205.421 Y165.034
G01 X204.251 Y165.900
G01 X204.016 Y166.063
G01 X202.968 Y167.240
G01 X201.848 Y168.366
G01 X200.843 Y170.025
G01 X199.704 Y171.651
G01 X199.546 Y171.859
G01 X198.508 Y174.465
G01 X197.935 Y175.690
G01 X197.014 Y179.718
G01 X196.800 Y184.851
G01 X197.828 Y190.895
G01 X200.604 Y197.446
G01 X204.893 Y203.143
G01 X205.510 Y203.882
G01 X209.925 Y207.441
G01 X212.704 Y209.402
G01 X217.329 Y211.464
G01 X221.061 Y212.851
G01 X225.762 Y213.636
G01 X230.612 Y214.129
G01 X230.990 Y214.154
G01 X235.604 Y213.710
G01 X240.271 Y212.988
G01 X240.901 Y212.870
G01 X245.219 Y211.323
G01 X249.506 Y209.525
G01 X250.185 Y209.216
G01 X254.015 Y206.707
G01 X257.742 Y203.987
G01 X258.354 Y203.513
G01 X261.513 Y200.188
G01 X264.511 Y196.706
G01 X265.616 Y195.331
G01 X267.919 Y191.342
G01 X270.014 Y187.262
G01 X270.755 Y185.686
G01 X272.091 Y181.262
G01 X273.189 Y176.818
G01 X273.732 Y174.159
G01 X273.981 Y169.543
G01 X273.982 Y164.986
G01 X273.801 Y161.278
G01 X272.910 Y156.770
G01 X271.784 Y152.401
G01 X270.433 Y148.184
G01 X269.982 Y146.940
G01 X267.948 Y142.922
G01 X265.718 Y139.120
G01 X263.308 Y135.544
G01 X260.735 Y132.202
G01 X259.212 Y130.417
G01 X256.250 Y127.487
G01 X254.497 Y125.926
G01 X250.740 Y123.586
G01 X247.222 Y121.726
G01 X244.114 Y119.743
G01 X240.955 Y118.018
G01 X239.948 Y117.526
G01 X237.306 Y115.858
G01 X234.624 Y114.392
G01 X233.885 Y114.026
G01 X231.580 Y112.550
G01 X229.238 Y111.236
G01 X227.823 Y110.526
G01 X225.764 Y109.195
G01 X223.667 Y107.993
G01 X221.761 Y107.026
G01 X219.859 Y105.789
G01 X217.913 Y104.659
G01 X215.928 Y103.636
G01 X215.699 Y103.526
G01 X213.865 Y102.331
G01 X211.975 Y101.227
G01 X210.035 Y100.219
G01 X209.637 Y100.026
G01 X207.779 Y98.816
G01 X205.849 Y97.693
G01 X203.852 Y96.660
G01 X203.574 Y96.526
G01 X201.598 Y95.244
G01 X199.528 Y94.053
G01 X197.512 Y93.026
G01 X195.319 Y91.616
G01 X193.005 Y90.310
G01 X191.450 Y89.526
G01 X188.940 Y87.933
G01 X186.276 Y86.468
G01 X185.388 Y86.026
G01 X182.474 Y84.313
G01 X181.751 Y83.926
G01 X179.550 Y83.400
G01 X177.172 Y84.209
G01 X175.529 Y85.917
G01 X174.621 Y88.112
G01 X174.450 Y90.797
G01 X175.468 Y94.345
G01 X177.453 Y97.216
G01 X180.038 Y99.387
G01 X182.349 Y100.523
G01 X182.987 Y100.873
G01 X185.019 Y101.379
G01 X186.127 Y101.708
G01 X188.023 Y101.812
G01 X189.329 Y101.939
G01 X191.204 Y101.717
G01 X192.492 Y101.619
G01 X194.465 Y100.972
G01 X196.508 Y100.429
G01 X196.519 Y100.427
G01 X198.805 Y99.157
G01 X200.202 Y98.479
G01 X203.081 Y96.169
G01 X203.445 Y95.903
G01 X206.180 Y92.821
G01 X208.821 Y88.430
G01 X210.803 Y82.644
G01 X211.482 Y75.576
G01 X210.233 Y67.671
G01 X210.217 Y67.596
G01 X207.758 Y61.766
G01 X207.007 Y60.210
G01 X203.676 Y55.742
G01 X201.451 Y53.089
G01 X197.404 Y49.825
G01 X194.310 Y47.595
G01 X189.765 Y45.462
G01 X186.085 Y43.957
G01 X181.256 Y42.929
G01 X177.264 Y42.276
G01 X172.364 Y42.354
G01 X167.441 Y42.679
G01 X167.313 Y42.690
G01 X162.559 Y43.895
G01 X157.868 Y45.333
G01 X157.736 Y45.377
G01 X153.355 Y47.637
G01 X149.118 Y50.098
G01 X148.184 Y50.679
G01 X144.421 Y53.914
G01 X140.873 Y57.300
G01 X140.135 Y58.051
G01 X137.182 Y62.083
G01 X134.502 Y66.204
G01 X133.485 Y67.910
G01 X131.555 Y72.547
G01 X129.941 Y77.194
G01 X129.113 Y80.012
G01 X128.390 Y84.989
G01 X128.003 Y89.888
G01 X127.944 Y94.688
G01 X127.975 Y95.777
G01 X128.701 Y100.683
G01 X129.752 Y105.407
G01 X131.112 Y109.929
G01 X132.763 Y114.231
G01 X134.687 Y118.294
G01 X135.678 Y120.113
G01 X136.522 Y121.501
G01 X137.928 Y124.803
G01 X139.480 Y127.845
G01 X140.649 Y130.661
G01 X141.968 Y133.332
G01 X142.439 Y134.189
G01 X143.424 Y136.618
G01 X144.530 Y138.936
G01 X145.397 Y140.533
G01 X146.251 Y142.674
G01 X147.206 Y144.732
G01 X148.256 Y146.703
G01 X148.355 Y146.877
G01 X149.127 Y148.829
G01 X149.989 Y150.723
G01 X150.937 Y152.553
G01 X151.314 Y153.221
G01 X152.048 Y155.088
G01 X152.873 Y156.914
G01 X153.786 Y158.696
G01 X154.272 Y159.565
G01 X155.016 Y161.454
G01 X155.860 Y163.316
G01 X156.802 Y165.147
G01 X157.230 Y165.910
G01 X158.032 Y167.931
G01 X158.954 Y169.936
G01 X159.997 Y171.916
G01 X160.189 Y172.254
G01 X161.101 Y174.522
G01 X162.165 Y176.776
G01 X163.147 Y178.598
G01 X164.226 Y181.224
G01 X165.500 Y183.834
G01 X166.105 Y184.942
G01 X167.410 Y188.036
G01 X168.964 Y191.105
G01 X169.064 Y191.286
G01 X170.653 Y194.955
G01 X172.022 Y197.630
G01 X173.625 Y199.356
G01 X175.701 Y199.931
G01 X177.996 Y199.504
G01 X179.995 Y198.221
G01 X181.641 Y196.102
G01 X182.757 Y192.600
G01 X182.674 Y189.123
G01 X181.689 Y185.906
G01 X180.015 Y183.071
G01 X178.284 Y181.225
G01 X177.820 Y180.687
G01 X176.058 Y179.422
G01 X175.244 Y178.787
G01 X173.372 Y177.984
G01 X171.544 Y177.092
G01 X171.410 Y177.022
G01 X169.305 Y176.614
G01 X167.326 Y176.123
G01 X164.770 Y176.127
G01 X163.174 Y176.047
G01 X159.831 Y176.639
G01 X159.103 Y176.734
G01 X155.231 Y178.110
G01 X150.812 Y180.679
G01 X146.987 Y184.040
G01 X143.315 Y188.892
G01 X140.415 Y195.340
G01 X139.053 Y202.807
G01 X138.991 Y203.264
G01 X139.353 Y209.540
G01 X139.539 Y211.276
G01 X141.181 Y216.675
G01 X142.333 Y219.840
G01 X145.079 Y224.392
G01 X147.136 Y227.441
G01 X150.760 Y231.109
G01 X153.574 Y233.698
G01 X157.866 Y236.421
G01 X161.237 Y238.351
G01 X166.002 Y240.044
G01 X170.685 Y241.456
G01 X175.723 Y242.017
G01 X180.581 Y242.321
G01 X185.652 Y241.759
G01 X190.417 Y240.991
G01 X195.291 Y239.330
G01 X200.003 Y237.438
G01 X200.628 Y237.165
G01 X205.046 Y234.410
G01 X209.219 Y231.460
G01 X210.468 Y230.505
G01 X214.147 Y226.743
G01 X217.508 Y222.845
G01 X219.025 Y220.908
G01 X221.677 Y216.296
G01 X223.950 Y211.627
G01 X225.844 Y206.926
G01 X225.925 Y206.701
G01 X227.133 Y201.509
G01 X227.923 Y196.367
G01 X228.303 Y191.304
G01 X228.283 Y186.347
G01 X228.221 Y185.184
G01 X227.559 Y180.221
G01 X226.576 Y175.692
G01 X227.201 Y172.897
G01 X227.642 Y170.129
G01 X227.792 Y168.798
G01 X228.354 Y166.356
G01 X228.769 Y163.929
G01 X229.007 Y161.905
G01 X229.522 Y159.708
G01 X229.916 Y157.515
G01 X230.192 Y155.331
G01 X230.223 Y155.011
G01 X230.709 Y152.955
G01 X231.091 Y150.888
G01 X231.368 Y148.814
G01 X231.438 Y148.117
G01 X231.918 Y146.093
G01 X232.298 Y144.042
G01 X232.578 Y141.968
G01 X232.654 Y141.224
G01 X233.150 Y139.119
G01 X233.542 Y136.969
G01 X233.825 Y134.779
G01 X233.869 Y134.330
G01 X234.404 Y132.029
G01 X234.818 Y129.662
G01 X235.085 Y127.436
G01 X235.678 Y124.819
G01 X236.119 Y122.115
G01 X236.300 Y120.543
G01 X236.967 Y117.491
G01 X237.441 Y114.328
G01 X237.516 Y113.649
G01 X238.324 Y110.010
G01 X238.885 Y106.230
G01 X238.974 Y105.377
G01 X239.909 Y100.906
G01 X240.433 Y97.104
G01 X241.162 Y92.968
G01 X240.898 Y90.825
G01 X239.632 Y89.200
G01 X237.589 Y88.215
G01 X235.255 Y88.092
G01 X232.687 Y88.882
G01 X229.795 Y91.142
G01 X227.935 Y94.071
G01 X226.988 Y97.291
G01 X226.843 Y100.572
G01 X227.388 Y103.732
G01 X227.392 Y103.758
G01 X228.377 Y106.293
G01 X228.535 Y106.742
G01 X229.930 Y108.821
G01 X230.822 Y110.279
G01 X232.664 Y112.034
G01 X233.796 Y113.208
G01 X236.236 Y114.746
G01 X237.274 Y115.465
G01 X240.619 Y116.807
G01 X241.092 Y117.019
G01 X245.106 Y117.871
G01 X250.210 Y117.974
G01 X255.215 Y117.075
G01 X260.852 Y114.801
G01 X266.629 Y110.737
G01 X271.297 Y105.463
G01 X274.779 Y98.962
G01 X275.061 Y98.375
G01 X276.700 Y92.164
G01 X277.036 Y90.614
G01 X277.181 Y84.707
G01 X277.110 Y81.626
G01 X275.888 Y76.122
G01 X275.021 Y72.899
G01 X272.621 Y67.940
G01 X270.986 Y64.896
G01 X267.580 Y60.628
G01 X265.293 Y57.989
G01 X261.055 Y54.541
G01 X258.269 Y52.454
G01 X253.363 Y49.959
G01 X249.334 Y48.137
G01 X243.933 Y46.757
G01 X239.678 Y45.884
G01 X234.001 Y45.701
G01 X228.784 Y45.824
G01 X223.074 Y46.966
G01 X217.572 Y48.435
G01 X217.227 Y48.540
G01 X211.781 Y51.092
G01 X206.653 Y53.948
G01 X205.823 Y54.457
G01 X200.978 Y58.451
G01 X196.565 Y62.703
G01 X195.584 Y63.744
G01 X191.700 Y69.232
G01 X188.367 Y74.904
G01 X187.233 Y77.129
G01 X184.807 Y84.368
G01 X183.083 Y91.676
G01 X182.967 Y92.312
G01 X182.513 Y97.168
G01 X180.691 Y98.786
G01 X179.009 Y100.476
G01 X177.563 Y102.118
G01 X175.994 Y103.489
G01 X174.528 Y104.921
G01 X173.169 Y106.408
G01 X172.613 Y107.067
G01 X171.209 Y108.283
G01 X169.883 Y109.556
G01 X168.635 Y110.882
G01 X167.663 Y112.017
G01 X166.333 Y113.165
G01 X165.062 Y114.376
G01 X163.852 Y115.647
G01 X162.714 Y116.967
G01 X161.359 Y118.137
G01 X160.053 Y119.385
G01 X158.802 Y120.708
G01 X157.764 Y121.917
G01 X156.282 Y123.205
G01 X154.850 Y124.595
G01 X153.476 Y126.087
G01 X152.814 Y126.866
G01 X151.104 Y128.375
G01 X149.456 Y130.021
G01 X147.877 Y131.801
G01 X147.864 Y131.816
G01 X145.829 Y133.651
G01 X143.876 Y135.667
G01 X142.915 Y136.766
G01 X140.460 Y139.034
G01 X138.120 Y141.536
G01 X137.965 Y141.716
G01 X134.920 Y144.529
G01 X132.034 Y147.645
G01 X132.025 Y147.655
G01 X128.236 Y151.263
G01 X126.085 Y153.595
G01 X123.116 Y156.565
G01 X122.111 Y158.563
G01 X122.386 Y160.809
G01 X123.917 Y162.894
G01 X126.218 Y164.166
G01 X129.988 Y164.497
G01 X133.352 Y163.462
G01 X136.136 Y161.540
G01 X138.280 Y159.033
G01 X139.776 Y156.156
G01 X140.583 Y153.259
G01 X140.641 Y153.074
G01 X140.741 Y150.491
G01 X140.875 Y148.864
G01 X140.412 Y146.454
G01 X140.157 Y144.750
G01 X139.141 Y142.337
G01 X138.608 Y140.904
G01 X136.885 Y138.326
G01 X136.353 Y137.453
G01 X133.562 Y134.535
G01 X133.519 Y134.487
G01 X129.346 Y131.549
G01 X124.683 Y129.526
G01 X119.733 Y128.441
G01 X113.674 Y128.353
G01 X106.786 Y129.830
G01 X99.585 Y133.374
G01 X94.435 Y137.700
G01 X93.490 Y138.569
G01 X89.871 Y143.432
G01 X88.785 Y145.031
G01 X86.530 Y150.252
G01 X85.368 Y153.329
G01 X84.458 Y158.747
G01 X84.033 Y162.190
G01 X84.383 Y167.589
G01 X84.759 Y171.111
G01 X86.284 Y176.283
G01 X87.426 Y179.646
G01 X90.022 Y184.397
G01 X91.836 Y187.415
G01 X95.413 Y191.557
G01 X98.473 Y194.779
G01 X102.967 Y198.073
G01 X107.429 Y200.980
G01 X112.677 Y203.195
G01 X117.572 Y204.929
G01 X123.356 Y205.921
G01 X129.057 Y206.508
G01 X129.327 Y206.526
G01 X135.417 Y206.090
G01 X141.312 Y205.225
G01 X142.085 Y205.077
G01 X148.228 Y202.988
G01 X154.044 Y200.463
G01 X155.818 Y199.575
G01 X161.700 Y195.462
G01 X167.089 Y190.930
G01 X167.518 Y190.531
G01 X173.097 Y183.643
G01 X175.917 Y179.578
G01 X180.239 Y170.506
G01 X181.914 Y170.325
G01 X183.547 Y170.055
G01 X185.134 Y169.699
G01 X185.754 Y169.534
G01 X187.239 Y169.381
G01 X188.698 Y169.154
G01 X190.129 Y168.856
G01 X191.269 Y168.561
G01 X192.665 Y168.420
G01 X194.050 Y168.211
G01 X195.420 Y167.935
G01 X196.774 Y167.592
G01 X196.784 Y167.589
G01 X198.196 Y167.446
G01 X199.610 Y167.231
G01 X201.023 Y166.942
G01 X202.299 Y166.617
G01 X203.838 Y166.456
G01 X205.391 Y166.208
G01 X206.953 Y165.869
G01 X207.814 Y165.644
G01 X209.594 Y165.446
G01 X211.398 Y165.133
G01 X213.216 Y164.702
G01 X213.328 Y164.672
G01 X215.464 Y164.411
G01 X217.627 Y163.997
G01 X218.843 Y163.699
G01 X221.498 Y163.389
G01 X224.189 Y162.873
G01 X225.737 Y162.484
G01 X229.144 Y162.023
G01 X232.586 Y161.280
G01 X232.631 Y161.268
G01 X237.047 Y160.654
G01 X240.903 Y159.810
G01 X246.774 Y158.943
G01 X250.554 Y158.108
G01 X258.318 Y156.826
G01 X260.205 Y156.406
G01 X262.963 Y155.920
G01 X264.766 Y154.994
G01 X265.841 Y153.159
G01 X265.888 Y150.696
G01 X264.820 Y148.329
G01 X262.987 Y146.500
G01 X259.724 Y145.004
G01 X256.321 Y144.690
G01 X253.061 Y145.311
G01 X250.105 Y146.671
G01 X247.548 Y148.610
G01 X245.508 Y151.113
G01 X244.850 Y151.858
G01 X243.654 Y154.388
G01 X243.016 Y155.614
G01 X242.413 Y158.275
G01 X242.047 Y159.647
G01 X241.983 Y162.595
G01 X241.913 Y163.767
G01 X242.482 Y167.218
G01 X242.557 Y167.819
G01 X243.910 Y171.675
G01 X246.474 Y176.066
G01 X249.852 Y179.845
G01 X254.742 Y183.424
G01 X260.271 Y185.863
G01 X267.170 Y187.211
G01 X275.170 Y186.808
G01 X281.907 Y184.787
G01 X282.816 Y184.472
G01 X288.316 Y181.305
G01 X289.700 Y180.430
G01 X294.095 Y176.374
G01 X295.505 Y174.968
G01 X298.774 Y170.215
G01 X300.470 Y167.518
G01 X302.524 Y162.230
G01 X303.588 Y159.137
G01 X304.420 Y153.544
G01 X304.776 Y150.282
G01 X304.396 Y144.608
G01 X304.052 Y141.384
G01 X302.452 Y135.843
G01 X301.124 Y131.920
G01 X298.284 Y126.759
G01 X296.182 Y123.341
G01 X292.162 Y118.789
G01 X288.778 Y115.369
G01 X283.595 Y111.717
G01 X278.881 Y108.839
G01 X272.577 Y106.414
G01 X266.749 Y104.655
G01 X259.358 Y103.834
G01 X253.963 Y103.634
G01 X245.247 Y104.895
G01 X241.314 Y105.735
G01 X231.249 Y109.797
G01 X223.732 Y114.528
G01 X217.745 Y119.674
G01 X213.749 Y124.045
G01 X212.842 Y125.174
G01 X211.570 Y124.443
G01 X210.283 Y123.801
G01 X208.986 Y123.247
G01 X207.767 Y122.807
G01 X206.693 Y122.179
G01 X205.601 Y121.614
G01 X204.494 Y121.113
G01 X203.376 Y120.675
G01 X202.691 Y120.440
G01 X201.705 Y119.860
G01 X200.693 Y119.328
G01 X199.657 Y118.848
G01 X198.600 Y118.419
G01 X197.616 Y118.074
G01 X196.604 Y117.478
G01 X195.551 Y116.929
G01 X194.461 Y116.430
G01 X193.334 Y115.983
G01 X192.541 Y115.707
G01 X191.378 Y115.032
G01 X190.154 Y114.413
G01 X188.874 Y113.856
G01 X187.539 Y113.365
G01 X187.465 Y113.340
G01 X186.020 Y112.527
G01 X184.488 Y111.793
G01 X182.876 Y111.146
G01 X182.390 Y110.974
G01 X180.529 Y109.969
G01 X178.553 Y109.080
G01 X177.315 Y108.607
G01 X174.875 Y107.289
G01 X172.277 Y106.139
G01 X170.970 Y105.649
G01 X167.651 Y103.952
G01 X164.626 Y102.690
G01 X160.159 Y100.445
G01 X157.013 Y99.140
G01 X150.879 Y96.133
G01 X148.132 Y94.999
G01 X139.661 Y90.957
G01 X137.981 Y90.265
G01 X136.712 Y89.674
G01 X134.627 Y89.433
G01 X132.584 Y90.552
G01 X131.227 Y93.008
G01 X131.121 Y95.733
G01 X132.496 Y99.160
G01 X134.891 Y101.664
G01 X137.823 Y103.274
G01 X140.998 Y104.054
G01 X144.217 Y104.086
G01 X147.336 Y103.458
G01 X150.031 Y102.213
G01 X151.164 Y101.744
G01 X153.271 Y100.083
G01 X154.464 Y99.215
G01 X156.191 Y97.118
G01 X157.131 Y96.062
G01 X158.568 Y93.377
G01 X159.106 Y92.460
G01 X160.249 Y88.894
G01 X160.367 Y88.570
G01 X160.915 Y84.531
G01 X160.636 Y79.465
G01 X159.357 Y74.572
G01 X156.645 Y69.164
G01 X152.844 Y64.478
G01 X147.326 Y60.139
G01 X140.231 Y56.942
G01 X140.028 Y56.860
G01 X133.494 Y55.659
G01 X132.163 Y55.473
G01 X126.091 Y55.785
G01 X124.203 Y55.960
G01 X118.641 Y57.536
G01 X116.564 Y58.212
G01 X111.642 Y60.908
G01 X108.786 Y62.630
G01 X104.672 Y66.350
G01 X102.248 Y68.723
G01 X99.066 Y73.268
G01 X97.238 Y76.112
G01 X95.088 Y81.281
G01 X93.936 Y84.400
G01 X92.927 Y90.007
G01 X92.378 Y94.179
G01 X92.648 Y100.010
G01 X93.039 Y104.052
G01 X94.646 Y109.880
G01 X96.203 Y114.455
G01 X99.282 Y120.018
G01 X102.267 Y124.638
G01 X106.973 Y129.630
G01 X111.390 Y133.655
G01 X118.001 Y137.735
G01 X122.491 Y140.072
G01 X131.827 Y142.920
G01 X133.846 Y143.412
G01 X143.678 Y144.224
G01 X151.548 Y143.587
G01 X158.298 Y142.120
G01 X162.981 Y140.478
G01 X163.903 Y140.211
G01 X166.283 Y139.027
G01 X168.401 Y138.184
G01 X169.822 Y137.301
G01 X171.274 Y136.553
G01 X171.864 Y136.290
G01 X172.791 Y135.590
G01 X173.741 Y134.971
G01 X174.708 Y134.434
G01 X175.026 Y134.277
G01 X175.445 Y135.242
G01 X175.921 Y136.151
G01 X176.450 Y137.002
G01 X177.026 Y137.790
G01 X177.126 Y137.915
G01 X177.440 Y138.594
G01 X177.789 Y139.237
G01 X178.169 Y139.842
G01 X178.526 Y140.340
G01 X178.768 Y140.885
G01 X179.036 Y141.408
G01 X179.328 Y141.907
G01 X179.642 Y142.381
G01 X179.926 Y142.764
G01 X180.132 Y143.236
G01 X180.360 Y143.695
G01 X180.609 Y144.139
G01 X180.878 Y144.567
G01 X181.166 Y144.979
G01 X181.326 Y145.189
G01 X181.527 Y145.651
G01 X181.752 Y146.106
G01 X182.002 Y146.552
G01 X182.276 Y146.989
G01 X182.574 Y147.414
G01 X182.726 Y147.614
G01 X182.957 Y148.137
G01 X183.221 Y148.655
G01 X183.520 Y149.167
G01 X183.854 Y149.669
G01 X184.126 Y150.039
G01 X184.403 Y150.743
G01 X184.735 Y151.443
G01 X185.123 Y152.135
G01 X185.566 Y152.815
G01 X186.066 Y153.480
G01 X186.226 Y153.676
G01 X186.703 Y154.734
G01 X187.274 Y155.775
G01 X187.941 Y156.794
G01 X188.326 Y157.314
G01 X189.107 Y158.871
G01 X190.036 Y160.389
G01 X190.426 Y160.951
G01 X191.618 Y163.280
G01 X193.040 Y165.536
G01 X193.226 Y165.801
G01 X195.153 Y169.405
G01 X196.726 Y171.863
G01 X199.904 Y177.667
G01 X201.626 Y180.350
G01 X207.094 Y189.967
G01 X207.926 Y191.262
G01 X215.626 Y204.599
G01 X217.026 Y207.023
G01 X218.403 Y208.305
G01 X220.531 Y208.655
G01 X222.950 Y207.648
G01 X224.672 Y205.612
G01 X225.628 Y202.018
G01 X225.142 Y198.580
G01 X223.663 Y195.579
G01 X221.490 Y193.137
G01 X218.846 Y191.305
G01 X215.908 Y190.091
G01 X212.631 Y189.577
G01 X211.774 Y189.405
G01 X209.030 Y189.646
G01 X207.632 Y189.712
G01 X205.165 Y190.497
G01 X203.682 Y190.906
G01 X201.323 Y192.230
G01 X200.077 Y192.866
G01 X197.692 Y194.874
G01 X196.926 Y195.468
G01 X194.402 Y198.480
G01 X194.307 Y198.586
G01 X191.854 Y203.023
G01 X190.359 Y207.851
G01 X189.825 Y212.864
G01 X190.411 Y218.867
G01 X192.659 Y225.515
G01 X196.382 Y231.447
G01 X201.513 Y236.480
G01 X202.106 Y237.014
G01 X207.544 Y240.255
G01 X208.991 Y241.036
G01 X214.604 Y242.817
G01 X216.606 Y243.363
G01 X222.239 Y243.844
G01 X224.538 Y243.951
G01 X230.009 Y243.194
G01 X233.368 Y242.587
G01 X238.480 Y240.608
G01 X241.642 Y239.236
G01 X246.204 Y236.164
G01 X248.963 Y234.140
G01 X252.805 Y230.120
G01 X255.020 Y227.601
G01 X257.972 Y222.761
G01 X259.996 Y219.049
G01 X261.823 Y213.505
G01 X263.123 Y208.636
G01 X263.610 Y202.591
G01 X263.703 Y197.785
G01 X262.709 Y191.452
G01 X261.492 Y186.150
G01 X258.728 Y179.729
G01 X256.016 Y174.558
G01 X250.972 Y168.197
G01 X247.793 Y164.728
G01 X239.196 Y158.249
G01 X239.128 Y158.203
G01 X230.249 Y153.909
G01 X222.680 Y151.677
G01 X216.837 Y150.724
G01 X212.999 Y150.527
G01 X211.914 Y150.406
G01 X209.711 Y150.575
G01 X207.548 Y150.555
G01 X206.983 Y150.518
G01 X205.603 Y150.758
G01 X204.243 Y150.888
G01 X203.057 Y150.915
G01 X202.110 Y151.177
G01 X201.169 Y151.373
G01 X200.239 Y151.505
G01 X199.324 Y151.574
G01 X199.168 Y151.580
G01 X198.442 Y151.812
G01 X197.717 Y152.001
G01 X196.994 Y152.148
G01 X196.285 Y152.252
G01 X195.643 Y152.471
G01 X194.994 Y152.656
G01 X194.341 Y152.808
G01 X194.192 Y152.838
G01 X194.431 Y151.607
G01 X194.561 Y150.386
G01 X194.583 Y149.183
G01 X194.558 Y148.654
G01 X194.704 Y147.958
G01 X194.793 Y147.270
G01 X194.827 Y146.593
G01 X194.807 Y145.931
G01 X194.802 Y145.865
G01 X194.921 Y145.442
G01 X195.010 Y145.022
G01 X195.071 Y144.606
G01 X195.103 Y144.198
G01 X195.108 Y143.797
G01 X195.086 Y143.407
G01 X195.046 Y143.075
G01 X195.103 Y142.776
G01 X195.143 Y142.479
G01 X195.166 Y142.185
G01 X195.173 Y141.894
G01 X195.168 Y141.681
G01 X195.219 Y141.418
G01 X195.258 Y141.155
G01 X195.283 Y140.891
G01 X195.294 Y140.628
G01 X195.293 Y140.366
G01 X195.290 Y140.286
G01 X195.341 Y140.026
G01 X195.379 Y139.762
G01 X195.405 Y139.495
G01 X195.416 Y139.224
G01 X195.414 Y138.951
G01 X195.412 Y138.891
G01 X195.511 Y138.586
G01 X195.592 Y138.269
G01 X195.654 Y137.940
G01 X195.698 Y137.602
G01 X195.722 Y137.254
G01 X195.725 Y136.898
G01 X195.706 Y136.535
G01 X195.666 Y136.168
G01 X195.656 Y136.102
G01 X195.785 Y135.579
G01 X195.875 Y135.035
G01 X195.926 Y134.472
G01 X195.934 Y133.893
G01 X195.900 Y133.313
G01 X196.121 Y132.335
G01 X196.258 Y131.322
G01 X196.310 Y130.278
G01 X196.273 Y129.210
G01 X196.266 Y129.129
G01 X196.605 Y127.119
G01 X196.759 Y125.053
G01 X196.754 Y123.550
G01 X197.245 Y119.552
G01 X197.364 Y116.577
G01 X198.139 Y108.846
G01 X198.219 Y106.814
G01 X199.439 Y92.867
G01 X201.147 Y73.342
G01 X201.513 Y69.158
G01 X201.112 Y65.629
G01 X199.292 Y62.364
G01 X196.516 Y60.018
G01 X192.922 Y58.572
G01 X188.919 Y58.227
G01 X188.630 Y58.210
G01 X184.662 Y59.045
G01 X183.373 Y59.362
G01 X179.642 Y61.442
G01 X177.901 Y62.512
G01 X174.665 Y65.867
G01 X173.040 Y67.735
G01 X170.596 Y72.422
G01 X169.491 Y74.882
G01 X168.235 Y81.146
G01 X167.897 Y83.585
G01 X168.563 Y92.223
G01 X170.717 Y99.386
G01 X174.106 Y105.971
G01 X177.836 Y111.051
G01 X180.432 Y113.682
G01 X181.436 Y114.841
G01 X183.197 Y116.255
G01 X184.590 Y117.563
G01 X185.899 Y118.391
G01 X187.114 Y119.291
G01 X187.953 Y120.001
G01 X188.967 Y120.502
G01 X189.927 Y121.054
G01 X190.831 Y121.652
G01 X191.495 Y122.148
G01 X192.339 Y122.474
G01 X193.154 Y122.839
G01 X193.938 Y123.242
G01 X194.691 Y123.680
G01 X195.189 Y124.000
G01 X195.982 Y124.236
G01 X196.765 Y124.511
G01 X197.535 Y124.825
G01 X198.290 Y125.178
G01 X199.007 Y125.556
G01 X199.890 Y125.748
G01 X200.776 Y125.994
G01 X201.660 Y126.292
G01 X202.541 Y126.644
G01 X202.924 Y126.815
G01 X204.057 Y127.001
G01 X205.202 Y127.268
G01 X206.353 Y127.617
G01 X206.678 Y127.730
G01 X204.711 Y130.253
G01 X203.079 Y132.020
G01 X202.025 Y133.450
G01 X200.866 Y134.756
G01 X200.379 Y135.238
G01 X199.767 Y136.086
G01 X199.100 Y136.863
G01 X198.579 Y137.383
G01 X198.240 Y137.922
G01 X197.871 Y138.421
G01 X197.473 Y138.879
G01 X197.050 Y139.294
G01 X196.779 Y139.528
G01 X196.540 Y139.866
G01 X196.285 Y140.180
G01 X196.016 Y140.468
G01 X195.879 Y140.600
G01 X195.699 Y140.866
G01 X195.508 Y141.116
G01 X195.306 Y141.349
G01 X195.095 Y141.565
G01 X194.979 Y141.672
G01 X194.834 Y141.892
G01 X194.679 Y142.102
G01 X194.516 Y142.301
G01 X194.344 Y142.490
G01 X194.165 Y142.667
G01 X194.080 Y142.745
G01 X193.947 Y142.947
G01 X193.804 Y143.143
G01 X193.652 Y143.332
G01 X193.491 Y143.513
G01 X193.320 Y143.687
G01 X193.180 Y143.817
G01 X193.037 Y144.034
G01 X192.881 Y144.245
G01 X192.712 Y144.451
G01 X192.529 Y144.650
G01 X192.333 Y144.841
G01 X192.280 Y144.890
G01 X192.120 Y145.200
G01 X191.936 Y145.506
G01 X191.726 Y145.806
G01 X191.492 Y146.099
G01 X191.233 Y146.381
G01 X190.949 Y146.653
G01 X190.642 Y146.911
G01 X190.480 Y147.035
G01 X190.144 Y147.567
G01 X189.757 Y148.082
G01 X189.320 Y148.576
G01 X188.834 Y149.046
G01 X188.680 Y149.180
G01 X188.025 Y150.165
G01 X187.271 Y151.105
G01 X186.420 Y151.993
G01 X185.980 Y152.397
G01 X184.571 Y154.309
G01 X182.967 Y156.107
G01 X182.381 Y156.687
G01 X179.384 Y160.520
G01 X176.981 Y163.122
G01 X170.593 Y170.825
G01 X169.782 Y171.701
G01 X158.983 Y184.571
G01 X152.684 Y192.078
G01 X151.098 Y195.043
G01 X150.804 Y198.601
G01 X151.978 Y202.280
G01 X154.396 Y205.325
G01 X154.661 Y205.638
G01 X157.780 Y207.594
G01 X158.886 Y208.237
G01 X162.489 Y209.134
G01 X163.996 Y209.453
G01 X167.876 Y209.265
G01 X170.099 Y209.059
G01 X174.047 Y207.681
G01 X176.636 Y206.616
G01 X180.410 Y203.929
G01 X182.910 Y201.897
G01 X186.247 Y197.697
G01 X188.161 Y194.914
G01 X190.758 Y188.548
G01 X191.635 Y185.925
G01 X192.679 Y177.534
G01 X192.145 Y170.217
G01 X190.710 Y164.132
G01 X189.579 Y161.411
G01 X188.888 Y159.275
G01 X188.084 Y157.889
G01 X187.413 Y156.474
G01 X187.056 Y155.565
G01 X186.462 Y154.711
G01 X185.944 Y153.838
G01 X185.503 Y152.951
G01 X185.480 Y152.899
G01 X184.993 Y152.315
G01 X184.553 Y151.715
G01 X184.159 Y151.103
G01 X183.812 Y150.480
G01 X183.742 Y150.343
G01 X183.321 Y149.906
G01 X182.928 Y149.454
G01 X182.562 Y148.986
G01 X182.226 Y148.506
G01 X181.918 Y148.015
G01 X181.853 Y147.903
G01 X181.439 Y147.525
G01 X181.043 Y147.125
G01 X180.666 Y146.705
G01 X180.309 Y146.264
G01 X179.972 Y145.805
G01 X179.823 Y145.585
G01 X179.336 Y145.188
G01 X178.865 Y144.757
G01 X178.411 Y144.292
G01 X177.976 Y143.793
G01 X177.662 Y143.395
G01 X177.001 Y142.899
G01 X176.361 Y142.346
G01 X175.744 Y141.737
G01 X175.381 Y141.337
G01 X174.342 Y140.660
G01 X173.338 Y139.884
G01 X172.374 Y139.011
G01 X172.168 Y138.806
G01 X170.395 Y137.717
G01 X168.781 Y136.525
G01 X165.794 Y134.804
G01 X165.683 Y134.733
G01 X167.754 Y134.025
G01 X169.832 Y133.507
G01 X171.092 Y133.284
G01 X172.492 Y132.795
G01 X173.892 Y132.427
G01 X175.149 Y132.197
G01 X176.125 Y131.817
G01 X177.101 Y131.513
G01 X178.073 Y131.284
G01 X179.034 Y131.130
G01 X179.206 Y131.110
G01 X179.900 Y130.814
G01 X180.597 Y130.564
G01 X181.294 Y130.360
G01 X181.987 Y130.201
G01 X182.675 Y130.087
G01 X183.263 Y130.023
G01 X183.807 Y129.781
G01 X184.359 Y129.569
G01 X184.916 Y129.386
G01 X185.478 Y129.232
G01 X186.043 Y129.108
G01 X186.609 Y129.014
G01 X187.174 Y128.948
G01 X187.320 Y128.935
G01 X187.844 Y128.701
G01 X188.384 Y128.492
G01 X188.940 Y128.308
G01 X189.510 Y128.152
G01 X190.093 Y128.024
G01 X190.687 Y127.925
G01 X191.291 Y127.856
G01 X191.376 Y127.848
G01 X192.031 Y127.566
G01 X192.715 Y127.320
G01 X193.429 Y127.112
G01 X194.170 Y126.944
G01 X194.935 Y126.818
G01 X195.433 Y126.761
G01 X196.383 Y126.391
G01 X197.380 Y126.084
G01 X198.423 Y125.843
G01 X199.490 Y125.674
G01 X200.895 Y125.187
G01 X202.369 Y124.806
G01 X203.547 Y124.587
G01 X205.638 Y123.878
G01 X207.827 Y123.340
G01 X208.956 Y123.138
G01 X212.238 Y122.094
G01 X215.662 Y121.336
G01 X215.718 Y121.326
G01 X220.918 Y119.790
G01 X223.832 Y119.152
G01 X232.153 Y116.797
G01 X234.650 Y116.253
G01 X246.821 Y112.992
G01 X249.622 Y111.565
G01 X251.715 Y109.021
G01 X252.722 Y105.920
G01 X252.530 Y101.936
G01 X252.512 Y101.709
G01 X251.209 Y98.359
G01 X249.055 Y95.433
G01 X248.795 Y95.100
G01 X245.893 Y92.799
G01 X244.830 Y92.015
G01 X241.231 Y90.521
G01 X239.313 Y89.823
G01 X235.118 Y89.342
G01 X232.507 Y89.186
G01 X227.843 Y89.965
G01 X224.913 Y90.647
G01 X219.854 Y93.073
G01 X217.214 Y94.563
G01 X211.602 Y99.555
G01 X210.897 Y100.252
G01 X206.641 Y106.260
G01 X203.974 Y111.931
G01 X202.443 Y116.897
G01 X201.928 Y120.241
G01 X201.529 Y121.992
G01 X201.493 Y123.853
G01 X201.303 Y125.664
G01 X201.232 Y126.110
G01 X201.313 Y127.335
G01 X201.301 Y128.534
G01 X201.255 Y129.199
G01 X201.393 Y130.093
G01 X201.472 Y130.974
G01 X201.493 Y131.838
G01 X201.482 Y132.276
G01 X201.646 Y132.970
G01 X201.769 Y133.662
G01 X201.853 Y134.348
G01 X201.899 Y135.027
G01 X201.907 Y135.325
G01 X202.092 Y135.926
G01 X202.247 Y136.532
G01 X202.371 Y137.145
G01 X202.465 Y137.761
G01 X202.525 Y138.337
G01 X202.753 Y138.941
G01 X202.951 Y139.562
G01 X203.119 Y140.201
G01 X203.255 Y140.855
G01 X203.328 Y141.301
G01 X203.640 Y142.011
G01 X203.914 Y142.755
G01 X204.147 Y143.530
G01 X204.309 Y144.206
G01 X204.765 Y145.139
G01 X205.163 Y146.127
G01 X205.462 Y147.043
G01 X206.227 Y148.376
G01 X206.896 Y149.800
G01 X207.252 Y150.705
G01 X208.711 Y152.924
G01 X209.872 Y155.066
G01 X213.198 Y159.452
G01 X213.528 Y159.939
G01 X216.904 Y163.613
G01 X213.100 Y162.374
G01 X210.326 Y161.219
G01 X207.704 Y160.397
G01 X205.215 Y159.374
G01 X205.064 Y159.303
G01 X203.242 Y158.803
G01 X201.508 Y158.174
G01 X199.869 Y157.423
G01 X199.802 Y157.388
G01 X198.533 Y157.041
G01 X197.322 Y156.614
G01 X196.176 Y156.111
G01 X195.855 Y155.951
G01 X194.909 Y155.721
G01 X194.001 Y155.437
G01 X193.133 Y155.104
G01 X192.307 Y154.723
G01 X191.908 Y154.515
G01 X191.174 Y154.350
G01 X190.460 Y154.149
G01 X189.770 Y153.914
G01 X189.103 Y153.645
G01 X188.462 Y153.344
G01 X187.961 Y153.078
G01 X187.327 Y152.941
G01 X186.700 Y152.772
G01 X186.084 Y152.574
G01 X185.480 Y152.345
G01 X184.888 Y152.088
G01 X184.311 Y151.803
G01 X184.015 Y151.642
G01 X183.356 Y151.499
G01 X182.696 Y151.319
G01 X182.039 Y151.101
G01 X181.385 Y150.846
G01 X180.738 Y150.553
G01 X180.099 Y150.223
G01 X180.068 Y150.206
G01 X179.247 Y150.015
G01 X178.422 Y149.768
G01 X177.596 Y149.463
G01 X176.773 Y149.100
G01 X176.121 Y148.769
G01 X175.003 Y148.476
G01 X173.881 Y148.093
G01 X172.763 Y147.620
G01 X172.175 Y147.333
G01 X170.629 Y146.878
G01 X169.089 Y146.288
G01 X168.228 Y145.896
G01 X166.031 Y145.244
G01 X163.850 Y144.389
G01 X162.966 Y143.981
G01 X159.683 Y142.953
G01 X156.444 Y141.613
G01 X156.388 Y141.587
G01 X151.403 Y139.926
G01 X148.494 Y138.714
G01 X140.969 Y136.066
G01 X139.285 Y135.362
G01 X137.970 Y134.883
G01 X134.891 Y134.491
G01 X131.874 Y135.432
G01 X129.211 Y137.695
G01 X127.549 Y140.699
G01 X127.474 Y140.845
G01 X126.866 Y143.958
G01 X126.768 Y144.555
G01 X127.134 Y147.644
G01 X127.472 Y149.746
G01 X128.863 Y152.629
G01 X130.230 Y155.136
G01 X132.585 Y157.579
G01 X135.032 Y159.828
G01 X135.170 Y159.947
G01 X138.395 Y161.697
G01 X141.655 Y163.180
G01 X142.133 Y163.375
G01 X146.154 Y164.144
G01 X150.128 Y164.580
G01 X151.751 Y164.663
G01 X156.544 Y163.976
G01 X161.169 Y162.884
G01 X162.118 Y162.604
G01 X168.141 Y159.574
G01 X170.435 Y158.221
G01 X175.964 Y153.515
G01 X179.336 Y149.603
G01 X180.496 Y147.749
G01 X181.666 Y146.205
G01 X182.056 Y145.329
G01 X182.511 Y144.508
G01 X183.026 Y143.744
G01 X183.192 Y143.526
G01 X183.371 Y143.031
G01 X183.581 Y142.562
G01 X183.820 Y142.121
G01 X184.086 Y141.710
G01 X184.104 Y141.686
G01 X184.188 Y141.358
G01 X184.290 Y141.041
G01 X184.409 Y140.738
G01 X184.543 Y140.450
G01 X184.692 Y140.176
G01 X184.854 Y139.918
G01 X184.929 Y139.809
G01 X184.975 Y139.563
G01 X185.033 Y139.321
G01 X185.103 Y139.084
G01 X185.184 Y138.852
G01 X185.275 Y138.626
G01 X185.378 Y138.406
G01 X185.490 Y138.192
G01 X185.612 Y137.986
G01 X185.668 Y137.899
G01 X185.703 Y137.649
G01 X185.752 Y137.397
G01 X185.816 Y137.144
G01 X185.894 Y136.892
G01 X185.988 Y136.640
G01 X186.096 Y136.391
G01 X186.219 Y136.144
G01 X186.322 Y135.960
G01 X186.369 Y135.595
G01 X186.443 Y135.226
G01 X186.545 Y134.854
G01 X186.676 Y134.481
G01 X186.834 Y134.109
G01 X186.889 Y133.995
G01 X186.946 Y133.321
G01 X187.061 Y132.639
G01 X187.237 Y131.954
G01 X187.474 Y131.270
G01 X187.579 Y131.011
G01 X187.706 Y129.442
G01 X187.981 Y127.867
G01 X188.202 Y126.982
G01 X188.449 Y122.456
G01 X188.509 Y121.905
G01 X187.947 Y113.809
G01 X185.364 Y103.784
G01 X184.825 Y102.095
G01 X181.936 Y95.840
G01 X184.645 Y99.519
G01 X185.951 Y101.574
G01 X187.999 Y104.225
G01 X189.776 Y106.978
G01 X189.966 Y107.308
G01 X191.479 Y109.248
G01 X192.802 Y111.252
G01 X193.178 Y111.895
G01 X194.351 Y113.327
G01 X195.392 Y114.802
G01 X196.298 Y116.313
G01 X196.391 Y116.482
G01 X197.285 Y117.598
G01 X198.086 Y118.743
G01 X198.793 Y119.911
G01 X198.800 Y119.923
G01 X199.548 Y120.833
G01 X200.228 Y121.768
G01 X200.840 Y122.722
G01 X201.209 Y123.363
G01 X201.856 Y124.141
G01 X202.455 Y124.941
G01 X203.005 Y125.761
G01 X203.504 Y126.599
G01 X203.618 Y126.804
G01 X204.216 Y127.517
G01 X204.776 Y128.257
G01 X205.299 Y129.022
G01 X205.782 Y129.810
G01 X206.027 Y130.244
