;  Created by Sandify
;  https://sandify.org
;  Version: 0.2.4
;
;  Machine type: Rectangular
;    Min X (mm): 0
;    Max X (mm): 380
;    Min Y (mm): 0
;    Max Y (mm): 280
;  Content type: shape
;  Layer:
;    Shape: FileImport
;    Name: LinedCircles4.thr
;    From file:: LinedCircles4.thr
;    Aspect Ratio: true
;    Comments: 
;    Visible: true
;    Initial width: 10
;    Initial height: 10
;    X offset: 0
;    Y offset: 0
;    Rotate (degrees): 0
;    Reverse path: false
;    Fine tuning:
;      Connect to next layer: line
;      Draw portion of path (%): 100
;      Backtrack at end (%): 0
;      Rotate starting point (%): 0
;  Reverse export path: false
;
; File name: 'LinedCircles4'
;

G01 X190.000 Y140.000
G01 X190.020 Y140.410
G01 X190.080 Y140.816
G01 X190.181 Y141.217
G01 X190.320 Y141.609
G01 X190.498 Y141.989
G01 X190.714 Y142.355
G01 X190.967 Y142.703
G01 X191.256 Y143.031
G01 X191.578 Y143.337
G01 X191.933 Y143.617
G01 X192.319 Y143.870
G01 X192.734 Y144.092
G01 X193.176 Y144.283
G01 X193.643 Y144.439
G01 X194.132 Y144.559
G01 X194.640 Y144.640
G01 X195.166 Y144.683
G01 X195.707 Y144.684
G01 X196.259 Y144.642
G01 X196.821 Y144.557
G01 X197.388 Y144.428
G01 X197.958 Y144.254
G01 X198.528 Y144.033
G01 X199.094 Y143.767
G01 X199.655 Y143.454
G01 X200.205 Y143.096
G01 X200.742 Y142.691
G01 X201.264 Y142.240
G01 X201.766 Y141.745
G01 X202.245 Y141.206
G01 X202.700 Y140.624
G01 X203.125 Y140.000
G01 X203.519 Y139.336
G01 X203.878 Y138.633
G01 X204.200 Y137.894
G01 X204.482 Y137.119
G01 X204.721 Y136.313
G01 X204.915 Y135.476
G01 X205.061 Y134.611
G01 X205.157 Y133.722
G01 X205.202 Y132.810
G01 X205.192 Y131.879
G01 X205.128 Y130.933
G01 X205.005 Y129.974
G01 X204.825 Y129.005
G01 X204.585 Y128.031
G01 X204.284 Y127.054
G01 X203.921 Y126.079
G01 X203.497 Y125.109
G01 X203.010 Y124.147
G01 X202.461 Y123.199
G01 X201.849 Y122.266
G01 X201.176 Y121.354
G01 X200.441 Y120.467
G01 X199.645 Y119.607
G01 X198.790 Y118.780
G01 X197.876 Y117.988
G01 X196.906 Y117.235
G01 X195.880 Y116.526
G01 X194.801 Y115.863
G01 X193.671 Y115.251
G01 X192.493 Y114.693
G01 X191.268 Y114.191
G01 X190.000 Y113.750
G01 X188.692 Y113.372
G01 X187.347 Y113.060
G01 X185.968 Y112.817
G01 X184.559 Y112.645
G01 X183.123 Y112.547
G01 X181.666 Y112.525
G01 X180.189 Y112.581
G01 X178.699 Y112.717
G01 X177.198 Y112.933
G01 X175.692 Y113.232
G01 X174.185 Y113.615
G01 X172.682 Y114.082
G01 X171.187 Y114.633
G01 X169.704 Y115.270
G01 X168.240 Y115.991
G01 X166.798 Y116.798
G01 X165.384 Y117.689
G01 X164.001 Y118.664
G01 X162.656 Y119.721
G01 X161.353 Y120.859
G01 X160.097 Y122.077
G01 X158.892 Y123.372
G01 X157.742 Y124.743
G01 X156.654 Y126.188
G01 X155.630 Y127.702
G01 X154.675 Y129.284
G01 X153.794 Y130.931
G01 X152.991 Y132.638
G01 X152.268 Y134.403
G01 X151.631 Y136.221
G01 X151.082 Y138.088
G01 X150.625 Y140.000
G01 X150.263 Y141.952
G01 X149.998 Y143.940
G01 X149.834 Y145.958
G01 X149.772 Y148.002
G01 X149.816 Y150.066
G01 X149.966 Y152.144
G01 X150.223 Y154.232
G01 X150.591 Y156.324
G01 X151.068 Y158.413
G01 X151.657 Y160.495
G01 X152.357 Y162.562
G01 X153.168 Y164.610
G01 X154.091 Y166.632
G01 X155.124 Y168.622
G01 X156.266 Y170.574
G01 X157.517 Y172.483
G01 X158.875 Y174.341
G01 X160.337 Y176.144
G01 X161.902 Y177.886
G01 X163.567 Y179.560
G01 X165.329 Y181.161
G01 X167.185 Y182.684
G01 X169.132 Y184.122
G01 X171.165 Y185.472
G01 X173.281 Y186.728
G01 X175.474 Y187.884
G01 X177.742 Y188.937
G01 X180.078 Y189.882
G01 X182.477 Y190.715
G01 X184.935 Y191.431
G01 X187.444 Y192.027
G01 X190.000 Y192.500
G01 X192.596 Y192.846
G01 X195.226 Y193.064
G01 X197.884 Y193.149
G01 X200.562 Y193.100
G01 X203.255 Y192.916
G01 X205.954 Y192.594
G01 X208.654 Y192.134
G01 X211.347 Y191.535
G01 X214.025 Y190.796
G01 X216.682 Y189.918
G01 X219.310 Y188.901
G01 X221.902 Y187.745
G01 X224.451 Y186.451
G01 X226.948 Y185.022
G01 X229.389 Y183.459
G01 X231.763 Y181.763
G01 X234.066 Y179.939
G01 X236.290 Y177.989
G01 X238.428 Y175.916
G01 X240.473 Y173.725
G01 X242.419 Y171.419
G01 X244.259 Y169.002
G01 X245.987 Y166.480
G01 X247.598 Y163.858
G01 X249.086 Y161.141
G01 X250.444 Y158.336
G01 X251.669 Y155.447
G01 X252.755 Y152.483
G01 X253.698 Y149.449
G01 X254.493 Y146.352
G01 X255.136 Y143.200
G01 X255.625 Y140.000
G01 X255.956 Y136.760
G01 X256.125 Y133.487
G01 X256.132 Y130.190
G01 X255.973 Y126.877
G01 X255.648 Y123.556
G01 X255.154 Y120.236
G01 X254.492 Y116.924
G01 X253.661 Y113.631
G01 X252.661 Y110.363
G01 X251.493 Y107.131
G01 X250.158 Y103.943
G01 X248.658 Y100.806
G01 X246.993 Y97.731
G01 X245.168 Y94.725
G01 X243.184 Y91.797
G01 X241.044 Y88.956
G01 X238.754 Y86.209
G01 X236.316 Y83.564
G01 X233.735 Y81.030
G01 X231.017 Y78.614
G01 X228.166 Y76.324
G01 X225.189 Y74.166
G01 X222.092 Y72.148
G01 X218.881 Y70.276
G01 X215.563 Y68.557
G01 X212.146 Y66.996
G01 X208.636 Y65.599
G01 X205.043 Y64.372
G01 X201.374 Y63.320
G01 X197.638 Y62.446
G01 X193.844 Y61.755
G01 X190.000 Y61.250
G01 X186.116 Y60.935
G01 X182.201 Y60.813
G01 X178.264 Y60.885
G01 X174.317 Y61.154
G01 X170.367 Y61.621
G01 X166.426 Y62.286
G01 X162.503 Y63.150
G01 X158.608 Y64.213
G01 X154.752 Y65.474
G01 X150.944 Y66.931
G01 X147.195 Y68.584
G01 X143.514 Y70.429
G01 X139.912 Y72.465
G01 X136.399 Y74.687
G01 X132.983 Y77.092
G01 X129.675 Y79.675
G01 X126.484 Y82.432
G01 X123.418 Y85.358
G01 X120.488 Y88.446
G01 X117.701 Y91.691
G01 X115.066 Y95.086
G01 X112.591 Y98.624
G01 X110.283 Y102.297
G01 X108.150 Y106.097
G01 X106.199 Y110.015
G01 X104.436 Y114.044
G01 X102.868 Y118.174
G01 X101.499 Y122.396
G01 X100.337 Y126.700
G01 X99.384 Y131.075
G01 X98.645 Y135.512
G01 X98.125 Y140.000
G01 X97.826 Y144.528
G01 X97.751 Y149.086
G01 X97.902 Y153.661
G01 X98.281 Y158.244
G01 X98.889 Y162.822
G01 X99.726 Y167.384
G01 X100.792 Y171.919
G01 X102.087 Y176.415
G01 X103.609 Y180.860
G01 X105.356 Y185.243
G01 X107.326 Y189.553
G01 X109.516 Y193.777
G01 X111.923 Y197.906
G01 X114.541 Y201.928
G01 X117.367 Y205.831
G01 X120.394 Y209.606
G01 X123.618 Y213.241
G01 X127.032 Y216.727
G01 X130.628 Y220.054
G01 X134.400 Y223.212
G01 X138.339 Y226.192
G01 X142.437 Y228.984
G01 X146.685 Y231.582
G01 X151.074 Y233.976
G01 X155.594 Y236.159
G01 X160.234 Y238.124
G01 X164.985 Y239.864
G01 X169.836 Y241.373
G01 X174.774 Y242.646
G01 X179.789 Y243.678
G01 X184.868 Y244.464
G01 X190.000 Y245.000
G01 X190.603 Y242.573
G01 X190.003 Y240.329
G01 X188.114 Y238.172
G01 X186.181 Y237.157
G01 X183.502 Y236.648
G01 X179.748 Y237.186
G01 X176.550 Y238.760
G01 X173.958 Y241.011
G01 X171.450 Y244.681
G01 X169.981 Y248.776
G01 X169.491 Y254.095
G01 X170.328 Y259.301
G01 X172.810 Y265.044
G01 X176.593 Y269.962
G01 X182.227 Y274.420
G01 X188.738 Y277.364
G01 X195.538 Y278.724
G01 X195.715 Y278.755
G01 X202.546 Y278.642
G01 X202.803 Y278.631
G01 X209.481 Y277.072
G01 X210.656 Y276.761
G01 X216.967 Y273.725
G01 X217.898 Y273.241
G01 X223.627 Y268.743
G01 X224.964 Y267.614
G01 X229.831 Y261.616
G01 X230.607 Y260.583
G01 X234.380 Y253.109
G01 X234.641 Y252.539
G01 X237.010 Y243.396
G01 X237.122 Y242.872
G01 X237.479 Y232.912
G01 X236.043 Y224.065
G01 X233.048 Y215.625
G01 X229.194 Y208.666
G01 X224.997 Y203.117
G01 X220.123 Y198.157
G01 X215.477 Y194.425
G01 X211.180 Y191.714
G01 X210.463 Y191.211
G01 X207.043 Y189.584
G01 X205.142 Y188.538
G01 X203.038 Y187.664
G01 X205.834 Y188.411
G01 X208.100 Y188.884
G01 X210.757 Y188.593
G01 X213.131 Y188.212
G01 X215.465 Y187.014
G01 X217.591 Y185.791
G01 X219.399 Y183.779
G01 X220.895 Y181.940
G01 X221.945 Y179.183
G01 X222.630 Y177.030
G01 X222.573 Y173.498
G01 X222.451 Y171.826
G01 X220.531 Y167.272
G01 X217.468 Y163.913
G01 X213.993 Y161.903
G01 X211.012 Y161.163
G01 X210.490 Y161.004
G01 X208.625 Y161.068
G01 X207.008 Y161.015
G01 X205.662 Y161.423
G01 X204.319 Y161.750
G01 X203.636 Y161.886
G01 X202.553 Y162.542
G01 X201.439 Y163.145
G01 X200.583 Y163.561
G01 X199.609 Y164.551
G01 X198.563 Y165.500
G01 X198.038 Y165.939
G01 X197.075 Y167.546
G01 X196.158 Y168.870
G01 X195.192 Y171.952
G01 X195.011 Y172.439
G01 X194.879 Y176.452
G01 X196.109 Y180.828
G01 X198.985 Y184.869
G01 X199.056 Y184.960
G01 X201.865 Y186.890
G01 X203.405 Y187.823
G01 X206.196 Y188.485
G01 X208.500 Y188.898
G01 X211.138 Y188.532
G01 X213.509 Y188.083
G01 X215.810 Y186.817
G01 X217.898 Y185.536
G01 X219.657 Y183.464
G01 X221.091 Y181.591
G01 X222.071 Y178.778
G01 X222.685 Y176.634
G01 X222.521 Y173.034
G01 X222.358 Y171.438
G01 X220.309 Y166.939
G01 X217.151 Y163.670
G01 X213.619 Y161.759
G01 X210.817 Y161.158
G01 X210.093 Y160.962
G01 X208.306 Y161.077
G01 X206.612 Y161.072
G01 X205.307 Y161.509
G01 X203.999 Y161.869
G01 X203.266 Y162.038
G01 X202.202 Y162.725
G01 X201.103 Y163.361
G01 X200.262 Y163.800
G01 X199.294 Y164.841
G01 X198.247 Y165.843
G01 X197.786 Y166.249
G01 X196.821 Y167.961
G01 X195.991 Y169.234
G01 X195.028 Y172.593
G01 X194.946 Y172.834
G01 X194.948 Y176.982
G01 X196.407 Y181.427
G01 X199.256 Y185.075
G01 X199.547 Y185.414
G01 X202.358 Y187.157
G01 X204.028 Y188.065
G01 X206.808 Y188.586
G01 X209.168 Y188.896
G01 X211.774 Y188.407
G01 X214.133 Y187.843
G01 X216.375 Y186.466
G01 X218.395 Y185.089
G01 X220.067 Y182.918
G01 X221.396 Y180.996
G01 X222.255 Y178.089
G01 X222.752 Y175.969
G01 X222.398 Y172.249
G01 X222.177 Y170.794
G01 X219.916 Y166.399
G01 X216.716 Y163.359
G01 X213.242 Y161.627
G01 X210.601 Y161.148
G01 X209.694 Y160.930
G01 X207.980 Y161.093
G01 X206.299 Y161.141
G01 X206.218 Y161.140
G01 X204.950 Y161.605
G01 X203.676 Y161.998
G01 X202.901 Y162.201
G01 X201.855 Y162.921
G01 X200.768 Y163.590
G01 X199.949 Y164.049
G01 X198.984 Y165.145
G01 X197.936 Y166.202
G01 X197.544 Y166.567
G01 X196.576 Y168.394
G01 X195.835 Y169.602
G01 X194.893 Y173.230
G01 X195.013 Y177.376
G01 X196.598 Y181.778
G01 X199.436 Y185.218
G01 X199.851 Y185.673
G01 X202.662 Y187.310
G01 X204.406 Y188.196
G01 X207.178 Y188.634
G01 X209.568 Y188.880
G01 X212.152 Y188.317
G01 X214.500 Y187.685
G01 X216.733 Y186.292
G01 X218.096 Y185.363
G01 X216.356 Y186.795
G01 X215.505 Y188.680
G01 X215.495 Y191.192
G01 X216.726 Y193.978
G01 X218.628 Y195.932
G01 X222.012 Y197.644
G01 X226.114 Y198.116
G01 X226.693 Y198.160
G01 X230.275 Y197.391
G01 X231.096 Y197.185
G01 X234.155 Y195.479
G01 X235.836 Y194.454
G01 X238.269 Y191.942
G01 X239.514 Y190.556
G01 X241.221 Y187.405
G01 X242.414 Y184.932
G01 X243.197 Y181.253
G01 X243.731 Y177.765
G01 X243.383 Y173.734
G01 X242.775 Y169.831
G01 X242.728 Y169.586
G01 X241.011 Y165.416
G01 X239.020 Y161.490
G01 X238.879 Y161.239
G01 X235.431 Y157.143
G01 X232.776 Y154.435
G01 X226.432 Y150.333
G01 X225.086 Y149.569
G01 X218.415 Y147.246
G01 X212.447 Y146.294
G01 X208.894 Y146.313
G01 X207.418 Y146.222
G01 X205.703 Y146.495
G01 X204.007 Y146.616
G01 X203.418 Y146.623
G01 X202.395 Y146.894
G01 X201.380 Y147.082
G01 X200.457 Y147.182
G01 X199.772 Y147.443
G01 X199.088 Y147.654
G01 X198.407 Y147.817
G01 X197.732 Y147.932
G01 X197.548 Y147.956
G01 X197.047 Y148.199
G01 X196.541 Y148.412
G01 X196.031 Y148.596
G01 X195.519 Y148.750
G01 X195.007 Y148.875
G01 X194.703 Y148.936
G01 X194.273 Y149.186
G01 X193.829 Y149.415
G01 X193.374 Y149.623
G01 X192.907 Y149.809
G01 X192.430 Y149.972
G01 X191.944 Y150.112
G01 X191.936 Y150.114
G01 X191.471 Y150.428
G01 X190.978 Y150.721
G01 X190.461 Y150.990
G01 X189.919 Y151.233
G01 X189.355 Y151.449
G01 X189.261 Y151.481
G01 X188.640 Y151.943
G01 X187.972 Y152.370
G01 X187.259 Y152.759
G01 X186.686 Y153.029
G01 X185.749 Y153.835
G01 X184.724 Y154.578
G01 X183.618 Y155.252
G01 X183.430 Y155.354
G01 X181.777 Y156.876
G01 X180.395 Y157.958
G01 X177.233 Y161.288
G01 X176.941 Y161.565
G01 X172.793 Y167.183
G01 X168.732 Y175.174
G01 X166.236 Y184.048
G01 X165.662 Y186.699
G01 X165.302 Y193.663
G01 X165.572 Y200.761
G01 X165.643 Y201.573
G01 X167.005 Y207.664
G01 X168.910 Y213.757
G01 X170.064 Y216.787
G01 X172.918 Y222.186
G01 X174.529 Y224.852
G01 X172.004 Y221.730
G01 X168.697 Y219.454
G01 X164.879 Y218.210
G01 X160.866 Y218.101
G01 X156.986 Y219.135
G01 X153.560 Y221.227
G01 X150.794 Y224.318
G01 X148.983 Y228.342
G01 X148.521 Y232.865
G01 X149.584 Y237.420
G01 X152.089 Y241.371
G01 X155.756 Y244.277
G01 X160.175 Y245.812
G01 X164.853 Y245.805
G01 X169.268 Y244.258
G01 X172.927 Y241.342
G01 X175.368 Y237.508
G01 X176.441 Y233.227
G01 X176.187 Y229.087
G01 X174.796 Y225.321
G01 X172.393 Y222.105
G01 X169.176 Y219.703
G01 X165.410 Y218.312
G01 X161.403 Y218.048
G01 X157.487 Y218.932
G01 X153.982 Y220.891
G01 X151.099 Y223.873
G01 X149.175 Y227.696
G01 X148.496 Y232.191
G01 X149.339 Y236.792
G01 X151.650 Y240.860
G01 X155.173 Y243.938
G01 X159.513 Y245.684
G01 X164.186 Y245.903
G01 X168.670 Y244.570
G01 X172.465 Y241.834
G01 X175.088 Y238.121
G01 X176.366 Y233.897
G01 X176.290 Y229.618
G01 X174.985 Y225.680
G01 X172.676 Y222.396
G01 X169.530 Y219.901
G01 X165.805 Y218.402
G01 X161.808 Y218.022
G01 X157.868 Y218.792
G01 X154.308 Y220.649
G01 X151.340 Y223.546
G01 X149.305 Y227.312
G01 X148.497 Y231.785
G01 X149.205 Y236.409
G01 X151.398 Y240.542
G01 X154.830 Y243.721
G01 X159.118 Y245.592
G01 X163.782 Y245.946
G01 X168.303 Y244.744
G01 X172.176 Y242.119
G01 X174.967 Y238.365
G01 X176.327 Y234.166
G01 X176.333 Y229.886
G01 X175.105 Y225.924
G01 X172.860 Y222.595
G01 X169.763 Y220.040
G01 X166.069 Y218.469
G01 X162.080 Y218.012
G01 X160.875 Y218.099
G01 X163.362 Y217.836
G01 X165.265 Y216.505
G01 X166.646 Y213.992
G01 X166.939 Y211.828
G01 X166.501 Y209.137
G01 X165.418 Y206.807
G01 X163.058 Y204.056
G01 X160.191 Y202.147
G01 X160.170 Y202.132
G01 X157.006 Y200.959
G01 X153.736 Y200.465
G01 X149.413 Y200.741
G01 X145.314 Y201.938
G01 X141.574 Y203.908
G01 X137.546 Y207.246
G01 X134.338 Y211.327
G01 X131.648 Y216.895
G01 X130.132 Y223.899
G01 X130.303 Y231.028
G01 X132.223 Y238.303
G01 X132.395 Y238.864
G01 X135.608 Y244.863
G01 X136.253 Y245.966
G01 X140.465 Y250.830
G01 X141.573 Y252.021
G01 X146.578 Y255.727
G01 X148.901 Y257.314
G01 X154.534 Y259.773
G01 X157.209 Y260.827
G01 X163.235 Y262.028
G01 X166.059 Y262.486
G01 X172.255 Y262.431
G01 X175.048 Y262.303
G01 X181.206 Y260.975
G01 X184.761 Y260.048
G01 X190.643 Y257.364
G01 X194.629 Y255.299
G01 X199.952 Y251.257
G01 X203.201 Y248.505
G01 X207.726 Y243.168
G01 X210.676 Y239.224
G01 X214.086 Y232.579
G01 X216.230 Y227.589
G01 X218.161 Y219.594
G01 X218.948 Y214.996
G01 X219.213 Y210.741
G01 X219.520 Y214.878
G01 X221.161 Y218.974
G01 X224.098 Y222.444
G01 X228.117 Y224.839
G01 X232.835 Y225.780
G01 X237.465 Y225.110
G01 X241.615 Y222.952
G01 X244.824 Y219.548
G01 X246.731 Y215.276
G01 X247.125 Y210.614
G01 X245.961 Y206.083
G01 X243.551 Y202.386
G01 X240.342 Y199.758
G01 X236.634 Y198.218
G01 X232.642 Y197.794
G01 X228.874 Y198.492
G01 X228.693 Y198.520
G01 X225.624 Y200.094
G01 X225.113 Y200.337
G01 X222.529 Y202.797
G01 X222.196 Y203.096
G01 X220.232 Y206.444
G01 X219.249 Y210.337
G01 X219.436 Y214.481
G01 X220.893 Y218.506
G01 X223.694 Y222.086
G01 X227.617 Y224.634
G01 X232.295 Y225.756
G01 X236.947 Y225.266
G01 X241.178 Y223.270
G01 X244.516 Y219.991
G01 X246.586 Y215.796
G01 X247.159 Y211.153
G01 X246.171 Y206.581
G01 X243.905 Y202.793
G01 X240.687 Y199.971
G01 X237.026 Y198.324
G01 X233.047 Y197.784
G01 X229.208 Y198.357
G01 X226.061 Y199.820
G01 X225.560 Y200.035
G01 X222.918 Y202.364
G01 X222.539 Y202.679
G01 X220.447 Y205.949
G01 X219.315 Y209.801
G01 X219.342 Y213.949
G01 X220.643 Y218.027
G01 X223.303 Y221.713
G01 X227.126 Y224.410
G01 X231.757 Y225.712
G01 X236.425 Y225.401
G01 X240.729 Y223.570
G01 X244.191 Y220.423
G01 X246.422 Y216.311
G01 X247.172 Y211.559
G01 X246.316 Y206.960
G01 X244.078 Y203.003
G01 X240.915 Y200.119
G01 X237.286 Y198.401
G01 X233.319 Y197.785
G01 X229.469 Y198.283
G01 X226.282 Y199.689
G01 X225.790 Y199.890
G01 X223.118 Y202.155
G01 X222.717 Y202.474
G01 X220.563 Y205.704
G01 X219.356 Y209.533
G01 X219.285 Y213.547
G01 X220.467 Y217.661
G01 X223.020 Y221.422
G01 X226.525 Y224.104
G01 X224.583 Y222.959
G01 X222.013 Y222.892
G01 X219.441 Y224.159
G01 X217.960 Y225.763
G01 X216.775 Y228.219
G01 X216.324 Y231.984
G01 X217.016 Y235.480
G01 X219.162 Y239.493
G01 X222.257 Y242.644
G01 X226.944 Y245.322
G01 X232.091 Y246.635
G01 X238.230 Y246.557
G01 X238.379 Y246.551
G01 X244.028 Y244.980
G01 X244.377 Y244.873
G01 X249.442 Y242.051
G01 X249.774 Y241.855
G01 X254.105 Y237.891
G01 X255.034 Y236.987
G01 X258.423 Y231.943
G01 X258.983 Y231.049
G01 X261.241 Y225.017
G01 X261.764 Y223.430
G01 X262.594 Y216.462
G01 X262.677 Y215.399
G01 X261.735 Y207.460
G01 X261.562 Y206.408
G01 X258.378 Y197.949
G01 X254.035 Y191.206
G01 X248.501 Y185.419
G01 X242.867 Y181.265
G01 X236.665 Y178.037
G01 X231.019 Y176.041
G01 X226.118 Y175.021
G01 X225.171 Y174.772
G01 X221.598 Y174.466
G01 X220.212 Y174.272
G01 X217.404 Y174.347
G01 X215.231 Y174.272
G01 X212.930 Y174.581
G01 X210.661 Y174.749
G01 X210.276 Y174.764
G01 X208.297 Y175.237
G01 X206.320 Y175.600
G01 X205.395 Y175.734
G01 X203.589 Y176.355
G01 X201.760 Y176.885
G01 X200.632 Y177.164
G01 X198.870 Y177.962
G01 X197.056 Y178.676
G01 X196.025 Y179.035
G01 X194.186 Y180.078
G01 X192.258 Y181.032
G01 X191.613 Y181.322
G01 X189.570 Y182.723
G01 X187.430 Y184.000
G01 X185.046 Y185.933
G01 X183.504 Y187.042
G01 X180.596 Y189.890
G01 X179.173 Y191.129
G01 X175.345 Y195.588
G01 X175.292 Y195.644
G01 X174.517 Y196.670
G01 X176.831 Y192.605
G01 X177.666 Y188.406
G01 X177.260 Y184.412
G01 X175.963 Y181.189
G01 X175.872 Y180.930
G01 X174.358 Y178.997
G01 X173.609 Y177.941
G01 X171.949 Y176.722
G01 X170.634 Y175.659
G01 X168.743 Y174.938
G01 X167.161 Y174.249
G01 X164.820 Y174.016
G01 X163.438 Y173.811
G01 X160.199 Y174.323
G01 X159.732 Y174.376
G01 X156.195 Y175.977
G01 X152.970 Y178.791
G01 X150.645 Y182.697
G01 X149.684 Y187.411
G01 X150.293 Y191.628
G01 X150.418 Y192.299
G01 X152.135 Y195.492
G01 X152.805 Y196.627
G01 X155.343 Y198.869
G01 X156.547 Y199.856
G01 X159.699 Y201.073
G01 X161.178 Y201.584
G01 X164.764 Y201.630
G01 X166.121 Y201.594
G01 X170.001 Y200.196
G01 X170.759 Y199.886
G01 X174.515 Y196.673
G01 X176.830 Y192.608
G01 X177.665 Y188.409
G01 X177.261 Y184.415
G01 X175.964 Y181.190
G01 X175.873 Y180.932
G01 X174.359 Y178.999
G01 X173.611 Y177.943
G01 X171.951 Y176.723
G01 X170.637 Y175.661
G01 X168.746 Y174.939
G01 X167.164 Y174.249
G01 X164.824 Y174.016
G01 X163.441 Y173.811
G01 X160.203 Y174.322
G01 X159.735 Y174.376
G01 X156.197 Y175.975
G01 X152.971 Y178.789
G01 X150.646 Y182.694
G01 X149.684 Y187.408
G01 X150.292 Y191.626
G01 X150.417 Y192.296
G01 X152.134 Y195.490
G01 X152.803 Y196.625
G01 X155.340 Y198.867
G01 X156.544 Y199.855
G01 X159.696 Y201.073
G01 X161.175 Y201.583
G01 X164.761 Y201.630
G01 X166.118 Y201.594
G01 X169.998 Y200.197
G01 X170.757 Y199.888
G01 X174.513 Y196.675
G01 X176.829 Y192.610
G01 X177.665 Y188.412
G01 X177.262 Y184.418
G01 X175.965 Y181.192
G01 X175.875 Y180.935
G01 X174.361 Y179.001
G01 X173.613 Y177.945
G01 X171.953 Y176.725
G01 X170.640 Y175.662
G01 X168.748 Y174.940
G01 X167.167 Y174.250
G01 X164.827 Y174.016
G01 X163.444 Y173.811
G01 X160.207 Y174.321
G01 X159.737 Y174.375
G01 X156.200 Y175.973
G01 X152.973 Y178.786
G01 X150.647 Y182.692
G01 X149.684 Y187.405
G01 X150.291 Y191.624
G01 X150.416 Y192.293
G01 X152.132 Y195.488
G01 X152.801 Y196.622
G01 X155.338 Y198.865
G01 X156.542 Y199.853
G01 X159.693 Y201.072
G01 X161.172 Y201.583
G01 X164.758 Y201.630
G01 X166.115 Y201.595
G01 X169.995 Y200.199
G01 X170.754 Y199.889
G01 X174.511 Y196.677
G01 X176.828 Y192.613
G01 X177.665 Y188.415
G01 X177.262 Y184.421
G01 X176.192 Y181.530
G01 X177.290 Y183.777
G01 X179.192 Y185.110
G01 X181.440 Y185.473
G01 X182.026 Y185.548
G01 X184.400 Y184.848
G01 X185.404 Y184.505
G01 X187.708 Y182.546
G01 X188.357 Y181.937
G01 X190.134 Y178.778
G01 X191.044 Y174.274
G01 X190.607 Y169.851
G01 X189.564 Y166.748
G01 X188.385 Y164.658
G01 X188.018 Y163.909
G01 X186.993 Y162.685
G01 X186.083 Y161.420
G01 X186.056 Y161.380
G01 X185.144 Y160.597
G01 X184.300 Y159.777
G01 X183.756 Y159.191
G01 X182.902 Y158.651
G01 X182.085 Y158.074
G01 X181.308 Y157.462
G01 X181.187 Y157.360
G01 X180.315 Y156.961
G01 X179.461 Y156.517
G01 X178.627 Y156.031
G01 X178.412 Y155.897
G01 X177.422 Y155.586
G01 X176.435 Y155.217
G01 X175.487 Y154.803
G01 X174.246 Y154.565
G01 X172.995 Y154.240
G01 X172.464 Y154.075
G01 X170.705 Y153.988
G01 X168.914 Y153.760
G01 X168.358 Y153.661
G01 X165.466 Y153.852
G01 X164.251 Y153.857
G01 X159.243 Y154.903
G01 X153.587 Y157.224
G01 X147.704 Y161.204
G01 X142.522 Y166.794
G01 X141.584 Y167.925
G01 X138.780 Y172.993
G01 X136.991 Y176.875
G01 X135.754 Y181.830
G01 X134.884 Y186.989
G01 X134.797 Y187.683
G01 X134.942 Y192.490
G01 X135.431 Y197.392
G01 X135.769 Y199.640
G01 X137.206 Y204.117
G01 X138.956 Y208.592
G01 X139.963 Y210.854
G01 X142.513 Y214.777
G01 X145.330 Y218.618
G01 X146.906 Y220.584
G01 X150.365 Y223.756
G01 X154.034 Y226.780
G01 X156.022 Y228.290
G01 X160.162 Y230.560
G01 X164.442 Y232.635
G01 X166.688 Y233.620
G01 X171.262 Y234.895
G01 X175.904 Y235.946
G01 X178.273 Y236.391
G01 X183.034 Y236.619
G01 X187.788 Y236.612
G01 X191.162 Y236.465
G01 X195.853 Y235.618
G01 X200.463 Y234.546
G01 X203.059 Y233.833
G01 X199.390 Y235.464
G01 X196.335 Y238.070
G01 X194.146 Y241.435
G01 X192.982 Y245.416
G01 X193.059 Y249.696
G01 X194.551 Y253.990
G01 X197.439 Y257.670
G01 X201.379 Y260.194
G01 X205.929 Y261.278
G01 X210.583 Y260.803
G01 X214.821 Y258.821
G01 X218.169 Y255.554
G01 X220.253 Y251.365
G01 X220.847 Y246.859
G01 X220.011 Y242.525
G01 X217.951 Y238.773
G01 X214.963 Y235.896
G01 X211.391 Y234.064
G01 X207.445 Y233.321
G01 X203.451 Y233.729
G01 X199.737 Y235.253
G01 X196.608 Y237.769
G01 X194.321 Y241.069
G01 X193.043 Y245.015
G01 X192.996 Y249.295
G01 X194.363 Y253.631
G01 X197.143 Y257.393
G01 X201.007 Y260.030
G01 X205.525 Y261.246
G01 X210.191 Y260.905
G01 X214.484 Y259.047
G01 X217.925 Y255.878
G01 X220.130 Y251.752
G01 X220.854 Y247.264
G01 X220.144 Y242.909
G01 X218.194 Y239.098
G01 X215.290 Y236.136
G01 X211.773 Y234.201
G01 X207.850 Y233.344
G01 X203.846 Y233.636
G01 X200.089 Y235.052
G01 X196.888 Y237.476
G01 X194.507 Y240.709
G01 X193.115 Y244.616
G01 X192.944 Y248.893
G01 X194.185 Y253.266
G01 X196.761 Y257.011
G01 X200.521 Y259.795
G01 X204.988 Y261.184
G01 X209.664 Y261.024
G01 X214.025 Y259.333
G01 X217.586 Y256.299
G01 X219.949 Y252.261
G01 X220.845 Y247.804
G01 X220.304 Y243.424
G01 X218.502 Y239.542
G01 X215.715 Y236.470
G01 X212.274 Y234.401
G01 X208.388 Y233.393
G01 X204.375 Y233.530
G01 X200.567 Y234.800
G01 X197.275 Y237.099
G01 X194.771 Y240.237
G01 X193.230 Y244.088
G01 X193.003 Y245.275
G01 X193.392 Y242.804
G01 X192.598 Y240.621
G01 X190.528 Y238.637
G01 X188.515 Y237.794
G01 X185.802 Y237.520
G01 X182.109 Y238.384
G01 X179.060 Y240.230
G01 X176.674 Y242.699
G01 X174.495 Y246.574
G01 X173.389 Y250.781
G01 X173.365 Y256.123
G01 X174.651 Y261.236
G01 X177.625 Y266.740
G01 X181.822 Y271.310
G01 X187.824 Y275.261
G01 X194.543 Y277.618
G01 X194.566 Y277.626
G01 X201.408 Y278.383
G01 X201.637 Y278.403
G01 X208.419 Y277.697
G01 X208.688 Y277.662
G01 X215.223 Y275.521
G01 X216.348 Y275.115
G01 X222.417 Y271.511
G01 X223.256 Y270.977
G01 X228.642 Y265.927
G01 X229.804 Y264.755
G01 X234.219 Y258.217
G01 X234.813 Y257.260
G01 X238.012 Y249.230
G01 X238.130 Y248.894
G01 X239.753 Y239.105
G01 X239.760 Y239.048
G01 X239.247 Y229.094
G01 X237.045 Y220.406
G01 X233.327 Y212.260
G01 X228.880 Y205.663
G01 X224.216 Y200.501
G01 X218.928 Y195.984
G01 X214.042 Y192.721
G01 X213.975 Y192.672
G01 X210.153 Y190.743
G01 X208.699 Y189.906
G01 X205.591 Y188.771
G01 X203.166 Y187.708
G01 X200.994 Y187.020
G01 X203.592 Y187.485
G01 X206.143 Y187.795
G01 X208.612 Y187.308
G01 X211.071 Y186.694
G01 X211.096 Y186.687
G01 X213.234 Y185.348
G01 X215.293 Y183.913
G01 X215.328 Y183.887
G01 X216.920 Y181.767
G01 X218.341 Y179.640
G01 X219.120 Y176.773
G01 X219.600 Y174.451
G01 X219.131 Y170.719
G01 X218.869 Y169.296
G01 X216.560 Y165.076
G01 X213.411 Y162.176
G01 X209.918 Y160.482
G01 X207.729 Y160.119
G01 X206.497 Y159.832
G01 X205.022 Y159.977
G01 X203.573 Y160.026
G01 X203.153 Y160.023
G01 X202.031 Y160.434
G01 X200.900 Y160.783
G01 X199.827 Y161.057
G01 X198.865 Y161.716
G01 X197.862 Y162.332
G01 X196.860 Y162.880
G01 X195.913 Y163.932
G01 X194.878 Y164.945
G01 X194.516 Y165.272
G01 X193.485 Y167.133
G01 X192.753 Y168.275
G01 X191.747 Y171.886
G01 X191.815 Y176.166
G01 X193.429 Y180.698
G01 X195.846 Y183.646
G01 X196.791 Y184.674
G01 X199.349 Y186.131
G01 X201.502 Y187.187
G01 X204.095 Y187.549
G01 X206.676 Y187.764
G01 X209.120 Y187.185
G01 X211.547 Y186.480
G01 X211.583 Y186.469
G01 X213.675 Y185.045
G01 X215.680 Y183.529
G01 X215.706 Y183.509
G01 X217.228 Y181.312
G01 X218.554 Y179.150
G01 X219.233 Y176.206
G01 X219.614 Y173.917
G01 X218.974 Y170.069
G01 X218.687 Y168.794
G01 X216.219 Y164.664
G01 X212.962 Y161.887
G01 X209.536 Y160.365
G01 X207.460 Y160.087
G01 X206.097 Y159.813
G01 X204.677 Y159.995
G01 X203.279 Y160.087
G01 X202.760 Y160.099
G01 X201.665 Y160.536
G01 X200.558 Y160.914
G01 X199.466 Y161.227
G01 X198.512 Y161.922
G01 X197.513 Y162.573
G01 X196.551 Y163.134
G01 X195.602 Y164.266
G01 X194.556 Y165.357
G01 X194.198 Y165.701
G01 X193.149 Y167.790
G01 X192.503 Y168.895
G01 X191.659 Y172.684
G01 X192.004 Y177.084
G01 X193.992 Y181.609
G01 X196.440 Y184.186
G01 X197.648 Y185.317
G01 X200.227 Y186.548
G01 X202.406 Y187.432
G01 X204.986 Y187.617
G01 X207.608 Y187.662
G01 X210.002 Y186.922
G01 X212.367 Y186.061
G01 X212.417 Y186.041
G01 X214.421 Y184.471
G01 X216.327 Y182.817
G01 X216.332 Y182.812
G01 X217.726 Y180.482
G01 X218.882 Y178.273
G01 X219.376 Y175.192
G01 X219.590 Y172.981
G01 X218.612 Y168.902
G01 X218.323 Y167.931
G01 X215.678 Y164.072
G01 X212.384 Y161.550
G01 X209.100 Y160.286
G01 X208.890 Y160.193
G01 X206.981 Y160.040
G01 X205.429 Y159.806
G01 X204.091 Y160.045
G01 X202.768 Y160.202
G01 X202.109 Y160.251
G01 X201.054 Y160.731
G01 X199.980 Y161.158
G01 X198.892 Y161.529
G01 X198.872 Y161.535
G01 X197.926 Y162.284
G01 X196.927 Y162.991
G01 X196.151 Y163.488
G01 X195.192 Y164.717
G01 X194.126 Y165.907
G01 X193.897 Y166.143
G01 X192.825 Y168.467
G01 X192.326 Y169.399
G01 X191.627 Y173.217
G01 X192.139 Y177.601
G01 X194.298 Y182.047
G01 X196.762 Y184.457
G01 X198.093 Y185.612
G01 X200.680 Y186.729
G01 X202.928 Y187.544
G01 X205.498 Y187.631
G01 X208.108 Y187.577
G01 X208.135 Y187.576
G01 X210.498 Y186.745
G01 X212.824 Y185.796
G01 X212.879 Y185.773
G01 X214.874 Y184.199
G01 X215.794 Y183.416
G01 X214.185 Y184.994
G01 X213.502 Y186.946
G01 X213.710 Y189.450
G01 X215.180 Y192.118
G01 X218.394 Y194.523
G01 X221.961 Y195.501
G01 X225.564 Y195.294
G01 X226.598 Y195.194
G01 X229.739 Y193.979
G01 X230.758 Y193.543
G01 X233.378 Y191.528
G01 X235.019 Y190.155
G01 X236.952 Y187.407
G01 X238.575 Y184.842
G01 X239.664 Y181.525
G01 X240.403 Y178.812
G01 X240.557 Y175.118
G01 X240.476 Y171.547
G01 X239.500 Y167.656
G01 X238.270 Y163.940
G01 X238.162 Y163.655
G01 X235.808 Y159.772
G01 X233.198 Y156.180
G01 X233.069 Y156.019
G01 X228.818 Y152.306
G01 X226.024 Y150.212
G01 X218.681 Y146.819
G01 X211.790 Y145.278
G01 X207.004 Y145.013
G01 X206.761 Y144.987
G01 X204.780 Y145.200
G01 X202.823 Y145.232
G01 X202.743 Y145.229
G01 X201.669 Y145.472
G01 X200.604 Y145.623
G01 X199.760 Y145.679
G01 X199.105 Y145.914
G01 X198.451 Y146.099
G01 X197.802 Y146.235
G01 X197.161 Y146.323
G01 X196.821 Y146.350
G01 X196.387 Y146.559
G01 X195.949 Y146.742
G01 X195.508 Y146.897
G01 X195.067 Y147.026
G01 X194.627 Y147.128
G01 X194.189 Y147.204
G01 X193.943 Y147.236
G01 X193.592 Y147.441
G01 X193.232 Y147.629
G01 X192.861 Y147.799
G01 X192.482 Y147.951
G01 X192.094 Y148.085
G01 X191.699 Y148.200
G01 X191.298 Y148.295
G01 X191.137 Y148.328
G01 X190.747 Y148.593
G01 X190.332 Y148.840
G01 X189.896 Y149.066
G01 X189.438 Y149.270
G01 X188.959 Y149.450
G01 X188.462 Y149.605
G01 X188.419 Y149.617
G01 X187.840 Y150.038
G01 X187.215 Y150.424
G01 X186.548 Y150.772
G01 X185.840 Y151.078
G01 X185.801 Y151.093
G01 X184.854 Y151.807
G01 X183.829 Y152.453
G01 X183.292 Y152.747
G01 X181.652 Y154.132
G01 X180.136 Y155.209
G01 X176.593 Y158.603
G01 X176.523 Y158.664
G01 X172.147 Y164.113
G01 X167.401 Y172.873
G01 X165.182 Y180.193
G01 X164.052 Y185.352
G01 X163.758 Y191.586
G01 X164.018 Y197.946
G01 X164.367 Y201.211
G01 X165.797 Y206.823
G01 X167.721 Y212.430
G01 X169.741 Y217.158
G01 X172.702 Y222.088
G01 X175.834 Y226.551
G01 X173.047 Y223.662
G01 X169.554 Y221.683
G01 X165.643 Y220.776
G01 X161.635 Y221.017
G01 X157.860 Y222.385
G01 X154.629 Y224.768
G01 X152.143 Y228.088
G01 X150.689 Y232.255
G01 X150.624 Y236.800
G01 X152.080 Y241.246
G01 X154.920 Y244.964
G01 X158.826 Y247.539
G01 X163.362 Y248.683
G01 X168.022 Y248.269
G01 X172.285 Y246.342
G01 X175.675 Y243.119
G01 X177.773 Y239.086
G01 X178.470 Y234.728
G01 X177.856 Y230.626
G01 X176.141 Y226.996
G01 X173.467 Y224.001
G01 X170.053 Y221.888
G01 X166.180 Y220.832
G01 X162.166 Y220.918
G01 X158.341 Y222.139
G01 X155.021 Y224.396
G01 X152.409 Y227.618
G01 X150.795 Y231.726
G01 X150.554 Y236.265
G01 X151.838 Y240.764
G01 X154.532 Y244.588
G01 X158.336 Y247.312
G01 X162.824 Y248.630
G01 X167.497 Y248.396
G01 X171.831 Y246.635
G01 X175.343 Y243.545
G01 X177.595 Y239.596
G01 X178.459 Y235.268
G01 X178.004 Y231.146
G01 X176.431 Y227.452
G01 X173.874 Y224.356
G01 X170.544 Y222.113
G01 X166.714 Y220.908
G01 X162.700 Y220.839
G01 X158.831 Y221.912
G01 X155.426 Y224.039
G01 X152.692 Y227.158
G01 X150.955 Y231.071
G01 X150.496 Y235.593
G01 X151.562 Y240.148
G01 X154.069 Y244.098
G01 X157.737 Y247.002
G01 X162.157 Y248.534
G01 X166.835 Y248.525
G01 X171.249 Y246.976
G01 X174.906 Y244.058
G01 X177.346 Y240.223
G01 X178.417 Y235.941
G01 X178.132 Y231.670
G01 X176.703 Y227.918
G01 X174.267 Y224.727
G01 X171.026 Y222.357
G01 X167.246 Y221.005
G01 X163.237 Y220.781
G01 X161.644 Y221.015
G01 X164.098 Y220.536
G01 X165.878 Y219.043
G01 X167.035 Y216.420
G01 X167.138 Y214.239
G01 X166.467 Y211.596
G01 X165.186 Y209.369
G01 X162.594 Y206.835
G01 X159.549 Y205.169
G01 X156.296 Y204.277
G01 X152.995 Y204.070
G01 X148.713 Y204.721
G01 X144.733 Y206.271
G01 X141.180 Y208.560
G01 X137.458 Y212.236
G01 X134.618 Y216.581
G01 X132.424 Y222.362
G01 X131.524 Y229.472
G01 X132.315 Y236.559
G01 X134.835 Y243.569
G01 X135.082 Y244.183
G01 X138.805 Y249.876
G01 X139.545 Y250.922
G01 X144.191 Y255.422
G01 X145.371 Y256.489
G01 X150.718 Y259.828
G01 X152.221 Y260.699
G01 X158.080 Y262.827
G01 X160.736 Y263.685
G01 X166.926 Y264.509
G01 X169.675 Y264.775
G01 X175.971 Y264.307
G01 X178.635 Y264.011
G01 X184.825 Y262.238
G01 X188.180 Y261.121
G01 X194.020 Y257.965
G01 X197.710 Y255.725
G01 X202.912 Y251.180
G01 X205.806 Y248.367
G01 X210.126 Y242.481
G01 X212.631 Y238.598
G01 X215.732 Y231.302
G01 X217.370 Y226.606
G01 X218.823 Y217.708
G01 X219.205 Y213.854
G01 X219.118 Y208.600
G01 X219.785 Y212.694
G01 X221.777 Y216.632
G01 X225.115 Y219.910
G01 X229.476 Y221.940
G01 X234.267 Y222.375
G01 X238.800 Y221.217
G01 X242.674 Y218.647
G01 X242.698 Y218.630
G01 X245.526 Y214.904
G01 X246.988 Y210.321
G01 X246.839 Y205.645
G01 X245.226 Y201.395
G01 X242.437 Y197.975
G01 X238.967 Y195.703
G01 X235.116 Y194.566
G01 X231.234 Y194.549
G01 X227.832 Y195.515
G01 X227.497 Y195.599
G01 X224.713 Y197.354
G01 X224.089 Y197.722
G01 X221.752 Y200.344
G01 X221.498 Y200.612
G01 X219.800 Y204.103
G01 X219.122 Y208.060
G01 X219.630 Y212.177
G01 X221.469 Y216.189
G01 X224.571 Y219.511
G01 X228.702 Y221.708
G01 X233.459 Y222.418
G01 X238.051 Y221.524
G01 X242.068 Y219.181
G01 X242.092 Y219.167
G01 X245.131 Y215.610
G01 X246.855 Y211.119
G01 X246.957 Y206.309
G01 X245.488 Y201.867
G01 X242.833 Y198.342
G01 X239.453 Y195.938
G01 X235.649 Y194.653
G01 X231.771 Y194.487
G01 X228.263 Y195.336
G01 X227.996 Y195.392
G01 X225.141 Y197.041
G01 X224.509 Y197.381
G01 X222.115 Y199.869
G01 X221.808 Y200.170
G01 X219.976 Y203.593
G01 X219.146 Y207.521
G01 X219.495 Y211.654
G01 X221.178 Y215.733
G01 X224.150 Y219.173
G01 X228.192 Y221.527
G01 X232.919 Y222.421
G01 X237.542 Y221.704
G01 X241.652 Y219.516
G01 X241.671 Y219.505
G01 X244.845 Y216.068
G01 X246.741 Y211.646
G01 X247.028 Y206.844
G01 X245.731 Y202.349
G01 X243.214 Y198.724
G01 X239.930 Y196.192
G01 X236.179 Y194.761
G01 X232.309 Y194.445
G01 X228.688 Y195.173
G01 X228.502 Y195.204
G01 X225.573 Y196.749
G01 X224.941 Y197.058
G01 X222.490 Y199.417
G01 X222.134 Y199.740
G01 X220.172 Y203.089
G01 X219.191 Y206.982
G01 X219.381 Y211.126
G01 X220.840 Y215.150
G01 X223.642 Y218.729
G01 X227.567 Y221.275
G01 X225.533 Y220.303
G01 X222.967 Y220.461
G01 X220.515 Y221.947
G01 X219.180 Y223.674
G01 X218.213 Y226.224
G01 X218.092 Y230.014
G01 X219.086 Y233.437
G01 X221.573 Y237.246
G01 X224.932 Y240.116
G01 X229.834 Y242.375
G01 X235.075 Y243.235
G01 X240.957 Y242.652
G01 X241.333 Y242.603
G01 X246.670 Y240.608
G01 X247.162 Y240.409
G01 X251.859 Y237.230
G01 X252.275 Y236.931
G01 X256.184 Y232.677
G01 X257.090 Y231.624
G01 X259.999 Y226.362
G01 X260.507 Y225.364
G01 X262.225 Y219.187
G01 X262.614 Y217.532
G01 X262.834 Y210.492
G01 X262.823 Y209.452
G01 X261.159 Y201.488
G01 X260.929 Y200.592
G01 X257.020 Y192.443
G01 X252.106 Y186.105
G01 X246.088 Y180.822
G01 X240.114 Y177.175
G01 X234.600 Y174.821
G01 X228.834 Y173.201
G01 X224.473 Y172.533
G01 X223.907 Y172.418
G01 X220.628 Y172.305
G01 X218.929 Y172.148
G01 X216.357 Y172.351
G01 X213.952 Y172.384
G01 X211.841 Y172.780
G01 X209.750 Y173.048
G01 X209.026 Y173.112
G01 X207.197 Y173.651
G01 X205.361 Y174.091
G01 X204.197 Y174.318
G01 X202.506 Y175.001
G01 X200.781 Y175.600
G01 X199.509 Y175.982
G01 X197.827 Y176.852
G01 X196.082 Y177.643
G01 X195.000 Y178.080
G01 X193.203 Y179.225
G01 X191.305 Y180.284
G01 X190.709 Y180.587
G01 X188.666 Y182.144
G01 X186.666 Y183.476
G01 X184.235 Y185.653
G01 X182.902 Y186.716
G01 X179.876 Y189.975
G01 X178.788 Y191.024
G01 X175.150 Y195.737
G01 X173.366 Y198.478
G01 X175.282 Y194.356
G01 X175.792 Y190.240
G01 X175.156 Y186.410
G01 X173.731 Y183.402
G01 X173.567 Y183.015
G01 X171.921 Y181.144
G01 X171.134 Y180.163
G01 X169.302 Y178.969
G01 X168.031 Y178.060
G01 X165.904 Y177.379
G01 X164.481 Y176.855
G01 X161.802 Y176.731
G01 X160.738 Y176.635
G01 X156.945 Y177.462
G01 X153.418 Y179.379
G01 X150.420 Y182.435
G01 X148.367 Y186.639
G01 X147.829 Y191.552
G01 X148.841 Y195.681
G01 X149.032 Y196.346
G01 X151.102 Y199.426
G01 X151.827 Y200.424
G01 X154.681 Y202.500
G01 X155.742 Y203.218
G01 X159.176 Y204.218
G01 X160.373 Y204.522
G01 X164.230 Y204.263
G01 X165.301 Y204.149
G01 X169.481 Y202.244
G01 X169.793 Y202.087
G01 X173.211 Y198.701
G01 X175.206 Y194.617
G01 X175.796 Y190.511
G01 X175.235 Y186.670
G01 X173.833 Y183.547
G01 X173.712 Y183.245
G01 X172.079 Y181.312
G01 X171.334 Y180.346
G01 X169.519 Y179.111
G01 X168.272 Y178.183
G01 X166.174 Y177.466
G01 X164.747 Y176.909
G01 X162.121 Y176.739
G01 X161.009 Y176.617
G01 X157.321 Y177.352
G01 X157.201 Y177.371
G01 X153.637 Y179.219
G01 X150.581 Y182.216
G01 X148.446 Y186.379
G01 X147.807 Y191.147
G01 X148.716 Y195.371
G01 X148.871 Y195.974
G01 X150.866 Y199.136
G01 X151.546 Y200.131
G01 X154.344 Y202.292
G01 X155.379 Y203.037
G01 X158.771 Y204.133
G01 X159.969 Y204.475
G01 X163.797 Y204.330
G01 X164.907 Y204.245
G01 X169.061 Y202.499
G01 X169.457 Y202.314
G01 X172.971 Y199.029
G01 X175.084 Y195.004
G01 X175.795 Y190.783
G01 X175.309 Y186.932
G01 X173.931 Y183.687
G01 X173.852 Y183.477
G01 X172.232 Y181.480
G01 X171.531 Y180.533
G01 X169.731 Y179.256
G01 X168.512 Y178.311
G01 X166.440 Y177.558
G01 X165.011 Y176.969
G01 X162.436 Y176.753
G01 X161.280 Y176.605
G01 X157.720 Y177.225
G01 X157.586 Y177.243
G01 X153.970 Y178.987
G01 X150.828 Y181.895
G01 X148.619 Y185.867
G01 X147.797 Y190.607
G01 X148.563 Y194.962
G01 X148.673 Y195.471
G01 X150.565 Y198.743
G01 X151.186 Y199.728
G01 X153.906 Y202.002
G01 X154.904 Y202.781
G01 X158.238 Y204.001
G01 X159.435 Y204.394
G01 X163.222 Y204.397
G01 X164.378 Y204.355
G01 X168.499 Y202.810
G01 X168.999 Y202.600
G01 X172.638 Y199.454
G01 X174.904 Y195.513
G01 X175.778 Y191.323
G01 X175.409 Y187.325
G01 X174.072 Y183.885
G01 X174.053 Y183.830
G01 X173.715 Y183.250
G01 X175.005 Y185.393
G01 X177.016 Y186.555
G01 X179.409 Y186.725
G01 X179.877 Y186.744
G01 X182.423 Y185.735
G01 X183.152 Y185.411
G01 X185.679 Y182.809
G01 X185.870 Y182.595
G01 X187.365 Y179.293
G01 X187.889 Y175.862
G01 X187.615 Y172.500
G01 X186.680 Y169.327
G01 X185.559 Y167.206
G01 X185.201 Y166.424
G01 X184.153 Y165.111
G01 X183.274 Y163.843
G01 X182.289 Y162.959
G01 X181.374 Y162.037
G01 X180.989 Y161.615
G01 X180.019 Y160.978
G01 X179.090 Y160.298
G01 X178.420 Y159.760
G01 X177.395 Y159.274
G01 X176.390 Y158.735
G01 X175.637 Y158.288
G01 X174.457 Y157.907
G01 X173.281 Y157.452
G01 X172.700 Y157.200
G01 X171.233 Y156.911
G01 X169.753 Y156.518
G01 X169.664 Y156.491
G01 X167.631 Y156.387
G01 X165.563 Y156.122
G01 X165.544 Y156.119
G01 X162.317 Y156.357
G01 X161.433 Y156.373
G01 X156.436 Y157.509
G01 X150.824 Y159.956
G01 X145.038 Y164.087
G01 X139.678 Y170.150
G01 X136.749 Y175.568
G01 X135.131 Y179.135
G01 X133.916 Y184.309
G01 X133.084 Y189.691
G01 X133.051 Y189.974
G01 X133.267 Y194.941
G01 X133.838 Y200.001
G01 X133.983 Y200.944
G01 X135.430 Y205.554
G01 X137.199 Y210.164
G01 X137.681 Y211.290
G01 X140.191 Y215.362
G01 X142.977 Y219.355
G01 X143.773 Y220.413
G01 X147.163 Y223.780
G01 X150.774 Y227.005
G01 X151.804 Y227.864
G01 X155.882 Y230.372
G01 X160.114 Y232.690
G01 X162.194 Y233.730
G01 X166.767 Y235.225
G01 X171.419 Y236.497
G01 X173.649 Y237.021
G01 X178.460 Y237.440
G01 X183.274 Y237.622
G01 X186.530 Y237.610
G01 X191.313 Y236.905
G01 X196.019 Y235.967
G01 X199.186 Y235.195
G01 X203.689 Y233.556
G01 X205.038 Y233.012
G01 X201.526 Y234.957
G01 X198.710 Y237.819
G01 X196.777 Y241.489
G01 X196.004 Y245.564
G01 X196.530 Y249.945
G01 X198.470 Y254.056
G01 X201.733 Y257.409
G01 X205.918 Y259.499
G01 X210.558 Y260.094
G01 X215.136 Y259.127
G01 X219.139 Y256.706
G01 X222.120 Y253.102
G01 X223.748 Y248.716
G01 X223.859 Y244.171
G01 X222.568 Y239.951
G01 X220.213 Y236.537
G01 X217.077 Y234.030
G01 X213.359 Y232.516
G01 X209.363 Y232.120
G01 X205.420 Y232.874
G01 X201.853 Y234.716
G01 X198.955 Y237.495
G01 X196.916 Y241.107
G01 X196.026 Y245.158
G01 X196.425 Y249.554
G01 X198.245 Y253.719
G01 X201.409 Y257.165
G01 X205.532 Y259.376
G01 X210.153 Y260.105
G01 X214.756 Y259.271
G01 X218.827 Y256.967
G01 X221.913 Y253.450
G01 X223.667 Y249.113
G01 X223.910 Y244.574
G01 X222.741 Y240.318
G01 X220.486 Y236.837
G01 X217.310 Y234.170
G01 X213.622 Y232.584
G01 X209.635 Y232.110
G01 X205.677 Y232.788
G01 X202.075 Y234.560
G01 X199.124 Y237.283
G01 X197.067 Y240.730
G01 X196.059 Y244.754
G01 X196.331 Y249.159
G01 X198.029 Y253.375
G01 X201.092 Y256.911
G01 X205.149 Y259.241
G01 X209.747 Y260.104
G01 X214.372 Y259.403
G01 X218.509 Y257.218
G01 X221.695 Y253.793
G01 X223.574 Y249.508
G01 X223.948 Y244.978
G01 X222.904 Y240.690
G01 X220.750 Y237.145
G01 X217.653 Y234.387
G01 X214.012 Y232.695
G01 X210.040 Y232.106
G01 X206.065 Y232.668
G01 X202.413 Y234.336
G01 X199.384 Y236.971
G01 X197.228 Y240.358
G01 X196.104 Y244.351
G01 X196.018 Y245.287
G01 X196.190 Y242.791
G01 X195.209 Y240.686
G01 X192.974 Y238.890
G01 X190.895 Y238.225
G01 X188.168 Y238.190
G01 X184.565 Y239.372
G01 X181.689 Y241.477
G01 X179.527 Y244.144
G01 X177.694 Y248.194
G01 X176.959 Y252.481
G01 X177.400 Y257.805
G01 X179.128 Y262.787
G01 X182.570 Y268.011
G01 X187.149 Y272.198
G01 X193.472 Y275.610
G01 X200.277 Y277.351
G01 X200.395 Y277.378
G01 X207.227 Y277.537
G01 X207.507 Y277.536
G01 X214.187 Y276.245
G01 X214.466 Y276.184
G01 X220.808 Y273.473
G01 X221.875 Y272.978
G01 X227.652 Y268.825
G01 X228.396 Y268.254
G01 X233.390 Y262.674
G01 X234.377 Y261.485
G01 X238.287 Y254.428
G01 X238.713 Y253.582
G01 X241.276 Y245.010
G01 X241.289 Y244.959
G01 X242.054 Y235.008
G01 X240.907 Y226.108
G01 X238.129 Y217.586
G01 X234.409 Y210.544
G01 X229.645 Y204.172
G01 X224.728 Y199.247
G01 X220.037 Y195.566
G01 X215.153 Y192.541
G01 X214.975 Y192.420
G01 X211.150 Y190.654
G01 X209.607 Y189.836
G01 X206.491 Y188.821
G01 X203.999 Y187.833
G01 X201.344 Y187.247
G01 X198.902 Y186.557
G01 X201.349 Y186.782
G01 X203.841 Y186.878
G01 X204.098 Y186.880
G01 X206.409 Y186.207
G01 X208.686 Y185.420
G01 X209.054 Y185.281
G01 X211.005 Y183.776
G01 X212.855 Y182.189
G01 X213.082 Y181.982
G01 X214.439 Y179.702
G01 X215.630 Y177.393
G01 X215.669 Y177.312
G01 X216.129 Y174.251
G01 X216.318 Y172.013
G01 X215.257 Y167.819
G01 X214.996 Y166.976
G01 X212.309 Y163.147
G01 X209.106 Y160.726
G01 X206.474 Y159.731
G01 X205.740 Y159.405
G01 X204.118 Y159.266
G01 X202.549 Y159.016
G01 X202.417 Y158.989
G01 X201.242 Y159.188
G01 X200.079 Y159.317
G01 X199.089 Y159.375
G01 X198.126 Y159.793
G01 X197.143 Y160.162
G01 X196.144 Y160.483
G01 X195.949 Y160.540
G01 X195.035 Y161.232
G01 X194.067 Y161.883
G01 X193.175 Y162.417
G01 X192.170 Y163.620
G01 X191.055 Y164.776
G01 X190.927 Y164.899
G01 X189.675 Y167.345
G01 X189.236 Y168.095
G01 X188.386 Y172.019
G01 X188.846 Y176.674
G01 X190.717 Y180.631
G01 X191.047 Y181.247
G01 X193.238 Y183.395
G01 X194.961 Y184.879
G01 X197.366 Y185.885
G01 X199.882 Y186.760
G01 X199.949 Y186.781
G01 X202.386 Y186.818
G01 X204.850 Y186.726
G01 X205.155 Y186.706
G01 X207.410 Y185.857
G01 X209.618 Y184.899
G01 X209.974 Y184.733
G01 X211.824 Y183.066
G01 X213.559 Y181.326
G01 X213.738 Y181.136
G01 X214.944 Y178.704
G01 X215.960 Y176.281
G01 X216.190 Y173.046
G01 X216.203 Y170.948
G01 X214.658 Y166.381
G01 X214.565 Y166.144
G01 X211.728 Y162.592
G01 X208.513 Y160.417
G01 X206.149 Y159.670
G01 X205.088 Y159.259
G01 X203.581 Y159.208
G01 X202.117 Y159.057
G01 X201.748 Y159.002
G01 X200.631 Y159.247
G01 X199.519 Y159.429
G01 X198.443 Y159.546
G01 X197.501 Y160.009
G01 X196.534 Y160.427
G01 X195.544 Y160.797
G01 X195.362 Y160.859
G01 X194.441 Y161.627
G01 X193.457 Y162.353
G01 X192.681 Y162.867
G01 X191.642 Y164.246
G01 X190.482 Y165.567
G01 X189.135 Y168.594
G01 X188.938 Y168.983
G01 X188.353 Y173.090
G01 X189.213 Y177.822
G01 X191.166 Y181.192
G01 X191.888 Y182.290
G01 X194.147 Y184.123
G01 X196.131 Y185.531
G01 X198.564 Y186.294
G01 X201.087 Y186.925
G01 X201.144 Y186.937
G01 X203.559 Y186.764
G01 X205.983 Y186.466
G01 X206.325 Y186.414
G01 X208.506 Y185.370
G01 X210.625 Y184.225
G01 X210.956 Y184.034
G01 X212.680 Y182.188
G01 X214.275 Y180.281
G01 X214.397 Y180.126
G01 X215.417 Y177.524
G01 X216.193 Y175.098
G01 X216.130 Y171.647
G01 X215.976 Y169.764
G01 X214.006 Y165.231
G01 X211.012 Y161.989
G01 X207.658 Y160.034
G01 X205.579 Y159.529
G01 X204.296 Y159.125
G01 X202.909 Y159.163
G01 X201.553 Y159.112
G01 X200.948 Y159.060
G01 X199.888 Y159.357
G01 X198.827 Y159.597
G01 X197.765 Y159.780
G01 X197.679 Y159.792
G01 X196.755 Y160.314
G01 X195.798 Y160.793
G01 X194.810 Y161.227
G01 X194.679 Y161.280
G01 X193.742 Y162.152
G01 X192.730 Y162.983
G01 X192.117 Y163.438
G01 X191.027 Y165.047
G01 X190.076 Y166.260
G01 X188.730 Y169.759
G01 X188.391 Y174.026
G01 X189.566 Y178.690
G01 X191.580 Y181.709
G01 X192.534 Y182.969
G01 X194.835 Y184.598
G01 X196.984 Y185.919
G01 X199.428 Y186.509
G01 X201.948 Y186.967
G01 X202.080 Y186.987
G01 X204.469 Y186.653
G01 X206.854 Y186.198
G01 X207.214 Y186.118
G01 X209.330 Y184.926
G01 X211.372 Y183.638
G01 X211.675 Y183.434
G01 X213.331 Y181.677
G01 X211.866 Y183.390
G01 X211.355 Y185.393
G01 X211.781 Y187.869
G01 X213.477 Y190.399
G01 X216.889 Y192.515
G01 X220.528 Y193.179
G01 X223.802 Y192.711
G01 X225.121 Y192.469
G01 X227.952 Y191.085
G01 X229.121 Y190.462
G01 X231.434 Y188.346
G01 X233.070 Y186.715
G01 X234.692 Y183.938
G01 X236.148 Y181.115
G01 X236.149 Y181.112
G01 X236.887 Y177.811
G01 X237.416 Y174.540
G01 X237.496 Y173.900
G01 X237.157 Y170.280
G01 X236.582 Y166.778
G01 X236.354 Y165.701
G01 X234.739 Y162.009
G01 X232.881 Y158.540
G01 X232.223 Y157.456
G01 X228.983 Y153.919
G01 X225.507 Y150.745
G01 X224.985 Y150.316
G01 X218.743 Y146.962
G01 X216.899 Y146.114
G01 X210.039 Y144.401
G01 X205.010 Y144.009
G01 X203.075 Y144.189
G01 X201.163 Y144.191
G01 X200.984 Y144.182
G01 X200.039 Y144.398
G01 X199.102 Y144.532
G01 X198.178 Y144.586
G01 X197.991 Y144.587
G01 X197.469 Y144.789
G01 X196.947 Y144.952
G01 X196.428 Y145.076
G01 X195.915 Y145.161
G01 X195.409 Y145.209
G01 X195.040 Y145.220
G01 X194.695 Y145.366
G01 X194.347 Y145.490
G01 X193.998 Y145.593
G01 X193.650 Y145.676
G01 X193.304 Y145.738
G01 X193.105 Y145.765
G01 X192.816 Y145.906
G01 X192.521 Y146.033
G01 X192.220 Y146.144
G01 X191.915 Y146.241
G01 X191.605 Y146.323
G01 X191.292 Y146.389
G01 X191.200 Y146.406
G01 X190.900 Y146.571
G01 X190.587 Y146.722
G01 X190.260 Y146.857
G01 X189.922 Y146.977
G01 X189.573 Y147.079
G01 X189.330 Y147.139
G01 X188.935 Y147.414
G01 X188.512 Y147.667
G01 X188.061 Y147.896
G01 X187.584 Y148.098
G01 X187.083 Y148.272
G01 X186.599 Y148.406
G01 X185.878 Y148.905
G01 X185.100 Y149.352
G01 X184.269 Y149.743
G01 X183.968 Y149.865
G01 X182.556 Y150.930
G01 X181.027 Y151.878
G01 X180.635 Y152.091
G01 X177.136 Y155.023
G01 X176.784 Y155.288
G01 X172.052 Y160.441
G01 X166.779 Y168.905
G01 X164.425 Y175.247
G01 X162.646 Y181.877
G01 X162.582 Y182.174
G01 X162.114 Y187.881
G01 X162.147 Y193.725
G01 X162.608 Y199.025
G01 X163.913 Y204.302
G01 X165.674 Y209.584
G01 X167.893 Y214.837
G01 X168.389 Y215.875
G01 X171.297 Y220.462
G01 X174.606 Y224.937
G01 X177.283 Y228.131
G01 X174.254 Y225.495
G01 X170.602 Y223.828
G01 X166.627 Y223.266
G01 X162.655 Y223.855
G01 X159.014 Y225.547
G01 X155.917 Y228.305
G01 X153.712 Y231.975
G01 X152.709 Y236.272
G01 X153.127 Y240.799
G01 X155.047 Y245.065
G01 X158.266 Y248.460
G01 X162.423 Y250.605
G01 X167.055 Y251.260
G01 X171.645 Y250.353
G01 X175.679 Y247.985
G01 X178.708 Y244.420
G01 X180.366 Y240.187
G01 X180.608 Y235.913
G01 X179.601 Y231.890
G01 X177.543 Y228.442
G01 X174.592 Y225.720
G01 X170.990 Y223.947
G01 X167.032 Y223.270
G01 X163.046 Y223.744
G01 X159.357 Y225.330
G01 X156.181 Y227.997
G01 X153.871 Y231.601
G01 X152.744 Y235.868
G01 X153.030 Y240.405
G01 X154.826 Y244.724
G01 X157.945 Y248.211
G01 X162.039 Y250.476
G01 X166.650 Y251.266
G01 X171.263 Y250.492
G01 X175.365 Y248.241
G01 X178.496 Y244.765
G01 X180.275 Y240.583
G01 X180.642 Y236.318
G01 X179.751 Y232.267
G01 X177.795 Y228.761
G01 X174.923 Y225.954
G01 X171.374 Y224.078
G01 X167.438 Y223.286
G01 X163.439 Y223.644
G01 X159.706 Y225.123
G01 X156.546 Y227.600
G01 X154.159 Y230.991
G01 X152.827 Y235.199
G01 X152.895 Y239.744
G01 X154.481 Y244.145
G01 X157.428 Y247.778
G01 X161.408 Y250.237
G01 X165.975 Y251.248
G01 X170.621 Y250.698
G01 X174.826 Y248.647
G01 X178.121 Y245.326
G01 X180.100 Y241.234
G01 X180.668 Y236.857
G01 X179.934 Y232.775
G01 X178.114 Y229.196
G01 X175.354 Y226.281
G01 X171.879 Y224.269
G01 X167.977 Y223.326
G01 X163.967 Y223.530
G01 X162.664 Y223.852
G01 X165.067 Y223.161
G01 X166.710 Y221.519
G01 X167.634 Y218.805
G01 X167.547 Y216.623
G01 X166.648 Y214.049
G01 X165.177 Y211.942
G01 X162.375 Y209.643
G01 X159.196 Y208.250
G01 X155.878 Y207.644
G01 X151.492 Y207.889
G01 X147.364 Y209.146
G01 X143.648 Y211.227
G01 X139.728 Y214.736
G01 X136.710 Y218.988
G01 X134.342 Y224.723
G01 X133.337 Y230.806
G01 X133.802 Y237.941
G01 X135.873 Y244.751
G01 X139.418 Y250.921
G01 X139.939 Y251.755
G01 X144.489 Y256.626
G01 X145.486 Y257.622
G01 X150.794 Y261.264
G01 X152.155 Y262.133
G01 X158.008 Y264.565
G01 X159.594 Y265.166
G01 X165.804 Y266.344
G01 X168.470 Y266.753
G01 X174.843 Y266.592
G01 X177.466 Y266.431
G01 X183.783 Y264.914
G01 X187.136 Y263.959
G01 X193.146 Y261.040
G01 X196.039 Y259.475
G01 X201.508 Y255.179
G01 X204.520 Y252.554
G01 X209.151 Y246.826
G01 X211.807 Y243.115
G01 X215.261 Y235.923
G01 X216.752 Y232.276
G01 X218.724 Y223.515
G01 X219.201 Y220.629
G01 X219.182 Y209.688
G01 X219.132 Y208.735
G01 X218.837 Y206.476
G01 X219.858 Y210.496
G01 X222.186 Y214.245
G01 X225.797 Y217.219
G01 X230.319 Y218.862
G01 X235.129 Y218.877
G01 X239.453 Y217.363
G01 X239.544 Y217.329
G01 X243.075 Y214.519
G01 X243.201 Y214.413
G01 X245.723 Y210.367
G01 X245.745 Y210.330
G01 X246.757 Y205.627
G01 X246.156 Y200.987
G01 X244.140 Y196.913
G01 X241.141 Y193.858
G01 X237.487 Y191.897
G01 X233.552 Y191.100
G01 X229.683 Y191.422
G01 X226.618 Y192.597
G01 X226.052 Y192.794
G01 X223.534 Y194.689
G01 X222.937 Y195.110
G01 X220.838 Y197.872
G01 X220.577 Y198.193
G01 X219.155 Y201.805
G01 X218.786 Y205.803
G01 X219.612 Y209.868
G01 X221.757 Y213.725
G01 X225.221 Y216.870
G01 X229.658 Y218.728
G01 X234.462 Y218.975
G01 X238.889 Y217.660
G01 X238.946 Y217.641
G01 X242.601 Y215.010
G01 X242.740 Y214.904
G01 X245.422 Y211.034
G01 X245.477 Y210.948
G01 X246.714 Y206.300
G01 X246.304 Y201.507
G01 X244.446 Y197.358
G01 X241.463 Y194.106
G01 X237.867 Y192.040
G01 X233.956 Y191.129
G01 X230.080 Y191.338
G01 X226.944 Y192.436
G01 X226.410 Y192.604
G01 X223.844 Y194.422
G01 X223.230 Y194.830
G01 X221.089 Y197.485
G01 X220.782 Y197.843
G01 X219.256 Y201.412
G01 X218.771 Y205.398
G01 X219.479 Y209.485
G01 X221.511 Y213.402
G01 X224.882 Y216.646
G01 X229.263 Y218.632
G01 X234.058 Y219.018
G01 X238.546 Y217.825
G01 X238.579 Y217.815
G01 X242.307 Y215.292
G01 X242.451 Y215.189
G01 X245.238 Y211.439
G01 X245.241 Y211.434
G01 X246.657 Y206.837
G01 X246.432 Y202.031
G01 X244.665 Y197.700
G01 X241.777 Y194.362
G01 X238.242 Y192.193
G01 X234.360 Y191.169
G01 X230.480 Y191.266
G01 X227.270 Y192.285
G01 X226.775 Y192.425
G01 X224.158 Y194.167
G01 X223.531 Y194.558
G01 X221.348 Y197.112
G01 X220.997 Y197.498
G01 X219.368 Y201.022
G01 X218.768 Y204.992
G01 X219.357 Y209.098
G01 X221.274 Y213.072
G01 X224.550 Y216.413
G01 X228.359 Y218.366
G01 X226.248 Y217.575
G01 X223.706 Y217.956
G01 X221.392 Y219.650
G01 X220.212 Y221.487
G01 X219.472 Y224.111
G01 X219.681 Y227.897
G01 X220.970 Y231.220
G01 X223.780 Y234.799
G01 X227.376 Y237.365
G01 X232.456 Y239.188
G01 X237.753 Y239.588
G01 X243.348 Y238.540
G01 X243.931 Y238.413
G01 X248.931 Y236.033
G01 X249.547 Y235.719
G01 X253.855 Y232.224
G01 X254.338 Y231.809
G01 X257.806 Y227.307
G01 X258.672 Y226.102
G01 X261.087 Y220.668
G01 X261.530 Y219.569
G01 X262.701 Y213.295
G01 X262.946 Y211.582
G01 X262.550 Y204.520
G01 X262.451 Y203.515
G01 X260.045 Y195.572
G01 X259.791 Y194.854
G01 X255.187 Y187.077
G01 X249.739 Y181.190
G01 X244.136 Y176.978
G01 X237.938 Y173.723
G01 X232.282 Y171.734
G01 X226.872 Y170.613
G01 X226.421 Y170.497
G01 X222.670 Y170.204
G01 X221.452 Y170.042
G01 X218.618 Y170.156
G01 X216.466 Y170.105
G01 X214.227 Y170.449
G01 X212.019 Y170.648
G01 X211.516 Y170.674
G01 X209.653 Y171.165
G01 X207.793 Y171.549
G01 X206.650 Y171.733
G01 X204.998 Y172.351
G01 X203.326 Y172.884
G01 X201.913 Y173.264
G01 X200.336 Y174.035
G01 X198.711 Y174.731
G01 X197.349 Y175.243
G01 X195.717 Y176.238
G01 X194.006 Y177.157
G01 X192.994 Y177.645
G01 X191.181 Y178.982
G01 X189.243 Y180.229
G01 X188.884 Y180.441
G01 X186.751 Y182.300
G01 X185.050 Y183.602
G01 X182.414 Y186.378
G01 X180.852 Y187.831
G01 X177.316 Y192.267
G01 X177.129 Y192.481
G01 X173.432 Y198.360
G01 X172.377 Y200.380
G01 X173.901 Y196.238
G01 X174.090 Y192.095
G01 X173.160 Y188.326
G01 X171.570 Y185.560
G01 X171.312 Y185.064
G01 X169.500 Y183.296
G01 X168.664 Y182.410
G01 X166.616 Y181.299
G01 X165.282 Y180.504
G01 X162.848 Y179.943
G01 X161.641 Y179.613
G01 X158.503 Y179.723
G01 X157.894 Y179.720
G01 X154.187 Y180.875
G01 X150.740 Y183.182
G01 X147.986 Y186.630
G01 X146.391 Y191.028
G01 X146.356 Y195.838
G01 X147.770 Y199.866
G01 X148.017 Y200.494
G01 X150.433 Y203.446
G01 X151.089 Y204.195
G01 X154.252 Y206.091
G01 X155.234 Y206.638
G01 X158.957 Y207.370
G01 X159.960 Y207.533
G01 X164.104 Y206.876
G01 X164.837 Y206.732
G01 X169.132 Y204.286
G01 X172.174 Y200.731
G01 X173.817 Y196.635
G01 X174.126 Y192.499
G01 X173.305 Y188.705
G01 X171.747 Y185.792
G01 X171.552 Y185.391
G01 X169.763 Y183.538
G01 X168.983 Y182.661
G01 X166.965 Y181.489
G01 X165.658 Y180.658
G01 X163.277 Y180.037
G01 X162.044 Y179.661
G01 X159.005 Y179.684
G01 X158.295 Y179.660
G01 X154.557 Y180.707
G01 X151.147 Y182.826
G01 X148.261 Y186.165
G01 X146.498 Y190.498
G01 X146.277 Y195.304
G01 X147.561 Y199.459
G01 X147.757 Y200.020
G01 X150.078 Y203.088
G01 X150.685 Y203.837
G01 X153.774 Y205.855
G01 X154.732 Y206.438
G01 X158.400 Y207.308
G01 X159.420 Y207.515
G01 X163.523 Y207.028
G01 X164.325 Y206.902
G01 X168.711 Y204.624
G01 X171.960 Y201.076
G01 X173.722 Y197.030
G01 X174.151 Y192.904
G01 X173.440 Y189.088
G01 X171.915 Y186.018
G01 X171.784 Y185.724
G01 X170.015 Y183.782
G01 X169.294 Y182.921
G01 X167.304 Y181.687
G01 X166.029 Y180.822
G01 X163.697 Y180.142
G01 X162.445 Y179.722
G01 X159.499 Y179.661
G01 X158.698 Y179.612
G01 X154.931 Y180.550
G01 X151.461 Y182.569
G01 X148.554 Y185.712
G01 X146.625 Y189.974
G01 X146.219 Y194.767
G01 X147.368 Y199.054
G01 X147.516 Y199.536
G01 X149.737 Y202.720
G01 X150.295 Y203.464
G01 X153.307 Y205.602
G01 X154.238 Y206.218
G01 X157.850 Y207.225
G01 X158.882 Y207.476
G01 X162.942 Y207.153
G01 X163.806 Y207.053
G01 X168.230 Y204.969
G01 X168.277 Y204.945
G01 X171.660 Y201.525
G01 X173.615 Y197.421
G01 X174.163 Y193.310
G01 X173.563 Y189.474
G01 X172.064 Y186.264
G01 X171.933 Y185.951
G01 X171.398 Y185.179
G01 X172.869 Y187.201
G01 X174.974 Y188.184
G01 X177.544 Y188.137
G01 X177.841 Y188.123
G01 X180.607 Y186.721
G01 X180.987 Y186.509
G01 X183.449 Y183.467
G01 X184.651 Y180.048
G01 X184.873 Y176.584
G01 X184.307 Y173.258
G01 X183.219 Y170.524
G01 X183.100 Y170.179
G01 X181.995 Y168.497
G01 X181.373 Y167.416
G01 X180.290 Y166.277
G01 X179.298 Y165.100
G01 X179.229 Y165.012
G01 X178.145 Y164.187
G01 X177.116 Y163.317
G01 X176.758 Y162.992
G01 X175.615 Y162.363
G01 X174.501 Y161.677
G01 X174.037 Y161.368
G01 X172.747 Y160.875
G01 X171.468 Y160.306
G01 X171.137 Y160.145
G01 X169.525 Y159.820
G01 X167.901 Y159.385
G01 X167.092 Y159.127
G01 X164.815 Y159.011
G01 X162.959 Y158.788
G01 X159.450 Y159.075
G01 X158.843 Y159.094
G01 X153.856 Y160.313
G01 X148.288 Y162.876
G01 X142.597 Y167.152
G01 X137.405 Y173.368
G01 X134.474 Y179.177
G01 X133.453 Y181.539
G01 X132.213 Y186.984
G01 X131.525 Y191.400
G01 X131.706 Y196.547
G01 X132.256 Y201.795
G01 X132.342 Y202.389
G01 X133.812 Y207.127
G01 X135.612 Y211.866
G01 X135.989 Y212.761
G01 X138.558 Y216.919
G01 X141.406 Y220.997
G01 X142.079 Y221.893
G01 X145.550 Y225.308
G01 X149.242 Y228.576
G01 X150.139 Y229.320
G01 X154.300 Y231.861
G01 X158.616 Y234.207
G01 X159.654 Y234.730
G01 X164.290 Y236.289
G01 X169.006 Y237.620
G01 X171.084 Y238.128
G01 X175.970 Y238.596
G01 X180.857 Y238.822
G01 X182.974 Y238.845
G01 X187.851 Y238.219
G01 X192.650 Y237.356
G01 X195.680 Y236.679
G01 X200.276 Y234.987
G01 X204.721 Y233.080
G01 X206.939 Y232.022
G01 X203.609 Y234.265
G01 X201.053 Y237.362
G01 X199.448 Y241.186
G01 X199.040 Y245.447
G01 X199.988 Y249.757
G01 X202.316 Y253.661
G01 X205.888 Y256.683
G01 X210.255 Y258.359
G01 X214.931 Y258.502
G01 X219.394 Y257.097
G01 X223.144 Y254.300
G01 X225.763 Y250.424
G01 X226.959 Y245.901
G01 X226.630 Y241.367
G01 X225.007 Y237.407
G01 X222.363 Y234.211
G01 X219.021 Y231.986
G01 X215.184 Y230.802
G01 X211.170 Y230.756
G01 X207.307 Y231.851
G01 X203.914 Y233.997
G01 X201.269 Y237.018
G01 X199.553 Y240.794
G01 X199.022 Y245.042
G01 X199.845 Y249.377
G01 X202.059 Y253.347
G01 X205.542 Y256.471
G01 X209.859 Y258.273
G01 X214.529 Y258.552
G01 X219.030 Y257.277
G01 X222.859 Y254.590
G01 X225.590 Y250.791
G01 X226.916 Y246.305
G01 X226.719 Y241.763
G01 X225.211 Y237.757
G01 X222.661 Y234.486
G01 X219.385 Y232.166
G01 X215.584 Y230.871
G01 X211.573 Y230.708
G01 X207.680 Y231.691
G01 X204.226 Y233.738
G01 X201.495 Y236.681
G01 X199.670 Y240.405
G01 X199.017 Y244.501
G01 X199.672 Y248.866
G01 X201.731 Y252.918
G01 X205.090 Y256.174
G01 X209.335 Y258.141
G01 X213.991 Y258.600
G01 X218.538 Y257.499
G01 X222.468 Y254.962
G01 X225.343 Y251.271
G01 X226.842 Y246.840
G01 X226.820 Y242.294
G01 X225.406 Y238.113
G01 X222.951 Y234.770
G01 X219.743 Y232.356
G01 X215.982 Y230.951
G01 X211.977 Y230.672
G01 X208.057 Y231.541
G01 X204.545 Y233.487
G01 X201.730 Y236.350
G01 X199.843 Y239.894
G01 X199.033 Y243.962
G01 X199.022 Y245.036
G01 X198.977 Y242.535
G01 X197.816 Y240.523
G01 X195.433 Y238.928
G01 X193.303 Y238.448
G01 X190.584 Y238.650
G01 X187.098 Y240.142
G01 X184.416 Y242.489
G01 X182.495 Y245.335
G01 X181.021 Y249.529
G01 X180.663 Y253.864
G01 X181.566 Y259.129
G01 X183.722 Y263.941
G01 X187.606 Y268.845
G01 X192.533 Y272.617
G01 X199.129 Y275.465
G01 X205.968 Y276.595
G01 X206.180 Y276.624
G01 X212.952 Y276.190
G01 X213.279 Y276.161
G01 X219.808 Y274.297
G01 X220.093 Y274.207
G01 X226.193 Y270.944
G01 X227.195 Y270.368
G01 X232.632 Y265.688
G01 X233.279 Y265.094
G01 X237.833 Y259.008
G01 X238.647 Y257.829
G01 X242.001 Y250.276
G01 X242.279 Y249.578
G01 X244.093 Y240.764
G01 X244.097 Y231.777
G01 X242.364 Y222.971
G01 X239.022 Y214.652
G01 X234.837 Y207.877
G01 X230.348 Y202.552
G01 X225.192 Y197.876
G01 X220.321 Y194.435
G01 X215.648 Y191.882
G01 X215.104 Y191.551
G01 X211.418 Y190.088
G01 X209.609 Y189.247
G01 X206.584 Y188.440
G01 X203.903 Y187.540
G01 X201.310 Y187.149
G01 X198.789 Y186.620
G01 X198.053 Y186.437
G01 X196.777 Y186.278
G01 X199.118 Y186.292
G01 X201.477 Y186.185
G01 X201.982 Y186.147
G01 X204.169 Y185.301
G01 X206.301 Y184.353
G01 X206.779 Y184.122
G01 X208.583 Y182.468
G01 X210.267 Y180.745
G01 X210.505 Y180.485
G01 X211.683 Y178.054
G01 X212.673 Y175.609
G01 X212.674 Y175.607
G01 X212.872 Y172.301
G01 X212.860 Y170.271
G01 X211.237 Y165.602
G01 X208.495 Y162.144
G01 X205.298 Y159.942
G01 X203.372 Y159.326
G01 X202.014 Y158.783
G01 X200.722 Y158.728
G01 X199.465 Y158.593
G01 X198.680 Y158.466
G01 X197.682 Y158.673
G01 X196.686 Y158.826
G01 X195.693 Y158.928
G01 X195.366 Y158.950
G01 X194.472 Y159.376
G01 X193.550 Y159.760
G01 X192.601 Y160.099
G01 X192.262 Y160.207
G01 X191.310 Y160.976
G01 X190.288 Y161.698
G01 X189.545 Y162.166
G01 X188.349 Y163.678
G01 X187.297 Y164.826
G01 X185.692 Y168.214
G01 X185.032 Y172.578
G01 X185.945 Y177.435
G01 X187.627 Y180.302
G01 X188.759 Y181.973
G01 X190.852 Y183.615
G01 X193.066 Y185.127
G01 X195.381 Y185.805
G01 X197.769 Y186.363
G01 X198.107 Y186.431
G01 X200.431 Y186.220
G01 X202.753 Y185.893
G01 X203.276 Y185.802
G01 X205.387 Y184.745
G01 X207.426 Y183.591
G01 X207.858 Y183.329
G01 X209.524 Y181.468
G01 X211.050 Y179.550
G01 X211.284 Y179.235
G01 X212.237 Y176.584
G01 X212.929 Y174.155
G01 X212.746 Y170.531
G01 X212.553 Y168.830
G01 X210.525 Y164.467
G01 X207.679 Y161.451
G01 X204.672 Y159.698
G01 X204.447 Y159.551
G01 X202.732 Y159.128
G01 X201.225 Y158.634
G01 X200.025 Y158.656
G01 X198.851 Y158.606
G01 X197.878 Y158.509
G01 X196.921 Y158.766
G01 X195.958 Y158.973
G01 X194.991 Y159.132
G01 X194.598 Y159.182
G01 X193.705 Y159.672
G01 X192.775 Y160.121
G01 X191.810 Y160.524
G01 X191.570 Y160.615
G01 X190.580 Y161.507
G01 X189.505 Y162.349
G01 X188.970 Y162.727
G01 X187.678 Y164.535
G01 X186.879 Y165.511
G01 X185.438 Y169.116
G01 X185.082 Y173.648
G01 X186.318 Y178.221
G01 X186.422 Y178.543
G01 X188.212 Y181.086
G01 X189.615 Y182.821
G01 X191.775 Y184.235
G01 X194.072 Y185.538
G01 X194.178 Y185.593
G01 X196.513 Y186.063
G01 X198.905 Y186.412
G01 X199.312 Y186.459
G01 X201.607 Y186.049
G01 X203.883 Y185.525
G01 X204.408 Y185.388
G01 X206.438 Y184.142
G01 X208.380 Y182.808
G01 X208.760 Y182.529
G01 X210.290 Y180.491
G01 X211.667 Y178.408
G01 X211.822 Y178.156
G01 X212.569 Y175.319
G01 X213.023 Y172.954
G01 X212.478 Y169.027
G01 X212.236 Y167.807
G01 X209.965 Y163.717
G01 X207.033 Y160.973
G01 X204.418 Y159.650
G01 X203.824 Y159.307
G01 X202.244 Y159.005
G01 X200.728 Y158.597
G01 X200.563 Y158.545
G01 X199.428 Y158.622
G01 X198.311 Y158.633
G01 X197.217 Y158.580
G01 X197.214 Y158.580
G01 X196.282 Y158.878
G01 X195.339 Y159.130
G01 X194.386 Y159.335
G01 X193.969 Y159.409
G01 X193.070 Y159.959
G01 X192.127 Y160.468
G01 X191.141 Y160.930
G01 X191.014 Y160.985
G01 X189.982 Y161.998
G01 X188.853 Y162.958
G01 X188.517 Y163.218
G01 X187.124 Y165.373
G01 X186.501 Y166.219
G01 X185.244 Y170.032
G01 X185.214 Y174.711
G01 X186.593 Y178.642
G01 X186.992 Y179.605
G01 X188.881 Y181.861
G01 X190.541 Y183.593
G01 X192.758 Y184.786
G01 X195.093 Y185.864
G01 X195.325 Y185.962
G01 X197.671 Y186.226
G01 X200.054 Y186.369
G01 X200.515 Y186.383
G01 X202.769 Y185.776
G01 X204.988 Y185.060
G01 X205.500 Y184.878
G01 X207.436 Y183.447
G01 X209.270 Y181.936
G01 X209.590 Y181.655
G01 X210.726 Y180.159
G01 X209.416 Y181.993
G01 X209.081 Y184.034
G01 X209.722 Y186.463
G01 X211.632 Y188.835
G01 X215.215 Y190.645
G01 X218.579 Y190.970
G01 X218.898 Y190.990
G01 X221.868 Y190.305
G01 X223.411 Y189.882
G01 X225.907 Y188.302
G01 X228.049 Y186.803
G01 X229.944 Y184.484
G01 X231.391 Y182.537
G01 X232.581 Y179.666
G01 X233.592 Y176.782
G01 X233.656 Y176.578
G01 X233.958 Y173.300
G01 X234.046 Y170.084
G01 X234.035 Y169.265
G01 X233.272 Y165.790
G01 X232.279 Y162.463
G01 X231.862 Y161.288
G01 X229.844 Y157.858
G01 X227.598 Y154.681
G01 X226.752 Y153.620
G01 X223.026 Y150.427
G01 X219.085 Y147.635
G01 X218.716 Y147.401
G01 X211.181 Y144.421
G01 X205.205 Y143.385
G01 X202.139 Y143.336
G01 X201.169 Y143.258
G01 X199.889 Y143.419
G01 X198.622 Y143.464
G01 X198.149 Y143.451
G01 X197.538 Y143.638
G01 X196.929 Y143.774
G01 X196.325 Y143.859
G01 X195.731 Y143.895
G01 X195.157 Y143.883
G01 X194.816 Y144.011
G01 X194.475 Y144.115
G01 X194.136 Y144.195
G01 X193.799 Y144.253
G01 X193.468 Y144.288
G01 X193.187 Y144.300
G01 X192.946 Y144.412
G01 X192.701 Y144.510
G01 X192.454 Y144.595
G01 X192.205 Y144.666
G01 X191.955 Y144.725
G01 X191.705 Y144.770
G01 X191.455 Y144.802
G01 X191.242 Y144.819
G01 X191.018 Y144.938
G01 X190.784 Y145.047
G01 X190.542 Y145.144
G01 X190.293 Y145.230
G01 X190.036 Y145.303
G01 X189.773 Y145.364
G01 X189.505 Y145.412
G01 X189.327 Y145.435
G01 X189.025 Y145.606
G01 X188.704 Y145.761
G01 X188.366 Y145.896
G01 X188.011 Y146.012
G01 X187.641 Y146.107
G01 X187.447 Y146.147
G01 X186.924 Y146.486
G01 X186.363 Y146.788
G01 X185.765 Y147.050
G01 X185.134 Y147.268
G01 X184.700 Y147.387
G01 X183.485 Y148.198
G01 X182.180 Y148.906
G01 X181.196 Y149.344
G01 X177.596 Y151.934
G01 X177.109 Y152.245
G01 X172.018 Y157.056
G01 X166.898 Y164.173
G01 X165.718 Y166.042
G01 X163.396 Y171.498
G01 X161.561 Y177.234
G01 X160.845 Y180.135
G01 X160.324 Y185.379
G01 X160.254 Y190.762
G01 X160.646 Y196.251
G01 X160.863 Y197.973
G01 X162.141 Y202.953
G01 X163.841 Y207.937
G01 X165.967 Y212.898
G01 X166.875 Y214.747
G01 X169.730 Y219.070
G01 X172.956 Y223.285
G01 X176.548 Y227.367
G01 X177.186 Y228.036
G01 X178.864 Y229.578
G01 X175.617 Y227.217
G01 X171.833 Y225.874
G01 X167.824 Y225.660
G01 X163.919 Y226.593
G01 X160.439 Y228.596
G01 X157.594 Y231.614
G01 X155.718 Y235.461
G01 X155.093 Y239.830
G01 X155.949 Y244.429
G01 X158.273 Y248.489
G01 X161.805 Y251.557
G01 X166.151 Y253.290
G01 X170.824 Y253.495
G01 X175.304 Y252.148
G01 X179.091 Y249.401
G01 X181.761 Y245.559
G01 X182.985 Y241.320
G01 X182.855 Y237.041
G01 X181.500 Y233.121
G01 X179.150 Y229.865
G01 X175.973 Y227.411
G01 X172.230 Y225.959
G01 X168.228 Y225.629
G01 X164.298 Y226.449
G01 X160.762 Y228.350
G01 X157.830 Y231.284
G01 X155.843 Y235.076
G01 X155.092 Y239.424
G01 X155.773 Y243.919
G01 X157.939 Y248.066
G01 X161.349 Y251.267
G01 X165.625 Y253.167
G01 X170.287 Y253.551
G01 X174.816 Y252.379
G01 X178.705 Y249.779
G01 X181.522 Y246.044
G01 X182.930 Y241.722
G01 X182.923 Y237.441
G01 X181.683 Y233.483
G01 X179.428 Y230.161
G01 X176.323 Y227.615
G01 X172.624 Y226.056
G01 X168.634 Y225.610
G01 X164.681 Y226.315
G01 X161.092 Y228.113
G01 X158.076 Y230.961
G01 X155.980 Y234.693
G01 X155.103 Y239.019
G01 X155.654 Y243.531
G01 X157.698 Y247.739
G01 X161.015 Y251.038
G01 X165.233 Y253.061
G01 X169.882 Y253.580
G01 X174.443 Y252.539
G01 X178.406 Y250.054
G01 X181.330 Y246.401
G01 X182.863 Y242.122
G01 X182.980 Y237.843
G01 X181.855 Y233.851
G01 X179.698 Y230.465
G01 X176.668 Y227.830
G01 X173.015 Y226.164
G01 X169.040 Y225.603
G01 X165.068 Y226.193
G01 X163.927 Y226.590
G01 X166.261 Y225.692
G01 X167.755 Y223.913
G01 X168.439 Y221.128
G01 X168.162 Y218.963
G01 X167.042 Y216.477
G01 X164.448 Y213.710
G01 X161.325 Y211.993
G01 X157.993 Y211.161
G01 X154.645 Y211.087
G01 X150.367 Y211.980
G01 X146.475 Y213.806
G01 X143.090 Y216.371
G01 X139.678 Y220.363
G01 X137.240 Y224.962
G01 X135.616 Y230.943
G01 X135.456 Y238.119
G01 X137.012 Y245.088
G01 X140.076 Y251.504
G01 X144.380 Y256.966
G01 X145.116 Y257.835
G01 X150.275 Y261.975
G01 X151.438 Y262.847
G01 X157.218 Y265.717
G01 X158.667 Y266.381
G01 X164.871 Y267.946
G01 X167.444 Y268.501
G01 X173.873 Y268.679
G01 X176.453 Y268.660
G01 X182.877 Y267.479
G01 X185.285 Y266.945
G01 X191.488 Y264.399
G01 X194.461 Y263.029
G01 X200.186 Y259.083
G01 X202.588 Y257.263
G01 X207.608 Y251.935
G01 X209.954 Y249.170
G01 X213.955 Y242.367
G01 X215.794 Y238.777
G01 X218.397 Y230.351
G01 X219.141 Y227.346
G01 X219.898 Y216.832
G01 X219.926 Y215.472
G01 X218.373 Y204.384
G01 X219.803 Y208.418
G01 X222.581 Y212.017
G01 X226.487 Y214.590
G01 X231.157 Y215.743
G01 X235.817 Y215.264
G01 X235.942 Y215.247
G01 X239.900 Y213.374
G01 X240.167 Y213.239
G01 X243.296 Y210.157
G01 X243.495 Y209.950
G01 X245.556 Y205.696
G01 X245.590 Y205.620
G01 X246.096 Y200.836
G01 X245.006 Y196.287
G01 X242.569 Y192.450
G01 X239.262 Y189.731
G01 X235.550 Y188.202
G01 X231.691 Y187.784
G01 X228.208 Y188.394
G01 X227.865 Y188.442
G01 X225.121 Y189.786
G01 X224.367 Y190.125
G01 X222.115 Y192.156
G01 X221.466 Y192.704
G01 X219.616 Y195.639
G01 X219.384 Y195.981
G01 X218.282 Y199.703
G01 X218.263 Y203.718
G01 X219.498 Y207.817
G01 X222.099 Y211.545
G01 X225.877 Y214.304
G01 X230.486 Y215.680
G01 X235.240 Y215.420
G01 X235.289 Y215.416
G01 X239.353 Y213.726
G01 X239.606 Y213.613
G01 X242.865 Y210.698
G01 X243.088 Y210.488
G01 X245.319 Y206.402
G01 X245.389 Y206.264
G01 X246.125 Y201.510
G01 X245.256 Y196.913
G01 X243.006 Y192.964
G01 X239.834 Y190.089
G01 X236.200 Y188.382
G01 X232.365 Y187.779
G01 X228.713 Y188.234
G01 X228.512 Y188.252
G01 X225.663 Y189.480
G01 X224.937 Y189.765
G01 X222.610 Y191.669
G01 X221.915 Y192.201
G01 X219.995 Y194.951
G01 X219.678 Y195.374
G01 X218.398 Y199.039
G01 X218.186 Y203.048
G01 X219.170 Y207.077
G01 X221.464 Y210.848
G01 X225.048 Y213.855
G01 X229.554 Y215.538
G01 X234.364 Y215.597
G01 X238.561 Y214.156
G01 X238.910 Y214.025
G01 X242.320 Y211.313
G01 X242.567 Y211.106
G01 X244.993 Y207.220
G01 X245.108 Y207.022
G01 X246.117 Y202.319
G01 X245.475 Y197.551
G01 X243.417 Y193.498
G01 X240.388 Y190.473
G01 X236.713 Y188.549
G01 X232.771 Y187.792
G01 X229.008 Y188.147
G01 X228.906 Y188.153
G01 X225.989 Y189.310
G01 X225.288 Y189.562
G01 X222.915 Y191.391
G01 X222.197 Y191.909
G01 X220.236 Y194.554
G01 X219.869 Y195.016
G01 X218.483 Y198.642
G01 X218.155 Y202.644
G01 X219.022 Y206.700
G01 X221.205 Y210.535
G01 X224.701 Y213.644
G01 X228.894 Y215.399
G01 X226.723 Y214.795
G01 X224.223 Y215.396
G01 X222.627 Y216.611
G01 X221.051 Y219.217
G01 X220.542 Y221.896
G01 X221.081 Y225.650
G01 X222.654 Y228.848
G01 X225.765 Y232.168
G01 X229.571 Y234.411
G01 X234.791 Y235.785
G01 X240.102 Y235.721
G01 X245.387 Y234.251
G01 X246.154 Y234.013
G01 X250.796 Y231.288
G01 X251.514 Y230.839
G01 X255.369 Y227.009
G01 X256.584 Y225.719
G01 X259.450 Y220.881
G01 X260.187 Y219.531
G01 X261.932 Y213.863
G01 X262.242 Y212.707
G01 X262.672 Y206.292
G01 X262.710 Y204.614
G01 X261.468 Y197.489
G01 X261.286 Y196.661
G01 X257.805 Y188.663
G01 X257.658 Y188.362
G01 X252.893 Y181.891
G01 X246.953 Y176.501
G01 X241.005 Y172.793
G01 X234.546 Y170.091
G01 X228.738 Y168.602
G01 X224.318 Y168.041
G01 X223.788 Y167.948
G01 X220.587 Y167.938
G01 X218.799 Y167.823
G01 X216.369 Y168.104
G01 X213.982 Y168.216
G01 X213.828 Y168.218
G01 X211.889 Y168.664
G01 X209.965 Y168.990
G01 X208.926 Y169.117
G01 X207.283 Y169.681
G01 X205.630 Y170.154
G01 X204.142 Y170.502
G01 X202.641 Y171.190
G01 X201.106 Y171.805
G01 X199.542 Y172.343
G01 X199.520 Y172.350
G01 X198.027 Y173.217
G01 X196.472 Y174.014
G01 X195.100 Y174.636
G01 X193.485 Y175.781
G01 X191.771 Y176.850
G01 X190.919 Y177.330
G01 X189.048 Y178.910
G01 X187.024 Y180.393
G01 X187.011 Y180.402
G01 X184.729 Y182.657
G01 X183.404 Y183.819
G01 X180.488 Y187.287
G01 X179.507 Y188.329
G01 X176.117 Y193.227
G01 X172.839 Y199.351
G01 X171.558 Y202.360
G01 X172.700 Y198.235
G01 X172.591 Y194.221
G01 X171.406 Y190.525
G01 X169.641 Y187.923
G01 X169.251 Y187.296
G01 X167.247 Y185.637
G01 X166.293 Y184.782
G01 X163.998 Y183.778
G01 X162.758 Y183.178
G01 X159.967 Y182.794
G01 X158.918 Y182.606
G01 X155.194 Y183.099
G01 X155.069 Y183.111
G01 X151.392 Y184.723
G01 X148.236 Y187.413
G01 X145.847 Y191.281
G01 X144.809 Y195.978
G01 X145.423 Y200.750
G01 X147.347 Y204.544
G01 X147.615 Y205.032
G01 X150.455 Y207.721
G01 X151.127 Y208.319
G01 X154.665 Y209.869
G01 X155.545 Y210.223
G01 X159.608 Y210.494
G01 X160.346 Y210.519
G01 X164.813 Y209.223
G01 X164.965 Y209.173
G01 X168.855 Y206.343
G01 X171.501 Y202.485
G01 X172.684 Y198.371
G01 X172.614 Y194.357
G01 X171.465 Y190.649
G01 X169.710 Y188.004
G01 X169.342 Y187.399
G01 X167.346 Y185.713
G01 X166.408 Y184.856
G01 X164.126 Y183.831
G01 X162.889 Y183.218
G01 X160.122 Y182.809
G01 X159.056 Y182.608
G01 X155.377 Y183.060
G01 X155.202 Y183.075
G01 X151.509 Y184.651
G01 X148.326 Y187.310
G01 X145.900 Y191.155
G01 X144.816 Y195.841
G01 X145.383 Y200.618
G01 X147.277 Y204.445
G01 X147.533 Y204.922
G01 X150.350 Y207.642
G01 X151.013 Y208.243
G01 X154.534 Y209.827
G01 X155.412 Y210.190
G01 X159.461 Y210.501
G01 X160.210 Y210.534
G01 X164.665 Y209.289
G01 X164.841 Y209.233
G01 X168.759 Y206.441
G01 X171.443 Y202.609
G01 X172.666 Y198.507
G01 X172.635 Y194.492
G01 X171.523 Y190.773
G01 X169.777 Y188.085
G01 X169.432 Y187.503
G01 X167.444 Y185.790
G01 X166.523 Y184.932
G01 X164.253 Y183.885
G01 X163.020 Y183.258
G01 X160.275 Y182.826
G01 X159.193 Y182.611
G01 X155.558 Y183.023
G01 X155.335 Y183.040
G01 X151.627 Y184.580
G01 X148.418 Y187.208
G01 X145.954 Y191.028
G01 X144.824 Y195.704
G01 X145.344 Y200.487
G01 X147.208 Y204.346
G01 X147.452 Y204.811
G01 X150.247 Y207.563
G01 X150.899 Y208.166
G01 X154.402 Y209.784
G01 X155.279 Y210.157
G01 X159.315 Y210.506
G01 X160.073 Y210.547
G01 X164.518 Y209.353
G01 X164.717 Y209.292
G01 X168.662 Y206.538
G01 X171.383 Y202.733
G01 X172.665 Y198.510
G01 X172.635 Y194.495
G01 X171.524 Y190.776
G01 X169.779 Y188.086
G01 X169.434 Y187.505
G01 X169.257 Y187.302
G01 X171.725 Y187.944
G01 X174.206 Y188.457
G01 X175.601 Y188.690
G01 X177.925 Y188.169
G01 X179.220 Y186.737
G01 X179.524 Y184.026
G01 X178.630 Y180.325
G01 X177.370 Y177.619
G01 X176.649 Y175.767
G01 X175.453 Y173.805
G01 X174.417 Y171.816
G01 X174.167 Y171.280
G01 X173.057 Y169.753
G01 X172.058 Y168.194
G01 X171.170 Y166.610
G01 X171.035 Y166.348
G01 X170.021 Y165.064
G01 X169.087 Y163.745
G01 X168.233 Y162.396
G01 X167.978 Y161.958
G01 X166.984 Y160.799
G01 X166.052 Y159.596
G01 X165.181 Y158.351
G01 X164.556 Y157.367
G01 X163.516 Y156.232
G01 X162.526 Y155.036
G01 X161.591 Y153.782
G01 X160.810 Y152.623
G01 X159.628 Y151.400
G01 X158.498 Y150.090
G01 X157.425 Y148.697
G01 X156.779 Y147.776
G01 X155.340 Y146.337
G01 X153.964 Y144.775
G01 X152.661 Y143.093
G01 X152.503 Y142.873
G01 X150.670 Y141.078
G01 X148.928 Y139.109
G01 X148.022 Y137.966
G01 X145.639 Y135.661
G01 X143.388 Y133.117
G01 X143.375 Y133.101
G01 X140.256 Y130.124
G01 X138.602 Y128.329
G01 X134.382 Y124.465
G01 X132.765 Y122.794
G01 X126.761 Y117.551
G01 X125.890 Y116.707
G01 X118.081 Y110.403
G01 X109.551 Y104.384
G01 X101.516 Y99.776
G01 X96.547 Y97.629
G01 X98.190 Y99.516
G01 X100.372 Y100.311
G01 X103.223 Y100.001
G01 X105.163 Y99.000
G01 X107.116 Y97.097
G01 X108.828 Y93.713
G01 X109.373 Y90.191
G01 X109.016 Y86.776
G01 X107.941 Y83.605
G01 X105.638 Y79.890
G01 X102.591 Y76.857
G01 X98.072 Y74.093
G01 X93.085 Y72.481
G01 X86.875 Y72.007
G01 X80.771 Y72.997
G01 X74.164 Y75.773
G01 X68.422 Y80.002
G01 X63.850 Y85.270
G01 X63.769 Y85.369
G01 X60.529 Y91.361
G01 X59.956 Y92.499
G01 X58.138 Y99.047
G01 X57.835 Y100.277
G01 X57.438 Y107.155
G01 X57.406 Y108.308
G01 X58.495 Y115.318
G01 X58.859 Y117.214
G01 X61.558 Y124.129
G01 X62.189 Y125.584
G01 X66.596 Y132.186
G01 X67.807 Y133.842
G01 X74.148 Y139.853
G01 X75.082 Y140.664
G01 X83.614 Y145.804
G01 X92.997 Y149.115
G01 X101.842 Y150.480
G01 X110.783 Y150.320
G01 X118.607 Y148.938
G01 X125.226 Y146.817
G01 X131.529 Y143.899
G01 X136.036 Y141.196
G01 X132.688 Y144.091
G01 X132.216 Y144.537
G01 X130.523 Y147.621
G01 X129.838 Y149.020
G01 X129.386 Y152.155
G01 X129.207 Y153.923
G01 X129.852 Y156.920
G01 X130.319 Y158.739
G01 X132.006 Y161.388
G01 X133.035 Y162.868
G01 X135.773 Y164.925
G01 X137.138 Y165.855
G01 X141.101 Y166.967
G01 X142.036 Y167.183
G01 X146.957 Y166.714
G01 X151.078 Y164.796
G01 X154.121 Y161.978
G01 X156.050 Y158.763
G01 X156.702 Y156.324
G01 X157.038 Y155.285
G01 X157.024 Y153.367
G01 X157.102 Y151.670
G01 X156.648 Y150.018
G01 X156.276 Y148.350
G01 X156.239 Y148.159
G01 X155.330 Y146.597
G01 X154.505 Y144.986
G01 X152.905 Y143.365
G01 X152.016 Y142.363
G01 X149.001 Y140.535
G01 X148.815 Y140.411
G01 X144.946 Y139.341
G01 X140.535 Y139.485
G01 X136.038 Y141.195
G01 X132.689 Y144.089
G01 X132.218 Y144.535
G01 X130.524 Y147.619
G01 X129.839 Y149.018
G01 X129.387 Y152.153
G01 X129.207 Y153.920
G01 X129.851 Y156.918
G01 X130.318 Y158.736
G01 X132.004 Y161.386
G01 X133.033 Y162.866
G01 X135.771 Y164.923
G01 X137.136 Y165.854
G01 X141.097 Y166.967
G01 X142.033 Y167.183
G01 X146.954 Y166.715
G01 X151.076 Y164.798
G01 X154.119 Y161.980
G01 X156.049 Y158.766
G01 X156.702 Y156.326
G01 X157.038 Y155.288
G01 X157.024 Y153.370
G01 X157.103 Y151.673
G01 X156.649 Y150.021
G01 X156.277 Y148.352
G01 X156.240 Y148.161
G01 X155.332 Y146.599
G01 X154.506 Y144.988
G01 X152.907 Y143.368
G01 X152.018 Y142.365
G01 X149.005 Y140.537
G01 X148.818 Y140.412
G01 X144.949 Y139.341
G01 X140.538 Y139.484
G01 X136.041 Y141.193
G01 X132.690 Y144.087
G01 X132.220 Y144.533
G01 X130.525 Y147.617
G01 X129.840 Y149.015
G01 X129.387 Y152.150
G01 X129.207 Y153.917
G01 X129.850 Y156.915
G01 X130.317 Y158.733
G01 X132.002 Y161.383
G01 X133.031 Y162.864
G01 X135.768 Y164.921
G01 X137.133 Y165.852
G01 X141.094 Y166.966
G01 X142.030 Y167.182
G01 X146.951 Y166.716
G01 X151.073 Y164.800
G01 X154.117 Y161.982
G01 X156.048 Y158.769
G01 X156.701 Y156.328
G01 X157.037 Y155.291
G01 X157.024 Y153.372
G01 X157.103 Y151.676
G01 X156.649 Y150.024
G01 X156.278 Y148.355
G01 X156.241 Y148.164
G01 X155.333 Y146.602
G01 X154.508 Y144.991
G01 X152.910 Y143.370
G01 X152.020 Y142.367
G01 X149.009 Y140.539
G01 X148.821 Y140.413
G01 X144.951 Y139.342
G01 X140.541 Y139.483
G01 X136.044 Y141.192
G01 X132.692 Y144.086
G01 X132.221 Y144.530
G01 X130.526 Y147.614
G01 X129.840 Y149.012
G01 X129.387 Y152.147
G01 X129.206 Y153.914
G01 X129.284 Y154.851
G01 X129.109 Y152.604
G01 X128.053 Y150.825
G01 X126.001 Y149.376
G01 X123.013 Y148.786
G01 X120.321 Y149.224
G01 X116.978 Y151.014
G01 X114.511 Y153.587
G01 X112.455 Y157.646
G01 X111.771 Y161.889
G01 X111.623 Y163.081
G01 X112.195 Y167.127
G01 X112.418 Y168.400
G01 X114.077 Y172.100
G01 X115.092 Y174.151
G01 X117.762 Y177.319
G01 X119.194 Y178.889
G01 X122.752 Y181.354
G01 X125.223 Y182.893
G01 X129.573 Y184.426
G01 X132.042 Y185.155
G01 X137.084 Y185.571
G01 X140.185 Y185.636
G01 X145.951 Y184.522
G01 X149.102 Y183.695
G01 X155.923 Y180.190
G01 X157.151 Y179.472
G01 X163.205 Y174.153
G01 X167.472 Y168.554
G01 X170.286 Y163.227
G01 X171.494 Y159.752
G01 X172.012 Y158.517
G01 X172.470 Y156.357
G01 X172.979 Y154.625
G01 X173.109 Y153.129
G01 X173.344 Y151.682
G01 X173.577 Y150.664
G01 X173.549 Y149.569
G01 X173.587 Y148.497
G01 X173.689 Y147.454
G01 X173.811 Y146.667
G01 X173.700 Y145.794
G01 X173.636 Y144.927
G01 X173.618 Y144.068
G01 X173.643 Y143.218
G01 X173.684 Y142.668
G01 X173.509 Y141.871
G01 X173.373 Y141.064
G01 X173.277 Y140.248
G01 X173.221 Y139.425
G01 X173.205 Y138.699
G01 X172.936 Y137.831
G01 X172.712 Y136.934
G01 X172.536 Y136.010
G01 X172.410 Y135.062
G01 X172.384 Y134.788
G01 X171.953 Y133.682
G01 X171.591 Y132.523
G01 X171.301 Y131.313
G01 X171.232 Y130.964
G01 X170.525 Y129.417
G01 X169.928 Y127.780
G01 X169.765 Y127.252
G01 X168.464 Y124.908
G01 X167.510 Y122.806
G01 X164.709 Y118.620
G01 X164.230 Y117.809
G01 X159.689 Y112.524
G01 X153.687 Y107.303
G01 X145.202 Y102.142
G01 X135.984 Y98.720
G01 X134.005 Y98.109
G01 X126.036 Y96.874
G01 X121.926 Y96.513
G01 X125.931 Y96.235
G01 X129.692 Y94.831
G01 X132.725 Y92.543
G01 X132.901 Y92.418
G01 X135.079 Y89.466
G01 X135.293 Y89.193
G01 X136.671 Y85.422
G01 X136.922 Y81.415
G01 X136.026 Y77.501
G01 X133.973 Y73.897
G01 X130.732 Y70.902
G01 X126.460 Y68.994
G01 X121.799 Y68.601
G01 X117.268 Y69.765
G01 X113.373 Y72.357
G01 X110.550 Y76.087
G01 X109.114 Y80.539
G01 X109.224 Y85.216
G01 X110.869 Y89.596
G01 X113.764 Y93.101
G01 X117.505 Y95.442
G01 X121.521 Y96.477
G01 X125.533 Y96.315
G01 X129.334 Y95.021
G01 X132.467 Y92.798
G01 X132.611 Y92.701
G01 X134.868 Y89.821
G01 X135.095 Y89.547
G01 X136.574 Y85.836
G01 X136.582 Y85.818
G01 X136.949 Y81.820
G01 X136.166 Y77.882
G01 X134.219 Y74.220
G01 X131.066 Y71.132
G01 X126.981 Y69.139
G01 X122.338 Y68.566
G01 X117.765 Y69.554
G01 X113.774 Y71.994
G01 X110.809 Y75.613
G01 X109.201 Y80.006
G01 X109.132 Y84.684
G01 X110.607 Y89.124
G01 X113.364 Y92.738
G01 X117.012 Y95.221
G01 X120.985 Y96.411
G01 X125.000 Y96.403
G01 X128.848 Y95.257
G01 X132.120 Y93.122
G01 X132.212 Y93.066
G01 X134.576 Y90.279
G01 X134.816 Y90.010
G01 X136.403 Y86.430
G01 X136.446 Y86.341
G01 X136.967 Y82.360
G01 X136.337 Y78.394
G01 X134.532 Y74.660
G01 X131.501 Y71.452
G01 X127.495 Y69.304
G01 X122.878 Y68.552
G01 X118.270 Y69.363
G01 X114.188 Y71.647
G01 X111.085 Y75.149
G01 X109.310 Y79.477
G01 X109.060 Y84.149
G01 X110.362 Y88.642
G01 X112.978 Y92.360
G01 X116.528 Y94.982
G01 X120.452 Y96.324
G01 X124.465 Y96.471
G01 X128.354 Y95.474
G01 X131.772 Y93.430
G01 X131.800 Y93.415
G01 X134.272 Y90.718
G01 X134.520 Y90.461
G01 X135.288 Y89.201
G01 X134.078 Y91.389
G01 X134.077 Y93.712
G01 X135.343 Y96.284
G01 X136.947 Y97.765
G01 X139.403 Y98.950
G01 X141.933 Y99.400
G01 X145.540 Y99.043
G01 X148.541 Y97.865
G01 X148.773 Y97.782
G01 X151.164 Y96.115
G01 X151.548 Y95.863
G01 X153.542 Y93.754
G01 X153.828 Y93.468
G01 X155.450 Y90.744
G01 X156.082 Y89.769
G01 X157.320 Y86.074
G01 X157.453 Y85.723
G01 X157.984 Y81.531
G01 X157.560 Y76.317
G01 X156.057 Y71.348
G01 X153.039 Y65.951
G01 X148.941 Y61.366
G01 X143.132 Y57.222
G01 X135.729 Y54.252
G01 X135.599 Y54.206
G01 X128.782 Y53.189
G01 X127.595 Y53.062
G01 X121.301 Y53.583
G01 X118.573 Y53.933
G01 X112.864 Y55.826
G01 X110.034 Y56.899
G01 X105.017 Y59.948
G01 X102.391 Y61.690
G01 X98.181 Y65.700
G01 X95.956 Y67.989
G01 X92.688 Y72.795
G01 X90.488 Y76.343
G01 X88.321 Y81.782
G01 X86.963 Y85.670
G01 X85.992 Y91.523
G01 X85.416 Y96.510
G01 X85.751 Y102.535
G01 X86.280 Y107.413
G01 X87.933 Y113.358
G01 X89.811 Y118.793
G01 X92.833 Y124.369
G01 X96.151 Y129.595
G01 X96.359 Y129.899
G01 X100.766 Y134.785
G01 X105.415 Y139.215
G01 X106.829 Y140.433
G01 X107.855 Y141.209
G01 X104.414 Y139.139
G01 X100.394 Y138.117
G01 X95.989 Y138.373
G01 X91.766 Y140.057
G01 X88.219 Y143.107
G01 X85.875 Y147.156
G01 X84.996 Y151.750
G01 X85.680 Y156.378
G01 X87.850 Y160.523
G01 X91.265 Y163.721
G01 X95.542 Y165.615
G01 X100.071 Y166.005
G01 X104.363 Y164.976
G01 X107.915 Y162.836
G01 X110.610 Y159.860
G01 X112.350 Y156.241
G01 X112.991 Y152.278
G01 X112.500 Y148.482
G01 X112.481 Y148.296
G01 X110.862 Y144.622
G01 X108.266 Y141.559
G01 X104.908 Y139.358
G01 X100.931 Y138.182
G01 X96.518 Y138.267
G01 X92.234 Y139.787
G01 X88.572 Y142.698
G01 X86.074 Y146.653
G01 X85.018 Y151.211
G01 X85.523 Y155.862
G01 X87.532 Y160.087
G01 X90.820 Y163.414
G01 X95.021 Y165.472
G01 X99.532 Y166.037
G01 X103.860 Y165.174
G01 X107.492 Y163.172
G01 X110.300 Y160.302
G01 X112.178 Y156.753
G01 X112.972 Y152.818
G01 X112.627 Y149.000
G01 X112.616 Y148.819
G01 X111.139 Y145.085
G01 X108.664 Y141.924
G01 X105.393 Y139.596
G01 X101.464 Y138.267
G01 X97.052 Y138.182
G01 X92.712 Y139.535
G01 X88.940 Y142.303
G01 X86.291 Y146.159
G01 X85.061 Y150.672
G01 X85.386 Y155.339
G01 X87.230 Y159.639
G01 X90.388 Y163.090
G01 X94.507 Y165.309
G01 X98.992 Y166.047
G01 X103.350 Y165.352
G01 X107.057 Y163.491
G01 X109.974 Y160.732
G01 X111.987 Y157.258
G01 X112.932 Y153.356
G01 X112.734 Y149.514
G01 X112.730 Y149.346
G01 X111.416 Y145.611
G01 X111.399 Y145.559
G01 X109.047 Y142.305
G01 X105.869 Y139.852
G01 X101.994 Y138.372
G01 X97.722 Y138.105
G01 X93.322 Y139.247
G01 X92.714 Y139.534
G01 X94.766 Y138.601
G01 X96.295 Y136.533
G01 X96.733 Y133.700
G01 X96.268 Y131.567
G01 X94.936 Y129.188
G01 X92.110 Y126.658
G01 X88.850 Y125.220
G01 X85.458 Y124.681
G01 X81.035 Y125.118
G01 X76.007 Y127.142
G01 X71.796 Y130.402
G01 X68.015 Y135.444
G01 X65.704 Y141.237
G01 X64.846 Y147.368
G01 X65.439 Y153.491
G01 X65.566 Y154.504
G01 X67.626 Y160.392
G01 X67.947 Y161.230
G01 X71.377 Y166.689
G01 X71.745 Y167.237
G01 X76.552 Y172.066
G01 X77.485 Y172.936
G01 X83.749 Y176.852
G01 X84.337 Y177.189
G01 X92.227 Y179.906
G01 X92.899 Y180.105
G01 X101.878 Y181.007
G01 X110.824 Y179.956
G01 X118.432 Y177.492
G01 X124.634 Y174.264
G01 X130.275 Y170.144
G01 X134.583 Y165.992
G01 X138.348 Y161.347
G01 X140.607 Y157.629
G01 X141.527 Y156.289
G01 X142.922 Y153.288
G01 X143.707 Y151.814
G01 X144.590 Y149.242
G01 X145.447 Y147.154
G01 X145.985 Y144.866
G01 X146.639 Y142.649
G01 X146.737 Y142.351
G01 X147.029 Y140.224
G01 X147.424 Y138.131
G01 X147.575 Y137.452
G01 X147.667 Y135.364
G01 X147.862 Y133.279
G01 X147.961 Y132.499
G01 X147.862 Y130.326
G01 X147.876 Y128.126
G01 X147.899 Y127.533
G01 X147.581 Y125.138
G01 X147.399 Y122.684
G01 X147.395 Y122.594
G01 X146.794 Y119.820
G01 X146.462 Y117.719
G01 X145.435 Y114.360
G01 X145.017 Y112.667
G01 X146.945 Y116.650
G01 X147.256 Y117.221
G01 X150.746 Y120.532
G01 X154.631 Y122.328
G01 X158.475 Y122.871
G01 X161.223 Y122.483
G01 X162.061 Y122.409
G01 X163.792 Y121.643
G01 X165.409 Y121.044
G01 X166.614 Y120.069
G01 X167.854 Y119.165
G01 X168.296 Y118.867
G01 X169.189 Y117.644
G01 X170.150 Y116.459
G01 X170.529 Y116.023
G01 X171.186 Y114.356
G01 X171.959 Y112.702
G01 X172.302 Y110.130
G01 X172.491 Y109.125
G01 X172.023 Y105.272
G01 X170.302 Y101.352
G01 X167.166 Y97.881
G01 X163.097 Y95.711
G01 X162.678 Y95.511
G01 X159.250 Y95.037
G01 X157.640 Y94.897
G01 X154.695 Y95.568
G01 X152.715 Y96.119
G01 X150.325 Y97.702
G01 X148.644 Y98.922
G01 X146.948 Y101.244
G01 X145.800 Y102.965
G01 X144.982 Y105.895
G01 X144.528 Y107.878
G01 X144.857 Y111.323
G01 X145.092 Y112.922
G01 X147.138 Y116.944
G01 X147.416 Y117.433
G01 X150.855 Y120.604
G01 X154.758 Y122.364
G01 X158.606 Y122.871
G01 X161.302 Y122.462
G01 X162.188 Y122.375
G01 X163.894 Y121.601
G01 X165.523 Y120.978
G01 X166.714 Y119.996
G01 X167.941 Y119.084
G01 X168.389 Y118.774
G01 X169.273 Y117.540
G01 X170.226 Y116.342
G01 X170.595 Y115.909
G01 X171.244 Y114.220
G01 X171.994 Y112.575
G01 X172.321 Y109.955
G01 X172.493 Y108.994
G01 X171.988 Y105.145
G01 X170.231 Y101.242
G01 X167.062 Y97.800
G01 X163.017 Y95.689
G01 X162.553 Y95.473
G01 X159.137 Y95.032
G01 X157.509 Y94.906
G01 X154.576 Y95.603
G01 X152.596 Y96.174
G01 X150.222 Y97.778
G01 X148.551 Y99.015
G01 X146.875 Y101.354
G01 X145.745 Y103.084
G01 X144.953 Y106.029
G01 X144.520 Y108.009
G01 X144.883 Y111.467
G01 X145.130 Y113.047
G01 X147.237 Y117.089
G01 X147.497 Y117.537
G01 X150.966 Y120.676
G01 X154.884 Y122.398
G01 X158.738 Y122.869
G01 X161.383 Y122.440
G01 X162.314 Y122.340
G01 X163.996 Y121.557
G01 X165.636 Y120.912
G01 X166.813 Y119.922
G01 X168.028 Y119.001
G01 X168.482 Y118.681
G01 X169.356 Y117.435
G01 X170.302 Y116.224
G01 X170.661 Y115.796
G01 X171.300 Y114.084
G01 X172.029 Y112.448
G01 X172.338 Y109.779
G01 X172.493 Y108.863
G01 X171.953 Y105.019
G01 X170.159 Y101.132
G01 X166.958 Y97.720
G01 X162.936 Y95.666
G01 X162.427 Y95.435
G01 X159.024 Y95.028
G01 X157.378 Y94.916
G01 X154.459 Y95.638
G01 X152.477 Y96.230
G01 X150.120 Y97.855
G01 X148.459 Y99.109
G01 X146.804 Y101.465
G01 X145.691 Y103.204
G01 X144.925 Y106.163
G01 X144.512 Y108.140
G01 X144.910 Y111.611
G01 X145.170 Y113.172
G01 X147.338 Y117.235
G01 X147.579 Y117.639
G01 X151.077 Y120.746
G01 X155.011 Y122.431
G01 X156.459 Y122.723
G01 X153.988 Y122.333
G01 X151.481 Y123.396
G01 X151.329 Y123.467
G01 X150.010 Y125.179
G01 X149.359 Y126.098
G01 X148.959 Y128.176
G01 X148.705 Y129.924
G01 X149.177 Y132.139
G01 X149.569 Y133.616
G01 X150.923 Y135.783
G01 X152.182 Y137.534
G01 X154.666 Y139.433
G01 X156.746 Y140.790
G01 X161.054 Y142.112
G01 X161.965 Y142.336
G01 X167.307 Y142.361
G01 X171.429 Y141.426
G01 X173.758 Y140.447
G01 X174.345 Y140.240
G01 X175.473 Y139.509
G01 X176.633 Y138.890
G01 X177.067 Y138.690
G01 X177.667 Y138.136
G01 X178.289 Y137.637
G01 X178.929 Y137.194
G01 X179.561 Y136.820
G01 X179.917 Y136.379
G01 X180.291 Y135.965
G01 X180.681 Y135.579
G01 X181.084 Y135.221
G01 X181.500 Y134.892
G01 X181.805 Y134.673
G01 X182.060 Y134.265
G01 X182.335 Y133.870
G01 X182.630 Y133.488
G01 X182.944 Y133.120
G01 X183.276 Y132.767
G01 X183.626 Y132.430
G01 X183.781 Y132.290
G01 X184.021 Y131.794
G01 X184.295 Y131.304
G01 X184.603 Y130.821
G01 X184.945 Y130.348
G01 X185.321 Y129.887
G01 X185.476 Y129.712
G01 X185.775 Y128.951
G01 X186.139 Y128.196
G01 X186.567 Y127.451
G01 X186.881 Y126.974
G01 X187.306 Y125.681
G01 X187.852 Y124.400
G01 X187.993 Y124.112
G01 X188.585 Y121.560
G01 X189.017 Y120.161
G01 X189.571 Y115.104
G01 X189.041 Y108.032
G01 X186.912 Y101.036
G01 X186.299 Y99.377
G01 X183.645 Y94.890
G01 X180.545 Y90.577
G01 X179.579 Y89.383
G01 X176.165 Y86.296
G01 X172.426 Y83.431
G01 X169.327 Y81.387
G01 X165.295 Y79.583
G01 X161.038 Y78.041
G01 X156.574 Y76.777
G01 X156.183 Y76.682
G01 X151.806 Y76.229
G01 X147.306 Y76.059
G01 X142.701 Y76.181
G01 X142.256 Y76.208
G01 X137.886 Y77.060
G01 X133.487 Y78.191
G01 X129.724 Y79.381
G01 X125.675 Y81.365
G01 X121.678 Y83.604
G01 X118.432 Y85.640
G01 X114.956 Y88.605
G01 X111.601 Y91.781
G01 X109.021 Y94.461
G01 X106.317 Y98.206
G01 X103.787 Y102.108
G01 X101.950 Y105.236
G01 X100.114 Y109.518
G01 X98.487 Y113.897
G01 X98.205 Y114.731
G01 X98.972 Y110.790
G01 X98.590 Y106.794
G01 X97.090 Y103.070
G01 X94.496 Y99.833
G01 X90.946 Y97.441
G01 X86.706 Y96.217
G01 X82.164 Y96.399
G01 X77.804 Y98.095
G01 X74.247 Y101.133
G01 X71.888 Y105.174
G01 X70.993 Y109.765
G01 X71.661 Y114.396
G01 X73.817 Y118.547
G01 X77.220 Y121.757
G01 X81.361 Y123.633
G01 X85.616 Y124.097
G01 X89.686 Y123.299
G01 X93.236 Y121.424
G01 X96.108 Y118.618
G01 X98.065 Y115.112
G01 X98.947 Y111.195
G01 X98.681 Y107.189
G01 X97.289 Y103.424
G01 X94.789 Y100.113
G01 X91.311 Y97.619
G01 X87.108 Y96.272
G01 X82.563 Y96.323
G01 X78.155 Y97.892
G01 X74.511 Y100.826
G01 X72.037 Y104.796
G01 X71.009 Y109.360
G01 X71.542 Y114.007
G01 X73.577 Y118.220
G01 X76.885 Y121.527
G01 X80.970 Y123.522
G01 X85.210 Y124.109
G01 X89.302 Y123.430
G01 X92.905 Y121.658
G01 X95.857 Y118.937
G01 X97.915 Y115.489
G01 X98.910 Y111.600
G01 X98.760 Y107.588
G01 X97.477 Y103.783
G01 X95.075 Y100.402
G01 X91.788 Y97.872
G01 X87.640 Y96.364
G01 X83.096 Y96.239
G01 X78.632 Y97.637
G01 X74.877 Y100.428
G01 X72.252 Y104.300
G01 X71.048 Y108.821
G01 X71.402 Y113.486
G01 X73.272 Y117.774
G01 X76.451 Y121.206
G01 X80.456 Y123.357
G01 X84.805 Y124.110
G01 X88.914 Y123.549
G01 X92.679 Y121.809
G01 X95.683 Y119.146
G01 X97.808 Y115.739
G01 X98.878 Y111.869
G01 X98.806 Y107.855
G01 X97.598 Y104.026
G01 X95.262 Y100.599
G01 X94.600 Y99.931
G01 X96.401 Y101.667
G01 X98.644 Y102.269
G01 X101.457 Y101.712
G01 X103.302 Y100.546
G01 X105.082 Y98.480
G01 X106.493 Y94.960
G01 X106.729 Y91.404
G01 X106.075 Y88.033
G01 X104.152 Y84.026
G01 X101.340 Y80.706
G01 X96.978 Y77.622
G01 X92.051 Y75.744
G01 X85.836 Y75.023
G01 X79.686 Y75.839
G01 X73.008 Y78.490
G01 X67.203 Y82.656
G01 X62.560 Y87.943
G01 X62.511 Y88.003
G01 X59.182 Y93.994
G01 X59.073 Y94.203
G01 X57.098 Y100.716
G01 X56.766 Y101.940
G01 X56.247 Y108.800
G01 X56.193 Y109.971
G01 X57.127 Y116.962
G01 X57.286 Y117.930
G01 X59.737 Y124.861
G01 X60.350 Y126.410
G01 X64.456 Y133.044
G01 X65.126 Y134.040
G01 X71.036 Y140.166
G01 X72.103 Y141.179
G01 X80.186 Y146.496
G01 X80.437 Y146.646
G01 X89.710 Y150.273
G01 X99.507 Y151.984
G01 X108.453 Y151.887
G01 X116.287 Y150.540
G01 X122.913 Y148.436
G01 X129.221 Y145.521
G01 X134.306 Y142.423
G01 X137.736 Y139.891
G01 X135.085 Y142.583
G01 X134.221 Y143.552
G01 X132.929 Y146.458
G01 X132.243 Y148.225
G01 X132.072 Y151.174
G01 X132.042 Y153.164
G01 X132.896 Y155.954
G01 X133.569 Y157.865
G01 X135.423 Y160.275
G01 X136.736 Y161.830
G01 X139.624 Y163.597
G01 X141.109 Y164.406
G01 X145.266 Y165.146
G01 X146.112 Y165.254
G01 X150.839 Y164.360
G01 X154.673 Y162.175
G01 X157.412 Y159.239
G01 X158.843 Y156.388
G01 X159.118 Y155.901
G01 X159.498 Y153.856
G01 X159.867 Y152.363
G01 X159.732 Y150.716
G01 X159.684 Y149.085
G01 X159.685 Y148.752
G01 X159.163 Y147.285
G01 X158.712 Y145.787
G01 X158.585 Y145.308
G01 X157.591 Y143.852
G01 X156.667 Y142.311
G01 X156.639 Y142.261
G01 X154.826 Y140.653
G01 X153.977 Y139.813
G01 X150.525 Y138.038
G01 X146.450 Y137.266
G01 X141.939 Y137.831
G01 X137.521 Y140.048
G01 X134.954 Y142.755
G01 X134.077 Y143.775
G01 X132.848 Y146.688
G01 X132.188 Y148.485
G01 X132.073 Y151.430
G01 X132.080 Y153.427
G01 X132.988 Y156.202
G01 X133.697 Y158.098
G01 X135.603 Y160.481
G01 X136.939 Y162.003
G01 X139.884 Y163.727
G01 X141.359 Y164.495
G01 X145.600 Y165.163
G01 X146.378 Y165.248
G01 X151.087 Y164.264
G01 X154.879 Y162.007
G01 X157.561 Y159.019
G01 X158.880 Y156.249
G01 X159.204 Y155.649
G01 X159.536 Y153.644
G01 X159.886 Y152.098
G01 X159.720 Y150.471
G01 X159.641 Y148.856
G01 X159.635 Y148.491
G01 X159.084 Y147.030
G01 X158.603 Y145.535
G01 X158.470 Y145.069
G01 X157.432 Y143.607
G01 X156.466 Y142.059
G01 X154.567 Y140.433
G01 X153.759 Y139.662
G01 X150.273 Y137.953
G01 X146.184 Y137.258
G01 X141.557 Y137.950
G01 X137.205 Y140.292
G01 X134.757 Y143.020
G01 X133.868 Y144.116
G01 X132.732 Y147.038
G01 X132.114 Y148.878
G01 X132.084 Y151.817
G01 X132.148 Y153.821
G01 X133.136 Y156.573
G01 X133.897 Y158.444
G01 X135.883 Y160.786
G01 X137.249 Y162.254
G01 X140.281 Y163.914
G01 X141.739 Y164.620
G01 X146.112 Y165.176
G01 X146.777 Y165.229
G01 X151.456 Y164.111
G01 X155.081 Y161.834
G01 X157.634 Y158.910
G01 X158.900 Y156.178
G01 X159.244 Y155.524
G01 X159.553 Y153.537
G01 X159.893 Y151.967
G01 X159.713 Y150.349
G01 X159.619 Y148.742
G01 X159.609 Y148.363
G01 X159.043 Y146.904
G01 X158.547 Y145.410
G01 X158.411 Y144.951
G01 X157.351 Y143.486
G01 X156.380 Y141.960
G01 X154.436 Y140.325
G01 X153.650 Y139.589
G01 X150.148 Y137.912
G01 X146.053 Y137.257
G01 X141.433 Y137.991
G01 X137.102 Y140.374
G01 X134.694 Y143.110
G01 X133.802 Y144.229
G01 X132.695 Y147.154
G01 X132.093 Y149.008
G01 X132.090 Y151.945
G01 X132.173 Y153.950
G01 X132.199 Y154.082
G01 X131.829 Y151.858
G01 X130.622 Y150.179
G01 X128.452 Y148.914
G01 X125.423 Y148.587
G01 X122.780 Y149.258
G01 X119.606 Y151.333
G01 X116.819 Y155.128
G01 X115.511 Y159.253
G01 X115.461 Y159.429
G01 X115.418 Y163.404
G01 X115.457 Y164.899
G01 X116.532 Y168.619
G01 X116.993 Y170.033
G01 X119.050 Y173.347
G01 X120.414 Y175.357
G01 X123.379 Y178.073
G01 X125.091 Y179.512
G01 X128.844 Y181.473
G01 X131.570 Y182.718
G01 X136.051 Y183.661
G01 X139.633 Y184.180
G01 X144.783 Y183.769
G01 X148.732 Y183.168
G01 X154.601 Y180.868
G01 X157.148 Y179.674
G01 X163.616 Y174.839
G01 X168.277 Y169.547
G01 X171.436 Y164.405
G01 X173.444 Y159.800
G01 X174.229 Y157.083
G01 X174.631 Y155.965
G01 X174.896 Y154.222
G01 X175.293 Y152.545
G01 X175.443 Y152.036
G01 X175.470 Y150.859
G01 X175.576 Y149.715
G01 X175.758 Y148.608
G01 X175.880 Y148.052
G01 X175.841 Y147.178
G01 X175.853 Y146.319
G01 X175.914 Y145.480
G01 X175.965 Y145.049
G01 X175.876 Y144.310
G01 X175.826 Y143.576
G01 X175.814 Y142.847
G01 X175.839 Y142.125
G01 X175.843 Y142.048
G01 X175.712 Y141.356
G01 X175.614 Y140.655
G01 X175.551 Y139.948
G01 X175.522 Y139.237
G01 X175.520 Y139.064
G01 X175.329 Y138.326
G01 X175.177 Y137.567
G01 X175.064 Y136.788
G01 X175.000 Y136.110
G01 X174.669 Y135.210
G01 X174.392 Y134.269
G01 X174.172 Y133.290
G01 X174.012 Y132.275
G01 X174.007 Y132.238
G01 X173.447 Y130.937
G01 X172.979 Y129.564
G01 X172.686 Y128.469
G01 X171.605 Y126.401
G01 X170.690 Y124.202
G01 X170.595 Y123.939
G01 X168.343 Y120.206
G01 X168.048 Y119.652
G01 X163.784 Y114.136
G01 X158.036 Y108.628
G01 X149.782 Y103.094
G01 X141.361 Y99.578
G01 X137.791 Y98.355
G01 X130.453 Y97.108
G01 X123.054 Y96.497
G01 X119.785 Y96.607
G01 X123.750 Y95.981
G01 X127.375 Y94.255
G01 X130.238 Y91.676
G01 X130.361 Y91.571
G01 X132.363 Y88.303
G01 X132.463 Y88.150
G01 X133.507 Y84.273
G01 X133.408 Y80.260
G01 X132.114 Y76.319
G01 X129.629 Y72.834
G01 X125.969 Y70.138
G01 X121.505 Y68.738
G01 X116.829 Y68.887
G01 X112.464 Y70.568
G01 X108.895 Y73.593
G01 X106.523 Y77.625
G01 X105.612 Y82.214
G01 X106.263 Y86.846
G01 X108.404 Y91.006
G01 X111.685 Y94.152
G01 X115.544 Y96.006
G01 X119.647 Y96.608
G01 X123.619 Y96.021
G01 X127.261 Y94.331
G01 X130.156 Y91.774
G01 X130.273 Y91.676
G01 X132.303 Y88.434
G01 X132.408 Y88.276
G01 X133.490 Y84.410
G01 X133.430 Y80.395
G01 X132.175 Y76.442
G01 X129.724 Y72.932
G01 X126.210 Y70.263
G01 X121.774 Y68.777
G01 X117.096 Y68.835
G01 X112.699 Y70.431
G01 X109.072 Y73.387
G01 X106.622 Y77.372
G01 X105.622 Y81.942
G01 X106.184 Y86.587
G01 X108.244 Y90.787
G01 X111.463 Y93.996
G01 X115.285 Y95.925
G01 X119.376 Y96.606
G01 X123.358 Y96.096
G01 X127.032 Y94.477
G01 X129.993 Y91.963
G01 X130.095 Y91.881
G01 X132.180 Y88.691
G01 X132.296 Y88.523
G01 X133.452 Y84.679
G01 X133.471 Y80.664
G01 X132.349 Y76.809
G01 X130.001 Y73.230
G01 X126.565 Y70.460
G01 X122.174 Y68.846
G01 X117.496 Y68.768
G01 X113.054 Y70.236
G01 X109.344 Y73.085
G01 X106.780 Y76.998
G01 X105.647 Y81.537
G01 X106.074 Y86.196
G01 X108.011 Y90.454
G01 X111.136 Y93.755
G01 X114.900 Y95.794
G01 X118.970 Y96.594
G01 X122.966 Y96.199
G01 X126.685 Y94.687
G01 X129.746 Y92.239
G01 X129.822 Y92.181
G01 X131.989 Y89.065
G01 X132.119 Y88.888
G01 X132.459 Y88.158
G01 X131.444 Y90.444
G01 X131.645 Y92.758
G01 X133.131 Y95.210
G01 X134.858 Y96.546
G01 X137.408 Y97.512
G01 X139.967 Y97.739
G01 X143.530 Y97.070
G01 X146.453 Y95.618
G01 X146.640 Y95.531
G01 X148.982 Y93.580
G01 X149.238 Y93.378
G01 X151.180 Y90.936
G01 X151.300 Y90.793
G01 X152.833 Y87.645
G01 X153.223 Y86.912
G01 X154.236 Y82.762
G01 X154.400 Y78.539
G01 X153.523 Y73.382
G01 X151.593 Y68.563
G01 X148.116 Y63.450
G01 X142.808 Y58.635
G01 X136.549 Y55.219
G01 X129.131 Y53.206
G01 X128.716 Y53.111
G01 X121.923 Y52.892
G01 X120.637 Y52.902
G01 X114.408 Y54.094
G01 X112.734 Y54.482
G01 X107.155 Y56.895
G01 X104.485 Y58.181
G01 X99.689 Y61.708
G01 X97.289 Y63.620
G01 X93.382 Y68.059
G01 X91.428 Y70.455
G01 X88.538 Y75.632
G01 X86.709 Y79.254
G01 X84.989 Y84.991
G01 X84.010 Y88.853
G01 X83.544 Y94.926
G01 X83.414 Y99.786
G01 X84.304 Y105.945
G01 X85.224 Y110.572
G01 X87.477 Y116.565
G01 X89.734 Y121.602
G01 X93.405 Y127.137
G01 X97.225 Y132.094
G01 X102.369 Y136.851
G01 X107.743 Y141.083
G01 X108.573 Y141.676
G01 X109.663 Y142.359
G01 X106.055 Y140.598
G01 X101.827 Y139.929
G01 X97.467 Y140.610
G01 X93.319 Y142.774
G01 X90.117 Y146.184
G01 X88.216 Y150.459
G01 X87.830 Y155.121
G01 X89.002 Y159.650
G01 X91.600 Y163.540
G01 X95.335 Y166.357
G01 X99.790 Y167.787
G01 X104.334 Y167.694
G01 X108.374 Y166.278
G01 X111.703 Y163.804
G01 X114.098 Y160.581
G01 X115.479 Y156.812
G01 X115.720 Y152.965
G01 X115.734 Y152.805
G01 X114.900 Y149.181
G01 X114.841 Y148.891
G01 X112.874 Y145.391
G01 X109.995 Y142.593
G01 X106.440 Y140.727
G01 X102.367 Y139.941
G01 X97.984 Y140.453
G01 X93.756 Y142.456
G01 X90.424 Y145.740
G01 X88.360 Y149.938
G01 X87.795 Y154.582
G01 X88.791 Y159.153
G01 X91.237 Y163.141
G01 X94.861 Y166.100
G01 X99.257 Y167.700
G01 X103.802 Y167.782
G01 X108.013 Y166.464
G01 X111.413 Y164.087
G01 X113.900 Y160.936
G01 X115.390 Y157.208
G01 X115.747 Y153.326
G01 X115.761 Y153.210
G01 X115.034 Y149.573
G01 X114.982 Y149.271
G01 X113.117 Y145.716
G01 X110.320 Y142.836
G01 X106.820 Y140.868
G01 X102.772 Y139.964
G01 X98.376 Y140.349
G01 X94.204 Y142.155
G01 X90.748 Y145.308
G01 X88.524 Y149.424
G01 X87.780 Y154.042
G01 X88.599 Y158.648
G01 X90.890 Y162.727
G01 X94.396 Y165.824
G01 X98.727 Y167.592
G01 X103.266 Y167.850
G01 X107.525 Y166.695
G01 X111.014 Y164.451
G01 X113.620 Y161.398
G01 X115.253 Y157.730
G01 X115.770 Y153.800
G01 X115.778 Y153.750
G01 X115.193 Y150.091
G01 X115.152 Y149.784
G01 X113.446 Y146.206
G01 X113.425 Y146.159
G01 X110.741 Y143.173
G01 X107.320 Y141.072
G01 X103.310 Y140.013
G01 X98.902 Y140.228
G01 X94.664 Y141.872
G01 X94.434 Y142.010
G01 X96.397 Y140.902
G01 X97.739 Y138.709
G01 X97.929 Y135.848
G01 X97.280 Y133.764
G01 X95.745 Y131.510
G01 X92.710 Y129.236
G01 X89.336 Y128.088
G01 X84.789 Y127.940
G01 X80.512 Y129.045
G01 X75.849 Y131.765
G01 X72.139 Y135.565
G01 X69.067 Y141.053
G01 X67.522 Y147.087
G01 X67.436 Y153.151
G01 X67.437 Y153.270
G01 X68.752 Y159.186
G01 X69.023 Y160.259
G01 X71.755 Y165.823
G01 X72.191 Y166.648
G01 X76.318 Y171.650
G01 X77.398 Y172.866
G01 X82.966 Y177.030
G01 X83.896 Y177.672
G01 X90.903 Y180.763
G01 X91.276 Y180.911
G01 X99.993 Y182.588
G01 X100.155 Y182.612
G01 X109.169 Y182.284
G01 X116.948 Y180.385
G01 X124.240 Y177.102
G01 X130.052 Y173.218
G01 X135.213 Y168.513
G01 X139.048 Y163.922
G01 X141.593 Y159.890
G01 X142.293 Y158.901
G01 X143.824 Y155.720
G01 X144.521 Y154.447
G01 X145.469 Y151.775
G01 X146.303 Y149.800
G01 X146.869 Y147.472
G01 X147.555 Y145.223
G01 X147.630 Y145.005
G01 X147.930 Y142.886
G01 X148.335 Y140.809
G01 X148.497 Y140.109
G01 X148.592 Y138.075
G01 X148.787 Y136.050
G01 X148.905 Y135.155
G01 X148.812 Y133.081
G01 X148.825 Y130.986
G01 X148.857 Y130.187
G01 X148.557 Y127.938
G01 X148.380 Y125.637
G01 X148.362 Y125.245
G01 X147.796 Y122.669
G01 X147.431 Y120.369
G01 X146.414 Y117.243
G01 X145.755 Y114.655
G01 X144.196 Y110.687
G01 X146.735 Y114.928
G01 X150.238 Y117.826
G01 X154.091 Y119.361
G01 X157.956 Y119.716
G01 X160.489 Y119.223
G01 X161.515 Y119.079
G01 X163.219 Y118.229
G01 X164.793 Y117.552
G01 X166.036 Y116.451
G01 X167.327 Y115.419
G01 X167.570 Y115.236
G01 X168.520 Y113.809
G01 X169.557 Y112.417
G01 X169.661 Y112.286
G01 X170.358 Y110.282
G01 X170.927 Y108.899
G01 X171.208 Y105.686
G01 X171.279 Y105.167
G01 X170.543 Y101.220
G01 X168.480 Y97.319
G01 X164.972 Y94.027
G01 X160.901 Y92.285
G01 X160.295 Y92.058
G01 X156.815 Y91.887
G01 X155.223 Y91.885
G01 X152.253 Y92.836
G01 X150.540 Y93.467
G01 X148.174 Y95.320
G01 X146.698 Y96.577
G01 X145.095 Y99.186
G01 X144.177 Y100.828
G01 X143.546 Y104.079
G01 X143.290 Y105.825
G01 X143.984 Y109.683
G01 X144.244 Y110.810
G01 X146.821 Y115.027
G01 X150.351 Y117.891
G01 X154.219 Y119.391
G01 X158.087 Y119.709
G01 X160.579 Y119.198
G01 X161.640 Y119.039
G01 X163.323 Y118.179
G01 X164.903 Y117.481
G01 X166.134 Y116.371
G01 X167.413 Y115.327
G01 X167.658 Y115.139
G01 X168.600 Y113.697
G01 X169.630 Y112.289
G01 X169.722 Y112.170
G01 X170.409 Y110.137
G01 X170.956 Y108.771
G01 X171.215 Y105.493
G01 X171.273 Y105.036
G01 X170.500 Y101.096
G01 X168.401 Y97.214
G01 X164.862 Y93.956
G01 X160.811 Y92.265
G01 X160.166 Y92.030
G01 X156.700 Y91.893
G01 X155.093 Y91.905
G01 X152.137 Y92.882
G01 X150.425 Y93.530
G01 X148.078 Y95.406
G01 X146.613 Y96.677
G01 X145.032 Y99.304
G01 X144.132 Y100.951
G01 X143.529 Y104.218
G01 X143.292 Y105.956
G01 X144.027 Y109.831
G01 X144.292 Y110.932
G01 X146.909 Y115.125
G01 X150.466 Y117.956
G01 X154.347 Y119.419
G01 X158.218 Y119.701
G01 X160.671 Y119.173
G01 X161.765 Y118.997
G01 X163.427 Y118.128
G01 X165.013 Y117.409
G01 X166.231 Y116.289
G01 X167.499 Y115.235
G01 X167.746 Y115.041
G01 X168.679 Y113.584
G01 X169.701 Y112.159
G01 X169.782 Y112.053
G01 X170.458 Y109.990
G01 X170.984 Y108.643
G01 X171.220 Y105.298
G01 X171.266 Y104.905
G01 X170.456 Y100.972
G01 X168.321 Y97.110
G01 X164.751 Y93.885
G01 X160.719 Y92.245
G01 X160.038 Y92.004
G01 X156.584 Y91.899
G01 X154.963 Y91.926
G01 X152.022 Y92.929
G01 X150.311 Y93.595
G01 X147.981 Y95.493
G01 X146.528 Y96.777
G01 X144.970 Y99.422
G01 X144.087 Y101.075
G01 X143.514 Y104.357
G01 X143.295 Y106.088
G01 X144.072 Y109.979
G01 X144.341 Y111.054
G01 X146.998 Y115.222
G01 X150.581 Y118.019
G01 X154.475 Y119.446
G01 X156.471 Y119.708
G01 X153.976 Y119.535
