;  Created by Sandify
;  https://sandify.org
;  Version: 0.2.4
;
;  Machine type: Rectangular
;    Min X (mm): 0
;    Max X (mm): 380
;    Min Y (mm): 0
;    Max Y (mm): 280
;  Content type: shape
;  Layer:
;    Shape: FileImport
;    Name: LinedCircles.thr
;    From file:: LinedCircles.thr
;    Aspect Ratio: true
;    Comments: 
;    Visible: true
;    Initial width: 10
;    Initial height: 10
;    X offset: 0
;    Y offset: 0
;    Rotate (degrees): 0
;    Reverse path: false
;    Fine tuning:
;      Connect to next layer: line
;      Draw portion of path (%): 100
;      Backtrack at end (%): 0
;      Rotate starting point (%): 0
;  Reverse export path: false
;
; File name: 'LinedCircles'
;

G01 X190.000 Y140.000
G01 X190.023 Y140.459
G01 X190.090 Y140.914
G01 X190.202 Y141.363
G01 X190.358 Y141.802
G01 X190.558 Y142.228
G01 X190.800 Y142.638
G01 X191.083 Y143.028
G01 X191.406 Y143.395
G01 X191.768 Y143.737
G01 X192.165 Y144.051
G01 X192.598 Y144.334
G01 X193.063 Y144.583
G01 X193.557 Y144.797
G01 X194.080 Y144.971
G01 X194.627 Y145.106
G01 X195.197 Y145.197
G01 X195.786 Y145.244
G01 X196.392 Y145.246
G01 X197.010 Y145.199
G01 X197.639 Y145.104
G01 X198.274 Y144.959
G01 X198.913 Y144.764
G01 X199.551 Y144.517
G01 X200.186 Y144.219
G01 X200.813 Y143.869
G01 X201.429 Y143.467
G01 X202.031 Y143.014
G01 X202.615 Y142.509
G01 X203.178 Y141.955
G01 X203.715 Y141.351
G01 X204.223 Y140.699
G01 X204.700 Y140.000
G01 X205.141 Y139.256
G01 X205.544 Y138.469
G01 X205.904 Y137.641
G01 X206.220 Y136.774
G01 X206.487 Y135.870
G01 X206.705 Y134.933
G01 X206.868 Y133.964
G01 X206.976 Y132.968
G01 X207.026 Y131.947
G01 X207.016 Y130.905
G01 X206.943 Y129.845
G01 X206.806 Y128.771
G01 X206.604 Y127.686
G01 X206.335 Y126.594
G01 X205.998 Y125.501
G01 X205.592 Y124.408
G01 X205.116 Y123.322
G01 X204.571 Y122.245
G01 X203.956 Y121.182
G01 X203.271 Y120.138
G01 X202.517 Y119.117
G01 X201.694 Y118.123
G01 X200.802 Y117.160
G01 X199.845 Y116.233
G01 X198.821 Y115.346
G01 X197.734 Y114.504
G01 X196.586 Y113.709
G01 X195.377 Y112.967
G01 X194.112 Y112.281
G01 X192.792 Y111.656
G01 X191.420 Y111.094
G01 X190.000 Y110.600
G01 X188.535 Y110.177
G01 X187.028 Y109.827
G01 X185.484 Y109.555
G01 X183.906 Y109.363
G01 X182.298 Y109.253
G01 X180.666 Y109.228
G01 X179.012 Y109.291
G01 X177.343 Y109.443
G01 X175.662 Y109.685
G01 X173.975 Y110.020
G01 X172.288 Y110.449
G01 X170.604 Y110.971
G01 X168.929 Y111.589
G01 X167.269 Y112.302
G01 X165.629 Y113.110
G01 X164.014 Y114.014
G01 X162.430 Y115.012
G01 X160.882 Y116.103
G01 X159.375 Y117.287
G01 X157.916 Y118.562
G01 X156.508 Y119.926
G01 X155.159 Y121.377
G01 X153.872 Y122.912
G01 X152.652 Y124.530
G01 X151.506 Y126.226
G01 X150.436 Y127.999
G01 X149.450 Y129.843
G01 X148.550 Y131.755
G01 X147.741 Y133.731
G01 X147.027 Y135.767
G01 X146.412 Y137.859
G01 X145.900 Y140.000
G01 X145.494 Y142.186
G01 X145.198 Y144.413
G01 X145.014 Y146.673
G01 X144.945 Y148.962
G01 X144.994 Y151.274
G01 X145.161 Y153.602
G01 X145.450 Y155.940
G01 X145.862 Y158.283
G01 X146.397 Y160.623
G01 X147.056 Y162.954
G01 X147.840 Y165.270
G01 X148.749 Y167.563
G01 X149.782 Y169.828
G01 X150.939 Y172.057
G01 X152.218 Y174.243
G01 X153.619 Y176.381
G01 X155.140 Y178.462
G01 X156.778 Y180.482
G01 X158.530 Y182.432
G01 X160.395 Y184.307
G01 X162.369 Y186.100
G01 X164.447 Y187.806
G01 X166.627 Y189.417
G01 X168.905 Y190.929
G01 X171.274 Y192.335
G01 X173.731 Y193.631
G01 X176.271 Y194.810
G01 X178.887 Y195.868
G01 X181.574 Y196.800
G01 X184.327 Y197.603
G01 X187.137 Y198.270
G01 X190.000 Y198.800
G01 X190.000 Y141.400
G01 X190.068 Y141.375
G01 X190.133 Y141.346
G01 X190.195 Y141.315
G01 X190.255 Y141.281
G01 X190.312 Y141.244
G01 X190.365 Y141.204
G01 X190.416 Y141.163
G01 X190.464 Y141.119
G01 X190.508 Y141.074
G01 X190.549 Y141.027
G01 X190.586 Y140.978
G01 X190.621 Y140.929
G01 X190.651 Y140.878
G01 X190.679 Y140.827
G01 X190.703 Y140.775
G01 X190.723 Y140.723
G01 X190.740 Y140.671
G01 X190.754 Y140.619
G01 X190.765 Y140.567
G01 X190.772 Y140.516
G01 X190.776 Y140.465
G01 X190.777 Y140.415
G01 X190.775 Y140.367
G01 X190.771 Y140.319
G01 X190.763 Y140.273
G01 X190.753 Y140.228
G01 X190.740 Y140.185
G01 X190.725 Y140.144
G01 X190.708 Y140.105
G01 X190.689 Y140.068
G01 X190.668 Y140.033
G01 X190.645 Y140.000
G01 X190.621 Y139.969
G01 X190.595 Y139.941
G01 X190.568 Y139.916
G01 X190.540 Y139.893
G01 X190.512 Y139.872
G01 X190.482 Y139.854
G01 X190.452 Y139.838
G01 X190.422 Y139.825
G01 X190.391 Y139.815
G01 X190.361 Y139.807
G01 X190.331 Y139.802
G01 X190.301 Y139.799
G01 X190.272 Y139.798
G01 X190.244 Y139.800
G01 X190.216 Y139.804
G01 X190.189 Y139.811
G01 X190.164 Y139.819
G01 X190.140 Y139.829
G01 X190.117 Y139.842
G01 X190.096 Y139.856
G01 X190.077 Y139.871
G01 X190.060 Y139.888
G01 X190.044 Y139.907
G01 X190.030 Y139.927
G01 X190.019 Y139.948
G01 X190.009 Y139.969
G01 X190.002 Y139.992
G01 X190.000 Y140.000
G01 X190.001 Y139.995
G01 X190.003 Y139.991
G01 X190.006 Y139.986
G01 X190.008 Y139.982
G01 X190.011 Y139.978
G01 X190.015 Y139.974
G01 X190.019 Y139.971
G01 X190.023 Y139.967
G01 X190.028 Y139.965
G01 X190.033 Y139.962
G01 X190.038 Y139.960
G01 X190.044 Y139.959
G01 X190.050 Y139.958
G01 X190.056 Y139.957
G01 X190.062 Y139.957
G01 X190.068 Y139.958
G01 X190.074 Y139.959
G01 X190.081 Y139.960
G01 X190.087 Y139.962
G01 X190.094 Y139.965
G01 X190.100 Y139.968
G01 X190.106 Y139.971
G01 X190.113 Y139.976
G01 X190.119 Y139.980
G01 X190.124 Y139.986
G01 X190.130 Y139.991
G01 X190.135 Y139.998
G01 X190.140 Y140.004
G01 X190.145 Y140.012
G01 X190.149 Y140.019
G01 X190.153 Y140.028
G01 X190.156 Y140.036
G01 X190.159 Y140.045
G01 X190.161 Y140.055
G01 X190.163 Y140.064
G01 X190.164 Y140.074
G01 X190.165 Y140.084
G01 X190.165 Y140.095
G01 X190.164 Y140.106
G01 X190.163 Y140.116
G01 X190.161 Y140.127
G01 X190.158 Y140.138
G01 X190.155 Y140.150
G01 X190.151 Y140.161
G01 X190.146 Y140.172
G01 X190.141 Y140.183
G01 X190.134 Y140.193
G01 X190.127 Y140.204
G01 X190.120 Y140.214
G01 X190.111 Y140.224
G01 X190.102 Y140.234
G01 X190.092 Y140.244
G01 X190.082 Y140.253
G01 X190.070 Y140.261
G01 X190.059 Y140.269
G01 X190.046 Y140.277
G01 X190.033 Y140.284
G01 X190.019 Y140.290
G01 X190.010 Y140.294
G01 X190.060 Y140.730
G01 X190.153 Y141.161
G01 X190.288 Y141.583
G01 X190.465 Y141.994
G01 X190.683 Y142.391
G01 X190.941 Y142.769
G01 X191.237 Y143.127
G01 X191.570 Y143.462
G01 X191.938 Y143.771
G01 X192.340 Y144.051
G01 X192.774 Y144.300
G01 X193.237 Y144.515
G01 X193.727 Y144.694
G01 X194.242 Y144.835
G01 X194.779 Y144.936
G01 X195.336 Y144.995
G01 X195.909 Y145.011
G01 X196.495 Y144.982
G01 X197.092 Y144.907
G01 X197.697 Y144.784
G01 X198.306 Y144.614
G01 X198.915 Y144.395
G01 X199.523 Y144.126
G01 X200.124 Y143.808
G01 X200.716 Y143.441
G01 X201.296 Y143.024
G01 X201.859 Y142.559
G01 X202.403 Y142.045
G01 X202.924 Y141.484
G01 X203.419 Y140.877
G01 X203.884 Y140.225
G01 X204.316 Y139.529
G01 X204.713 Y138.791
G01 X205.071 Y138.013
G01 X205.386 Y137.197
G01 X205.657 Y136.346
G01 X205.881 Y135.462
G01 X206.054 Y134.547
G01 X206.175 Y133.605
G01 X206.241 Y132.638
G01 X206.250 Y131.649
G01 X206.200 Y130.643
G01 X206.090 Y129.621
G01 X205.918 Y128.589
G01 X205.682 Y127.549
G01 X205.382 Y126.505
G01 X205.016 Y125.462
G01 X204.584 Y124.423
G01 X204.086 Y123.391
G01 X203.521 Y122.372
G01 X202.889 Y121.369
G01 X202.191 Y120.387
G01 X201.427 Y119.429
G01 X200.597 Y118.500
G01 X199.704 Y117.604
G01 X198.748 Y116.744
G01 X197.730 Y115.925
G01 X196.653 Y115.152
G01 X195.518 Y114.427
G01 X194.328 Y113.754
G01 X193.085 Y113.138
G01 X191.792 Y112.581
G01 X190.451 Y112.088
G01 X189.067 Y111.661
G01 X187.642 Y111.304
G01 X186.179 Y111.020
G01 X184.683 Y110.811
G01 X183.158 Y110.680
G01 X181.607 Y110.629
G01 X180.035 Y110.661
G01 X178.446 Y110.778
G01 X176.845 Y110.981
G01 X175.236 Y111.271
G01 X173.625 Y111.651
G01 X172.016 Y112.120
G01 X170.414 Y112.679
G01 X168.825 Y113.330
G01 X167.253 Y114.072
G01 X165.703 Y114.904
G01 X164.181 Y115.827
G01 X162.691 Y116.839
G01 X161.240 Y117.940
G01 X159.831 Y119.129
G01 X158.471 Y120.403
G01 X157.164 Y121.760
G01 X155.916 Y123.200
G01 X154.730 Y124.718
G01 X153.612 Y126.313
G01 X152.567 Y127.980
G01 X151.599 Y129.718
G01 X150.712 Y131.522
G01 X149.911 Y133.389
G01 X149.199 Y135.314
G01 X148.581 Y137.293
G01 X148.060 Y139.322
G01 X147.639 Y141.395
G01 X147.321 Y143.508
G01 X147.110 Y145.655
G01 X147.008 Y147.831
G01 X147.017 Y150.031
G01 X147.139 Y152.248
G01 X147.377 Y154.478
G01 X147.731 Y156.713
G01 X148.202 Y158.948
G01 X148.792 Y161.176
G01 X149.502 Y163.392
G01 X150.330 Y165.589
G01 X151.277 Y167.760
G01 X152.342 Y169.899
G01 X153.525 Y172.000
G01 X154.824 Y174.056
G01 X156.238 Y176.061
G01 X157.764 Y178.009
G01 X159.401 Y179.893
G01 X161.146 Y181.707
G01 X162.996 Y183.445
G01 X164.947 Y185.101
G01 X166.997 Y186.669
G01 X169.140 Y188.144
G01 X171.373 Y189.519
G01 X173.691 Y190.791
G01 X176.090 Y191.954
G01 X178.563 Y193.002
G01 X181.106 Y193.932
G01 X183.713 Y194.739
G01 X186.378 Y195.419
G01 X189.095 Y195.969
G01 X191.857 Y196.384
G01 X194.657 Y196.662
G01 X197.489 Y196.800
G01 X200.345 Y196.795
G01 X203.219 Y196.646
G01 X206.103 Y196.351
G01 X207.377 Y196.174
G01 X190.414 Y141.337
G01 X190.470 Y141.292
G01 X190.524 Y141.245
G01 X190.573 Y141.195
G01 X190.619 Y141.144
G01 X190.662 Y141.091
G01 X190.701 Y141.036
G01 X190.736 Y140.981
G01 X190.767 Y140.924
G01 X190.795 Y140.867
G01 X190.819 Y140.810
G01 X190.839 Y140.752
G01 X190.856 Y140.694
G01 X190.869 Y140.637
G01 X190.878 Y140.580
G01 X190.884 Y140.523
G01 X190.887 Y140.468
G01 X190.886 Y140.413
G01 X190.882 Y140.360
G01 X190.875 Y140.308
G01 X190.866 Y140.257
G01 X190.853 Y140.209
G01 X190.838 Y140.162
G01 X190.820 Y140.117
G01 X190.800 Y140.074
G01 X190.778 Y140.034
G01 X190.754 Y139.996
G01 X190.728 Y139.960
G01 X190.701 Y139.927
G01 X190.672 Y139.897
G01 X190.641 Y139.869
G01 X190.610 Y139.844
G01 X190.578 Y139.821
G01 X190.545 Y139.802
G01 X190.512 Y139.785
G01 X190.478 Y139.771
G01 X190.445 Y139.759
G01 X190.411 Y139.751
G01 X190.378 Y139.745
G01 X190.345 Y139.741
G01 X190.313 Y139.741
G01 X190.281 Y139.742
G01 X190.251 Y139.746
G01 X190.221 Y139.753
G01 X190.193 Y139.762
G01 X190.167 Y139.773
G01 X190.142 Y139.785
G01 X190.118 Y139.800
G01 X190.097 Y139.816
G01 X190.077 Y139.834
G01 X190.060 Y139.854
G01 X190.044 Y139.875
G01 X190.031 Y139.896
G01 X190.020 Y139.919
G01 X190.011 Y139.943
G01 X190.005 Y139.967
G01 X190.001 Y139.991
G01 X190.000 Y140.000
G01 X190.001 Y139.995
G01 X190.002 Y139.991
G01 X190.003 Y139.986
G01 X190.005 Y139.982
G01 X190.008 Y139.977
G01 X190.010 Y139.973
G01 X190.014 Y139.970
G01 X190.017 Y139.966
G01 X190.021 Y139.963
G01 X190.026 Y139.960
G01 X190.030 Y139.957
G01 X190.035 Y139.955
G01 X190.041 Y139.953
G01 X190.046 Y139.952
G01 X190.052 Y139.951
G01 X190.058 Y139.950
G01 X190.064 Y139.950
G01 X190.070 Y139.951
G01 X190.076 Y139.952
G01 X190.083 Y139.953
G01 X190.089 Y139.955
G01 X190.096 Y139.958
G01 X190.102 Y139.961
G01 X190.109 Y139.964
G01 X190.115 Y139.968
G01 X190.121 Y139.973
G01 X190.127 Y139.978
G01 X190.132 Y139.984
G01 X190.138 Y139.990
G01 X190.143 Y139.997
G01 X190.148 Y140.004
G01 X190.152 Y140.011
G01 X190.156 Y140.020
G01 X190.159 Y140.028
G01 X190.162 Y140.037
G01 X190.165 Y140.046
G01 X190.167 Y140.056
G01 X190.169 Y140.065
G01 X190.170 Y140.076
G01 X190.170 Y140.086
G01 X190.170 Y140.096
G01 X190.169 Y140.107
G01 X190.167 Y140.118
G01 X190.165 Y140.129
G01 X190.162 Y140.140
G01 X190.158 Y140.151
G01 X190.154 Y140.162
G01 X190.149 Y140.173
G01 X190.143 Y140.184
G01 X190.137 Y140.195
G01 X190.130 Y140.205
G01 X190.122 Y140.216
G01 X190.113 Y140.226
G01 X190.104 Y140.235
G01 X190.094 Y140.244
G01 X190.083 Y140.253
G01 X190.072 Y140.262
G01 X190.060 Y140.269
G01 X190.048 Y140.277
G01 X190.034 Y140.284
G01 X190.021 Y140.290
G01 X190.010 Y140.294
G01 X190.059 Y140.711
G01 X190.150 Y141.123
G01 X190.280 Y141.526
G01 X190.451 Y141.919
G01 X190.660 Y142.298
G01 X190.908 Y142.659
G01 X191.192 Y143.001
G01 X191.511 Y143.321
G01 X191.865 Y143.615
G01 X192.250 Y143.882
G01 X192.666 Y144.119
G01 X193.110 Y144.324
G01 X193.579 Y144.494
G01 X194.072 Y144.628
G01 X194.587 Y144.723
G01 X195.120 Y144.779
G01 X195.668 Y144.793
G01 X196.230 Y144.763
G01 X196.801 Y144.690
G01 X197.379 Y144.571
G01 X197.962 Y144.407
G01 X198.545 Y144.196
G01 X199.125 Y143.938
G01 X199.700 Y143.632
G01 X200.266 Y143.279
G01 X200.820 Y142.880
G01 X201.358 Y142.433
G01 X201.878 Y141.940
G01 X202.375 Y141.402
G01 X202.848 Y140.820
G01 X203.292 Y140.195
G01 X203.704 Y139.528
G01 X204.083 Y138.821
G01 X204.424 Y138.076
G01 X204.724 Y137.295
G01 X204.982 Y136.480
G01 X205.194 Y135.633
G01 X205.359 Y134.758
G01 X205.473 Y133.855
G01 X205.534 Y132.930
G01 X205.541 Y131.984
G01 X205.492 Y131.021
G01 X205.385 Y130.044
G01 X205.218 Y129.056
G01 X204.991 Y128.061
G01 X204.702 Y127.063
G01 X204.350 Y126.065
G01 X203.935 Y125.071
G01 X203.456 Y124.085
G01 X202.914 Y123.111
G01 X202.308 Y122.152
G01 X201.638 Y121.214
G01 X200.905 Y120.298
G01 X200.110 Y119.410
G01 X199.254 Y118.554
G01 X198.338 Y117.733
G01 X197.363 Y116.951
G01 X196.331 Y116.213
G01 X195.244 Y115.521
G01 X194.104 Y114.879
G01 X192.914 Y114.291
G01 X191.675 Y113.761
G01 X190.392 Y113.291
G01 X189.066 Y112.885
G01 X187.702 Y112.545
G01 X186.302 Y112.276
G01 X184.871 Y112.078
G01 X183.411 Y111.955
G01 X181.927 Y111.909
G01 X180.423 Y111.942
G01 X178.903 Y112.056
G01 X177.371 Y112.253
G01 X175.833 Y112.533
G01 X174.292 Y112.899
G01 X172.753 Y113.350
G01 X171.221 Y113.888
G01 X169.702 Y114.513
G01 X168.198 Y115.225
G01 X166.717 Y116.023
G01 X165.262 Y116.909
G01 X163.838 Y117.880
G01 X162.451 Y118.935
G01 X161.106 Y120.074
G01 X159.806 Y121.295
G01 X158.558 Y122.596
G01 X157.366 Y123.975
G01 X156.234 Y125.430
G01 X155.167 Y126.957
G01 X154.169 Y128.554
G01 X153.246 Y130.218
G01 X152.400 Y131.946
G01 X151.636 Y133.733
G01 X150.958 Y135.575
G01 X150.370 Y137.470
G01 X149.874 Y139.411
G01 X149.474 Y141.395
G01 X149.174 Y143.417
G01 X148.975 Y145.472
G01 X148.880 Y147.554
G01 X148.892 Y149.658
G01 X149.013 Y151.780
G01 X149.243 Y153.912
G01 X149.585 Y156.050
G01 X150.040 Y158.187
G01 X150.608 Y160.318
G01 X151.289 Y162.437
G01 X152.085 Y164.537
G01 X152.994 Y166.613
G01 X154.016 Y168.658
G01 X155.151 Y170.666
G01 X156.397 Y172.631
G01 X157.752 Y174.547
G01 X159.216 Y176.408
G01 X160.784 Y178.208
G01 X162.456 Y179.941
G01 X164.229 Y181.601
G01 X166.098 Y183.182
G01 X168.061 Y184.679
G01 X170.113 Y186.087
G01 X172.251 Y187.400
G01 X174.471 Y188.613
G01 X176.767 Y189.722
G01 X179.135 Y190.721
G01 X181.569 Y191.607
G01 X184.064 Y192.375
G01 X186.615 Y193.022
G01 X189.214 Y193.543
G01 X191.857 Y193.937
G01 X194.536 Y194.198
G01 X197.246 Y194.326
G01 X199.978 Y194.318
G01 X202.727 Y194.171
G01 X205.486 Y193.884
G01 X208.247 Y193.456
G01 X211.003 Y192.886
G01 X213.746 Y192.173
G01 X216.470 Y191.318
G01 X219.166 Y190.320
G01 X221.828 Y189.181
G01 X223.201 Y188.530
G01 X190.790 Y141.155
G01 X190.723 Y141.176
G01 X190.655 Y141.193
G01 X190.587 Y141.206
G01 X190.519 Y141.216
G01 X190.452 Y141.222
G01 X190.386 Y141.224
G01 X190.320 Y141.222
G01 X190.256 Y141.218
G01 X190.193 Y141.210
G01 X190.131 Y141.198
G01 X190.071 Y141.184
G01 X190.013 Y141.166
G01 X189.956 Y141.146
G01 X189.902 Y141.123
G01 X189.849 Y141.098
G01 X189.799 Y141.070
G01 X189.752 Y141.040
G01 X189.706 Y141.008
G01 X189.664 Y140.974
G01 X189.623 Y140.938
G01 X189.586 Y140.901
G01 X189.551 Y140.862
G01 X189.519 Y140.822
G01 X189.490 Y140.781
G01 X189.464 Y140.740
G01 X189.440 Y140.697
G01 X189.420 Y140.654
G01 X189.402 Y140.611
G01 X189.387 Y140.568
G01 X189.375 Y140.525
G01 X189.365 Y140.482
G01 X189.358 Y140.439
G01 X189.354 Y140.397
G01 X189.353 Y140.355
G01 X189.353 Y140.315
G01 X189.357 Y140.275
G01 X189.362 Y140.236
G01 X189.370 Y140.199
G01 X189.380 Y140.163
G01 X189.392 Y140.128
G01 X189.405 Y140.095
G01 X189.421 Y140.063
G01 X189.438 Y140.034
G01 X189.456 Y140.006
G01 X189.476 Y139.980
G01 X189.497 Y139.956
G01 X189.519 Y139.934
G01 X189.542 Y139.914
G01 X189.566 Y139.896
G01 X189.590 Y139.880
G01 X189.615 Y139.867
G01 X189.640 Y139.855
G01 X189.665 Y139.846
G01 X189.690 Y139.839
G01 X189.715 Y139.834
G01 X189.740 Y139.830
G01 X189.764 Y139.829
G01 X189.788 Y139.830
G01 X189.811 Y139.833
G01 X189.834 Y139.837
G01 X189.855 Y139.844
G01 X189.875 Y139.852
G01 X189.895 Y139.861
G01 X189.913 Y139.872
G01 X189.929 Y139.885
G01 X189.944 Y139.898
G01 X189.958 Y139.913
G01 X189.970 Y139.929
G01 X189.980 Y139.946
G01 X189.989 Y139.964
G01 X189.995 Y139.982
G01 X190.000 Y140.000
G01 X189.999 Y139.996
G01 X189.999 Y139.991
G01 X189.999 Y139.987
G01 X190.000 Y139.983
G01 X190.001 Y139.978
G01 X190.002 Y139.974
G01 X190.004 Y139.970
G01 X190.006 Y139.966
G01 X190.009 Y139.962
G01 X190.012 Y139.958
G01 X190.016 Y139.955
G01 X190.019 Y139.951
G01 X190.024 Y139.949
G01 X190.028 Y139.946
G01 X190.033 Y139.944
G01 X190.038 Y139.942
G01 X190.043 Y139.940
G01 X190.049 Y139.939
G01 X190.055 Y139.938
G01 X190.061 Y139.938
G01 X190.067 Y139.938
G01 X190.073 Y139.938
G01 X190.080 Y139.939
G01 X190.086 Y139.941
G01 X190.093 Y139.943
G01 X190.099 Y139.945
G01 X190.106 Y139.948
G01 X190.112 Y139.952
G01 X190.118 Y139.956
G01 X190.124 Y139.960
G01 X190.130 Y139.965
G01 X190.136 Y139.971
G01 X190.142 Y139.977
G01 X190.147 Y139.984
G01 X190.152 Y139.991
G01 X190.157 Y139.998
G01 X190.161 Y140.006
G01 X190.165 Y140.014
G01 X190.168 Y140.023
G01 X190.171 Y140.032
G01 X190.174 Y140.041
G01 X190.176 Y140.051
G01 X190.177 Y140.061
G01 X190.178 Y140.071
G01 X190.178 Y140.081
G01 X190.178 Y140.092
G01 X190.177 Y140.103
G01 X190.175 Y140.114
G01 X190.173 Y140.125
G01 X190.170 Y140.136
G01 X190.166 Y140.147
G01 X190.162 Y140.158
G01 X190.157 Y140.169
G01 X190.152 Y140.180
G01 X190.145 Y140.190
G01 X190.138 Y140.201
G01 X190.130 Y140.211
G01 X190.122 Y140.221
G01 X190.113 Y140.231
G01 X190.103 Y140.240
G01 X190.093 Y140.249
G01 X190.082 Y140.257
G01 X190.070 Y140.265
G01 X190.058 Y140.273
G01 X190.045 Y140.279
G01 X190.032 Y140.286
G01 X190.018 Y140.291
G01 X190.011 Y140.294
G01 X190.059 Y140.693
G01 X190.147 Y141.088
G01 X190.273 Y141.474
G01 X190.438 Y141.850
G01 X190.639 Y142.213
G01 X190.878 Y142.559
G01 X191.151 Y142.886
G01 X191.458 Y143.191
G01 X191.798 Y143.473
G01 X192.168 Y143.728
G01 X192.567 Y143.954
G01 X192.993 Y144.149
G01 X193.444 Y144.311
G01 X193.917 Y144.438
G01 X194.411 Y144.528
G01 X194.922 Y144.580
G01 X195.448 Y144.592
G01 X195.986 Y144.563
G01 X196.534 Y144.491
G01 X197.088 Y144.376
G01 X197.646 Y144.217
G01 X198.205 Y144.014
G01 X198.761 Y143.765
G01 X199.312 Y143.471
G01 X199.854 Y143.131
G01 X200.384 Y142.747
G01 X200.899 Y142.318
G01 X201.397 Y141.844
G01 X201.873 Y141.327
G01 X202.325 Y140.768
G01 X202.749 Y140.168
G01 X203.144 Y139.528
G01 X203.505 Y138.849
G01 X203.831 Y138.134
G01 X204.117 Y137.385
G01 X204.363 Y136.603
G01 X204.565 Y135.790
G01 X204.721 Y134.950
G01 X204.829 Y134.085
G01 X204.886 Y133.198
G01 X204.891 Y132.291
G01 X204.843 Y131.367
G01 X204.738 Y130.431
G01 X204.577 Y129.484
G01 X204.357 Y128.531
G01 X204.078 Y127.574
G01 X203.739 Y126.618
G01 X203.340 Y125.666
G01 X202.880 Y124.721
G01 X202.358 Y123.788
G01 X201.775 Y122.870
G01 X201.132 Y121.971
G01 X200.428 Y121.095
G01 X199.664 Y120.245
G01 X198.842 Y119.425
G01 X197.962 Y118.640
G01 X197.026 Y117.892
G01 X196.035 Y117.185
G01 X194.992 Y116.524
G01 X193.898 Y115.910
G01 X192.756 Y115.349
G01 X191.568 Y114.842
G01 X190.337 Y114.394
G01 X189.066 Y114.006
G01 X187.758 Y113.683
G01 X186.415 Y113.427
G01 X185.042 Y113.239
G01 X183.643 Y113.124
G01 X182.220 Y113.082
G01 X180.778 Y113.116
G01 X179.322 Y113.228
G01 X177.854 Y113.419
G01 X176.379 Y113.690
G01 X174.903 Y114.043
G01 X173.428 Y114.478
G01 X171.961 Y114.996
G01 X170.505 Y115.597
G01 X169.065 Y116.282
G01 X167.646 Y117.050
G01 X166.253 Y117.900
G01 X164.890 Y118.833
G01 X163.562 Y119.847
G01 X162.274 Y120.941
G01 X161.030 Y122.113
G01 X159.836 Y123.362
G01 X158.695 Y124.686
G01 X157.612 Y126.082
G01 X156.591 Y127.547
G01 X155.638 Y129.080
G01 X154.755 Y130.676
G01 X153.947 Y132.334
G01 X153.217 Y134.048
G01 X152.570 Y135.815
G01 X152.009 Y137.632
G01 X151.537 Y139.493
G01 X151.156 Y141.396
G01 X150.871 Y143.334
G01 X150.684 Y145.304
G01 X150.596 Y147.300
G01 X150.611 Y149.317
G01 X150.730 Y151.350
G01 X150.954 Y153.394
G01 X151.285 Y155.442
G01 X151.724 Y157.490
G01 X152.271 Y159.532
G01 X152.928 Y161.562
G01 X153.693 Y163.574
G01 X154.568 Y165.562
G01 X155.551 Y167.520
G01 X156.641 Y169.444
G01 X157.838 Y171.325
G01 X159.140 Y173.160
G01 X160.546 Y174.941
G01 X162.052 Y176.664
G01 X163.657 Y178.322
G01 X165.358 Y179.911
G01 X167.152 Y181.424
G01 X169.036 Y182.856
G01 X171.005 Y184.202
G01 X173.057 Y185.457
G01 X175.186 Y186.617
G01 X177.388 Y187.676
G01 X179.659 Y188.630
G01 X181.994 Y189.476
G01 X184.386 Y190.208
G01 X186.832 Y190.824
G01 X189.324 Y191.321
G01 X191.857 Y191.693
G01 X194.426 Y191.940
G01 X197.023 Y192.059
G01 X199.642 Y192.047
G01 X202.277 Y191.902
G01 X204.920 Y191.623
G01 X207.565 Y191.209
G01 X210.206 Y190.658
G01 X212.834 Y189.971
G01 X215.443 Y189.148
G01 X218.026 Y188.187
G01 X220.576 Y187.091
G01 X223.085 Y185.860
G01 X225.546 Y184.495
G01 X227.952 Y182.999
G01 X230.297 Y181.373
G01 X232.573 Y179.619
G01 X234.773 Y177.742
G01 X236.060 Y176.551
G01 X191.097 Y140.870
G01 X191.034 Y140.907
G01 X190.971 Y140.940
G01 X190.908 Y140.969
G01 X190.843 Y140.994
G01 X190.779 Y141.015
G01 X190.714 Y141.032
G01 X190.650 Y141.045
G01 X190.586 Y141.055
G01 X190.523 Y141.061
G01 X190.461 Y141.063
G01 X190.400 Y141.062
G01 X190.340 Y141.057
G01 X190.281 Y141.049
G01 X190.224 Y141.038
G01 X190.169 Y141.024
G01 X190.116 Y141.007
G01 X190.065 Y140.987
G01 X190.016 Y140.965
G01 X189.969 Y140.941
G01 X189.925 Y140.914
G01 X189.884 Y140.885
G01 X189.845 Y140.855
G01 X189.808 Y140.823
G01 X189.775 Y140.789
G01 X189.744 Y140.754
G01 X189.716 Y140.718
G01 X189.691 Y140.681
G01 X189.669 Y140.644
G01 X189.650 Y140.606
G01 X189.634 Y140.568
G01 X189.621 Y140.530
G01 X189.610 Y140.491
G01 X189.602 Y140.453
G01 X189.597 Y140.416
G01 X189.595 Y140.379
G01 X189.595 Y140.343
G01 X189.598 Y140.308
G01 X189.603 Y140.275
G01 X189.611 Y140.242
G01 X189.621 Y140.211
G01 X189.632 Y140.181
G01 X189.646 Y140.153
G01 X189.662 Y140.127
G01 X189.679 Y140.103
G01 X189.697 Y140.081
G01 X189.717 Y140.061
G01 X189.738 Y140.043
G01 X189.761 Y140.028
G01 X189.784 Y140.014
G01 X189.807 Y140.003
G01 X189.832 Y139.994
G01 X189.856 Y139.988
G01 X189.881 Y139.984
G01 X189.906 Y139.983
G01 X189.930 Y139.984
G01 X189.954 Y139.987
G01 X189.978 Y139.992
G01 X190.000 Y140.000
G01 X189.997 Y139.999
G01 X189.994 Y139.997
G01 X189.991 Y139.995
G01 X189.989 Y139.993
G01 X189.986 Y139.990
G01 X189.984 Y139.988
G01 X189.982 Y139.985
G01 X189.981 Y139.981
G01 X189.979 Y139.978
G01 X189.978 Y139.974
G01 X189.977 Y139.971
G01 X189.977 Y139.967
G01 X189.977 Y139.963
G01 X189.977 Y139.959
G01 X189.978 Y139.955
G01 X189.979 Y139.951
G01 X189.980 Y139.947
G01 X189.981 Y139.943
G01 X189.983 Y139.938
G01 X189.986 Y139.934
G01 X189.988 Y139.930
G01 X189.991 Y139.927
G01 X189.995 Y139.923
G01 X189.999 Y139.919
G01 X190.003 Y139.916
G01 X190.007 Y139.913
G01 X190.012 Y139.910
G01 X190.017 Y139.908
G01 X190.022 Y139.905
G01 X190.028 Y139.903
G01 X190.033 Y139.901
G01 X190.039 Y139.900
G01 X190.046 Y139.899
G01 X190.052 Y139.898
G01 X190.059 Y139.898
G01 X190.065 Y139.898
G01 X190.072 Y139.899
G01 X190.079 Y139.900
G01 X190.086 Y139.901
G01 X190.093 Y139.903
G01 X190.100 Y139.906
G01 X190.107 Y139.909
G01 X190.114 Y139.912
G01 X190.121 Y139.916
G01 X190.128 Y139.920
G01 X190.135 Y139.925
G01 X190.141 Y139.930
G01 X190.148 Y139.936
G01 X190.154 Y139.942
G01 X190.160 Y139.948
G01 X190.165 Y139.955
G01 X190.171 Y139.963
G01 X190.175 Y139.971
G01 X190.180 Y139.979
G01 X190.184 Y139.988
G01 X190.188 Y139.997
G01 X190.191 Y140.006
G01 X190.194 Y140.016
G01 X190.196 Y140.026
G01 X190.198 Y140.036
G01 X190.199 Y140.046
G01 X190.200 Y140.057
G01 X190.200 Y140.068
G01 X190.200 Y140.079
G01 X190.199 Y140.090
G01 X190.197 Y140.101
G01 X190.195 Y140.112
G01 X190.192 Y140.123
G01 X190.188 Y140.135
G01 X190.184 Y140.146
G01 X190.179 Y140.157
G01 X190.174 Y140.168
G01 X190.168 Y140.179
G01 X190.161 Y140.189
G01 X190.153 Y140.200
G01 X190.145 Y140.210
G01 X190.137 Y140.219
G01 X190.127 Y140.229
G01 X190.118 Y140.238
G01 X190.107 Y140.246
G01 X190.096 Y140.254
G01 X190.085 Y140.262
G01 X190.072 Y140.269
G01 X190.060 Y140.276
G01 X190.047 Y140.281
G01 X190.033 Y140.287
G01 X190.019 Y140.291
G01 X190.011 Y140.294
G01 X190.059 Y140.677
G01 X190.144 Y141.056
G01 X190.266 Y141.426
G01 X190.425 Y141.787
G01 X190.620 Y142.134
G01 X190.850 Y142.466
G01 X191.113 Y142.779
G01 X191.409 Y143.072
G01 X191.736 Y143.341
G01 X192.092 Y143.585
G01 X192.476 Y143.801
G01 X192.886 Y143.988
G01 X193.319 Y144.142
G01 X193.774 Y144.263
G01 X194.248 Y144.349
G01 X194.740 Y144.397
G01 X195.245 Y144.408
G01 X195.762 Y144.378
G01 X196.288 Y144.309
G01 X196.820 Y144.197
G01 X197.356 Y144.043
G01 X197.892 Y143.846
G01 X198.426 Y143.606
G01 X198.955 Y143.322
G01 X199.475 Y142.995
G01 X199.983 Y142.625
G01 X200.477 Y142.211
G01 X200.954 Y141.756
G01 X201.410 Y141.258
G01 X201.843 Y140.720
G01 X202.250 Y140.143
G01 X202.628 Y139.527
G01 X202.974 Y138.875
G01 X203.285 Y138.188
G01 X203.559 Y137.467
G01 X203.794 Y136.715
G01 X203.986 Y135.935
G01 X204.135 Y135.128
G01 X204.237 Y134.297
G01 X204.290 Y133.444
G01 X204.294 Y132.573
G01 X204.245 Y131.686
G01 X204.143 Y130.787
G01 X203.987 Y129.878
G01 X203.774 Y128.962
G01 X203.505 Y128.044
G01 X203.178 Y127.126
G01 X202.793 Y126.213
G01 X202.349 Y125.306
G01 X201.846 Y124.411
G01 X201.285 Y123.530
G01 X200.665 Y122.668
G01 X199.988 Y121.827
G01 X199.253 Y121.012
G01 X198.462 Y120.227
G01 X197.616 Y119.474
G01 X196.716 Y118.757
G01 X195.763 Y118.080
G01 X194.761 Y117.446
G01 X193.709 Y116.859
G01 X192.612 Y116.321
G01 X191.470 Y115.837
G01 X190.287 Y115.408
G01 X189.066 Y115.038
G01 X187.809 Y114.730
G01 X186.519 Y114.486
G01 X185.201 Y114.308
G01 X183.856 Y114.199
G01 X182.490 Y114.161
G01 X181.106 Y114.196
G01 X179.707 Y114.306
G01 X178.298 Y114.491
G01 X176.882 Y114.754
G01 X175.465 Y115.095
G01 X174.050 Y115.515
G01 X172.641 Y116.014
G01 X171.244 Y116.594
G01 X169.863 Y117.254
G01 X168.501 Y117.993
G01 X167.165 Y118.812
G01 X165.857 Y119.710
G01 X164.584 Y120.686
G01 X163.348 Y121.738
G01 X162.156 Y122.866
G01 X161.011 Y124.067
G01 X159.917 Y125.340
G01 X158.879 Y126.682
G01 X157.902 Y128.091
G01 X156.988 Y129.564
G01 X156.143 Y131.098
G01 X155.369 Y132.690
G01 X154.672 Y134.337
G01 X154.053 Y136.035
G01 X153.517 Y137.781
G01 X153.066 Y139.569
G01 X152.704 Y141.396
G01 X152.433 Y143.258
G01 X152.256 Y145.149
G01 X152.175 Y147.066
G01 X152.192 Y149.003
G01 X152.309 Y150.955
G01 X152.527 Y152.917
G01 X152.848 Y154.883
G01 X153.273 Y156.849
G01 X153.801 Y158.809
G01 X154.435 Y160.757
G01 X155.173 Y162.687
G01 X156.016 Y164.595
G01 X156.962 Y166.474
G01 X158.012 Y168.319
G01 X159.165 Y170.124
G01 X160.417 Y171.883
G01 X161.769 Y173.592
G01 X163.218 Y175.244
G01 X164.762 Y176.834
G01 X166.397 Y178.356
G01 X168.122 Y179.806
G01 X169.933 Y181.178
G01 X171.826 Y182.468
G01 X173.797 Y183.670
G01 X175.843 Y184.780
G01 X177.959 Y185.794
G01 X180.141 Y186.707
G01 X182.384 Y187.516
G01 X184.682 Y188.215
G01 X187.031 Y188.803
G01 X189.425 Y189.276
G01 X191.858 Y189.630
G01 X194.324 Y189.863
G01 X196.818 Y189.973
G01 X199.332 Y189.958
G01 X201.862 Y189.815
G01 X204.400 Y189.543
G01 X206.939 Y189.142
G01 X209.473 Y188.609
G01 X211.996 Y187.946
G01 X214.500 Y187.151
G01 X216.978 Y186.225
G01 X219.424 Y185.169
G01 X221.831 Y183.983
G01 X224.192 Y182.669
G01 X226.501 Y181.229
G01 X228.749 Y179.664
G01 X230.931 Y177.978
G01 X233.041 Y176.172
G01 X235.071 Y174.249
G01 X237.015 Y172.215
G01 X238.868 Y170.071
G01 X240.623 Y167.823
G01 X242.274 Y165.474
G01 X243.815 Y163.030
G01 X244.804 Y161.307
G01 X191.305 Y140.507
G01 X191.257 Y140.561
G01 X191.207 Y140.612
G01 X191.156 Y140.659
G01 X191.102 Y140.702
G01 X191.047 Y140.742
G01 X190.991 Y140.778
G01 X190.935 Y140.810
G01 X190.877 Y140.839
G01 X190.819 Y140.864
G01 X190.760 Y140.886
G01 X190.701 Y140.904
G01 X190.643 Y140.918
G01 X190.585 Y140.929
G01 X190.527 Y140.936
G01 X190.470 Y140.940
G01 X190.414 Y140.940
G01 X190.359 Y140.938
G01 X190.305 Y140.932
G01 X190.253 Y140.924
G01 X190.202 Y140.912
G01 X190.153 Y140.898
G01 X190.106 Y140.881
G01 X190.061 Y140.862
G01 X190.018 Y140.841
G01 X189.978 Y140.818
G01 X189.939 Y140.792
G01 X189.904 Y140.765
G01 X189.870 Y140.737
G01 X189.839 Y140.707
G01 X189.811 Y140.676
G01 X189.786 Y140.643
G01 X189.763 Y140.610
G01 X189.743 Y140.577
G01 X189.725 Y140.543
G01 X189.710 Y140.508
G01 X189.698 Y140.474
G01 X189.689 Y140.439
G01 X189.682 Y140.405
G01 X189.678 Y140.372
G01 X189.676 Y140.339
G01 X189.677 Y140.306
G01 X189.680 Y140.275
G01 X189.685 Y140.245
G01 X189.692 Y140.215
G01 X189.702 Y140.188
G01 X189.713 Y140.161
G01 X189.727 Y140.137
G01 X189.742 Y140.114
G01 X189.758 Y140.093
G01 X189.776 Y140.073
G01 X189.795 Y140.056
G01 X189.815 Y140.041
G01 X189.836 Y140.028
G01 X189.858 Y140.017
G01 X189.881 Y140.008
G01 X189.904 Y140.002
G01 X189.927 Y139.998
G01 X189.951 Y139.996
G01 X189.974 Y139.997
G01 X189.997 Y139.999
G01 X190.000 Y140.000
G01 X189.997 Y139.999
G01 X189.994 Y139.998
G01 X189.991 Y139.997
G01 X189.988 Y139.995
G01 X189.985 Y139.993
G01 X189.983 Y139.991
G01 X189.981 Y139.989
G01 X189.978 Y139.986
G01 X189.977 Y139.983
G01 X189.975 Y139.980
G01 X189.973 Y139.977
G01 X189.972 Y139.973
G01 X189.971 Y139.970
G01 X189.971 Y139.966
G01 X189.971 Y139.962
G01 X189.971 Y139.958
G01 X189.971 Y139.954
G01 X189.972 Y139.949
G01 X189.973 Y139.945
G01 X189.974 Y139.941
G01 X189.976 Y139.937
G01 X189.978 Y139.933
G01 X189.981 Y139.929
G01 X189.984 Y139.925
G01 X189.987 Y139.921
G01 X189.991 Y139.917
G01 X189.994 Y139.913
G01 X189.999 Y139.910
G01 X190.003 Y139.907
G01 X190.008 Y139.904
G01 X190.013 Y139.901
G01 X190.018 Y139.899
G01 X190.024 Y139.897
G01 X190.030 Y139.895
G01 X190.036 Y139.894
G01 X190.043 Y139.892
G01 X190.049 Y139.892
G01 X190.056 Y139.891
G01 X190.063 Y139.892
G01 X190.070 Y139.892
G01 X190.077 Y139.893
G01 X190.084 Y139.894
G01 X190.091 Y139.896
G01 X190.098 Y139.899
G01 X190.106 Y139.901
G01 X190.113 Y139.904
G01 X190.120 Y139.908
G01 X190.127 Y139.912
G01 X190.134 Y139.917
G01 X190.140 Y139.922
G01 X190.147 Y139.928
G01 X190.153 Y139.934
G01 X190.159 Y139.940
G01 X190.165 Y139.947
G01 X190.171 Y139.954
G01 X190.176 Y139.962
G01 X190.181 Y139.970
G01 X190.185 Y139.979
G01 X190.189 Y139.988
G01 X190.193 Y139.997
G01 X190.196 Y140.007
G01 X190.198 Y140.016
G01 X190.201 Y140.027
G01 X190.202 Y140.037
G01 X190.203 Y140.048
G01 X190.204 Y140.058
G01 X190.204 Y140.069
G01 X190.203 Y140.080
G01 X190.202 Y140.092
G01 X190.200 Y140.103
G01 X190.197 Y140.114
G01 X190.194 Y140.125
G01 X190.191 Y140.137
G01 X190.186 Y140.148
G01 X190.181 Y140.159
G01 X190.175 Y140.170
G01 X190.169 Y140.181
G01 X190.162 Y140.191
G01 X190.154 Y140.201
G01 X190.146 Y140.211
G01 X190.137 Y140.221
G01 X190.128 Y140.230
G01 X190.118 Y140.239
G01 X190.107 Y140.248
G01 X190.096 Y140.256
G01 X190.084 Y140.263
G01 X190.072 Y140.270
G01 X190.059 Y140.276
G01 X190.046 Y140.282
G01 X190.033 Y140.287
G01 X190.019 Y140.292
G01 X190.011 Y140.294
G01 X190.058 Y140.662
G01 X190.142 Y141.026
G01 X190.260 Y141.382
G01 X190.414 Y141.728
G01 X190.603 Y142.062
G01 X190.824 Y142.380
G01 X191.079 Y142.681
G01 X191.364 Y142.962
G01 X191.679 Y143.220
G01 X192.023 Y143.454
G01 X192.393 Y143.661
G01 X192.787 Y143.839
G01 X193.205 Y143.987
G01 X193.643 Y144.102
G01 X194.099 Y144.183
G01 X194.571 Y144.229
G01 X195.058 Y144.238
G01 X195.555 Y144.208
G01 X196.061 Y144.140
G01 X196.573 Y144.031
G01 X197.088 Y143.882
G01 X197.604 Y143.691
G01 X198.117 Y143.459
G01 X198.625 Y143.185
G01 X199.124 Y142.870
G01 X199.613 Y142.512
G01 X200.088 Y142.113
G01 X200.546 Y141.674
G01 X200.984 Y141.195
G01 X201.399 Y140.676
G01 X201.790 Y140.120
G01 X202.152 Y139.527
G01 X202.483 Y138.899
G01 X202.782 Y138.237
G01 X203.044 Y137.543
G01 X203.268 Y136.819
G01 X203.452 Y136.068
G01 X203.594 Y135.292
G01 X203.690 Y134.492
G01 X203.740 Y133.671
G01 X203.742 Y132.833
G01 X203.694 Y131.980
G01 X203.594 Y131.115
G01 X203.442 Y130.241
G01 X203.236 Y129.361
G01 X202.975 Y128.478
G01 X202.659 Y127.596
G01 X202.287 Y126.717
G01 X201.859 Y125.846
G01 X201.374 Y124.986
G01 X200.833 Y124.139
G01 X200.235 Y123.311
G01 X199.582 Y122.503
G01 X198.874 Y121.721
G01 X198.112 Y120.966
G01 X197.297 Y120.243
G01 X196.430 Y119.555
G01 X195.513 Y118.906
G01 X194.547 Y118.297
G01 X193.535 Y117.734
G01 X192.478 Y117.219
G01 X191.379 Y116.755
G01 X190.241 Y116.344
G01 X189.065 Y115.990
G01 X187.856 Y115.696
G01 X186.615 Y115.463
G01 X185.346 Y115.294
G01 X184.053 Y115.191
G01 X182.739 Y115.157
G01 X181.408 Y115.193
G01 X180.062 Y115.300
G01 X178.707 Y115.481
G01 X177.346 Y115.736
G01 X175.983 Y116.066
G01 X174.623 Y116.472
G01 X173.269 Y116.955
G01 X171.926 Y117.515
G01 X170.598 Y118.151
G01 X169.290 Y118.865
G01 X168.006 Y119.654
G01 X166.750 Y120.520
G01 X165.526 Y121.460
G01 X164.340 Y122.474
G01 X163.195 Y123.561
G01 X162.095 Y124.718
G01 X161.045 Y125.943
G01 X160.049 Y127.236
G01 X159.111 Y128.592
G01 X158.235 Y130.010
G01 X157.424 Y131.487
G01 X156.683 Y133.020
G01 X156.014 Y134.605
G01 X155.422 Y136.239
G01 X154.908 Y137.918
G01 X154.478 Y139.639
G01 X154.132 Y141.397
G01 X153.875 Y143.187
G01 X153.707 Y145.007
G01 X153.632 Y146.850
G01 X153.651 Y148.713
G01 X153.767 Y150.590
G01 X153.980 Y152.477
G01 X154.291 Y154.367
G01 X154.702 Y156.257
G01 X155.214 Y158.141
G01 X155.826 Y160.014
G01 X156.539 Y161.869
G01 X157.352 Y163.703
G01 X158.265 Y165.508
G01 X159.278 Y167.281
G01 X160.388 Y169.015
G01 X161.596 Y170.705
G01 X162.899 Y172.346
G01 X164.295 Y173.933
G01 X165.781 Y175.460
G01 X167.357 Y176.921
G01 X169.017 Y178.313
G01 X170.761 Y179.630
G01 X172.583 Y180.868
G01 X174.481 Y182.021
G01 X176.450 Y183.086
G01 X178.487 Y184.057
G01 X180.586 Y184.932
G01 X182.744 Y185.706
G01 X184.956 Y186.376
G01 X187.215 Y186.938
G01 X189.518 Y187.389
G01 X191.858 Y187.726
G01 X194.230 Y187.946
G01 X196.629 Y188.048
G01 X199.047 Y188.030
G01 X201.479 Y187.889
G01 X203.919 Y187.624
G01 X206.361 Y187.234
G01 X208.797 Y186.718
G01 X211.222 Y186.076
G01 X213.628 Y185.308
G01 X216.011 Y184.414
G01 X218.361 Y183.395
G01 X220.674 Y182.251
G01 X222.943 Y180.984
G01 X225.161 Y179.596
G01 X227.321 Y178.088
G01 X229.417 Y176.462
G01 X231.443 Y174.723
G01 X233.392 Y172.871
G01 X235.259 Y170.912
G01 X237.037 Y168.847
G01 X238.721 Y166.683
G01 X240.306 Y164.422
G01 X241.785 Y162.070
G01 X243.153 Y159.631
G01 X244.406 Y157.110
G01 X245.539 Y154.514
G01 X246.547 Y151.847
G01 X247.426 Y149.116
G01 X248.173 Y146.328
G01 X248.653 Y144.159
G01 X191.396 Y140.099
G01 X191.354 Y140.163
G01 X191.309 Y140.223
G01 X191.262 Y140.280
G01 X191.212 Y140.332
G01 X191.160 Y140.380
G01 X191.106 Y140.423
G01 X191.051 Y140.462
G01 X190.995 Y140.497
G01 X190.938 Y140.528
G01 X190.881 Y140.554
G01 X190.823 Y140.576
G01 X190.765 Y140.594
G01 X190.708 Y140.607
G01 X190.651 Y140.617
G01 X190.595 Y140.622
G01 X190.541 Y140.623
G01 X190.487 Y140.621
G01 X190.435 Y140.615
G01 X190.385 Y140.605
G01 X190.337 Y140.592
G01 X190.292 Y140.576
G01 X190.249 Y140.556
G01 X190.208 Y140.534
G01 X190.170 Y140.510
G01 X190.135 Y140.483
G01 X190.103 Y140.454
G01 X190.075 Y140.423
G01 X190.049 Y140.391
G01 X190.027 Y140.357
G01 X190.009 Y140.322
G01 X189.994 Y140.286
G01 X189.982 Y140.249
G01 X189.974 Y140.213
G01 X189.970 Y140.176
G01 X189.969 Y140.139
G01 X189.972 Y140.103
G01 X189.978 Y140.067
G01 X189.988 Y140.032
G01 X190.000 Y140.000
G01 X189.955 Y140.120
G01 X189.921 Y140.243
G01 X189.899 Y140.370
G01 X189.890 Y140.500
G01 X189.894 Y140.631
G01 X189.910 Y140.762
G01 X189.939 Y140.893
G01 X189.980 Y141.023
G01 X190.034 Y141.150
G01 X190.100 Y141.275
G01 X190.179 Y141.395
G01 X190.270 Y141.511
G01 X190.372 Y141.620
G01 X190.382 Y141.629
G01 X190.560 Y141.952
G01 X190.770 Y142.260
G01 X191.011 Y142.552
G01 X191.283 Y142.824
G01 X191.583 Y143.075
G01 X191.911 Y143.303
G01 X192.265 Y143.505
G01 X192.642 Y143.680
G01 X193.042 Y143.825
G01 X193.462 Y143.940
G01 X193.899 Y144.021
G01 X194.353 Y144.069
G01 X194.820 Y144.081
G01 X195.298 Y144.057
G01 X195.784 Y143.995
G01 X196.277 Y143.895
G01 X196.773 Y143.755
G01 X197.269 Y143.576
G01 X197.764 Y143.356
G01 X198.253 Y143.097
G01 X198.735 Y142.797
G01 X199.207 Y142.457
G01 X199.666 Y142.078
G01 X200.108 Y141.659
G01 X200.532 Y141.201
G01 X200.935 Y140.706
G01 X201.313 Y140.174
G01 X201.665 Y139.607
G01 X201.988 Y139.005
G01 X202.278 Y138.371
G01 X202.535 Y137.706
G01 X202.755 Y137.013
G01 X202.936 Y136.292
G01 X203.077 Y135.547
G01 X203.174 Y134.779
G01 X203.227 Y133.991
G01 X203.234 Y133.186
G01 X203.193 Y132.366
G01 X203.102 Y131.534
G01 X202.961 Y130.693
G01 X202.768 Y129.846
G01 X202.523 Y128.996
G01 X202.224 Y128.146
G01 X201.872 Y127.299
G01 X201.465 Y126.460
G01 X201.004 Y125.630
G01 X200.488 Y124.814
G01 X199.919 Y124.014
G01 X199.296 Y123.234
G01 X198.619 Y122.478
G01 X197.891 Y121.748
G01 X197.111 Y121.049
G01 X196.282 Y120.382
G01 X195.404 Y119.753
G01 X194.479 Y119.163
G01 X193.509 Y118.616
G01 X192.496 Y118.115
G01 X191.442 Y117.662
G01 X190.350 Y117.261
G01 X189.221 Y116.915
G01 X188.060 Y116.625
G01 X186.868 Y116.394
G01 X185.650 Y116.225
G01 X184.407 Y116.120
G01 X183.143 Y116.080
G01 X181.863 Y116.107
G01 X180.569 Y116.203
G01 X179.265 Y116.369
G01 X177.955 Y116.607
G01 X176.643 Y116.917
G01 X175.332 Y117.300
G01 X174.028 Y117.757
G01 X172.733 Y118.288
G01 X171.453 Y118.894
G01 X170.191 Y119.573
G01 X168.952 Y120.325
G01 X167.739 Y121.151
G01 X166.558 Y122.049
G01 X165.411 Y123.018
G01 X164.304 Y124.057
G01 X163.241 Y125.164
G01 X162.225 Y126.337
G01 X161.260 Y127.575
G01 X160.350 Y128.874
G01 X159.500 Y130.234
G01 X158.713 Y131.650
G01 X157.992 Y133.120
G01 X157.340 Y134.641
G01 X156.762 Y136.210
G01 X156.259 Y137.822
G01 X155.836 Y139.475
G01 X155.495 Y141.164
G01 X155.238 Y142.885
G01 X155.067 Y144.634
G01 X154.985 Y146.407
G01 X154.994 Y148.199
G01 X155.095 Y150.005
G01 X155.290 Y151.821
G01 X155.580 Y153.641
G01 X155.966 Y155.461
G01 X156.448 Y157.276
G01 X157.027 Y159.081
G01 X157.703 Y160.869
G01 X158.476 Y162.637
G01 X159.345 Y164.379
G01 X160.310 Y166.089
G01 X161.370 Y167.763
G01 X162.523 Y169.396
G01 X163.767 Y170.981
G01 X165.102 Y172.514
G01 X166.525 Y173.991
G01 X168.032 Y175.405
G01 X169.623 Y176.753
G01 X171.293 Y178.029
G01 X173.040 Y179.228
G01 X174.860 Y180.348
G01 X176.749 Y181.382
G01 X178.703 Y182.327
G01 X180.719 Y183.180
G01 X182.791 Y183.936
G01 X184.915 Y184.591
G01 X187.086 Y185.143
G01 X189.299 Y185.589
G01 X191.549 Y185.925
G01 X193.830 Y186.150
G01 X196.137 Y186.260
G01 X198.464 Y186.255
G01 X200.805 Y186.131
G01 X203.154 Y185.889
G01 X205.504 Y185.526
G01 X207.851 Y185.043
G01 X210.188 Y184.437
G01 X212.507 Y183.711
G01 X214.804 Y182.863
G01 X217.071 Y181.894
G01 X219.302 Y180.805
G01 X221.491 Y179.598
G01 X223.632 Y178.273
G01 X225.718 Y176.833
G01 X227.743 Y175.280
G01 X229.701 Y173.616
G01 X231.587 Y171.845
G01 X233.393 Y169.969
G01 X235.114 Y167.992
G01 X236.746 Y165.918
G01 X238.282 Y163.750
G01 X239.717 Y161.494
G01 X241.046 Y159.155
G01 X242.264 Y156.736
G01 X243.368 Y154.243
G01 X244.351 Y151.682
G01 X245.211 Y149.059
G01 X245.944 Y146.380
G01 X246.546 Y143.650
G01 X247.014 Y140.876
G01 X247.345 Y138.066
G01 X247.537 Y135.225
G01 X247.588 Y132.360
G01 X247.495 Y129.480
G01 X247.262 Y126.641
G01 X191.363 Y139.682
G01 X191.331 Y139.620
G01 X191.296 Y139.560
G01 X191.259 Y139.502
G01 X191.219 Y139.448
G01 X191.176 Y139.396
G01 X191.132 Y139.346
G01 X191.085 Y139.300
G01 X191.037 Y139.257
G01 X190.987 Y139.216
G01 X190.936 Y139.179
G01 X190.883 Y139.145
G01 X190.829 Y139.114
G01 X190.775 Y139.086
G01 X190.720 Y139.062
G01 X190.664 Y139.040
G01 X190.608 Y139.022
G01 X190.552 Y139.007
G01 X190.495 Y138.995
G01 X190.439 Y138.986
G01 X190.384 Y138.980
G01 X190.328 Y138.978
G01 X190.274 Y138.978
G01 X190.220 Y138.981
G01 X190.167 Y138.987
G01 X190.115 Y138.995
G01 X190.065 Y139.006
G01 X190.016 Y139.020
G01 X189.968 Y139.036
G01 X189.922 Y139.054
G01 X189.878 Y139.074
G01 X189.835 Y139.096
G01 X189.795 Y139.121
G01 X189.756 Y139.147
G01 X189.720 Y139.174
G01 X189.685 Y139.204
G01 X189.653 Y139.234
G01 X189.623 Y139.266
G01 X189.595 Y139.299
G01 X189.570 Y139.333
G01 X189.546 Y139.367
G01 X189.526 Y139.402
G01 X189.507 Y139.438
G01 X189.491 Y139.474
G01 X189.477 Y139.510
G01 X189.465 Y139.547
G01 X189.456 Y139.583
G01 X189.449 Y139.619
G01 X189.444 Y139.655
G01 X189.442 Y139.690
G01 X189.441 Y139.724
G01 X189.442 Y139.758
G01 X189.446 Y139.791
G01 X189.451 Y139.824
G01 X189.458 Y139.855
G01 X189.467 Y139.885
G01 X189.477 Y139.914
G01 X189.489 Y139.941
G01 X189.502 Y139.967
G01 X189.517 Y139.992
G01 X189.532 Y140.015
G01 X189.549 Y140.037
G01 X189.567 Y140.057
G01 X189.586 Y140.075
G01 X189.605 Y140.092
G01 X189.625 Y140.107
G01 X189.645 Y140.120
G01 X189.666 Y140.132
G01 X189.687 Y140.142
G01 X189.708 Y140.150
G01 X189.729 Y140.156
G01 X189.750 Y140.161
G01 X189.771 Y140.164
G01 X189.792 Y140.165
G01 X189.812 Y140.165
G01 X189.831 Y140.163
G01 X189.850 Y140.160
G01 X189.868 Y140.155
G01 X189.885 Y140.149
G01 X189.902 Y140.142
G01 X189.917 Y140.133
G01 X189.931 Y140.124
G01 X189.944 Y140.113
G01 X189.956 Y140.101
G01 X189.967 Y140.089
G01 X189.976 Y140.076
G01 X189.983 Y140.062
G01 X189.990 Y140.047
G01 X189.995 Y140.032
G01 X189.998 Y140.017
G01 X190.000 Y140.002
G01 X190.000 Y140.000
G01 X189.996 Y140.336
G01 X190.026 Y140.671
G01 X190.088 Y141.004
G01 X190.183 Y141.331
G01 X190.310 Y141.650
G01 X190.469 Y141.960
G01 X190.659 Y142.257
G01 X190.879 Y142.539
G01 X191.128 Y142.805
G01 X191.404 Y143.051
G01 X191.708 Y143.276
G01 X192.036 Y143.479
G01 X192.388 Y143.656
G01 X192.762 Y143.806
G01 X193.155 Y143.928
G01 X193.567 Y144.019
G01 X193.995 Y144.080
G01 X194.437 Y144.107
G01 X194.891 Y144.100
G01 X195.354 Y144.058
G01 X195.824 Y143.980
G01 X196.298 Y143.865
G01 X196.775 Y143.713
G01 X197.251 Y143.522
G01 X197.724 Y143.294
G01 X198.191 Y143.028
G01 X198.651 Y142.723
G01 X199.099 Y142.380
G01 X199.533 Y142.000
G01 X199.952 Y141.582
G01 X200.351 Y141.129
G01 X200.729 Y140.639
G01 X201.084 Y140.116
G01 X201.412 Y139.559
G01 X201.711 Y138.970
G01 X201.979 Y138.351
G01 X202.214 Y137.703
G01 X202.413 Y137.028
G01 X202.575 Y136.328
G01 X202.697 Y135.606
G01 X202.777 Y134.863
G01 X202.815 Y134.102
G01 X202.808 Y133.325
G01 X202.755 Y132.535
G01 X202.655 Y131.734
G01 X202.506 Y130.926
G01 X202.307 Y130.113
G01 X202.058 Y129.298
G01 X201.759 Y128.484
G01 X201.548 Y127.982
G01 X201.170 Y127.171
G01 X200.740 Y126.368
G01 X200.258 Y125.576
G01 X199.723 Y124.800
G01 X199.137 Y124.043
G01 X198.499 Y123.307
G01 X197.811 Y122.596
G01 X197.073 Y121.913
G01 X196.286 Y121.261
G01 X195.452 Y120.644
G01 X194.573 Y120.064
G01 X193.650 Y119.525
G01 X192.685 Y119.029
G01 X191.679 Y118.579
G01 X190.636 Y118.178
G01 X189.558 Y117.829
G01 X188.447 Y117.534
G01 X187.306 Y117.296
G01 X186.138 Y117.116
G01 X184.945 Y116.996
G01 X183.732 Y116.940
G01 X182.502 Y116.948
G01 X181.257 Y117.022
G01 X180.002 Y117.163
G01 X178.741 Y117.373
G01 X177.476 Y117.652
G01 X176.211 Y118.002
G01 X174.951 Y118.423
G01 X173.700 Y118.915
G01 X172.462 Y119.478
G01 X171.239 Y120.113
G01 X170.038 Y120.819
G01 X168.861 Y121.595
G01 X167.713 Y122.442
G01 X166.598 Y123.357
G01 X165.519 Y124.340
G01 X164.482 Y125.389
G01 X163.489 Y126.502
G01 X162.544 Y127.678
G01 X161.652 Y128.915
G01 X160.816 Y130.210
G01 X160.039 Y131.560
G01 X159.325 Y132.963
G01 X158.678 Y134.417
G01 X158.100 Y135.917
G01 X157.595 Y137.460
G01 X157.165 Y139.043
G01 X156.814 Y140.662
G01 X156.543 Y142.313
G01 X156.355 Y143.993
G01 X156.252 Y145.696
G01 X156.236 Y147.419
G01 X156.308 Y149.157
G01 X156.470 Y150.906
G01 X156.724 Y152.660
G01 X157.070 Y154.416
G01 X157.509 Y156.168
G01 X158.041 Y157.911
G01 X158.667 Y159.640
G01 X159.386 Y161.351
G01 X160.198 Y163.038
G01 X161.102 Y164.696
G01 X162.098 Y166.321
G01 X163.185 Y167.906
G01 X164.361 Y169.448
G01 X165.623 Y170.941
G01 X166.971 Y172.381
G01 X168.402 Y173.762
G01 X169.914 Y175.080
G01 X171.503 Y176.330
G01 X173.167 Y177.508
G01 X174.902 Y178.609
G01 X176.706 Y179.630
G01 X178.573 Y180.566
G01 X180.500 Y181.413
G01 X182.483 Y182.168
G01 X184.518 Y182.828
G01 X186.599 Y183.389
G01 X188.722 Y183.847
G01 X190.882 Y184.202
G01 X193.073 Y184.449
G01 X195.291 Y184.586
G01 X197.530 Y184.612
G01 X199.784 Y184.525
G01 X202.047 Y184.324
G01 X204.314 Y184.007
G01 X206.578 Y183.573
G01 X208.834 Y183.023
G01 X211.076 Y182.355
G01 X213.297 Y181.570
G01 X215.492 Y180.669
G01 X217.654 Y179.651
G01 X219.777 Y178.519
G01 X221.854 Y177.273
G01 X223.881 Y175.916
G01 X225.851 Y174.449
G01 X227.758 Y172.874
G01 X229.596 Y171.195
G01 X231.359 Y169.414
G01 X233.043 Y167.535
G01 X234.641 Y165.561
G01 X236.148 Y163.496
G01 X237.559 Y161.344
G01 X238.870 Y159.110
G01 X240.075 Y156.798
G01 X241.171 Y154.415
G01 X242.152 Y151.963
G01 X243.015 Y149.450
G01 X243.756 Y146.881
G01 X244.373 Y144.262
G01 X244.860 Y141.599
G01 X245.217 Y138.899
G01 X245.440 Y136.167
G01 X245.527 Y133.411
G01 X245.476 Y130.637
G01 X245.286 Y127.852
G01 X244.956 Y125.063
G01 X244.484 Y122.278
G01 X243.871 Y119.504
G01 X243.116 Y116.747
G01 X242.219 Y114.016
G01 X241.181 Y111.316
G01 X240.757 Y110.315
G01 X191.208 Y139.293
G01 X191.157 Y139.245
G01 X191.105 Y139.199
G01 X191.050 Y139.157
G01 X190.994 Y139.118
G01 X190.937 Y139.083
G01 X190.879 Y139.051
G01 X190.820 Y139.023
G01 X190.760 Y138.998
G01 X190.700 Y138.977
G01 X190.639 Y138.959
G01 X190.579 Y138.944
G01 X190.519 Y138.933
G01 X190.459 Y138.925
G01 X190.399 Y138.921
G01 X190.340 Y138.920
G01 X190.283 Y138.921
G01 X190.226 Y138.926
G01 X190.170 Y138.934
G01 X190.115 Y138.945
G01 X190.062 Y138.958
G01 X190.011 Y138.974
G01 X189.961 Y138.993
G01 X189.914 Y139.013
G01 X189.868 Y139.037
G01 X189.824 Y139.062
G01 X189.782 Y139.089
G01 X189.743 Y139.118
G01 X189.706 Y139.148
G01 X189.671 Y139.180
G01 X189.638 Y139.214
G01 X189.608 Y139.248
G01 X189.581 Y139.284
G01 X189.556 Y139.320
G01 X189.534 Y139.357
G01 X189.514 Y139.394
G01 X189.497 Y139.432
G01 X189.482 Y139.470
G01 X189.469 Y139.509
G01 X189.460 Y139.547
G01 X189.452 Y139.585
G01 X189.447 Y139.622
G01 X189.444 Y139.659
G01 X189.444 Y139.695
G01 X189.446 Y139.731
G01 X189.450 Y139.765
G01 X189.455 Y139.799
G01 X189.463 Y139.831
G01 X189.473 Y139.862
G01 X189.484 Y139.892
G01 X189.497 Y139.920
G01 X189.511 Y139.947
G01 X189.527 Y139.972
G01 X189.544 Y139.995
G01 X189.562 Y140.017
G01 X189.581 Y140.037
G01 X189.601 Y140.055
G01 X189.622 Y140.071
G01 X189.643 Y140.085
G01 X189.665 Y140.098
G01 X189.687 Y140.108
G01 X189.709 Y140.117
G01 X189.731 Y140.124
G01 X189.754 Y140.128
G01 X189.776 Y140.131
G01 X189.797 Y140.132
G01 X189.818 Y140.132
G01 X189.839 Y140.129
G01 X189.859 Y140.125
G01 X189.878 Y140.120
G01 X189.896 Y140.112
G01 X189.913 Y140.104
G01 X189.929 Y140.094
G01 X189.944 Y140.082
G01 X189.957 Y140.070
G01 X189.969 Y140.056
G01 X189.980 Y140.042
G01 X189.989 Y140.026
G01 X189.996 Y140.010
G01 X190.000 Y140.000
G01 X189.957 Y140.153
G01 X189.928 Y140.310
G01 X189.916 Y140.470
G01 X189.918 Y140.632
G01 X189.937 Y140.794
G01 X189.971 Y140.955
G01 X190.021 Y141.114
G01 X190.086 Y141.271
G01 X190.167 Y141.423
G01 X190.263 Y141.570
G01 X190.374 Y141.711
G01 X190.499 Y141.844
G01 X190.595 Y141.933
G01 X190.803 Y142.214
G01 X191.039 Y142.479
G01 X191.303 Y142.725
G01 X191.593 Y142.950
G01 X191.907 Y143.153
G01 X192.246 Y143.331
G01 X192.606 Y143.483
G01 X192.985 Y143.607
G01 X193.383 Y143.701
G01 X193.796 Y143.765
G01 X194.224 Y143.796
G01 X194.663 Y143.794
G01 X195.111 Y143.758
G01 X195.567 Y143.686
G01 X196.027 Y143.578
G01 X196.489 Y143.434
G01 X196.950 Y143.252
G01 X197.409 Y143.033
G01 X197.863 Y142.776
G01 X198.308 Y142.482
G01 X198.742 Y142.151
G01 X199.164 Y141.783
G01 X199.569 Y141.379
G01 X199.956 Y140.939
G01 X200.322 Y140.464
G01 X200.665 Y139.956
G01 X200.982 Y139.415
G01 X201.271 Y138.843
G01 X201.529 Y138.241
G01 X201.754 Y137.611
G01 X201.945 Y136.955
G01 X202.099 Y136.275
G01 X202.214 Y135.572
G01 X202.289 Y134.850
G01 X202.321 Y134.110
G01 X202.310 Y133.354
G01 X202.253 Y132.586
G01 X202.150 Y131.808
G01 X202.000 Y131.023
G01 X201.801 Y130.233
G01 X201.553 Y129.441
G01 X201.255 Y128.651
G01 X200.907 Y127.865
G01 X200.508 Y127.087
G01 X200.059 Y126.319
G01 X199.559 Y125.565
G01 X199.009 Y124.827
G01 X198.409 Y124.110
G01 X197.760 Y123.415
G01 X197.063 Y122.747
G01 X196.318 Y122.107
G01 X195.528 Y121.500
G01 X194.693 Y120.929
G01 X193.815 Y120.395
G01 X192.896 Y119.903
G01 X191.937 Y119.454
G01 X190.942 Y119.051
G01 X189.911 Y118.698
G01 X188.848 Y118.396
G01 X187.756 Y118.148
G01 X186.636 Y117.956
G01 X185.492 Y117.822
G01 X184.327 Y117.747
G01 X183.145 Y117.735
G01 X181.947 Y117.786
G01 X180.738 Y117.901
G01 X179.522 Y118.082
G01 X178.301 Y118.330
G01 X177.080 Y118.646
G01 X175.862 Y119.030
G01 X174.651 Y119.483
G01 X173.450 Y120.005
G01 X172.265 Y120.595
G01 X171.098 Y121.255
G01 X169.954 Y121.983
G01 X168.836 Y122.778
G01 X167.749 Y123.641
G01 X166.696 Y124.569
G01 X165.681 Y125.561
G01 X164.708 Y126.616
G01 X163.780 Y127.732
G01 X162.902 Y128.908
G01 X162.077 Y130.140
G01 X161.309 Y131.427
G01 X160.600 Y132.766
G01 X159.954 Y134.153
G01 X159.374 Y135.587
G01 X158.864 Y137.064
G01 X158.425 Y138.581
G01 X158.061 Y140.133
G01 X157.774 Y141.718
G01 X157.567 Y143.331
G01 X157.441 Y144.968
G01 X157.398 Y146.626
G01 X157.440 Y148.300
G01 X157.569 Y149.986
G01 X157.785 Y151.678
G01 X158.091 Y153.373
G01 X158.485 Y155.066
G01 X158.970 Y156.752
G01 X159.545 Y158.427
G01 X160.210 Y160.085
G01 X160.966 Y161.721
G01 X161.810 Y163.332
G01 X162.744 Y164.911
G01 X163.765 Y166.455
G01 X164.872 Y167.957
G01 X166.065 Y169.414
G01 X167.340 Y170.821
G01 X168.696 Y172.173
G01 X170.131 Y173.466
G01 X171.641 Y174.694
G01 X173.225 Y175.854
G01 X174.878 Y176.942
G01 X176.598 Y177.953
G01 X178.382 Y178.883
G01 X180.224 Y179.729
G01 X182.122 Y180.487
G01 X184.070 Y181.154
G01 X186.066 Y181.726
G01 X188.103 Y182.201
G01 X190.177 Y182.576
G01 X192.284 Y182.848
G01 X194.418 Y183.015
G01 X196.573 Y183.075
G01 X198.745 Y183.026
G01 X200.928 Y182.867
G01 X203.116 Y182.597
G01 X205.303 Y182.215
G01 X207.485 Y181.720
G01 X209.654 Y181.111
G01 X211.806 Y180.390
G01 X213.933 Y179.556
G01 X216.031 Y178.609
G01 X218.093 Y177.552
G01 X220.114 Y176.384
G01 X222.087 Y175.108
G01 X224.007 Y173.725
G01 X225.868 Y172.238
G01 X227.665 Y170.649
G01 X229.391 Y168.961
G01 X231.042 Y167.177
G01 X232.612 Y165.300
G01 X234.096 Y163.334
G01 X235.489 Y161.283
G01 X236.786 Y159.151
G01 X237.983 Y156.943
G01 X239.075 Y154.664
G01 X240.058 Y152.318
G01 X240.928 Y149.910
G01 X241.682 Y147.446
G01 X242.316 Y144.933
G01 X242.827 Y142.375
G01 X243.213 Y139.778
G01 X243.470 Y137.150
G01 X243.596 Y134.496
G01 X243.590 Y131.822
G01 X243.450 Y129.137
G01 X243.175 Y126.445
G01 X242.763 Y123.754
G01 X242.215 Y121.072
G01 X241.530 Y118.404
G01 X240.708 Y115.758
G01 X239.750 Y113.141
G01 X238.656 Y110.560
G01 X237.429 Y108.022
G01 X236.069 Y105.535
G01 X234.578 Y103.104
G01 X232.960 Y100.737
G01 X231.215 Y98.440
G01 X229.717 Y96.641
G01 X190.946 Y138.968
G01 X190.882 Y138.936
G01 X190.818 Y138.909
G01 X190.753 Y138.885
G01 X190.688 Y138.865
G01 X190.623 Y138.848
G01 X190.558 Y138.836
G01 X190.493 Y138.826
G01 X190.429 Y138.821
G01 X190.365 Y138.818
G01 X190.302 Y138.819
G01 X190.240 Y138.824
G01 X190.180 Y138.831
G01 X190.120 Y138.842
G01 X190.062 Y138.855
G01 X190.006 Y138.872
G01 X189.951 Y138.891
G01 X189.899 Y138.913
G01 X189.848 Y138.937
G01 X189.800 Y138.964
G01 X189.753 Y138.992
G01 X189.709 Y139.023
G01 X189.668 Y139.055
G01 X189.629 Y139.090
G01 X189.592 Y139.125
G01 X189.558 Y139.162
G01 X189.527 Y139.201
G01 X189.498 Y139.240
G01 X189.472 Y139.280
G01 X189.449 Y139.321
G01 X189.428 Y139.362
G01 X189.410 Y139.404
G01 X189.395 Y139.446
G01 X189.383 Y139.488
G01 X189.373 Y139.530
G01 X189.366 Y139.571
G01 X189.361 Y139.612
G01 X189.358 Y139.653
G01 X189.358 Y139.692
G01 X189.361 Y139.731
G01 X189.365 Y139.769
G01 X189.372 Y139.806
G01 X189.381 Y139.841
G01 X189.392 Y139.876
G01 X189.404 Y139.908
G01 X189.419 Y139.940
G01 X189.434 Y139.969
G01 X189.452 Y139.997
G01 X189.470 Y140.023
G01 X189.490 Y140.048
G01 X189.511 Y140.070
G01 X189.533 Y140.090
G01 X189.555 Y140.109
G01 X189.579 Y140.125
G01 X189.602 Y140.140
G01 X189.627 Y140.152
G01 X189.651 Y140.163
G01 X189.675 Y140.171
G01 X189.700 Y140.178
G01 X189.724 Y140.182
G01 X189.748 Y140.185
G01 X189.771 Y140.186
G01 X189.794 Y140.185
G01 X189.816 Y140.182
G01 X189.838 Y140.177
G01 X189.858 Y140.171
G01 X189.878 Y140.163
G01 X189.896 Y140.154
G01 X189.913 Y140.143
G01 X189.929 Y140.132
G01 X189.943 Y140.119
G01 X189.956 Y140.105
G01 X189.967 Y140.090
G01 X189.977 Y140.074
G01 X189.985 Y140.057
G01 X189.992 Y140.040
G01 X189.997 Y140.023
G01 X190.000 Y140.005
G01 X190.000 Y140.000
G01 X189.987 Y140.301
G01 X190.005 Y140.603
G01 X190.051 Y140.903
G01 X190.127 Y141.199
G01 X190.232 Y141.489
G01 X190.366 Y141.771
G01 X190.528 Y142.043
G01 X190.717 Y142.302
G01 X190.933 Y142.547
G01 X191.174 Y142.776
G01 X191.440 Y142.987
G01 X191.729 Y143.177
G01 X192.040 Y143.346
G01 X192.371 Y143.491
G01 X192.721 Y143.611
G01 X193.087 Y143.705
G01 X193.470 Y143.771
G01 X193.865 Y143.808
G01 X194.272 Y143.814
G01 X194.689 Y143.789
G01 X195.112 Y143.732
G01 X195.541 Y143.643
G01 X195.973 Y143.519
G01 X196.405 Y143.362
G01 X196.836 Y143.171
G01 X197.263 Y142.945
G01 X197.683 Y142.684
G01 X198.095 Y142.389
G01 X198.495 Y142.060
G01 X198.823 Y141.756
G01 X199.216 Y141.368
G01 X199.592 Y140.946
G01 X199.948 Y140.490
G01 X200.281 Y140.001
G01 X200.590 Y139.481
G01 X200.871 Y138.930
G01 X201.123 Y138.351
G01 X201.344 Y137.745
G01 X201.532 Y137.113
G01 X201.684 Y136.457
G01 X201.798 Y135.780
G01 X201.874 Y135.083
G01 X201.909 Y134.369
G01 X201.901 Y133.640
G01 X201.851 Y132.899
G01 X201.755 Y132.147
G01 X201.614 Y131.388
G01 X201.426 Y130.625
G01 X201.190 Y129.860
G01 X200.906 Y129.096
G01 X200.574 Y128.336
G01 X200.192 Y127.583
G01 X199.762 Y126.840
G01 X199.283 Y126.109
G01 X198.756 Y125.395
G01 X198.180 Y124.700
G01 X197.557 Y124.026
G01 X196.887 Y123.378
G01 X196.171 Y122.757
G01 X195.411 Y122.168
G01 X194.608 Y121.612
G01 X193.763 Y121.093
G01 X192.878 Y120.613
G01 X191.954 Y120.176
G01 X190.995 Y119.783
G01 X190.002 Y119.437
G01 X188.977 Y119.141
G01 X187.923 Y118.896
G01 X186.843 Y118.706
G01 X185.740 Y118.571
G01 X184.615 Y118.494
G01 X183.473 Y118.477
G01 X182.317 Y118.521
G01 X181.149 Y118.627
G01 X179.974 Y118.796
G01 X178.794 Y119.030
G01 X177.613 Y119.330
G01 X176.436 Y119.695
G01 X175.264 Y120.127
G01 X174.103 Y120.626
G01 X172.956 Y121.191
G01 X171.826 Y121.823
G01 X170.718 Y122.521
G01 X169.636 Y123.284
G01 X168.582 Y124.112
G01 X167.561 Y125.004
G01 X166.577 Y125.958
G01 X165.632 Y126.972
G01 X164.732 Y128.046
G01 X163.879 Y129.177
G01 X163.077 Y130.364
G01 X162.329 Y131.603
G01 X161.639 Y132.893
G01 X161.009 Y134.231
G01 X160.443 Y135.613
G01 X159.944 Y137.037
G01 X159.514 Y138.499
G01 X159.155 Y139.997
G01 X158.871 Y141.526
G01 X158.664 Y143.083
G01 X158.535 Y144.664
G01 X158.487 Y146.265
G01 X158.521 Y147.882
G01 X158.638 Y149.510
G01 X158.840 Y151.146
G01 X159.127 Y152.785
G01 X159.501 Y154.421
G01 X159.962 Y156.052
G01 X160.511 Y157.672
G01 X161.146 Y159.276
G01 X161.868 Y160.860
G01 X162.677 Y162.419
G01 X163.572 Y163.948
G01 X164.552 Y165.443
G01 X165.615 Y166.899
G01 X166.761 Y168.312
G01 X167.986 Y169.676
G01 X169.291 Y170.988
G01 X170.671 Y172.242
G01 X172.125 Y173.435
G01 X173.649 Y174.562
G01 X175.242 Y175.620
G01 X176.899 Y176.603
G01 X178.618 Y177.510
G01 X180.394 Y178.335
G01 X182.224 Y179.075
G01 X184.103 Y179.727
G01 X186.028 Y180.288
G01 X187.994 Y180.756
G01 X189.996 Y181.126
G01 X192.030 Y181.398
G01 X194.090 Y181.568
G01 X196.172 Y181.635
G01 X198.270 Y181.597
G01 X200.379 Y181.453
G01 X202.494 Y181.201
G01 X204.609 Y180.841
G01 X206.718 Y180.372
G01 X208.816 Y179.794
G01 X210.898 Y179.106
G01 X212.957 Y178.309
G01 X214.987 Y177.404
G01 X216.984 Y176.390
G01 X218.941 Y175.271
G01 X220.852 Y174.047
G01 X222.713 Y172.719
G01 X224.517 Y171.290
G01 X226.259 Y169.763
G01 X227.934 Y168.139
G01 X229.536 Y166.422
G01 X231.060 Y164.616
G01 X232.502 Y162.723
G01 X233.856 Y160.748
G01 X235.118 Y158.694
G01 X236.284 Y156.565
G01 X237.348 Y154.368
G01 X238.308 Y152.105
G01 X239.159 Y149.783
G01 X239.898 Y147.406
G01 X240.521 Y144.981
G01 X241.025 Y142.511
G01 X241.408 Y140.005
G01 X241.667 Y137.467
G01 X241.801 Y134.903
G01 X241.806 Y132.320
G01 X241.682 Y129.725
G01 X241.427 Y127.123
G01 X241.041 Y124.522
G01 X240.522 Y121.928
G01 X239.872 Y119.348
G01 X239.089 Y116.788
G01 X238.174 Y114.256
G01 X237.128 Y111.758
G01 X235.953 Y109.301
G01 X234.649 Y106.892
G01 X233.220 Y104.537
G01 X231.665 Y102.244
G01 X229.990 Y100.018
G01 X228.196 Y97.865
G01 X226.286 Y95.794
G01 X224.265 Y93.808
G01 X222.135 Y91.916
G01 X219.903 Y90.121
G01 X217.571 Y88.431
G01 X215.144 Y86.849
G01 X215.130 Y86.841
G01 X190.598 Y138.734
G01 X190.528 Y138.725
G01 X190.458 Y138.720
G01 X190.388 Y138.719
G01 X190.320 Y138.722
G01 X190.253 Y138.728
G01 X190.187 Y138.737
G01 X190.123 Y138.750
G01 X190.060 Y138.766
G01 X190.000 Y138.785
G01 X189.941 Y138.807
G01 X189.885 Y138.832
G01 X189.831 Y138.859
G01 X189.779 Y138.889
G01 X189.730 Y138.921
G01 X189.683 Y138.956
G01 X189.639 Y138.992
G01 X189.598 Y139.030
G01 X189.560 Y139.069
G01 X189.524 Y139.110
G01 X189.492 Y139.152
G01 X189.462 Y139.195
G01 X189.436 Y139.239
G01 X189.412 Y139.284
G01 X189.391 Y139.329
G01 X189.374 Y139.374
G01 X189.359 Y139.419
G01 X189.347 Y139.464
G01 X189.338 Y139.509
G01 X189.332 Y139.554
G01 X189.329 Y139.598
G01 X189.328 Y139.641
G01 X189.330 Y139.683
G01 X189.334 Y139.724
G01 X189.341 Y139.764
G01 X189.349 Y139.803
G01 X189.360 Y139.840
G01 X189.374 Y139.876
G01 X189.389 Y139.909
G01 X189.405 Y139.942
G01 X189.424 Y139.972
G01 X189.444 Y140.000
G01 X189.465 Y140.026
G01 X189.487 Y140.051
G01 X189.511 Y140.073
G01 X189.535 Y140.093
G01 X189.560 Y140.110
G01 X189.586 Y140.126
G01 X189.612 Y140.139
G01 X189.638 Y140.150
G01 X189.664 Y140.159
G01 X189.691 Y140.165
G01 X189.717 Y140.170
G01 X189.743 Y140.172
G01 X189.768 Y140.172
G01 X189.793 Y140.170
G01 X189.816 Y140.166
G01 X189.839 Y140.161
G01 X189.861 Y140.153
G01 X189.882 Y140.144
G01 X189.901 Y140.133
G01 X189.920 Y140.120
G01 X189.936 Y140.107
G01 X189.951 Y140.091
G01 X189.964 Y140.075
G01 X189.976 Y140.058
G01 X189.986 Y140.039
G01 X189.994 Y140.020
G01 X190.000 Y140.001
G01 X189.972 Y140.141
G01 X189.959 Y140.284
G01 X189.959 Y140.428
G01 X189.973 Y140.572
G01 X190.001 Y140.716
G01 X190.044 Y140.859
G01 X190.100 Y140.998
G01 X190.171 Y141.133
G01 X190.254 Y141.264
G01 X190.351 Y141.389
G01 X190.461 Y141.507
G01 X190.583 Y141.618
G01 X190.716 Y141.719
G01 X190.861 Y141.812
G01 X191.017 Y141.893
G01 X191.183 Y141.964
G01 X191.357 Y142.022
G01 X191.541 Y142.068
G01 X191.731 Y142.101
G01 X191.929 Y142.119
G01 X192.132 Y142.123
G01 X192.301 Y142.115
G01 X192.544 Y142.118
G01 X192.793 Y142.103
G01 X193.046 Y142.067
G01 X193.303 Y142.012
G01 X193.560 Y141.936
G01 X193.818 Y141.839
G01 X194.074 Y141.722
G01 X194.328 Y141.583
G01 X194.578 Y141.424
G01 X194.821 Y141.244
G01 X195.058 Y141.044
G01 X195.287 Y140.823
G01 X195.505 Y140.582
G01 X195.712 Y140.321
G01 X195.906 Y140.042
G01 X196.087 Y139.744
G01 X196.251 Y139.429
G01 X196.399 Y139.097
G01 X196.530 Y138.750
G01 X196.641 Y138.387
G01 X196.731 Y138.010
G01 X196.800 Y137.621
G01 X196.847 Y137.221
G01 X196.871 Y136.810
G01 X196.870 Y136.390
G01 X196.845 Y135.964
G01 X196.793 Y135.531
G01 X196.715 Y135.093
G01 X196.611 Y134.653
G01 X196.479 Y134.212
G01 X196.319 Y133.771
G01 X196.131 Y133.331
G01 X195.915 Y132.896
G01 X195.671 Y132.466
G01 X195.399 Y132.044
G01 X195.098 Y131.630
G01 X194.770 Y131.227
G01 X194.414 Y130.837
G01 X194.031 Y130.460
G01 X193.622 Y130.100
G01 X193.187 Y129.757
G01 X192.727 Y129.433
G01 X192.243 Y129.131
G01 X191.735 Y128.850
G01 X191.206 Y128.594
G01 X190.655 Y128.364
G01 X190.084 Y128.160
G01 X189.496 Y127.985
G01 X188.890 Y127.840
G01 X188.269 Y127.725
G01 X187.633 Y127.643
G01 X186.986 Y127.594
G01 X186.329 Y127.579
G01 X185.662 Y127.599
G01 X184.989 Y127.655
G01 X184.311 Y127.747
G01 X183.631 Y127.877
G01 X182.949 Y128.044
G01 X182.269 Y128.250
G01 X181.593 Y128.494
G01 X180.922 Y128.776
G01 X180.258 Y129.097
G01 X179.605 Y129.456
G01 X178.964 Y129.853
G01 X178.336 Y130.288
G01 X177.726 Y130.760
G01 X177.134 Y131.270
G01 X176.563 Y131.815
G01 X176.014 Y132.396
G01 X175.491 Y133.011
G01 X174.995 Y133.659
G01 X174.527 Y134.339
G01 X174.091 Y135.050
G01 X173.688 Y135.790
G01 X173.320 Y136.558
G01 X172.988 Y137.352
G01 X172.694 Y138.171
G01 X172.440 Y139.012
G01 X172.227 Y139.873
G01 X172.057 Y140.753
G01 X171.931 Y141.650
G01 X171.850 Y142.560
G01 X171.815 Y143.483
G01 X171.828 Y144.414
G01 X171.889 Y145.353
G01 X171.998 Y146.297
G01 X172.157 Y147.242
G01 X172.366 Y148.187
G01 X172.624 Y149.129
G01 X172.933 Y150.065
G01 X173.293 Y150.992
G01 X173.703 Y151.908
G01 X174.162 Y152.810
G01 X174.672 Y153.695
G01 X175.230 Y154.561
G01 X175.837 Y155.404
G01 X176.491 Y156.223
G01 X177.192 Y157.015
G01 X177.938 Y157.776
G01 X178.729 Y158.505
G01 X179.562 Y159.198
G01 X180.436 Y159.855
G01 X181.349 Y160.471
G01 X182.300 Y161.045
G01 X183.287 Y161.574
G01 X184.308 Y162.057
G01 X185.359 Y162.492
G01 X186.440 Y162.875
G01 X187.547 Y163.207
G01 X188.678 Y163.484
G01 X189.831 Y163.706
G01 X191.002 Y163.871
G01 X192.189 Y163.978
G01 X193.389 Y164.025
G01 X194.599 Y164.012
G01 X195.815 Y163.938
G01 X197.035 Y163.802
G01 X198.256 Y163.603
G01 X199.474 Y163.341
G01 X200.686 Y163.016
G01 X201.888 Y162.628
G01 X203.079 Y162.177
G01 X204.253 Y161.664
G01 X205.408 Y161.088
G01 X206.541 Y160.451
G01 X207.648 Y159.753
G01 X208.726 Y158.995
G01 X209.772 Y158.179
G01 X210.783 Y157.306
G01 X211.755 Y156.376
G01 X212.686 Y155.393
G01 X213.572 Y154.358
G01 X214.411 Y153.273
G01 X215.200 Y152.139
G01 X215.936 Y150.960
G01 X216.617 Y149.738
G01 X217.240 Y148.476
G01 X217.802 Y147.175
G01 X218.303 Y145.840
G01 X218.738 Y144.473
G01 X219.108 Y143.077
G01 X219.409 Y141.655
G01 X219.640 Y140.211
G01 X219.800 Y138.749
G01 X219.887 Y137.271
G01 X219.901 Y135.782
G01 X219.840 Y134.285
G01 X219.704 Y132.784
G01 X219.492 Y131.283
G01 X219.203 Y129.785
G01 X218.839 Y128.295
G01 X218.398 Y126.816
G01 X217.881 Y125.352
G01 X217.288 Y123.907
G01 X216.621 Y122.486
G01 X215.879 Y121.091
G01 X215.064 Y119.728
G01 X214.178 Y118.399
G01 X213.221 Y117.108
G01 X212.195 Y115.860
G01 X211.102 Y114.657
G01 X209.945 Y113.504
G01 X208.725 Y112.404
G01 X207.445 Y111.360
G01 X206.107 Y110.376
G01 X204.715 Y109.454
G01 X203.270 Y108.598
G01 X201.777 Y107.811
G01 X200.239 Y107.095
G01 X198.658 Y106.452
G01 X197.039 Y105.886
G01 X195.385 Y105.399
G01 X193.700 Y104.992
G01 X191.988 Y104.667
G01 X190.254 Y104.427
G01 X188.500 Y104.272
G01 X186.732 Y104.204
G01 X184.954 Y104.224
G01 X183.169 Y104.333
G01 X181.384 Y104.530
G01 X179.601 Y104.818
G01 X177.826 Y105.196
G01 X176.063 Y105.663
G01 X174.317 Y106.220
G01 X172.592 Y106.866
G01 X170.893 Y107.601
G01 X169.225 Y108.422
G01 X167.591 Y109.330
G01 X165.996 Y110.322
G01 X164.445 Y111.398
G01 X162.943 Y112.554
G01 X161.492 Y113.789
G01 X160.098 Y115.101
G01 X158.764 Y116.487
G01 X157.494 Y117.944
G01 X156.293 Y119.469
G01 X155.163 Y121.059
G01 X154.109 Y122.710
G01 X153.133 Y124.420
G01 X152.239 Y126.184
G01 X151.429 Y127.999
G01 X150.707 Y129.859
G01 X150.075 Y131.762
G01 X149.536 Y133.703
G01 X149.091 Y135.676
G01 X148.743 Y137.678
G01 X148.494 Y139.704
G01 X148.344 Y141.749
G01 X148.295 Y143.808
G01 X148.349 Y145.875
G01 X148.505 Y147.947
G01 X148.765 Y150.017
G01 X149.128 Y152.081
G01 X149.595 Y154.133
G01 X150.165 Y156.168
G01 X150.838 Y158.181
G01 X151.614 Y160.167
G01 X152.490 Y162.121
G01 X153.465 Y164.037
G01 X154.539 Y165.910
G01 X155.709 Y167.735
G01 X156.973 Y169.508
G01 X158.329 Y171.223
G01 X159.773 Y172.876
G01 X161.304 Y174.462
G01 X162.918 Y175.977
G01 X164.612 Y177.416
G01 X166.382 Y178.775
G01 X168.224 Y180.050
G01 X170.135 Y181.237
G01 X172.110 Y182.333
G01 X174.146 Y183.334
G01 X176.236 Y184.237
G01 X178.377 Y185.038
G01 X180.563 Y185.736
G01 X182.790 Y186.327
G01 X185.052 Y186.809
G01 X187.345 Y187.181
G01 X189.662 Y187.440
G01 X191.998 Y187.584
G01 X194.347 Y187.614
G01 X196.704 Y187.527
G01 X199.063 Y187.323
G01 X201.418 Y187.001
G01 X203.763 Y186.562
G01 X206.092 Y186.006
G01 X208.400 Y185.333
G01 X210.680 Y184.543
G01 X212.927 Y183.639
G01 X215.135 Y182.621
G01 X217.298 Y181.491
G01 X219.410 Y180.252
G01 X221.466 Y178.904
G01 X223.461 Y177.452
G01 X225.389 Y175.897
G01 X227.244 Y174.243
G01 X229.022 Y172.493
G01 X230.717 Y170.650
G01 X232.325 Y168.720
G01 X233.842 Y166.705
G01 X235.262 Y164.610
G01 X236.583 Y162.440
G01 X237.798 Y160.199
G01 X238.906 Y157.893
G01 X239.902 Y155.527
G01 X240.783 Y153.106
G01 X241.547 Y150.636
G01 X242.190 Y148.122
G01 X242.710 Y145.571
G01 X243.105 Y142.989
G01 X243.373 Y140.381
G01 X243.513 Y137.753
G01 X243.523 Y135.114
G01 X243.402 Y132.467
G01 X243.150 Y129.821
G01 X242.767 Y127.182
G01 X242.252 Y124.555
G01 X241.606 Y121.949
G01 X240.830 Y119.369
G01 X239.925 Y116.821
G01 X238.892 Y114.313
G01 X237.732 Y111.851
G01 X236.448 Y109.441
G01 X235.043 Y107.089
G01 X233.518 Y104.802
G01 X231.877 Y102.586
G01 X230.122 Y100.446
G01 X228.259 Y98.388
G01 X226.289 Y96.419
G01 X224.219 Y94.542
G01 X222.051 Y92.765
G01 X219.791 Y91.091
G01 X217.444 Y89.525
G01 X215.015 Y88.072
G01 X212.509 Y86.736
G01 X209.932 Y85.522
G01 X207.290 Y84.432
G01 X204.589 Y83.471
G01 X201.835 Y82.642
G01 X199.035 Y81.947
G01 X198.298 Y81.788
G01 X190.198 Y138.614
G01 X190.127 Y138.629
G01 X190.059 Y138.647
G01 X189.992 Y138.668
G01 X189.928 Y138.693
G01 X189.867 Y138.721
G01 X189.808 Y138.751
G01 X189.751 Y138.785
G01 X189.697 Y138.821
G01 X189.647 Y138.859
G01 X189.599 Y138.899
G01 X189.554 Y138.941
G01 X189.513 Y138.984
G01 X189.474 Y139.030
G01 X189.439 Y139.076
G01 X189.407 Y139.124
G01 X189.379 Y139.172
G01 X189.353 Y139.221
G01 X189.331 Y139.270
G01 X189.312 Y139.320
G01 X189.297 Y139.370
G01 X189.284 Y139.420
G01 X189.275 Y139.469
G01 X189.269 Y139.518
G01 X189.266 Y139.566
G01 X189.266 Y139.613
G01 X189.268 Y139.659
G01 X189.273 Y139.704
G01 X189.281 Y139.747
G01 X189.292 Y139.789
G01 X189.304 Y139.830
G01 X189.319 Y139.869
G01 X189.336 Y139.905
G01 X189.355 Y139.940
G01 X189.375 Y139.973
G01 X189.398 Y140.003
G01 X189.421 Y140.032
G01 X189.446 Y140.058
G01 X189.472 Y140.081
G01 X189.499 Y140.103
G01 X189.527 Y140.121
G01 X189.555 Y140.138
G01 X189.584 Y140.152
G01 X189.613 Y140.163
G01 X189.642 Y140.172
G01 X189.671 Y140.178
G01 X189.699 Y140.182
G01 X189.728 Y140.184
G01 X189.755 Y140.184
G01 X189.782 Y140.181
G01 X189.808 Y140.176
G01 X189.833 Y140.169
G01 X189.857 Y140.160
G01 X189.879 Y140.149
G01 X189.900 Y140.137
G01 X189.919 Y140.122
G01 X189.937 Y140.106
G01 X189.953 Y140.089
G01 X189.967 Y140.071
G01 X189.979 Y140.051
G01 X189.989 Y140.031
G01 X189.997 Y140.009
G01 X190.000 Y140.000
G01 X189.960 Y140.180
G01 X189.938 Y140.364
G01 X189.933 Y140.550
G01 X189.947 Y140.737
G01 X189.979 Y140.923
G01 X190.030 Y141.107
G01 X190.098 Y141.289
G01 X190.184 Y141.465
G01 X190.287 Y141.637
G01 X190.408 Y141.800
G01 X190.546 Y141.956
G01 X190.699 Y142.102
G01 X190.868 Y142.237
G01 X191.052 Y142.361
G01 X191.072 Y142.372
G01 X191.324 Y142.585
G01 X191.600 Y142.778
G01 X191.897 Y142.949
G01 X192.214 Y143.098
G01 X192.551 Y143.222
G01 X192.904 Y143.319
G01 X193.273 Y143.389
G01 X193.655 Y143.431
G01 X194.048 Y143.443
G01 X194.451 Y143.423
G01 X194.861 Y143.373
G01 X195.276 Y143.289
G01 X195.694 Y143.173
G01 X196.113 Y143.023
G01 X196.530 Y142.840
G01 X196.943 Y142.623
G01 X197.350 Y142.371
G01 X197.749 Y142.086
G01 X198.136 Y141.767
G01 X198.510 Y141.415
G01 X198.868 Y141.031
G01 X199.209 Y140.614
G01 X199.529 Y140.167
G01 X199.827 Y139.690
G01 X200.100 Y139.184
G01 X200.346 Y138.650
G01 X200.564 Y138.090
G01 X200.751 Y137.506
G01 X200.905 Y136.899
G01 X201.025 Y136.272
G01 X201.109 Y135.625
G01 X201.156 Y134.961
G01 X201.163 Y134.282
G01 X201.130 Y133.591
G01 X201.056 Y132.890
G01 X200.939 Y132.181
G01 X200.778 Y131.466
G01 X200.573 Y130.750
G01 X200.323 Y130.033
G01 X200.028 Y129.319
G01 X199.686 Y128.610
G01 X199.300 Y127.910
G01 X198.867 Y127.221
G01 X198.388 Y126.545
G01 X197.865 Y125.887
G01 X197.296 Y125.248
G01 X196.684 Y124.631
G01 X196.028 Y124.040
G01 X195.330 Y123.477
G01 X194.591 Y122.945
G01 X193.813 Y122.446
G01 X192.996 Y121.982
G01 X192.143 Y121.558
G01 X191.256 Y121.175
G01 X190.336 Y120.834
G01 X189.386 Y120.540
G01 X188.407 Y120.293
G01 X187.403 Y120.097
G01 X186.376 Y119.952
G01 X185.329 Y119.860
G01 X184.264 Y119.824
G01 X183.184 Y119.844
G01 X182.093 Y119.923
G01 X180.993 Y120.061
G01 X179.889 Y120.258
G01 X178.782 Y120.517
G01 X177.676 Y120.838
G01 X176.576 Y121.221
G01 X175.484 Y121.666
G01 X174.403 Y122.174
G01 X173.338 Y122.744
G01 X172.292 Y123.376
G01 X171.268 Y124.070
G01 X170.270 Y124.824
G01 X169.302 Y125.639
G01 X168.367 Y126.513
G01 X167.468 Y127.444
G01 X166.609 Y128.431
G01 X165.793 Y129.472
G01 X165.024 Y130.567
G01 X164.305 Y131.711
G01 X163.638 Y132.903
G01 X163.027 Y134.142
G01 X162.475 Y135.423
G01 X161.984 Y136.744
G01 X161.558 Y138.103
G01 X161.198 Y139.495
G01 X160.907 Y140.919
G01 X160.687 Y142.369
G01 X160.540 Y143.844
G01 X160.467 Y145.338
G01 X160.471 Y146.849
G01 X160.553 Y148.372
G01 X160.714 Y149.903
G01 X160.955 Y151.439
G01 X161.277 Y152.974
G01 X161.680 Y154.505
G01 X162.165 Y156.027
G01 X162.732 Y157.537
G01 X163.380 Y159.029
G01 X164.110 Y160.499
G01 X164.920 Y161.943
G01 X165.810 Y163.357
G01 X166.779 Y164.735
G01 X167.826 Y166.074
G01 X168.948 Y167.369
G01 X170.145 Y168.617
G01 X171.414 Y169.812
G01 X172.752 Y170.951
G01 X174.158 Y172.030
G01 X175.629 Y173.045
G01 X177.161 Y173.992
G01 X178.752 Y174.868
G01 X180.398 Y175.669
G01 X182.096 Y176.391
G01 X183.842 Y177.032
G01 X185.631 Y177.589
G01 X187.461 Y178.059
G01 X189.326 Y178.439
G01 X191.223 Y178.726
G01 X193.146 Y178.920
G01 X195.091 Y179.017
G01 X197.053 Y179.017
G01 X199.027 Y178.917
G01 X201.008 Y178.717
G01 X202.991 Y178.416
G01 X204.970 Y178.012
G01 X206.941 Y177.506
G01 X208.899 Y176.898
G01 X210.837 Y176.187
G01 X212.750 Y175.375
G01 X214.634 Y174.461
G01 X216.482 Y173.447
G01 X218.289 Y172.334
G01 X220.051 Y171.123
G01 X221.762 Y169.817
G01 X223.416 Y168.418
G01 X225.009 Y166.928
G01 X226.535 Y165.349
G01 X227.991 Y163.685
G01 X229.370 Y161.939
G01 X230.669 Y160.115
G01 X231.884 Y158.215
G01 X233.009 Y156.244
G01 X234.041 Y154.207
G01 X234.975 Y152.107
G01 X235.810 Y149.950
G01 X236.540 Y147.739
G01 X237.163 Y145.481
G01 X237.675 Y143.180
G01 X238.075 Y140.843
G01 X238.360 Y138.473
G01 X238.527 Y136.078
G01 X238.574 Y133.662
G01 X238.501 Y131.233
G01 X238.306 Y128.796
G01 X237.988 Y126.357
G01 X237.546 Y123.922
G01 X236.980 Y121.498
G01 X236.290 Y119.091
G01 X235.476 Y116.708
G01 X234.540 Y114.354
G01 X233.481 Y112.036
G01 X232.302 Y109.761
G01 X231.003 Y107.535
G01 X229.587 Y105.364
G01 X228.057 Y103.254
G01 X226.414 Y101.212
G01 X224.662 Y99.242
G01 X222.804 Y97.352
G01 X220.844 Y95.546
G01 X218.784 Y93.830
G01 X216.631 Y92.211
G01 X214.388 Y90.691
G01 X212.059 Y89.278
G01 X209.650 Y87.975
G01 X207.166 Y86.787
G01 X204.612 Y85.718
G01 X201.995 Y84.772
G01 X199.320 Y83.953
G01 X196.594 Y83.264
G01 X193.822 Y82.708
G01 X191.011 Y82.288
G01 X188.169 Y82.007
G01 X185.301 Y81.867
G01 X182.416 Y81.869
G01 X180.725 Y81.936
G01 X189.779 Y138.618
G01 X189.717 Y138.657
G01 X189.659 Y138.700
G01 X189.604 Y138.745
G01 X189.553 Y138.792
G01 X189.505 Y138.841
G01 X189.461 Y138.892
G01 X189.421 Y138.945
G01 X189.384 Y138.998
G01 X189.352 Y139.053
G01 X189.323 Y139.108
G01 X189.298 Y139.164
G01 X189.277 Y139.220
G01 X189.260 Y139.276
G01 X189.246 Y139.332
G01 X189.236 Y139.387
G01 X189.229 Y139.442
G01 X189.226 Y139.495
G01 X189.227 Y139.548
G01 X189.230 Y139.600
G01 X189.237 Y139.650
G01 X189.247 Y139.698
G01 X189.259 Y139.744
G01 X189.275 Y139.789
G01 X189.293 Y139.831
G01 X189.313 Y139.871
G01 X189.335 Y139.909
G01 X189.359 Y139.944
G01 X189.385 Y139.977
G01 X189.413 Y140.007
G01 X189.442 Y140.034
G01 X189.472 Y140.058
G01 X189.503 Y140.079
G01 X189.535 Y140.098
G01 X189.568 Y140.113
G01 X189.600 Y140.126
G01 X189.633 Y140.136
G01 X189.666 Y140.143
G01 X189.699 Y140.147
G01 X189.731 Y140.148
G01 X189.762 Y140.146
G01 X189.793 Y140.142
G01 X189.822 Y140.135
G01 X189.851 Y140.125
G01 X189.878 Y140.113
G01 X189.903 Y140.099
G01 X189.927 Y140.083
G01 X189.948 Y140.065
G01 X189.968 Y140.044
G01 X189.985 Y140.022
G01 X190.000 Y140.000
G01 X189.961 Y140.074
G01 X189.930 Y140.151
G01 X189.906 Y140.232
G01 X189.890 Y140.315
G01 X189.883 Y140.400
G01 X189.883 Y140.486
G01 X189.891 Y140.573
G01 X189.908 Y140.661
G01 X189.933 Y140.747
G01 X189.966 Y140.833
G01 X190.008 Y140.917
G01 X190.058 Y140.999
G01 X190.116 Y141.078
G01 X190.181 Y141.153
G01 X190.255 Y141.224
G01 X190.266 Y141.234
G01 X190.402 Y141.502
G01 X190.564 Y141.758
G01 X190.752 Y142.002
G01 X190.966 Y142.231
G01 X191.203 Y142.443
G01 X191.463 Y142.636
G01 X191.745 Y142.809
G01 X192.047 Y142.960
G01 X192.367 Y143.088
G01 X192.704 Y143.191
G01 X193.057 Y143.268
G01 X193.424 Y143.317
G01 X193.802 Y143.338
G01 X194.190 Y143.329
G01 X194.585 Y143.289
G01 X194.987 Y143.219
G01 X195.391 Y143.116
G01 X195.797 Y142.982
G01 X196.203 Y142.814
G01 X196.605 Y142.614
G01 X197.002 Y142.381
G01 X197.391 Y142.115
G01 X197.770 Y141.816
G01 X198.137 Y141.485
G01 X198.490 Y141.122
G01 X198.826 Y140.728
G01 X199.143 Y140.304
G01 X199.439 Y139.850
G01 X199.711 Y139.369
G01 X199.959 Y138.860
G01 X200.179 Y138.325
G01 X200.370 Y137.766
G01 X200.530 Y137.184
G01 X200.657 Y136.582
G01 X200.750 Y135.960
G01 X200.807 Y135.322
G01 X200.826 Y134.668
G01 X200.807 Y134.002
G01 X200.748 Y133.324
G01 X200.647 Y132.639
G01 X200.505 Y131.948
G01 X200.320 Y131.253
G01 X200.092 Y130.558
G01 X199.820 Y129.864
G01 X199.503 Y129.175
G01 X199.142 Y128.493
G01 X198.737 Y127.821
G01 X198.287 Y127.162
G01 X197.793 Y126.518
G01 X197.256 Y125.892
G01 X196.676 Y125.287
G01 X196.053 Y124.705
G01 X195.389 Y124.150
G01 X194.686 Y123.624
G01 X193.943 Y123.130
G01 X193.163 Y122.669
G01 X192.347 Y122.245
G01 X191.497 Y121.861
G01 X190.615 Y121.517
G01 X189.702 Y121.217
G01 X188.762 Y120.963
G01 X187.796 Y120.757
G01 X186.807 Y120.600
G01 X185.798 Y120.494
G01 X184.770 Y120.442
G01 X183.728 Y120.444
G01 X182.673 Y120.502
G01 X181.609 Y120.617
G01 X180.539 Y120.790
G01 X179.466 Y121.022
G01 X178.393 Y121.314
G01 X177.324 Y121.665
G01 X176.262 Y122.078
G01 X175.211 Y122.550
G01 X174.173 Y123.084
G01 X173.152 Y123.678
G01 X172.152 Y124.331
G01 X171.176 Y125.044
G01 X170.228 Y125.816
G01 X169.310 Y126.645
G01 X168.427 Y127.530
G01 X167.581 Y128.470
G01 X166.776 Y129.463
G01 X166.016 Y130.508
G01 X165.302 Y131.602
G01 X164.639 Y132.744
G01 X164.029 Y133.930
G01 X163.476 Y135.159
G01 X162.981 Y136.429
G01 X162.547 Y137.735
G01 X162.177 Y139.075
G01 X161.873 Y140.446
G01 X161.637 Y141.844
G01 X161.472 Y143.267
G01 X161.378 Y144.710
G01 X161.358 Y146.170
G01 X161.413 Y147.644
G01 X161.545 Y149.126
G01 X161.754 Y150.614
G01 X162.040 Y152.104
G01 X162.406 Y153.590
G01 X162.851 Y155.069
G01 X163.375 Y156.537
G01 X163.978 Y157.990
G01 X164.660 Y159.423
G01 X165.421 Y160.832
G01 X166.260 Y162.212
G01 X167.175 Y163.560
G01 X168.166 Y164.871
G01 X169.231 Y166.141
G01 X170.368 Y167.366
G01 X171.576 Y168.542
G01 X172.853 Y169.664
G01 X174.195 Y170.730
G01 X175.602 Y171.734
G01 X177.069 Y172.674
G01 X178.593 Y173.545
G01 X180.173 Y174.346
G01 X181.803 Y175.071
G01 X183.482 Y175.718
G01 X185.204 Y176.284
G01 X186.966 Y176.767
G01 X188.764 Y177.163
G01 X190.594 Y177.471
G01 X192.451 Y177.689
G01 X194.330 Y177.813
G01 X196.228 Y177.843
G01 X198.139 Y177.778
G01 X200.058 Y177.615
G01 X201.981 Y177.354
G01 X203.902 Y176.995
G01 X205.816 Y176.536
G01 X207.719 Y175.978
G01 X209.605 Y175.320
G01 X211.468 Y174.564
G01 X213.305 Y173.709
G01 X215.108 Y172.757
G01 X216.874 Y171.708
G01 X218.597 Y170.565
G01 X220.272 Y169.328
G01 X221.894 Y168.000
G01 X223.458 Y166.583
G01 X224.960 Y165.079
G01 X226.393 Y163.492
G01 X227.755 Y161.824
G01 X229.040 Y160.079
G01 X230.244 Y158.260
G01 X231.363 Y156.371
G01 X232.393 Y154.415
G01 X233.330 Y152.398
G01 X234.171 Y150.323
G01 X234.912 Y148.196
G01 X235.549 Y146.021
G01 X236.081 Y143.803
G01 X236.504 Y141.547
G01 X236.816 Y139.258
G01 X237.014 Y136.943
G01 X237.098 Y134.607
G01 X237.065 Y132.255
G01 X236.913 Y129.893
G01 X236.643 Y127.528
G01 X236.253 Y125.165
G01 X235.743 Y122.811
G01 X235.112 Y120.471
G01 X234.362 Y118.152
G01 X233.492 Y115.860
G01 X232.503 Y113.601
G01 X231.396 Y111.381
G01 X230.174 Y109.207
G01 X228.837 Y107.084
G01 X227.389 Y105.018
G01 X225.831 Y103.016
G01 X224.165 Y101.083
G01 X222.396 Y99.225
G01 X220.527 Y97.447
G01 X218.560 Y95.755
G01 X216.501 Y94.154
G01 X214.353 Y92.649
G01 X212.121 Y91.245
G01 X209.810 Y89.947
G01 X207.424 Y88.759
G01 X204.969 Y87.685
G01 X202.450 Y86.729
G01 X199.874 Y85.895
G01 X197.245 Y85.186
G01 X194.571 Y84.605
G01 X191.857 Y84.156
G01 X189.110 Y83.840
G01 X186.337 Y83.660
G01 X183.543 Y83.617
G01 X180.737 Y83.714
G01 X177.925 Y83.951
G01 X175.114 Y84.329
G01 X172.311 Y84.848
G01 X169.523 Y85.509
G01 X166.758 Y86.311
G01 X164.023 Y87.255
G01 X163.980 Y87.271
G01 X189.380 Y138.745
G01 X189.333 Y138.801
G01 X189.290 Y138.859
G01 X189.251 Y138.919
G01 X189.216 Y138.979
G01 X189.185 Y139.040
G01 X189.158 Y139.102
G01 X189.136 Y139.164
G01 X189.117 Y139.226
G01 X189.102 Y139.288
G01 X189.091 Y139.349
G01 X189.084 Y139.410
G01 X189.081 Y139.469
G01 X189.081 Y139.528
G01 X189.084 Y139.585
G01 X189.091 Y139.641
G01 X189.102 Y139.695
G01 X189.115 Y139.747
G01 X189.131 Y139.798
G01 X189.150 Y139.846
G01 X189.171 Y139.891
G01 X189.195 Y139.934
G01 X189.221 Y139.975
G01 X189.249 Y140.012
G01 X189.279 Y140.047
G01 X189.310 Y140.080
G01 X189.342 Y140.109
G01 X189.376 Y140.135
G01 X189.411 Y140.158
G01 X189.446 Y140.178
G01 X189.482 Y140.195
G01 X189.518 Y140.209
G01 X189.554 Y140.220
G01 X189.590 Y140.228
G01 X189.626 Y140.233
G01 X189.661 Y140.235
G01 X189.695 Y140.234
G01 X189.728 Y140.231
G01 X189.761 Y140.224
G01 X189.791 Y140.216
G01 X189.821 Y140.204
G01 X189.849 Y140.191
G01 X189.875 Y140.175
G01 X189.899 Y140.157
G01 X189.921 Y140.138
G01 X189.940 Y140.116
G01 X189.958 Y140.093
G01 X189.973 Y140.069
G01 X189.985 Y140.044
G01 X189.995 Y140.017
G01 X190.000 Y140.000
G01 X189.963 Y140.185
G01 X189.944 Y140.372
G01 X189.944 Y140.562
G01 X189.962 Y140.752
G01 X189.999 Y140.941
G01 X190.054 Y141.128
G01 X190.127 Y141.312
G01 X190.219 Y141.490
G01 X190.328 Y141.662
G01 X190.455 Y141.827
G01 X190.598 Y141.983
G01 X190.758 Y142.128
G01 X190.933 Y142.263
G01 X191.124 Y142.384
G01 X191.323 Y142.490
G01 X191.588 Y142.666
G01 X191.874 Y142.821
G01 X192.179 Y142.953
G01 X192.500 Y143.062
G01 X192.837 Y143.147
G01 X193.188 Y143.204
G01 X193.551 Y143.235
G01 X193.924 Y143.237
G01 X194.306 Y143.210
G01 X194.693 Y143.153
G01 X195.085 Y143.066
G01 X195.479 Y142.947
G01 X195.873 Y142.796
G01 X196.264 Y142.614
G01 X196.652 Y142.399
G01 X197.033 Y142.153
G01 X197.404 Y141.875
G01 X197.765 Y141.565
G01 X198.113 Y141.225
G01 X198.445 Y140.854
G01 X198.760 Y140.453
G01 X199.055 Y140.023
G01 X199.329 Y139.566
G01 X199.578 Y139.081
G01 X199.802 Y138.572
G01 X199.998 Y138.038
G01 X200.165 Y137.481
G01 X200.301 Y136.904
G01 X200.404 Y136.308
G01 X200.472 Y135.694
G01 X200.505 Y135.064
G01 X200.500 Y134.422
G01 X200.457 Y133.768
G01 X200.375 Y133.106
G01 X200.252 Y132.437
G01 X200.088 Y131.764
G01 X199.883 Y131.089
G01 X199.634 Y130.415
G01 X199.343 Y129.744
G01 X199.009 Y129.079
G01 X198.632 Y128.423
G01 X198.212 Y127.778
G01 X197.748 Y127.147
G01 X197.243 Y126.533
G01 X196.695 Y125.938
G01 X196.106 Y125.365
G01 X195.477 Y124.816
G01 X194.808 Y124.295
G01 X194.101 Y123.803
G01 X193.358 Y123.343
G01 X192.578 Y122.918
G01 X191.766 Y122.530
G01 X190.921 Y122.182
G01 X190.046 Y121.875
G01 X189.144 Y121.611
G01 X188.215 Y121.393
G01 X187.264 Y121.223
G01 X186.291 Y121.101
G01 X185.300 Y121.031
G01 X184.293 Y121.013
G01 X183.274 Y121.049
G01 X182.244 Y121.139
G01 X181.207 Y121.286
G01 X180.167 Y121.490
G01 X179.125 Y121.751
G01 X178.086 Y122.071
G01 X177.052 Y122.449
G01 X176.028 Y122.886
G01 X175.015 Y123.381
G01 X174.018 Y123.936
G01 X173.039 Y124.548
G01 X172.083 Y125.219
G01 X171.152 Y125.946
G01 X170.250 Y126.730
G01 X169.380 Y127.569
G01 X168.545 Y128.461
G01 X167.749 Y129.406
G01 X166.994 Y130.402
G01 X166.284 Y131.446
G01 X165.622 Y132.537
G01 X165.010 Y133.672
G01 X164.452 Y134.850
G01 X163.950 Y136.068
G01 X163.506 Y137.322
G01 X163.124 Y138.611
G01 X162.804 Y139.930
G01 X162.551 Y141.278
G01 X162.364 Y142.651
G01 X162.247 Y144.044
G01 X162.201 Y145.456
G01 X162.227 Y146.881
G01 X162.327 Y148.317
G01 X162.501 Y149.760
G01 X162.751 Y151.205
G01 X163.077 Y152.650
G01 X163.480 Y154.088
G01 X163.959 Y155.518
G01 X164.516 Y156.934
G01 X165.150 Y158.332
G01 X165.860 Y159.708
G01 X166.645 Y161.059
G01 X167.506 Y162.380
G01 X168.440 Y163.666
G01 X169.447 Y164.914
G01 X170.525 Y166.120
G01 X171.672 Y167.279
G01 X172.886 Y168.388
G01 X174.165 Y169.443
G01 X175.507 Y170.441
G01 X176.909 Y171.377
G01 X178.368 Y172.248
G01 X179.882 Y173.051
G01 X181.446 Y173.782
G01 X183.058 Y174.439
G01 X184.714 Y175.019
G01 X186.410 Y175.518
G01 X188.143 Y175.934
G01 X189.907 Y176.266
G01 X191.700 Y176.510
G01 X193.516 Y176.664
G01 X195.352 Y176.728
G01 X197.202 Y176.699
G01 X199.063 Y176.577
G01 X200.928 Y176.360
G01 X202.794 Y176.047
G01 X204.655 Y175.638
G01 X206.507 Y175.132
G01 X208.343 Y174.530
G01 X210.161 Y173.832
G01 X211.953 Y173.038
G01 X213.716 Y172.149
G01 X215.445 Y171.166
G01 X217.133 Y170.091
G01 X218.777 Y168.924
G01 X220.371 Y167.668
G01 X221.910 Y166.325
G01 X223.391 Y164.897
G01 X224.808 Y163.387
G01 X226.156 Y161.797
G01 X227.432 Y160.131
G01 X228.630 Y158.392
G01 X229.748 Y156.583
G01 X230.780 Y154.709
G01 X231.724 Y152.773
G01 X232.575 Y150.780
G01 X233.331 Y148.734
G01 X233.987 Y146.640
G01 X234.542 Y144.502
G01 X234.992 Y142.326
G01 X235.336 Y140.116
G01 X235.570 Y137.878
G01 X235.693 Y135.618
G01 X235.703 Y133.340
G01 X235.600 Y131.051
G01 X235.381 Y128.756
G01 X235.046 Y126.461
G01 X234.594 Y124.172
G01 X234.026 Y121.895
G01 X233.341 Y119.636
G01 X232.540 Y117.401
G01 X231.624 Y115.196
G01 X230.593 Y113.027
G01 X229.448 Y110.899
G01 X228.192 Y108.819
G01 X226.827 Y106.793
G01 X225.354 Y104.826
G01 X223.777 Y102.924
G01 X222.097 Y101.093
G01 X220.319 Y99.338
G01 X218.445 Y97.664
G01 X216.480 Y96.076
G01 X214.427 Y94.580
G01 X212.291 Y93.180
G01 X210.076 Y91.881
G01 X207.787 Y90.688
G01 X205.428 Y89.603
G01 X203.007 Y88.632
G01 X200.526 Y87.778
G01 X197.994 Y87.044
G01 X195.414 Y86.434
G01 X192.794 Y85.950
G01 X190.139 Y85.594
G01 X187.456 Y85.370
G01 X184.752 Y85.278
G01 X182.032 Y85.321
G01 X179.304 Y85.500
G01 X176.575 Y85.815
G01 X173.850 Y86.268
G01 X171.139 Y86.858
G01 X168.446 Y87.585
G01 X165.779 Y88.449
G01 X163.146 Y89.450
G01 X160.553 Y90.585
G01 X158.007 Y91.853
G01 X155.515 Y93.253
G01 X153.083 Y94.782
G01 X150.719 Y96.437
G01 X149.559 Y97.315
G01 X189.037 Y138.984
G01 X189.014 Y139.056
G01 X188.995 Y139.128
G01 X188.980 Y139.200
G01 X188.971 Y139.271
G01 X188.966 Y139.341
G01 X188.965 Y139.410
G01 X188.968 Y139.477
G01 X188.975 Y139.543
G01 X188.986 Y139.606
G01 X189.001 Y139.667
G01 X189.020 Y139.726
G01 X189.041 Y139.782
G01 X189.066 Y139.836
G01 X189.094 Y139.886
G01 X189.124 Y139.933
G01 X189.156 Y139.977
G01 X189.191 Y140.018
G01 X189.227 Y140.055
G01 X189.265 Y140.089
G01 X189.305 Y140.119
G01 X189.346 Y140.145
G01 X189.387 Y140.168
G01 X189.429 Y140.187
G01 X189.471 Y140.202
G01 X189.514 Y140.214
G01 X189.556 Y140.222
G01 X189.597 Y140.227
G01 X189.638 Y140.228
G01 X189.679 Y140.225
G01 X189.717 Y140.219
G01 X189.755 Y140.210
G01 X189.791 Y140.198
G01 X189.825 Y140.183
G01 X189.857 Y140.165
G01 X189.886 Y140.145
G01 X189.914 Y140.122
G01 X189.938 Y140.097
G01 X189.960 Y140.069
G01 X189.980 Y140.040
G01 X189.996 Y140.009
G01 X190.000 Y140.000
G01 X189.961 Y140.104
G01 X189.933 Y140.212
G01 X189.915 Y140.323
G01 X189.908 Y140.436
G01 X189.911 Y140.550
G01 X189.926 Y140.665
G01 X189.952 Y140.779
G01 X189.989 Y140.892
G01 X190.037 Y141.002
G01 X190.096 Y141.110
G01 X190.165 Y141.215
G01 X190.245 Y141.315
G01 X190.335 Y141.410
G01 X190.420 Y141.487
G01 X190.581 Y141.725
G01 X190.765 Y141.951
G01 X190.973 Y142.162
G01 X191.203 Y142.357
G01 X191.454 Y142.534
G01 X191.725 Y142.692
G01 X192.015 Y142.828
G01 X192.322 Y142.942
G01 X192.645 Y143.032
G01 X192.981 Y143.097
G01 X193.330 Y143.136
G01 X193.689 Y143.147
G01 X194.057 Y143.130
G01 X194.432 Y143.085
G01 X194.811 Y143.010
G01 X195.194 Y142.904
G01 X195.576 Y142.769
G01 X195.958 Y142.602
G01 X196.336 Y142.404
G01 X196.708 Y142.175
G01 X197.072 Y141.915
G01 X197.427 Y141.625
G01 X197.769 Y141.304
G01 X198.097 Y140.953
G01 X198.409 Y140.574
G01 X198.702 Y140.166
G01 X198.975 Y139.730
G01 X199.225 Y139.268
G01 X199.452 Y138.781
G01 X199.651 Y138.271
G01 X199.823 Y137.737
G01 X199.965 Y137.183
G01 X200.076 Y136.610
G01 X200.154 Y136.019
G01 X200.197 Y135.412
G01 X200.205 Y134.793
G01 X200.176 Y134.161
G01 X200.109 Y133.520
G01 X200.003 Y132.872
G01 X199.858 Y132.219
G01 X199.672 Y131.564
G01 X199.444 Y130.909
G01 X199.176 Y130.256
G01 X198.865 Y129.608
G01 X198.513 Y128.967
G01 X198.118 Y128.337
G01 X197.682 Y127.719
G01 X197.205 Y127.117
G01 X196.686 Y126.532
G01 X196.128 Y125.968
G01 X195.530 Y125.427
G01 X194.893 Y124.911
G01 X194.218 Y124.423
G01 X193.508 Y123.966
G01 X192.763 Y123.542
G01 X191.984 Y123.153
G01 X191.174 Y122.801
G01 X190.333 Y122.489
G01 X189.466 Y122.218
G01 X188.572 Y121.992
G01 X187.655 Y121.810
G01 X186.717 Y121.676
G01 X185.760 Y121.591
G01 X184.786 Y121.556
G01 X183.800 Y121.573
G01 X182.803 Y121.644
G01 X181.798 Y121.768
G01 X180.788 Y121.947
G01 X179.776 Y122.182
G01 X178.766 Y122.473
G01 X177.759 Y122.821
G01 X176.761 Y123.226
G01 X175.773 Y123.689
G01 X174.798 Y124.208
G01 X173.841 Y124.784
G01 X172.905 Y125.417
G01 X171.992 Y126.105
G01 X171.106 Y126.848
G01 X170.250 Y127.645
G01 X169.427 Y128.495
G01 X168.641 Y129.396
G01 X167.894 Y130.346
G01 X167.189 Y131.345
G01 X166.530 Y132.390
G01 X165.919 Y133.478
G01 X165.359 Y134.609
G01 X164.853 Y135.779
G01 X164.403 Y136.986
G01 X164.011 Y138.227
G01 X163.680 Y139.499
G01 X163.412 Y140.799
G01 X163.209 Y142.125
G01 X163.072 Y143.472
G01 X163.004 Y144.838
G01 X163.005 Y146.218
G01 X163.078 Y147.610
G01 X163.223 Y149.010
G01 X163.441 Y150.413
G01 X163.733 Y151.817
G01 X164.099 Y153.217
G01 X164.540 Y154.609
G01 X165.056 Y155.989
G01 X165.646 Y157.353
G01 X166.311 Y158.698
G01 X167.049 Y160.019
G01 X167.861 Y161.312
G01 X168.744 Y162.573
G01 X169.699 Y163.798
G01 X170.723 Y164.984
G01 X171.815 Y166.125
G01 X172.972 Y167.220
G01 X174.194 Y168.263
G01 X175.478 Y169.251
G01 X176.820 Y170.181
G01 X178.219 Y171.048
G01 X179.672 Y171.851
G01 X181.175 Y172.585
G01 X182.726 Y173.248
G01 X184.321 Y173.836
G01 X185.955 Y174.348
G01 X187.627 Y174.779
G01 X189.331 Y175.129
G01 X191.064 Y175.395
G01 X192.821 Y175.574
G01 X194.598 Y175.666
G01 X196.392 Y175.669
G01 X198.196 Y175.580
G01 X200.007 Y175.400
G01 X201.819 Y175.128
G01 X203.629 Y174.762
G01 X205.432 Y174.302
G01 X207.221 Y173.749
G01 X208.994 Y173.102
G01 X210.743 Y172.362
G01 X212.466 Y171.529
G01 X214.157 Y170.605
G01 X215.810 Y169.591
G01 X217.422 Y168.487
G01 X218.987 Y167.296
G01 X220.501 Y166.019
G01 X221.959 Y164.659
G01 X223.357 Y163.219
G01 X224.689 Y161.700
G01 X225.953 Y160.106
G01 X227.142 Y158.440
G01 X228.255 Y156.706
G01 X229.286 Y154.906
G01 X230.232 Y153.046
G01 X231.089 Y151.128
G01 X231.855 Y149.157
G01 X232.525 Y147.138
G01 X233.098 Y145.075
G01 X233.569 Y142.973
G01 X233.938 Y140.837
G01 X234.201 Y138.671
G01 X234.357 Y136.482
G01 X234.404 Y134.275
G01 X234.341 Y132.054
G01 X234.166 Y129.826
G01 X233.879 Y127.597
G01 X233.478 Y125.371
G01 X232.964 Y123.155
G01 X232.337 Y120.954
G01 X231.597 Y118.774
G01 X230.744 Y116.622
G01 X229.780 Y114.502
G01 X228.705 Y112.421
G01 X227.521 Y110.385
G01 X226.230 Y108.398
G01 X224.834 Y106.468
G01 X223.336 Y104.598
G01 X221.737 Y102.796
G01 X220.042 Y101.065
G01 X218.252 Y99.412
G01 X216.373 Y97.841
G01 X214.407 Y96.358
G01 X212.358 Y94.966
G01 X210.232 Y93.671
G01 X208.032 Y92.477
G01 X205.763 Y91.387
G01 X203.431 Y90.407
G01 X201.040 Y89.538
G01 X198.596 Y88.786
G01 X196.105 Y88.152
G01 X193.573 Y87.640
G01 X191.004 Y87.253
G01 X188.407 Y86.992
G01 X185.786 Y86.860
G01 X183.148 Y86.857
G01 X180.500 Y86.986
G01 X177.849 Y87.248
G01 X175.200 Y87.643
G01 X172.561 Y88.171
G01 X169.938 Y88.833
G01 X167.339 Y89.628
G01 X164.770 Y90.555
G01 X162.237 Y91.614
G01 X159.747 Y92.803
G01 X157.308 Y94.120
G01 X154.926 Y95.563
G01 X152.607 Y97.130
G01 X150.357 Y98.818
G01 X148.184 Y100.624
G01 X146.093 Y102.545
G01 X144.090 Y104.576
G01 X142.181 Y106.714
G01 X140.372 Y108.955
G01 X138.751 Y111.173
G01 X188.780 Y139.314
G01 X188.780 Y139.391
G01 X188.786 Y139.466
G01 X188.795 Y139.539
G01 X188.809 Y139.611
G01 X188.827 Y139.679
G01 X188.848 Y139.745
G01 X188.873 Y139.808
G01 X188.902 Y139.868
G01 X188.933 Y139.925
G01 X188.968 Y139.978
G01 X189.005 Y140.027
G01 X189.044 Y140.073
G01 X189.085 Y140.116
G01 X189.128 Y140.154
G01 X189.172 Y140.188
G01 X189.218 Y140.219
G01 X189.265 Y140.245
G01 X189.312 Y140.268
G01 X189.359 Y140.286
G01 X189.407 Y140.301
G01 X189.454 Y140.311
G01 X189.501 Y140.318
G01 X189.547 Y140.321
G01 X189.593 Y140.320
G01 X189.636 Y140.316
G01 X189.679 Y140.308
G01 X189.720 Y140.296
G01 X189.758 Y140.282
G01 X189.795 Y140.264
G01 X189.829 Y140.244
G01 X189.861 Y140.221
G01 X189.890 Y140.195
G01 X189.916 Y140.168
G01 X189.939 Y140.138
G01 X189.959 Y140.106
G01 X189.976 Y140.073
G01 X189.989 Y140.039
G01 X189.999 Y140.004
G01 X190.000 Y140.000
G01 X189.968 Y140.192
G01 X189.956 Y140.386
G01 X189.962 Y140.581
G01 X189.987 Y140.777
G01 X190.032 Y140.971
G01 X190.095 Y141.161
G01 X190.177 Y141.348
G01 X190.278 Y141.529
G01 X190.397 Y141.702
G01 X190.533 Y141.868
G01 X190.686 Y142.023
G01 X190.856 Y142.168
G01 X191.041 Y142.300
G01 X191.242 Y142.419
G01 X191.456 Y142.523
G01 X191.639 Y142.596
G01 X191.918 Y142.732
G01 X192.214 Y142.846
G01 X192.526 Y142.937
G01 X192.851 Y143.003
G01 X193.188 Y143.045
G01 X193.536 Y143.060
G01 X193.893 Y143.047
G01 X194.256 Y143.007
G01 X194.625 Y142.938
G01 X194.996 Y142.840
G01 X195.368 Y142.712
G01 X195.740 Y142.554
G01 X196.108 Y142.366
G01 X196.470 Y142.148
G01 X196.826 Y141.900
G01 X197.172 Y141.622
G01 X197.506 Y141.314
G01 X197.828 Y140.977
G01 X198.133 Y140.612
G01 X198.421 Y140.219
G01 X198.689 Y139.799
G01 X198.936 Y139.354
G01 X199.159 Y138.884
G01 X199.357 Y138.391
G01 X199.528 Y137.875
G01 X199.670 Y137.339
G01 X199.782 Y136.784
G01 X199.863 Y136.212
G01 X199.910 Y135.625
G01 X199.922 Y135.024
G01 X199.899 Y134.411
G01 X199.840 Y133.789
G01 X199.742 Y133.160
G01 X199.606 Y132.526
G01 X199.431 Y131.889
G01 X199.215 Y131.252
G01 X198.960 Y130.617
G01 X198.664 Y129.986
G01 X198.327 Y129.362
G01 X197.949 Y128.748
G01 X197.531 Y128.145
G01 X197.073 Y127.557
G01 X196.574 Y126.986
G01 X196.037 Y126.435
G01 X195.461 Y125.905
G01 X194.847 Y125.400
G01 X194.196 Y124.922
G01 X193.511 Y124.474
G01 X192.791 Y124.056
G01 X192.038 Y123.673
G01 X191.255 Y123.326
G01 X190.442 Y123.017
G01 X189.602 Y122.748
G01 X188.737 Y122.521
G01 X187.848 Y122.339
G01 X186.939 Y122.202
G01 X186.011 Y122.112
G01 X185.067 Y122.071
G01 X184.109 Y122.081
G01 X183.141 Y122.141
G01 X182.165 Y122.255
G01 X181.184 Y122.421
G01 X180.200 Y122.642
G01 X179.218 Y122.917
G01 X178.239 Y123.248
G01 X177.266 Y123.634
G01 X176.304 Y124.075
G01 X175.355 Y124.572
G01 X174.422 Y125.125
G01 X173.508 Y125.732
G01 X172.617 Y126.393
G01 X171.752 Y127.108
G01 X170.916 Y127.876
G01 X170.111 Y128.694
G01 X169.341 Y129.563
G01 X168.609 Y130.481
G01 X167.919 Y131.445
G01 X167.271 Y132.454
G01 X166.671 Y133.507
G01 X166.119 Y134.600
G01 X165.619 Y135.733
G01 X165.174 Y136.901
G01 X164.784 Y138.103
G01 X164.454 Y139.335
G01 X164.185 Y140.596
G01 X163.978 Y141.881
G01 X163.836 Y143.188
G01 X163.760 Y144.513
G01 X163.752 Y145.854
G01 X163.813 Y147.206
G01 X163.944 Y148.565
G01 X164.145 Y149.930
G01 X164.419 Y151.294
G01 X164.765 Y152.656
G01 X165.183 Y154.011
G01 X165.674 Y155.354
G01 X166.238 Y156.683
G01 X166.873 Y157.993
G01 X167.581 Y159.281
G01 X168.360 Y160.542
G01 X169.209 Y161.773
G01 X170.128 Y162.969
G01 X171.114 Y164.127
G01 X172.166 Y165.244
G01 X173.282 Y166.314
G01 X174.461 Y167.336
G01 X175.701 Y168.304
G01 X176.998 Y169.216
G01 X178.351 Y170.068
G01 X179.756 Y170.858
G01 X181.210 Y171.581
G01 X182.711 Y172.236
G01 X184.256 Y172.818
G01 X185.840 Y173.326
G01 X187.460 Y173.757
G01 X189.113 Y174.108
G01 X190.793 Y174.378
G01 X192.499 Y174.565
G01 X194.224 Y174.667
G01 X195.965 Y174.681
G01 X197.718 Y174.608
G01 X199.478 Y174.446
G01 X201.240 Y174.194
G01 X203.001 Y173.851
G01 X204.754 Y173.417
G01 X206.496 Y172.892
G01 X208.222 Y172.276
G01 X209.926 Y171.569
G01 X211.605 Y170.773
G01 X213.253 Y169.887
G01 X214.866 Y168.913
G01 X216.439 Y167.852
G01 X217.968 Y166.706
G01 X219.447 Y165.477
G01 X220.872 Y164.166
G01 X222.239 Y162.776
G01 X223.544 Y161.311
G01 X224.782 Y159.771
G01 X225.949 Y158.162
G01 X227.042 Y156.485
G01 X228.055 Y154.744
G01 X228.987 Y152.943
G01 X229.833 Y151.086
G01 X230.590 Y149.177
G01 X231.255 Y147.221
G01 X231.825 Y145.221
G01 X232.298 Y143.183
G01 X232.671 Y141.110
G01 X232.942 Y139.009
G01 X233.108 Y136.884
G01 X233.169 Y134.740
G01 X233.123 Y132.583
G01 X232.968 Y130.417
G01 X232.704 Y128.250
G01 X232.331 Y126.085
G01 X231.847 Y123.929
G01 X231.253 Y121.786
G01 X230.548 Y119.664
G01 X229.735 Y117.568
G01 X228.813 Y115.502
G01 X227.783 Y113.473
G01 X226.647 Y111.487
G01 X225.407 Y109.549
G01 X224.064 Y107.664
G01 X222.621 Y105.838
G01 X221.081 Y104.076
G01 X219.446 Y102.383
G01 X217.719 Y100.765
G01 X215.904 Y99.226
G01 X214.004 Y97.772
G01 X212.024 Y96.406
G01 X209.967 Y95.133
G01 X207.838 Y93.958
G01 X205.642 Y92.884
G01 X203.383 Y91.915
G01 X201.066 Y91.055
G01 X198.698 Y90.308
G01 X196.282 Y89.675
G01 X193.825 Y89.161
G01 X191.333 Y88.766
G01 X188.811 Y88.495
G01 X186.266 Y88.349
G01 X183.704 Y88.328
G01 X181.131 Y88.436
G01 X178.553 Y88.672
G01 X175.977 Y89.037
G01 X173.410 Y89.532
G01 X170.858 Y90.157
G01 X168.327 Y90.912
G01 X165.824 Y91.795
G01 X163.357 Y92.806
G01 X160.930 Y93.944
G01 X158.551 Y95.207
G01 X156.227 Y96.593
G01 X153.963 Y98.099
G01 X151.767 Y99.724
G01 X149.643 Y101.463
G01 X147.598 Y103.315
G01 X145.638 Y105.275
G01 X143.769 Y107.339
G01 X141.996 Y109.503
G01 X140.325 Y111.763
G01 X138.760 Y114.114
G01 X137.307 Y116.550
G01 X135.971 Y119.067
G01 X134.755 Y121.659
G01 X133.663 Y124.320
G01 X132.701 Y127.045
G01 X132.521 Y127.605
G01 X188.631 Y139.705
G01 X188.662 Y139.642
G01 X188.696 Y139.582
G01 X188.733 Y139.524
G01 X188.772 Y139.468
G01 X188.813 Y139.415
G01 X188.857 Y139.365
G01 X188.903 Y139.318
G01 X188.950 Y139.274
G01 X188.999 Y139.233
G01 X189.050 Y139.194
G01 X189.102 Y139.159
G01 X189.155 Y139.127
G01 X189.209 Y139.098
G01 X189.264 Y139.073
G01 X189.319 Y139.050
G01 X189.375 Y139.031
G01 X189.431 Y139.015
G01 X189.487 Y139.002
G01 X189.543 Y138.992
G01 X189.599 Y138.985
G01 X189.654 Y138.981
G01 X189.708 Y138.980
G01 X189.762 Y138.982
G01 X189.815 Y138.987
G01 X189.867 Y138.994
G01 X189.918 Y139.005
G01 X189.968 Y139.017
G01 X190.016 Y139.032
G01 X190.062 Y139.049
G01 X190.107 Y139.069
G01 X190.150 Y139.091
G01 X190.191 Y139.114
G01 X190.230 Y139.139
G01 X190.268 Y139.166
G01 X190.303 Y139.195
G01 X190.336 Y139.225
G01 X190.366 Y139.256
G01 X190.395 Y139.289
G01 X190.421 Y139.322
G01 X190.445 Y139.356
G01 X190.467 Y139.391
G01 X190.486 Y139.426
G01 X190.503 Y139.462
G01 X190.518 Y139.498
G01 X190.530 Y139.535
G01 X190.541 Y139.571
G01 X190.548 Y139.607
G01 X190.554 Y139.642
G01 X190.558 Y139.678
G01 X190.559 Y139.713
G01 X190.558 Y139.747
G01 X190.556 Y139.780
G01 X190.551 Y139.813
G01 X190.545 Y139.844
G01 X190.537 Y139.875
G01 X190.527 Y139.904
G01 X190.516 Y139.932
G01 X190.503 Y139.959
G01 X190.489 Y139.984
G01 X190.474 Y140.008
G01 X190.458 Y140.030
G01 X190.441 Y140.051
G01 X190.422 Y140.070
G01 X190.403 Y140.087
G01 X190.384 Y140.103
G01 X190.363 Y140.117
G01 X190.343 Y140.129
G01 X190.322 Y140.139
G01 X190.301 Y140.148
G01 X190.280 Y140.155
G01 X190.259 Y140.161
G01 X190.238 Y140.164
G01 X190.217 Y140.167
G01 X190.197 Y140.167
G01 X190.177 Y140.166
G01 X190.158 Y140.163
G01 X190.140 Y140.159
G01 X190.122 Y140.154
G01 X190.106 Y140.147
G01 X190.090 Y140.139
G01 X190.075 Y140.130
G01 X190.062 Y140.120
G01 X190.049 Y140.109
G01 X190.038 Y140.097
G01 X190.028 Y140.084
G01 X190.020 Y140.070
G01 X190.013 Y140.056
G01 X190.008 Y140.042
G01 X190.004 Y140.027
G01 X190.001 Y140.011
G01 X190.000 Y140.000
G01 X190.025 Y140.263
G01 X190.076 Y140.522
G01 X190.152 Y140.777
G01 X190.253 Y141.024
G01 X190.379 Y141.264
G01 X190.528 Y141.492
G01 X190.701 Y141.708
G01 X190.896 Y141.911
G01 X191.112 Y142.098
G01 X191.349 Y142.267
G01 X191.604 Y142.418
G01 X191.877 Y142.549
G01 X192.167 Y142.658
G01 X192.471 Y142.745
G01 X192.789 Y142.808
G01 X193.118 Y142.845
G01 X193.457 Y142.857
G01 X193.805 Y142.842
G01 X194.158 Y142.799
G01 X194.517 Y142.728
G01 X194.877 Y142.628
G01 X195.238 Y142.499
G01 X195.598 Y142.341
G01 X195.954 Y142.153
G01 X196.305 Y141.936
G01 X196.648 Y141.689
G01 X196.981 Y141.413
G01 X197.303 Y141.108
G01 X197.611 Y140.775
G01 X197.904 Y140.415
G01 X198.178 Y140.027
G01 X198.433 Y139.614
G01 X198.667 Y139.176
G01 X198.877 Y138.714
G01 X199.062 Y138.229
G01 X199.220 Y137.723
G01 X199.350 Y137.198
G01 X199.450 Y136.654
G01 X199.519 Y136.094
G01 X199.554 Y135.520
G01 X199.556 Y134.933
G01 X199.523 Y134.335
G01 X199.453 Y133.729
G01 X199.347 Y133.116
G01 X199.202 Y132.499
G01 X199.019 Y131.880
G01 X198.797 Y131.262
G01 X198.535 Y130.646
G01 X198.234 Y130.035
G01 X197.893 Y129.431
G01 X197.512 Y128.838
G01 X197.092 Y128.257
G01 X196.632 Y127.691
G01 X196.134 Y127.142
G01 X195.597 Y126.613
G01 X195.024 Y126.107
G01 X194.413 Y125.625
G01 X193.767 Y125.170
G01 X193.088 Y124.744
G01 X192.375 Y124.350
G01 X191.631 Y123.990
G01 X190.857 Y123.666
G01 X190.056 Y123.380
G01 X189.228 Y123.133
G01 X188.376 Y122.929
G01 X187.503 Y122.768
G01 X186.610 Y122.653
G01 X185.699 Y122.584
G01 X184.774 Y122.563
G01 X183.837 Y122.592
G01 X182.890 Y122.671
G01 X182.331 Y122.742
G01 X181.376 Y122.906
G01 X180.419 Y123.123
G01 X179.463 Y123.394
G01 X178.511 Y123.718
G01 X177.565 Y124.096
G01 X176.630 Y124.529
G01 X175.707 Y125.015
G01 X174.800 Y125.555
G01 X173.912 Y126.148
G01 X173.047 Y126.794
G01 X172.206 Y127.492
G01 X171.394 Y128.241
G01 X170.612 Y129.040
G01 X169.865 Y129.888
G01 X169.155 Y130.783
G01 X168.485 Y131.723
G01 X167.857 Y132.707
G01 X167.275 Y133.733
G01 X166.741 Y134.799
G01 X166.257 Y135.902
G01 X165.826 Y137.041
G01 X165.450 Y138.211
G01 X165.132 Y139.412
G01 X164.872 Y140.640
G01 X164.674 Y141.891
G01 X164.539 Y143.164
G01 X164.468 Y144.454
G01 X164.464 Y145.759
G01 X164.526 Y147.074
G01 X164.657 Y148.398
G01 X164.856 Y149.725
G01 X165.126 Y151.053
G01 X165.466 Y152.377
G01 X165.876 Y153.695
G01 X166.357 Y155.002
G01 X166.909 Y156.294
G01 X167.531 Y157.568
G01 X168.223 Y158.819
G01 X168.984 Y160.045
G01 X169.814 Y161.241
G01 X170.710 Y162.403
G01 X171.673 Y163.528
G01 X172.700 Y164.612
G01 X173.789 Y165.651
G01 X174.939 Y166.642
G01 X176.148 Y167.582
G01 X177.412 Y168.467
G01 X178.731 Y169.293
G01 X180.100 Y170.058
G01 X181.518 Y170.759
G01 X182.981 Y171.392
G01 X184.485 Y171.955
G01 X186.028 Y172.446
G01 X187.606 Y172.861
G01 X189.215 Y173.200
G01 X190.852 Y173.459
G01 X192.512 Y173.636
G01 X194.191 Y173.731
G01 X195.886 Y173.741
G01 X197.592 Y173.666
G01 X199.304 Y173.504
G01 X201.019 Y173.254
G01 X202.731 Y172.916
G01 X204.437 Y172.490
G01 X206.131 Y171.975
G01 X207.809 Y171.371
G01 X209.466 Y170.679
G01 X211.098 Y169.900
G01 X212.701 Y169.034
G01 X214.268 Y168.082
G01 X215.797 Y167.046
G01 X217.281 Y165.927
G01 X218.718 Y164.727
G01 X220.102 Y163.448
G01 X221.430 Y162.093
G01 X222.696 Y160.663
G01 X223.897 Y159.162
G01 X225.029 Y157.593
G01 X226.088 Y155.958
G01 X227.071 Y154.261
G01 X227.974 Y152.507
G01 X228.792 Y150.698
G01 X229.525 Y148.838
G01 X230.168 Y146.932
G01 X230.718 Y144.985
G01 X231.173 Y143.000
G01 X231.531 Y140.982
G01 X231.789 Y138.936
G01 X231.947 Y136.868
G01 X232.001 Y134.781
G01 X231.951 Y132.682
G01 X231.795 Y130.575
