;  Created by Sandify
;  https://sandify.org
;  Version: 0.2.4
;
;  Machine type: Rectangular
;    Min X (mm): 0
;    Max X (mm): 380
;    Min Y (mm): 0
;    Max Y (mm): 280
;  Content type: shape
;  Layer:
;    Shape: FileImport
;    Name: shell.thr
;    From file:: shell.thr
;    Aspect Ratio: true
;    Comments: 
;    Visible: true
;    Initial width: 10
;    Initial height: 10
;    X offset: 0
;    Y offset: 0
;    Rotate (degrees): 0
;    Reverse path: false
;    Fine tuning:
;      Connect to next layer: line
;      Draw portion of path (%): 100
;      Backtrack at end (%): 0
;      Rotate starting point (%): 0
;  Reverse export path: false
;
; File name: 'Shell'
;

G01 X190.000 Y140.000
G01 X190.053 Y141.086
G01 X190.213 Y142.163
G01 X190.478 Y143.225
G01 X190.848 Y144.264
G01 X191.320 Y145.271
G01 X191.893 Y146.240
G01 X192.563 Y147.163
G01 X193.327 Y148.033
G01 X194.182 Y148.842
G01 X195.123 Y149.585
G01 X196.146 Y150.254
G01 X197.246 Y150.844
G01 X198.417 Y151.348
G01 X199.653 Y151.762
G01 X200.948 Y152.079
G01 X202.296 Y152.296
G01 X203.690 Y152.408
G01 X205.122 Y152.411
G01 X206.586 Y152.301
G01 X208.073 Y152.076
G01 X209.576 Y151.734
G01 X211.087 Y151.271
G01 X212.597 Y150.688
G01 X214.098 Y149.982
G01 X215.582 Y149.154
G01 X217.041 Y148.203
G01 X218.465 Y147.130
G01 X219.847 Y145.937
G01 X221.177 Y144.625
G01 X222.448 Y143.196
G01 X223.651 Y141.653
G01 X224.779 Y140.000
G01 X225.822 Y138.240
G01 X226.774 Y136.378
G01 X227.627 Y134.419
G01 X228.374 Y132.367
G01 X229.008 Y130.229
G01 X229.521 Y128.011
G01 X229.909 Y125.720
G01 X230.164 Y123.364
G01 X230.282 Y120.948
G01 X230.257 Y118.482
G01 X230.085 Y115.974
G01 X229.761 Y113.432
G01 X229.283 Y110.866
G01 X228.646 Y108.284
G01 X227.849 Y105.696
G01 X226.888 Y103.112
G01 X225.764 Y100.541
G01 X224.474 Y97.993
G01 X223.019 Y95.480
G01 X221.398 Y93.009
G01 X219.613 Y90.593
G01 X217.666 Y88.241
G01 X215.557 Y85.963
G01 X213.291 Y83.770
G01 X210.870 Y81.672
G01 X208.298 Y79.678
G01 X205.581 Y77.799
G01 X202.722 Y76.043
G01 X199.728 Y74.421
G01 X196.605 Y72.941
G01 X193.360 Y71.612
G01 X190.000 Y70.443
G01 X186.534 Y69.441
G01 X182.969 Y68.615
G01 X179.315 Y67.970
G01 X175.582 Y67.516
G01 X171.779 Y67.256
G01 X167.916 Y67.198
G01 X164.004 Y67.346
G01 X160.054 Y67.705
G01 X156.078 Y68.279
G01 X152.088 Y69.071
G01 X148.094 Y70.085
G01 X144.110 Y71.321
G01 X140.148 Y72.783
G01 X136.221 Y74.470
G01 X132.340 Y76.382
G01 X128.520 Y78.520
G01 X124.772 Y80.880
G01 X121.109 Y83.463
G01 X117.545 Y86.264
G01 X114.092 Y89.280
G01 X110.762 Y92.507
G01 X107.569 Y95.940
G01 X104.524 Y99.573
G01 X101.639 Y103.400
G01 X98.926 Y107.413
G01 X96.397 Y111.606
G01 X94.062 Y115.969
G01 X91.933 Y120.493
G01 X90.019 Y125.169
G01 X88.330 Y129.986
G01 X86.875 Y134.934
G01 X85.664 Y140.000
G01 X84.704 Y145.173
G01 X84.003 Y150.440
G01 X83.568 Y155.788
G01 X83.405 Y161.203
G01 X83.520 Y166.672
G01 X83.917 Y172.180
G01 X84.600 Y177.713
G01 X85.574 Y183.255
G01 X86.839 Y188.791
G01 X88.399 Y194.307
G01 X90.254 Y199.785
G01 X92.404 Y205.212
G01 X94.848 Y210.569
G01 X97.586 Y215.843
G01 X100.613 Y221.016
G01 X103.927 Y226.073
G01 X107.525 Y230.998
G01 X111.399 Y235.775
G01 X115.546 Y240.389
G01 X119.958 Y244.825
G01 X124.627 Y249.068
G01 X129.545 Y253.103
G01 X134.703 Y256.916
G01 X140.091 Y260.492
G01 X145.697 Y263.819
G01 X151.510 Y266.884
G01 X157.518 Y269.674
G01 X163.708 Y272.178
G01 X170.066 Y274.383
G01 X176.577 Y276.281
G01 X183.227 Y277.861
G01 X190.000 Y279.114
G01 X195.599 Y279.888
G01 X190.056 Y141.399
G01 X189.989 Y141.161
G01 X189.946 Y140.920
G01 X189.927 Y140.679
G01 X189.931 Y140.438
G01 X189.958 Y140.201
G01 X190.000 Y140.000
G01 X189.928 Y140.359
G01 X189.891 Y140.725
G01 X189.890 Y141.094
G01 X189.925 Y141.465
G01 X189.996 Y141.833
G01 X190.103 Y142.197
G01 X190.246 Y142.554
G01 X190.359 Y142.783
G01 X190.684 Y143.820
G01 X191.112 Y144.829
G01 X191.640 Y145.802
G01 X192.265 Y146.733
G01 X192.985 Y147.615
G01 X193.796 Y148.439
G01 X194.694 Y149.200
G01 X195.674 Y149.890
G01 X196.733 Y150.505
G01 X197.863 Y151.037
G01 X199.061 Y151.481
G01 X200.320 Y151.833
G01 X201.633 Y152.086
G01 X202.995 Y152.238
G01 X204.397 Y152.283
G01 X205.833 Y152.218
G01 X207.296 Y152.041
G01 X208.777 Y151.747
G01 X210.268 Y151.336
G01 X211.763 Y150.806
G01 X213.251 Y150.155
G01 X214.726 Y149.384
G01 X216.179 Y148.491
G01 X217.601 Y147.477
G01 X218.985 Y146.343
G01 X220.321 Y145.091
G01 X221.601 Y143.723
G01 X222.818 Y142.241
G01 X223.963 Y140.649
G01 X225.028 Y138.949
G01 X226.005 Y137.147
G01 X226.888 Y135.246
G01 X227.668 Y133.252
G01 X228.339 Y131.171
G01 X228.893 Y129.008
G01 X229.326 Y126.771
G01 X229.630 Y124.465
G01 X229.800 Y122.098
G01 X229.831 Y119.678
G01 X229.717 Y117.214
G01 X229.456 Y114.712
G01 X229.043 Y112.183
G01 X228.475 Y109.635
G01 X227.748 Y107.078
G01 X226.862 Y104.520
G01 X225.813 Y101.972
G01 X224.601 Y99.443
G01 X223.226 Y96.943
G01 X221.687 Y94.483
G01 X219.986 Y92.072
G01 X218.123 Y89.720
G01 X216.099 Y87.438
G01 X213.919 Y85.236
G01 X211.584 Y83.124
G01 X209.099 Y81.111
G01 X206.468 Y79.208
G01 X203.694 Y77.423
G01 X200.785 Y75.767
G01 X197.746 Y74.248
G01 X194.584 Y72.875
G01 X191.305 Y71.656
G01 X187.918 Y70.600
G01 X184.430 Y69.715
G01 X180.851 Y69.007
G01 X177.189 Y68.484
G01 X173.454 Y68.151
G01 X169.656 Y68.016
G01 X165.806 Y68.082
G01 X161.914 Y68.355
G01 X157.992 Y68.840
G01 X154.050 Y69.539
G01 X150.102 Y70.455
G01 X146.157 Y71.592
G01 X142.230 Y72.951
G01 X138.332 Y74.532
G01 X134.475 Y76.336
G01 X130.673 Y78.363
G01 X126.938 Y80.612
G01 X123.282 Y83.080
G01 X119.719 Y85.766
G01 X116.261 Y88.666
G01 X112.920 Y91.776
G01 X109.708 Y95.091
G01 X106.639 Y98.607
G01 X103.724 Y102.317
G01 X100.974 Y106.215
G01 X98.401 Y110.292
G01 X96.017 Y114.542
G01 X93.831 Y118.954
G01 X91.854 Y123.520
G01 X90.097 Y128.230
G01 X88.567 Y133.073
G01 X87.275 Y138.038
G01 X86.229 Y143.113
G01 X85.435 Y148.286
G01 X84.902 Y153.544
G01 X84.635 Y158.874
G01 X84.641 Y164.263
G01 X84.924 Y169.695
G01 X85.490 Y175.158
G01 X86.340 Y180.636
G01 X87.479 Y186.114
G01 X88.908 Y191.578
G01 X90.628 Y197.011
G01 X92.641 Y202.398
G01 X94.945 Y207.723
G01 X97.539 Y212.972
G01 X100.421 Y218.127
G01 X103.588 Y223.173
G01 X107.036 Y228.096
G01 X110.761 Y232.878
G01 X114.758 Y237.505
G01 X119.019 Y241.961
G01 X123.537 Y246.232
G01 X128.305 Y250.303
G01 X133.314 Y254.160
G01 X138.554 Y257.789
G01 X144.014 Y261.176
G01 X149.684 Y264.309
G01 X155.551 Y267.174
G01 X161.603 Y269.761
G01 X167.826 Y272.058
G01 X174.207 Y274.054
G01 X180.730 Y275.740
G01 X187.381 Y277.106
G01 X194.144 Y278.143
G01 X201.003 Y278.845
G01 X201.132 Y278.854
G01 X190.111 Y141.389
G01 X190.032 Y141.037
G01 X189.988 Y140.682
G01 X189.978 Y140.326
G01 X190.000 Y140.000
G01 X189.952 Y140.754
G01 X189.979 Y141.510
G01 X190.079 Y142.264
G01 X190.253 Y143.010
G01 X190.501 Y143.742
G01 X190.821 Y144.455
G01 X191.212 Y145.145
G01 X191.626 Y145.745
G01 X192.245 Y146.665
G01 X192.958 Y147.536
G01 X193.760 Y148.351
G01 X194.649 Y149.102
G01 X195.619 Y149.785
G01 X196.666 Y150.392
G01 X197.785 Y150.917
G01 X198.970 Y151.356
G01 X200.215 Y151.702
G01 X201.514 Y151.952
G01 X202.860 Y152.101
G01 X204.247 Y152.145
G01 X205.667 Y152.080
G01 X207.113 Y151.903
G01 X208.578 Y151.612
G01 X210.053 Y151.205
G01 X211.530 Y150.680
G01 X213.002 Y150.035
G01 X214.461 Y149.271
G01 X215.897 Y148.387
G01 X217.303 Y147.384
G01 X218.670 Y146.262
G01 X219.991 Y145.023
G01 X221.257 Y143.669
G01 X222.459 Y142.203
G01 X223.590 Y140.628
G01 X224.643 Y138.946
G01 X225.608 Y137.163
G01 X226.480 Y135.283
G01 X227.251 Y133.311
G01 X227.913 Y131.253
G01 X228.460 Y129.114
G01 X228.887 Y126.900
G01 X229.186 Y124.620
G01 X229.353 Y122.279
G01 X229.382 Y119.886
G01 X229.269 Y117.449
G01 X229.010 Y114.976
G01 X228.600 Y112.475
G01 X228.037 Y109.955
G01 X227.317 Y107.426
G01 X226.439 Y104.897
G01 X225.401 Y102.378
G01 X224.202 Y99.878
G01 X222.841 Y97.406
G01 X221.318 Y94.974
G01 X219.634 Y92.590
G01 X217.790 Y90.266
G01 X215.789 Y88.010
G01 X213.631 Y85.834
G01 X211.322 Y83.746
G01 X208.863 Y81.757
G01 X206.260 Y79.876
G01 X203.517 Y78.112
G01 X200.639 Y76.475
G01 X197.633 Y74.975
G01 X194.506 Y73.618
G01 X191.263 Y72.415
G01 X187.913 Y71.372
G01 X184.464 Y70.498
G01 X180.924 Y69.800
G01 X177.302 Y69.284
G01 X173.609 Y68.957
G01 X169.853 Y68.824
G01 X166.046 Y68.892
G01 X162.197 Y69.164
G01 X158.319 Y69.644
G01 X154.422 Y70.337
G01 X150.517 Y71.246
G01 X146.617 Y72.372
G01 X142.734 Y73.717
G01 X138.880 Y75.282
G01 X135.068 Y77.068
G01 X131.309 Y79.074
G01 X127.616 Y81.299
G01 X124.002 Y83.741
G01 X120.480 Y86.399
G01 X117.061 Y89.268
G01 X113.759 Y92.344
G01 X110.585 Y95.625
G01 X107.551 Y99.103
G01 X104.670 Y102.773
G01 X101.952 Y106.628
G01 X99.410 Y110.661
G01 X97.054 Y114.864
G01 X94.895 Y119.228
G01 X92.942 Y123.744
G01 X91.206 Y128.402
G01 X89.696 Y133.192
G01 X88.420 Y138.102
G01 X87.387 Y143.121
G01 X86.605 Y148.236
G01 X86.080 Y153.436
G01 X85.819 Y158.707
G01 X85.827 Y164.035
G01 X86.109 Y169.407
G01 X86.670 Y174.809
G01 X87.514 Y180.225
G01 X88.642 Y185.642
G01 X90.057 Y191.043
G01 X91.761 Y196.415
G01 X93.753 Y201.741
G01 X96.033 Y207.006
G01 X98.601 Y212.195
G01 X101.453 Y217.291
G01 X104.587 Y222.280
G01 X107.999 Y227.146
G01 X111.684 Y231.873
G01 X115.638 Y236.447
G01 X119.853 Y240.851
G01 X124.323 Y245.073
G01 X129.039 Y249.096
G01 X133.994 Y252.908
G01 X139.177 Y256.494
G01 X144.577 Y259.841
G01 X150.185 Y262.936
G01 X155.988 Y265.768
G01 X161.973 Y268.323
G01 X168.128 Y270.592
G01 X174.438 Y272.563
G01 X180.889 Y274.227
G01 X187.467 Y275.574
G01 X194.154 Y276.598
G01 X200.936 Y277.288
G01 X206.592 Y277.603
G01 X190.168 Y141.390
G01 X190.086 Y141.217
G01 X190.023 Y141.041
G01 X189.977 Y140.861
G01 X189.948 Y140.680
G01 X189.937 Y140.499
G01 X189.944 Y140.318
G01 X189.968 Y140.140
G01 X190.000 Y140.000
G01 X189.930 Y140.323
G01 X189.892 Y140.651
G01 X189.886 Y140.984
G01 X189.912 Y141.318
G01 X189.971 Y141.651
G01 X190.063 Y141.980
G01 X190.186 Y142.304
G01 X190.310 Y142.560
G01 X190.613 Y143.577
G01 X191.015 Y144.569
G01 X191.516 Y145.526
G01 X192.113 Y146.444
G01 X192.802 Y147.313
G01 X193.581 Y148.128
G01 X194.446 Y148.882
G01 X195.392 Y149.569
G01 X196.416 Y150.181
G01 X197.510 Y150.715
G01 X198.672 Y151.163
G01 X199.893 Y151.521
G01 X201.170 Y151.784
G01 X202.494 Y151.948
G01 X203.859 Y152.009
G01 X205.258 Y151.962
G01 X206.684 Y151.806
G01 X208.130 Y151.537
G01 X209.587 Y151.154
G01 X211.048 Y150.653
G01 X212.505 Y150.036
G01 X213.950 Y149.300
G01 X215.374 Y148.445
G01 X216.770 Y147.472
G01 X218.129 Y146.382
G01 X219.443 Y145.176
G01 X220.704 Y143.856
G01 X221.903 Y142.425
G01 X223.034 Y140.885
G01 X224.088 Y139.239
G01 X225.058 Y137.492
G01 X225.935 Y135.649
G01 X226.714 Y133.714
G01 X227.387 Y131.692
G01 X227.947 Y129.589
G01 X228.389 Y127.413
G01 X228.706 Y125.168
G01 X228.893 Y122.863
G01 X228.945 Y120.505
G01 X228.857 Y118.102
G01 X228.624 Y115.662
G01 X228.244 Y113.193
G01 X227.712 Y110.704
G01 X227.026 Y108.204
G01 X226.184 Y105.703
G01 X225.184 Y103.210
G01 X224.024 Y100.734
G01 X222.705 Y98.285
G01 X221.225 Y95.873
G01 X219.586 Y93.507
G01 X217.789 Y91.199
G01 X215.836 Y88.956
G01 X213.728 Y86.791
G01 X211.469 Y84.711
G01 X209.062 Y82.727
G01 X206.511 Y80.849
G01 X203.821 Y79.086
G01 X200.998 Y77.446
G01 X198.046 Y75.940
G01 X194.973 Y74.574
G01 X191.784 Y73.359
G01 X188.489 Y72.301
G01 X185.094 Y71.409
G01 X181.608 Y70.690
G01 X178.040 Y70.149
G01 X174.399 Y69.795
G01 X170.695 Y69.632
G01 X166.938 Y69.665
G01 X163.139 Y69.901
G01 X159.308 Y70.342
G01 X155.457 Y70.992
G01 X151.596 Y71.855
G01 X147.739 Y72.933
G01 X143.896 Y74.227
G01 X140.080 Y75.739
G01 X136.302 Y77.468
G01 X132.576 Y79.416
G01 X128.913 Y81.581
G01 X125.326 Y83.960
G01 X121.827 Y86.553
G01 X118.429 Y89.356
G01 X115.144 Y92.364
G01 X111.984 Y95.575
G01 X108.961 Y98.982
G01 X106.086 Y102.580
G01 X103.372 Y106.362
G01 X100.829 Y110.322
G01 X98.468 Y114.450
G01 X96.300 Y118.740
G01 X94.335 Y123.181
G01 X92.583 Y127.765
G01 X91.052 Y132.480
G01 X89.752 Y137.316
G01 X88.691 Y142.261
G01 X87.876 Y147.305
G01 X87.314 Y152.433
G01 X87.013 Y157.634
G01 X86.976 Y162.894
G01 X87.211 Y168.200
G01 X87.720 Y173.537
G01 X88.508 Y178.891
G01 X89.577 Y184.247
G01 X90.929 Y189.592
G01 X92.567 Y194.909
G01 X94.490 Y200.184
G01 X96.697 Y205.401
G01 X99.189 Y210.545
G01 X101.963 Y215.600
G01 X105.016 Y220.552
G01 X108.345 Y225.384
G01 X111.945 Y230.082
G01 X115.811 Y234.630
G01 X119.936 Y239.014
G01 X124.315 Y243.219
G01 X128.939 Y247.230
G01 X133.800 Y251.035
G01 X138.888 Y254.618
G01 X144.193 Y257.967
G01 X149.705 Y261.070
G01 X155.412 Y263.913
G01 X161.301 Y266.485
G01 X167.360 Y268.776
G01 X173.575 Y270.774
G01 X179.932 Y272.470
G01 X186.416 Y273.855
G01 X193.012 Y274.920
G01 X199.703 Y275.657
G01 X206.474 Y276.061
G01 X211.970 Y276.139
G01 X190.222 Y141.375
G01 X190.144 Y141.290
G01 X190.074 Y141.200
G01 X190.014 Y141.107
G01 X189.963 Y141.011
G01 X189.922 Y140.913
G01 X189.890 Y140.814
G01 X189.867 Y140.714
G01 X189.854 Y140.614
G01 X189.851 Y140.515
G01 X189.857 Y140.417
G01 X189.872 Y140.321
G01 X189.896 Y140.227
G01 X189.929 Y140.138
G01 X189.970 Y140.052
G01 X190.000 Y140.000
G01 X189.954 Y140.082
G01 X189.916 Y140.169
G01 X189.887 Y140.259
G01 X189.867 Y140.352
G01 X189.855 Y140.448
G01 X189.853 Y140.545
G01 X189.860 Y140.644
G01 X189.876 Y140.742
G01 X189.902 Y140.841
G01 X189.937 Y140.939
G01 X189.981 Y141.035
G01 X190.035 Y141.129
G01 X190.065 Y141.174
G01 X190.231 Y142.203
G01 X190.498 Y143.215
G01 X190.865 Y144.204
G01 X191.329 Y145.163
G01 X191.889 Y146.084
G01 X192.541 Y146.959
G01 X193.283 Y147.783
G01 X194.111 Y148.549
G01 X195.022 Y149.250
G01 X196.009 Y149.880
G01 X197.070 Y150.433
G01 X198.197 Y150.904
G01 X199.387 Y151.288
G01 X200.632 Y151.579
G01 X201.926 Y151.773
G01 X203.264 Y151.866
G01 X204.637 Y151.855
G01 X206.040 Y151.736
G01 X207.464 Y151.506
G01 X208.902 Y151.163
G01 X210.346 Y150.706
G01 X211.789 Y150.133
G01 X213.222 Y149.443
G01 X214.638 Y148.636
G01 X216.028 Y147.712
G01 X217.384 Y146.671
G01 X218.699 Y145.515
G01 X219.963 Y144.246
G01 X221.170 Y142.866
G01 X222.311 Y141.377
G01 X223.378 Y139.784
G01 X224.365 Y138.088
G01 X225.263 Y136.296
G01 X226.065 Y134.411
G01 X226.765 Y132.439
G01 X227.356 Y130.385
G01 X227.831 Y128.256
G01 X228.185 Y126.057
G01 X228.412 Y123.797
G01 X228.507 Y121.481
G01 X228.465 Y119.119
G01 X228.281 Y116.716
G01 X227.953 Y114.283
G01 X227.475 Y111.828
G01 X226.847 Y109.359
G01 X226.064 Y106.885
G01 X225.125 Y104.416
G01 X224.030 Y101.961
G01 X222.776 Y99.530
G01 X221.364 Y97.132
G01 X219.795 Y94.777
G01 X218.068 Y92.476
G01 X216.186 Y90.236
G01 X214.151 Y88.069
G01 X211.965 Y85.985
G01 X209.631 Y83.992
G01 X207.155 Y82.100
G01 X204.539 Y80.318
G01 X201.789 Y78.657
G01 X198.911 Y77.124
G01 X195.910 Y75.728
G01 X192.793 Y74.477
G01 X189.568 Y73.380
G01 X186.242 Y72.445
G01 X182.823 Y71.677
G01 X179.320 Y71.085
G01 X175.743 Y70.675
G01 X172.099 Y70.452
G01 X168.400 Y70.422
G01 X164.656 Y70.590
G01 X160.877 Y70.960
G01 X157.074 Y71.536
G01 X153.259 Y72.321
G01 X149.442 Y73.318
G01 X145.636 Y74.528
G01 X141.853 Y75.953
G01 X138.104 Y77.594
G01 X134.402 Y79.451
G01 X130.759 Y81.522
G01 X127.187 Y83.807
G01 X123.698 Y86.303
G01 X120.304 Y89.007
G01 X117.019 Y91.917
G01 X113.853 Y95.028
G01 X110.819 Y98.334
G01 X107.928 Y101.832
G01 X105.191 Y105.513
G01 X102.621 Y109.373
G01 X100.227 Y113.402
G01 X98.021 Y117.593
G01 X96.012 Y121.937
G01 X94.211 Y126.425
G01 X92.626 Y131.046
G01 X91.266 Y135.791
G01 X90.139 Y140.647
G01 X89.254 Y145.604
G01 X88.617 Y150.649
G01 X88.235 Y155.770
G01 X88.114 Y160.954
G01 X88.259 Y166.187
G01 X88.675 Y171.455
G01 X89.364 Y176.746
G01 X90.331 Y182.043
G01 X91.578 Y187.333
G01 X93.106 Y192.601
G01 X94.917 Y197.832
G01 X97.009 Y203.011
G01 X99.382 Y208.122
G01 X102.035 Y213.150
G01 X104.965 Y218.081
G01 X108.169 Y222.899
G01 X111.643 Y227.588
G01 X115.381 Y232.135
G01 X119.379 Y236.524
G01 X123.628 Y240.740
G01 X128.123 Y244.770
G01 X132.855 Y248.599
G01 X137.814 Y252.214
G01 X142.992 Y255.602
G01 X148.377 Y258.750
G01 X153.959 Y261.645
G01 X159.725 Y264.276
G01 X165.664 Y266.632
G01 X171.761 Y268.702
G01 X178.003 Y270.477
G01 X184.375 Y271.946
G01 X190.863 Y273.102
G01 X197.451 Y273.936
G01 X204.122 Y274.443
G01 X210.861 Y274.614
G01 X217.257 Y274.465
G01 X190.278 Y141.372
G01 X190.202 Y141.327
G01 X190.131 Y141.277
G01 X190.065 Y141.224
G01 X190.004 Y141.168
G01 X189.950 Y141.109
G01 X189.901 Y141.048
G01 X189.858 Y140.984
G01 X189.821 Y140.919
G01 X189.790 Y140.853
G01 X189.765 Y140.786
G01 X189.746 Y140.719
G01 X189.733 Y140.652
G01 X189.726 Y140.586
G01 X189.724 Y140.520
G01 X189.729 Y140.456
G01 X189.739 Y140.394
G01 X189.754 Y140.334
G01 X189.774 Y140.277
G01 X189.800 Y140.222
G01 X189.830 Y140.171
G01 X189.865 Y140.124
G01 X189.903 Y140.080
G01 X189.946 Y140.040
G01 X189.992 Y140.005
G01 X190.000 Y140.000
G01 X189.973 Y140.020
G01 X189.949 Y140.042
G01 X189.926 Y140.066
G01 X189.906 Y140.093
G01 X189.888 Y140.122
G01 X189.874 Y140.153
G01 X189.861 Y140.185
G01 X189.852 Y140.219
G01 X189.846 Y140.254
G01 X189.843 Y140.291
G01 X189.843 Y140.328
G01 X189.847 Y140.366
G01 X189.853 Y140.404
G01 X189.864 Y140.442
G01 X189.877 Y140.480
G01 X189.895 Y140.518
G01 X189.915 Y140.555
G01 X189.939 Y140.592
G01 X189.966 Y140.627
G01 X189.997 Y140.661
G01 X190.022 Y140.686
G01 X190.140 Y141.707
G01 X190.358 Y142.717
G01 X190.675 Y143.707
G01 X191.089 Y144.669
G01 X191.599 Y145.598
G01 X192.202 Y146.485
G01 X192.895 Y147.325
G01 X193.675 Y148.110
G01 X194.538 Y148.833
G01 X195.479 Y149.489
G01 X196.495 Y150.072
G01 X197.580 Y150.576
G01 X198.728 Y150.996
G01 X199.935 Y151.327
G01 X201.193 Y151.564
G01 X202.496 Y151.703
G01 X203.839 Y151.740
G01 X205.213 Y151.672
G01 X206.612 Y151.496
G01 X208.029 Y151.210
G01 X209.455 Y150.810
G01 X210.883 Y150.297
G01 X212.306 Y149.668
G01 X213.715 Y148.924
G01 X215.102 Y148.064
G01 X216.459 Y147.088
G01 X217.779 Y145.998
G01 X219.054 Y144.795
G01 X220.274 Y143.481
G01 X221.434 Y142.058
G01 X222.524 Y140.530
G01 X223.537 Y138.900
G01 X224.467 Y137.172
G01 X225.305 Y135.350
G01 X226.045 Y133.439
G01 X226.680 Y131.445
G01 X227.203 Y129.374
G01 X227.610 Y127.231
G01 X227.893 Y125.023
G01 X228.048 Y122.758
G01 X228.070 Y120.442
G01 X227.954 Y118.084
G01 X227.696 Y115.692
G01 X227.293 Y113.273
G01 X226.741 Y110.837
G01 X226.038 Y108.392
G01 X225.182 Y105.947
G01 X224.171 Y103.512
G01 X223.004 Y101.096
G01 X221.680 Y98.708
G01 X220.201 Y96.359
G01 X218.565 Y94.057
G01 X216.775 Y91.813
G01 X214.833 Y89.636
G01 X212.740 Y87.536
G01 X210.500 Y85.522
G01 X208.117 Y83.604
G01 X205.594 Y81.791
G01 X202.935 Y80.091
G01 X200.147 Y78.515
G01 X197.236 Y77.071
G01 X194.206 Y75.767
G01 X191.066 Y74.611
G01 X187.823 Y73.611
G01 X184.484 Y72.774
G01 X181.058 Y72.107
G01 X177.553 Y71.617
G01 X173.979 Y71.310
G01 X170.346 Y71.191
G01 X166.663 Y71.266
G01 X162.941 Y71.538
G01 X159.191 Y72.013
G01 X155.422 Y72.693
G01 X151.648 Y73.581
G01 X147.878 Y74.680
G01 X144.126 Y75.990
G01 X140.401 Y77.514
G01 X136.718 Y79.250
G01 X133.087 Y81.200
G01 X129.520 Y83.361
G01 X126.031 Y85.733
G01 X122.630 Y88.312
G01 X119.330 Y91.095
G01 X116.144 Y94.079
G01 X113.081 Y97.259
G01 X110.156 Y100.631
G01 X107.378 Y104.188
G01 X104.759 Y107.923
G01 X102.309 Y111.830
G01 X100.041 Y115.901
G01 X97.962 Y120.127
G01 X96.085 Y124.500
G01 X94.417 Y129.010
G01 X92.968 Y133.646
G01 X91.746 Y138.398
G01 X90.759 Y143.255
G01 X90.014 Y148.204
G01 X89.519 Y153.235
G01 X89.279 Y158.333
G01 X89.299 Y163.486
G01 X89.585 Y168.681
G01 X90.141 Y173.904
G01 X90.970 Y179.141
G01 X92.074 Y184.377
G01 X93.456 Y189.598
G01 X95.116 Y194.789
G01 X97.056 Y199.935
G01 X99.273 Y205.022
G01 X101.769 Y210.034
G01 X104.539 Y214.956
G01 X107.582 Y219.773
G01 X110.893 Y224.471
G01 X114.469 Y229.034
G01 X118.303 Y233.448
G01 X122.391 Y237.698
G01 X126.723 Y241.770
G01 X131.294 Y245.650
G01 X136.095 Y249.325
G01 X141.116 Y252.781
G01 X146.347 Y256.005
G01 X151.777 Y258.985
G01 X157.396 Y261.709
G01 X163.190 Y264.167
G01 X169.148 Y266.346
G01 X175.255 Y268.237
G01 X181.498 Y269.831
G01 X187.862 Y271.119
G01 X194.332 Y272.093
G01 X200.892 Y272.745
G01 X207.527 Y273.069
G01 X214.219 Y273.059
G01 X220.952 Y272.711
G01 X222.446 Y272.588
G01 X190.331 Y141.353
G01 X190.228 Y141.182
G01 X190.143 Y141.004
G01 X190.076 Y140.821
G01 X190.028 Y140.635
G01 X189.998 Y140.446
G01 X189.986 Y140.257
G01 X189.993 Y140.067
G01 X190.000 Y140.000
G01 X189.949 Y140.704
G01 X189.968 Y141.410
G01 X190.055 Y142.115
G01 X190.212 Y142.814
G01 X190.437 Y143.500
G01 X190.730 Y144.169
G01 X191.089 Y144.816
G01 X191.514 Y145.436
G01 X191.549 Y145.483
G01 X192.140 Y146.363
G01 X192.820 Y147.196
G01 X193.587 Y147.975
G01 X194.435 Y148.694
G01 X195.362 Y149.347
G01 X196.362 Y149.928
G01 X197.431 Y150.431
G01 X198.563 Y150.851
G01 X199.753 Y151.184
G01 X200.994 Y151.423
G01 X202.281 Y151.567
G01 X203.606 Y151.609
G01 X204.963 Y151.548
G01 X206.345 Y151.381
G01 X207.745 Y151.104
G01 X209.155 Y150.715
G01 X210.567 Y150.214
G01 X211.975 Y149.599
G01 X213.369 Y148.870
G01 X214.742 Y148.026
G01 X216.086 Y147.068
G01 X217.394 Y145.997
G01 X218.657 Y144.814
G01 X219.867 Y143.521
G01 X221.017 Y142.120
G01 X222.099 Y140.615
G01 X223.106 Y139.009
G01 X224.030 Y137.306
G01 X224.864 Y135.509
G01 X225.602 Y133.625
G01 X226.236 Y131.658
G01 X226.760 Y129.614
G01 X227.169 Y127.499
G01 X227.456 Y125.319
G01 X227.617 Y123.083
G01 X227.647 Y120.796
G01 X227.540 Y118.466
G01 X227.293 Y116.102
G01 X226.903 Y113.712
G01 X226.366 Y111.303
G01 X225.680 Y108.886
G01 X224.842 Y106.469
G01 X223.851 Y104.060
G01 X222.706 Y101.670
G01 X221.406 Y99.307
G01 X219.952 Y96.981
G01 X218.344 Y94.703
G01 X216.583 Y92.480
G01 X214.671 Y90.323
G01 X212.610 Y88.242
G01 X210.404 Y86.245
G01 X208.055 Y84.343
G01 X205.568 Y82.543
G01 X202.947 Y80.856
G01 X200.198 Y79.291
G01 X197.325 Y77.855
G01 X194.337 Y76.557
G01 X191.238 Y75.405
G01 X188.036 Y74.407
G01 X184.740 Y73.570
G01 X181.357 Y72.901
G01 X177.896 Y72.406
G01 X174.366 Y72.091
G01 X170.777 Y71.963
G01 X167.138 Y72.025
G01 X163.459 Y72.283
G01 X159.752 Y72.741
G01 X156.026 Y73.401
G01 X152.294 Y74.268
G01 X148.566 Y75.342
G01 X144.854 Y76.625
G01 X141.170 Y78.120
G01 X137.525 Y79.825
G01 X133.931 Y81.740
G01 X130.400 Y83.865
G01 X126.945 Y86.198
G01 X123.577 Y88.736
G01 X120.308 Y91.477
G01 X117.150 Y94.416
G01 X114.115 Y97.550
G01 X111.214 Y100.872
G01 X108.458 Y104.379
G01 X105.859 Y108.062
G01 X103.427 Y111.916
G01 X101.173 Y115.932
G01 X99.107 Y120.103
G01 X97.238 Y124.418
G01 X95.577 Y128.870
G01 X94.131 Y133.447
G01 X92.909 Y138.139
G01 X91.920 Y142.936
G01 X91.170 Y147.825
G01 X90.665 Y152.795
G01 X90.413 Y157.833
G01 X90.418 Y162.926
G01 X90.686 Y168.060
G01 X91.219 Y173.224
G01 X92.023 Y178.401
G01 X93.099 Y183.579
G01 X94.449 Y188.743
G01 X96.075 Y193.878
G01 X97.977 Y198.970
G01 X100.154 Y204.003
G01 X102.605 Y208.964
G01 X105.329 Y213.837
G01 X108.322 Y218.607
G01 X111.581 Y223.259
G01 X115.101 Y227.779
G01 X118.878 Y232.153
G01 X122.905 Y236.365
G01 X127.176 Y240.402
G01 X131.682 Y244.250
G01 X136.416 Y247.896
G01 X141.368 Y251.326
G01 X146.529 Y254.528
G01 X151.887 Y257.489
G01 X157.432 Y260.198
G01 X163.152 Y262.643
G01 X169.034 Y264.814
G01 X175.065 Y266.701
G01 X181.231 Y268.295
G01 X187.517 Y269.586
G01 X193.909 Y270.567
G01 X200.391 Y271.231
G01 X206.947 Y271.570
G01 X213.562 Y271.580
G01 X220.217 Y271.255
G01 X226.898 Y270.592
G01 X227.529 Y270.511
G01 X190.387 Y141.345
G01 X190.289 Y141.228
G01 X190.203 Y141.105
G01 X190.130 Y140.977
G01 X190.071 Y140.845
G01 X190.025 Y140.709
G01 X189.992 Y140.571
G01 X189.972 Y140.432
G01 X189.967 Y140.293
G01 X189.975 Y140.155
G01 X189.996 Y140.018
G01 X190.000 Y140.000
G01 X189.930 Y140.409
G01 X189.901 Y140.824
G01 X189.913 Y141.242
G01 X189.965 Y141.660
G01 X190.058 Y142.075
G01 X190.192 Y142.483
G01 X190.365 Y142.883
G01 X190.479 Y143.099
G01 X190.832 Y144.055
G01 X191.280 Y144.982
G01 X191.820 Y145.873
G01 X192.450 Y146.720
G01 X193.167 Y147.517
G01 X193.967 Y148.258
G01 X194.846 Y148.937
G01 X195.800 Y149.546
G01 X196.824 Y150.082
G01 X197.914 Y150.538
G01 X199.063 Y150.910
G01 X200.267 Y151.192
G01 X201.518 Y151.380
G01 X202.810 Y151.472
G01 X204.138 Y151.462
G01 X205.494 Y151.348
G01 X206.870 Y151.127
G01 X208.260 Y150.797
G01 X209.657 Y150.356
G01 X211.052 Y149.803
G01 X212.437 Y149.137
G01 X213.806 Y148.357
G01 X215.150 Y147.465
G01 X216.462 Y146.460
G01 X217.733 Y145.344
G01 X218.957 Y144.118
G01 X220.124 Y142.785
G01 X221.228 Y141.347
G01 X222.260 Y139.807
G01 X223.215 Y138.169
G01 X224.084 Y136.437
G01 X224.860 Y134.615
G01 X225.538 Y132.709
G01 X226.110 Y130.725
G01 X226.571 Y128.667
G01 X226.914 Y126.542
G01 X227.135 Y124.357
G01 X227.228 Y122.119
G01 X227.189 Y119.835
G01 X227.013 Y117.513
G01 X226.696 Y115.161
G01 X226.236 Y112.787
G01 X225.630 Y110.400
G01 X224.875 Y108.008
G01 X223.969 Y105.621
G01 X222.911 Y103.248
G01 X221.701 Y100.897
G01 X220.337 Y98.578
G01 X218.821 Y96.301
G01 X217.153 Y94.075
G01 X215.335 Y91.910
G01 X213.369 Y89.814
G01 X211.257 Y87.798
G01 X209.003 Y85.870
G01 X206.610 Y84.040
G01 X204.082 Y82.317
G01 X201.425 Y80.709
G01 X198.643 Y79.225
G01 X195.743 Y77.874
G01 X192.731 Y76.664
G01 X189.614 Y75.602
G01 X186.399 Y74.696
G01 X183.095 Y73.952
G01 X179.709 Y73.378
G01 X176.251 Y72.979
G01 X172.729 Y72.762
G01 X169.153 Y72.731
G01 X165.534 Y72.892
G01 X161.880 Y73.247
G01 X158.204 Y73.802
G01 X154.515 Y74.559
G01 X150.826 Y75.521
G01 X147.146 Y76.689
G01 X143.488 Y78.065
G01 X139.863 Y79.649
G01 X136.283 Y81.442
G01 X132.760 Y83.442
G01 X129.306 Y85.649
G01 X125.932 Y88.060
G01 X122.650 Y90.673
G01 X119.473 Y93.484
G01 X116.411 Y96.490
G01 X113.476 Y99.685
G01 X110.680 Y103.064
G01 X108.033 Y106.622
G01 X105.546 Y110.352
G01 X103.230 Y114.246
G01 X101.095 Y118.296
G01 X99.151 Y122.494
G01 X97.407 Y126.832
G01 X95.873 Y131.299
G01 X94.556 Y135.884
G01 X93.464 Y140.579
G01 X92.606 Y145.370
G01 X91.988 Y150.247
G01 X91.617 Y155.197
G01 X91.497 Y160.208
G01 X91.634 Y165.267
G01 X92.033 Y170.360
G01 X92.698 Y175.475
G01 X93.630 Y180.596
G01 X94.833 Y185.711
G01 X96.307 Y190.804
G01 X98.055 Y195.862
G01 X100.075 Y200.869
G01 X102.367 Y205.811
G01 X104.929 Y210.674
G01 X107.759 Y215.442
G01 X110.854 Y220.101
G01 X114.210 Y224.636
G01 X117.821 Y229.033
G01 X121.683 Y233.277
G01 X125.790 Y237.356
G01 X130.133 Y241.254
G01 X134.705 Y244.958
G01 X139.498 Y248.455
G01 X144.502 Y251.732
G01 X149.706 Y254.778
G01 X155.101 Y257.580
G01 X160.674 Y260.126
G01 X166.414 Y262.407
G01 X172.307 Y264.411
G01 X178.340 Y266.129
G01 X184.500 Y267.553
G01 X190.771 Y268.673
G01 X197.139 Y269.483
G01 X203.589 Y269.976
G01 X210.103 Y270.145
G01 X216.667 Y269.986
G01 X223.262 Y269.493
G01 X229.874 Y268.665
G01 X232.498 Y268.242
G01 X190.438 Y141.322
G01 X190.336 Y141.209
G01 X190.246 Y141.089
G01 X190.168 Y140.964
G01 X190.104 Y140.834
G01 X190.052 Y140.700
G01 X190.014 Y140.563
G01 X189.990 Y140.425
G01 X189.979 Y140.286
G01 X189.982 Y140.148
G01 X189.998 Y140.011
G01 X190.000 Y140.000
G01 X189.934 Y140.522
G01 X189.919 Y141.050
G01 X189.957 Y141.579
G01 X190.046 Y142.106
G01 X190.186 Y142.627
G01 X190.378 Y143.137
G01 X190.620 Y143.634
G01 X190.782 Y143.913
G01 X191.215 Y144.833
G01 X191.740 Y145.718
G01 X192.354 Y146.560
G01 X193.054 Y147.354
G01 X193.837 Y148.093
G01 X194.698 Y148.770
G01 X195.634 Y149.381
G01 X196.640 Y149.918
G01 X197.711 Y150.377
G01 X198.842 Y150.754
G01 X200.026 Y151.042
G01 X201.259 Y151.238
G01 X202.533 Y151.339
G01 X203.843 Y151.339
G01 X205.181 Y151.237
G01 X206.540 Y151.030
G01 X207.913 Y150.715
G01 X209.294 Y150.290
G01 X210.674 Y149.755
G01 X212.045 Y149.108
G01 X213.401 Y148.349
G01 X214.733 Y147.478
G01 X216.034 Y146.496
G01 X217.295 Y145.404
G01 X218.510 Y144.203
G01 X219.670 Y142.895
G01 X220.769 Y141.484
G01 X221.798 Y139.971
G01 X222.750 Y138.361
G01 X223.618 Y136.658
G01 X224.396 Y134.866
G01 X225.076 Y132.990
G01 X225.653 Y131.035
G01 X226.120 Y129.007
G01 X226.472 Y126.913
G01 X226.703 Y124.758
G01 X226.809 Y122.550
G01 X226.783 Y120.296
G01 X226.624 Y118.003
G01 X226.325 Y115.680
G01 X225.885 Y113.335
G01 X225.301 Y110.976
G01 X224.570 Y108.611
G01 X223.689 Y106.250
G01 X222.659 Y103.901
G01 X221.478 Y101.573
G01 X220.145 Y99.277
G01 X218.662 Y97.021
G01 X217.028 Y94.814
G01 X215.245 Y92.666
G01 X213.316 Y90.586
G01 X211.243 Y88.584
G01 X209.028 Y86.668
G01 X206.676 Y84.848
G01 X204.190 Y83.132
G01 X201.575 Y81.530
G01 X198.837 Y80.050
G01 X195.981 Y78.701
G01 X193.014 Y77.489
G01 X189.942 Y76.423
G01 X186.773 Y75.511
G01 X183.515 Y74.759
G01 X180.174 Y74.173
G01 X176.762 Y73.761
G01 X173.285 Y73.527
G01 X169.755 Y73.477
G01 X166.179 Y73.616
G01 X162.570 Y73.948
G01 X158.937 Y74.476
G01 X155.290 Y75.203
G01 X151.641 Y76.133
G01 X148.001 Y77.267
G01 X144.381 Y78.606
G01 X140.793 Y80.152
G01 X137.248 Y81.903
G01 X133.758 Y83.860
G01 X130.335 Y86.021
G01 X126.989 Y88.384
G01 X123.735 Y90.947
G01 X120.581 Y93.707
G01 X117.541 Y96.659
G01 X114.625 Y99.799
G01 X111.846 Y103.122
G01 X109.212 Y106.622
G01 X106.737 Y110.293
G01 X104.429 Y114.127
G01 X102.299 Y118.116
G01 X100.356 Y122.253
G01 X98.611 Y126.528
G01 X97.072 Y130.932
G01 X95.747 Y135.455
G01 X94.644 Y140.087
G01 X93.771 Y144.815
G01 X93.135 Y149.629
G01 X92.742 Y154.517
G01 X92.598 Y159.466
G01 X92.707 Y164.464
G01 X93.075 Y169.498
G01 X93.704 Y174.554
G01 X94.598 Y179.618
G01 X95.760 Y184.677
G01 X97.190 Y189.716
G01 X98.890 Y194.722
G01 X100.860 Y199.679
G01 X103.098 Y204.573
G01 X105.604 Y209.390
G01 X108.376 Y214.115
G01 X111.409 Y218.734
G01 X114.701 Y223.232
G01 X118.246 Y227.594
G01 X122.040 Y231.808
G01 X126.075 Y235.858
G01 X130.346 Y239.732
G01 X134.844 Y243.415
G01 X139.561 Y246.895
G01 X144.488 Y250.159
G01 X149.614 Y253.195
G01 X154.930 Y255.991
G01 X160.423 Y258.535
G01 X166.082 Y260.818
G01 X171.894 Y262.828
G01 X177.846 Y264.557
G01 X183.925 Y265.996
G01 X190.115 Y267.135
G01 X196.403 Y267.968
G01 X202.773 Y268.488
G01 X209.209 Y268.689
G01 X215.694 Y268.565
G01 X222.214 Y268.113
G01 X228.751 Y267.328
G01 X235.287 Y266.208
G01 X237.346 Y265.785
G01 X190.493 Y141.310
G01 X190.391 Y141.218
G01 X190.300 Y141.118
G01 X190.219 Y141.013
G01 X190.149 Y140.903
G01 X190.091 Y140.789
G01 X190.044 Y140.672
G01 X190.009 Y140.552
G01 X189.986 Y140.431
G01 X189.975 Y140.309
G01 X189.975 Y140.187
G01 X189.988 Y140.067
G01 X190.000 Y140.000
G01 X189.931 Y140.431
G01 X189.905 Y140.868
G01 X189.921 Y141.307
G01 X189.981 Y141.746
G01 X190.083 Y142.181
G01 X190.228 Y142.609
G01 X190.415 Y143.027
G01 X190.548 Y143.274
G01 X190.918 Y144.203
G01 X191.380 Y145.101
G01 X191.931 Y145.961
G01 X192.569 Y146.778
G01 X193.291 Y147.543
G01 X194.094 Y148.253
G01 X194.973 Y148.899
G01 X195.924 Y149.477
G01 X196.943 Y149.981
G01 X198.024 Y150.406
G01 X199.162 Y150.747
G01 X200.351 Y151.000
G01 X201.585 Y151.160
G01 X202.859 Y151.224
G01 X204.165 Y151.188
G01 X205.496 Y151.050
G01 X206.846 Y150.806
G01 X208.208 Y150.456
G01 X209.573 Y149.996
G01 X210.936 Y149.427
G01 X212.287 Y148.747
G01 X213.620 Y147.957
G01 X214.927 Y147.055
G01 X216.200 Y146.045
G01 X217.432 Y144.925
G01 X218.614 Y143.699
G01 X219.740 Y142.369
G01 X220.802 Y140.936
G01 X221.793 Y139.406
G01 X222.705 Y137.780
G01 X223.532 Y136.063
G01 X224.267 Y134.260
G01 X224.904 Y132.376
G01 X225.435 Y130.416
G01 X225.857 Y128.387
G01 X226.162 Y126.293
G01 X226.346 Y124.143
G01 X226.404 Y121.942
G01 X226.331 Y119.698
G01 X226.124 Y117.420
G01 X225.779 Y115.114
G01 X225.292 Y112.788
G01 X224.662 Y110.452
G01 X223.885 Y108.114
G01 X222.961 Y105.783
G01 X221.888 Y103.467
G01 X220.666 Y101.175
G01 X219.294 Y98.918
G01 X217.773 Y96.703
G01 X216.104 Y94.541
G01 X214.289 Y92.441
G01 X212.329 Y90.411
G01 X210.228 Y88.461
G01 X207.988 Y86.599
G01 X205.614 Y84.836
G01 X203.109 Y83.180
G01 X200.479 Y81.638
G01 X197.728 Y80.221
G01 X194.864 Y78.934
G01 X191.891 Y77.788
G01 X188.818 Y76.788
G01 X185.651 Y75.942
G01 X182.399 Y75.258
G01 X179.069 Y74.740
G01 X175.671 Y74.396
G01 X172.212 Y74.230
G01 X168.704 Y74.248
G01 X165.155 Y74.454
G01 X161.576 Y74.852
G01 X157.978 Y75.445
G01 X154.369 Y76.237
G01 X150.763 Y77.229
G01 X147.170 Y78.424
G01 X143.600 Y79.822
G01 X140.066 Y81.424
G01 X136.579 Y83.229
G01 X133.151 Y85.238
G01 X129.792 Y87.447
G01 X126.516 Y89.856
G01 X123.332 Y92.461
G01 X120.253 Y95.260
G01 X117.290 Y98.247
G01 X114.455 Y101.418
G01 X111.757 Y104.768
G01 X109.208 Y108.291
G01 X106.819 Y111.980
G01 X104.600 Y115.828
G01 X102.560 Y119.827
G01 X100.709 Y123.968
G01 X99.056 Y128.243
G01 X97.609 Y132.641
G01 X96.378 Y137.154
G01 X95.369 Y141.769
G01 X94.590 Y146.477
G01 X94.048 Y151.265
G01 X93.747 Y156.122
G01 X93.695 Y161.035
G01 X93.895 Y165.992
G01 X94.352 Y170.979
G01 X95.069 Y175.983
G01 X96.049 Y180.990
G01 X97.294 Y185.987
G01 X98.805 Y190.959
G01 X100.582 Y195.893
G01 X102.626 Y200.774
G01 X104.936 Y205.588
G01 X107.509 Y210.320
G01 X110.344 Y214.956
G01 X113.436 Y219.481
G01 X116.783 Y223.882
G01 X120.378 Y228.144
G01 X124.217 Y232.254
G01 X128.293 Y236.197
G01 X132.598 Y239.961
G01 X137.126 Y243.531
G01 X141.866 Y246.897
G01 X146.810 Y250.044
G01 X151.949 Y252.961
G01 X157.270 Y255.637
G01 X162.762 Y258.061
G01 X168.415 Y260.221
G01 X174.214 Y262.110
G01 X180.146 Y263.716
G01 X186.199 Y265.032
G01 X192.357 Y266.050
G01 X198.605 Y266.762
G01 X204.930 Y267.162
G01 X211.313 Y267.245
G01 X217.741 Y267.006
G01 X224.196 Y266.439
G01 X230.661 Y265.543
G01 X237.120 Y264.315
G01 X242.065 Y263.146
G01 X190.542 Y141.283
G01 X190.445 Y141.215
G01 X190.355 Y141.142
G01 X190.274 Y141.062
G01 X190.202 Y140.978
G01 X190.139 Y140.889
G01 X190.084 Y140.797
G01 X190.040 Y140.702
G01 X190.004 Y140.604
G01 X189.979 Y140.505
G01 X189.963 Y140.405
G01 X189.957 Y140.305
G01 X189.961 Y140.206
G01 X189.974 Y140.108
G01 X189.996 Y140.012
G01 X190.000 Y140.000
G01 X189.932 Y140.274
G01 X189.890 Y140.554
G01 X189.877 Y140.838
G01 X189.890 Y141.123
G01 X189.932 Y141.409
G01 X190.002 Y141.693
G01 X190.099 Y141.973
G01 X190.223 Y142.246
G01 X190.285 Y142.362
G01 X190.565 Y143.302
G01 X190.937 Y144.219
G01 X191.399 Y145.104
G01 X191.950 Y145.952
G01 X192.587 Y146.756
G01 X193.307 Y147.510
G01 X194.106 Y148.207
G01 X194.980 Y148.842
G01 X195.926 Y149.408
G01 X196.937 Y149.901
G01 X198.010 Y150.316
G01 X199.139 Y150.648
G01 X200.319 Y150.891
G01 X201.542 Y151.043
G01 X202.804 Y151.099
G01 X204.097 Y151.057
G01 X205.415 Y150.913
G01 X206.751 Y150.665
G01 X208.098 Y150.311
G01 X209.449 Y149.849
G01 X210.795 Y149.279
G01 X212.131 Y148.599
G01 X213.447 Y147.810
G01 X214.737 Y146.911
G01 X215.994 Y145.904
G01 X217.208 Y144.790
G01 X218.374 Y143.570
G01 X219.483 Y142.247
G01 X220.529 Y140.824
G01 X221.503 Y139.304
G01 X222.400 Y137.690
G01 X223.212 Y135.986
G01 X223.932 Y134.198
G01 X224.554 Y132.329
G01 X225.073 Y130.386
G01 X225.482 Y128.375
G01 X225.775 Y126.300
G01 X225.949 Y124.170
G01 X225.997 Y121.991
G01 X225.916 Y119.770
G01 X225.702 Y117.514
G01 X225.351 Y115.232
G01 X224.860 Y112.932
G01 X224.227 Y110.622
G01 X223.449 Y108.310
G01 X222.525 Y106.005
G01 X221.454 Y103.716
G01 X220.235 Y101.453
G01 X218.868 Y99.223
G01 X217.354 Y97.036
G01 X215.693 Y94.902
G01 X213.888 Y92.830
G01 X211.941 Y90.827
G01 X209.853 Y88.905
G01 X207.629 Y87.071
G01 X205.272 Y85.335
G01 X202.786 Y83.704
G01 X200.177 Y82.188
G01 X197.449 Y80.795
G01 X194.609 Y79.532
G01 X191.663 Y78.408
G01 X188.617 Y77.430
G01 X185.480 Y76.605
G01 X182.258 Y75.939
G01 X178.960 Y75.439
G01 X175.595 Y75.110
G01 X172.172 Y74.959
G01 X168.700 Y74.989
G01 X165.188 Y75.206
G01 X161.647 Y75.613
G01 X158.088 Y76.213
G01 X154.520 Y77.010
G01 X150.954 Y78.005
G01 X147.402 Y79.200
G01 X143.874 Y80.596
G01 X140.383 Y82.194
G01 X136.938 Y83.994
G01 X133.552 Y85.993
G01 X130.237 Y88.192
G01 X127.002 Y90.588
G01 X123.861 Y93.177
G01 X120.824 Y95.957
G01 X117.903 Y98.924
G01 X115.108 Y102.073
G01 X112.450 Y105.397
G01 X109.941 Y108.892
G01 X107.589 Y112.551
G01 X105.407 Y116.367
G01 X103.402 Y120.331
G01 X101.585 Y124.436
G01 X99.964 Y128.671
G01 X98.548 Y133.029
G01 X97.346 Y137.499
G01 X96.364 Y142.069
G01 X95.610 Y146.731
G01 X95.090 Y151.470
G01 X94.810 Y156.277
G01 X94.775 Y161.139
G01 X94.990 Y166.043
G01 X95.460 Y170.976
G01 X96.187 Y175.924
G01 X97.174 Y180.876
G01 X98.423 Y185.816
G01 X99.935 Y190.731
G01 X101.711 Y195.606
G01 X103.751 Y200.429
G01 X106.053 Y205.183
G01 X108.615 Y209.856
G01 X111.436 Y214.433
G01 X114.512 Y218.900
G01 X117.838 Y223.243
G01 X121.410 Y227.448
G01 X125.223 Y231.501
G01 X129.269 Y235.388
G01 X133.542 Y239.097
G01 X138.033 Y242.614
G01 X142.735 Y245.927
G01 X147.638 Y249.024
G01 X152.732 Y251.892
G01 X158.006 Y254.521
G01 X163.449 Y256.900
G01 X169.048 Y259.019
G01 X174.792 Y260.867
G01 X180.667 Y262.436
G01 X186.660 Y263.717
G01 X192.756 Y264.702
G01 X198.941 Y265.386
G01 X205.199 Y265.760
G01 X211.515 Y265.820
G01 X217.873 Y265.561
G01 X224.257 Y264.978
G01 X230.651 Y264.070
G01 X237.037 Y262.832
G01 X243.399 Y261.265
G01 X246.650 Y260.332
G01 X190.596 Y141.267
G01 X190.499 Y141.210
G01 X190.408 Y141.148
G01 X190.325 Y141.079
G01 X190.250 Y141.006
G01 X190.183 Y140.928
G01 X190.124 Y140.846
G01 X190.074 Y140.760
G01 X190.032 Y140.672
G01 X189.999 Y140.582
G01 X189.975 Y140.491
G01 X189.960 Y140.398
G01 X189.954 Y140.306
G01 X189.957 Y140.214
G01 X189.969 Y140.124
G01 X189.989 Y140.035
G01 X190.000 Y140.000
G01 X189.934 Y140.240
G01 X189.892 Y140.486
G01 X189.875 Y140.735
G01 X189.881 Y140.987
G01 X189.912 Y141.240
G01 X189.968 Y141.492
G01 X190.048 Y141.740
G01 X190.152 Y141.983
G01 X190.238 Y142.148
G01 X190.496 Y143.082
G01 X190.846 Y143.993
G01 X191.285 Y144.875
G01 X191.813 Y145.722
G01 X192.426 Y146.526
G01 X193.122 Y147.282
G01 X193.897 Y147.983
G01 X194.747 Y148.623
G01 X195.668 Y149.197
G01 X196.655 Y149.700
G01 X197.705 Y150.126
G01 X198.811 Y150.470
G01 X199.967 Y150.729
G01 X201.169 Y150.897
G01 X202.410 Y150.972
G01 X203.683 Y150.950
G01 X204.982 Y150.828
G01 X206.300 Y150.604
G01 X207.630 Y150.274
G01 X208.966 Y149.839
G01 X210.299 Y149.297
G01 X211.622 Y148.646
G01 X212.928 Y147.887
G01 X214.210 Y147.020
G01 X215.459 Y146.045
G01 X216.669 Y144.964
G01 X217.832 Y143.779
G01 X218.941 Y142.491
G01 X219.988 Y141.103
G01 X220.966 Y139.619
G01 X221.868 Y138.041
G01 X222.688 Y136.374
G01 X223.419 Y134.621
G01 X224.054 Y132.789
G01 X224.588 Y130.882
G01 X225.014 Y128.906
G01 X225.328 Y126.867
G01 X225.523 Y124.771
G01 X225.596 Y122.625
G01 X225.542 Y120.436
G01 X225.357 Y118.212
G01 X225.037 Y115.960
G01 X224.579 Y113.688
G01 X223.981 Y111.405
G01 X223.241 Y109.118
G01 X222.356 Y106.837
G01 X221.326 Y104.570
G01 X220.150 Y102.326
G01 X218.827 Y100.114
G01 X217.359 Y97.943
G01 X215.746 Y95.821
G01 X213.989 Y93.759
G01 X212.091 Y91.764
G01 X210.054 Y89.847
G01 X207.882 Y88.015
G01 X205.577 Y86.278
G01 X203.144 Y84.644
G01 X200.588 Y83.122
G01 X197.913 Y81.719
G01 X195.126 Y80.445
G01 X192.233 Y79.305
G01 X189.240 Y78.309
G01 X186.155 Y77.462
G01 X182.986 Y76.771
G01 X179.739 Y76.244
G01 X176.424 Y75.885
G01 X173.050 Y75.699
G01 X169.625 Y75.693
G01 X166.159 Y75.870
G01 X162.663 Y76.235
G01 X159.146 Y76.790
G01 X155.619 Y77.539
G01 X152.091 Y78.484
G01 X148.575 Y79.626
G01 X145.081 Y80.967
G01 X141.621 Y82.508
G01 X138.204 Y84.247
G01 X134.844 Y86.185
G01 X131.550 Y88.321
G01 X128.335 Y90.651
G01 X125.210 Y93.174
G01 X122.185 Y95.885
G01 X119.273 Y98.783
G01 X116.483 Y101.861
G01 X113.827 Y105.114
G01 X111.316 Y108.537
G01 X108.959 Y112.123
G01 X106.766 Y115.866
G01 X104.748 Y119.757
G01 X102.913 Y123.789
G01 X101.271 Y127.953
G01 X99.830 Y132.239
G01 X98.598 Y136.637
G01 X97.583 Y141.138
G01 X96.792 Y145.730
G01 X96.231 Y150.402
G01 X95.907 Y155.144
G01 X95.824 Y159.941
G01 X95.987 Y164.783
G01 X96.401 Y169.656
G01 X97.069 Y174.548
G01 X97.993 Y179.444
G01 X99.177 Y184.333
G01 X100.620 Y189.199
G01 X102.324 Y194.029
G01 X104.289 Y198.809
G01 X106.514 Y203.525
G01 X108.997 Y208.164
G01 X111.735 Y212.710
G01 X114.727 Y217.150
G01 X117.967 Y221.470
G01 X121.451 Y225.656
G01 X125.174 Y229.694
G01 X129.130 Y233.572
G01 X133.311 Y237.276
G01 X137.710 Y240.792
G01 X142.319 Y244.110
G01 X147.128 Y247.216
G01 X152.129 Y250.098
G01 X157.309 Y252.746
G01 X162.659 Y255.149
G01 X168.166 Y257.295
G01 X173.819 Y259.177
G01 X179.603 Y260.784
G01 X185.507 Y262.108
G01 X191.516 Y263.142
G01 X197.615 Y263.878
G01 X203.791 Y264.309
G01 X210.026 Y264.431
G01 X216.306 Y264.238
G01 X222.616 Y263.726
G01 X228.937 Y262.892
G01 X235.255 Y261.733
G01 X241.552 Y260.248
G01 X247.811 Y258.437
G01 X251.093 Y257.349
G01 X190.643 Y141.235
G01 X190.545 Y141.185
G01 X190.453 Y141.129
G01 X190.369 Y141.067
G01 X190.291 Y140.999
G01 X190.221 Y140.927
G01 X190.159 Y140.850
G01 X190.106 Y140.769
G01 X190.060 Y140.686
G01 X190.023 Y140.600
G01 X189.994 Y140.513
G01 X189.975 Y140.424
G01 X189.963 Y140.335
G01 X189.961 Y140.246
G01 X189.967 Y140.157
G01 X189.982 Y140.070
G01 X190.000 Y140.000
G01 X189.934 Y140.261
G01 X189.894 Y140.528
G01 X189.880 Y140.799
G01 X189.892 Y141.072
G01 X189.931 Y141.345
G01 X189.996 Y141.616
G01 X190.088 Y141.883
G01 X190.206 Y142.145
G01 X190.267 Y142.258
G01 X190.534 Y143.178
G01 X190.893 Y144.076
G01 X191.340 Y144.943
G01 X191.874 Y145.775
G01 X192.493 Y146.564
G01 X193.192 Y147.303
G01 X193.969 Y147.988
G01 X194.820 Y148.613
G01 X195.741 Y149.171
G01 X196.726 Y149.657
G01 X197.772 Y150.067
G01 X198.873 Y150.396
G01 X200.024 Y150.639
G01 X201.218 Y150.792
G01 X202.450 Y150.853
G01 X203.713 Y150.817
G01 X205.001 Y150.682
G01 X206.306 Y150.445
G01 X207.623 Y150.105
G01 X208.944 Y149.659
G01 X210.261 Y149.107
G01 X211.567 Y148.449
G01 X212.856 Y147.683
G01 X214.119 Y146.810
G01 X215.350 Y145.831
G01 X216.540 Y144.747
G01 X217.683 Y143.561
G01 X218.771 Y142.273
G01 X219.797 Y140.887
G01 X220.754 Y139.405
G01 X221.635 Y137.832
G01 X222.433 Y136.171
G01 X223.143 Y134.427
G01 X223.757 Y132.604
G01 X224.270 Y130.708
G01 X224.676 Y128.744
G01 X224.969 Y126.719
G01 X225.146 Y124.639
G01 X225.200 Y122.511
G01 X225.128 Y120.341
G01 X224.926 Y118.137
G01 X224.590 Y115.907
G01 X224.118 Y113.658
G01 X223.507 Y111.400
G01 X222.754 Y109.139
G01 X221.859 Y106.885
G01 X220.819 Y104.645
G01 X219.635 Y102.430
G01 X218.307 Y100.248
G01 X216.835 Y98.107
G01 X215.219 Y96.017
G01 X213.462 Y93.987
G01 X211.565 Y92.025
G01 X209.531 Y90.141
G01 X207.364 Y88.342
G01 X205.066 Y86.639
G01 X202.643 Y85.038
G01 X200.098 Y83.549
G01 X197.437 Y82.180
G01 X194.666 Y80.938
G01 X191.790 Y79.831
G01 X188.817 Y78.867
G01 X185.754 Y78.051
G01 X182.608 Y77.391
G01 X179.388 Y76.893
G01 X176.101 Y76.562
G01 X172.756 Y76.404
G01 X169.363 Y76.423
G01 X165.931 Y76.625
G01 X162.471 Y77.012
G01 X158.991 Y77.589
G01 X155.502 Y78.357
G01 X152.015 Y79.319
G01 X148.540 Y80.477
G01 X145.089 Y81.831
G01 X141.673 Y83.383
G01 X138.302 Y85.131
G01 X134.987 Y87.075
G01 X131.741 Y89.215
G01 X128.574 Y91.546
G01 X125.497 Y94.068
G01 X122.521 Y96.776
G01 X119.658 Y99.667
G01 X116.917 Y102.736
G01 X114.311 Y105.977
G01 X111.849 Y109.386
G01 X109.541 Y112.955
G01 X107.397 Y116.677
G01 X105.426 Y120.546
G01 X103.639 Y124.552
G01 X102.043 Y128.687
G01 X100.647 Y132.942
G01 X99.460 Y137.306
G01 X98.487 Y141.770
G01 X97.737 Y146.323
G01 X97.215 Y150.954
G01 X96.928 Y155.651
G01 X96.881 Y160.402
G01 X97.078 Y165.196
G01 X97.523 Y170.018
G01 X98.219 Y174.856
G01 X99.170 Y179.698
G01 X100.377 Y184.530
G01 X101.841 Y189.337
G01 X103.563 Y194.108
G01 X105.543 Y198.826
G01 X107.780 Y203.480
G01 X110.272 Y208.054
G01 X113.016 Y212.535
G01 X116.009 Y216.910
G01 X119.248 Y221.163
G01 X122.728 Y225.283
G01 X126.443 Y229.254
G01 X130.387 Y233.065
G01 X134.553 Y236.702
G01 X138.933 Y240.152
G01 X143.520 Y243.403
G01 X148.303 Y246.443
G01 X153.274 Y249.261
G01 X158.421 Y251.845
G01 X163.734 Y254.186
G01 X169.201 Y256.272
G01 X174.811 Y258.094
G01 X180.549 Y259.644
G01 X186.402 Y260.912
G01 X192.358 Y261.893
G01 X198.401 Y262.577
G01 X204.517 Y262.960
G01 X210.690 Y263.036
G01 X216.906 Y262.801
G01 X223.147 Y262.249
G01 X229.399 Y261.378
G01 X235.644 Y260.187
G01 X241.867 Y258.672
G01 X248.050 Y256.835
G01 X254.177 Y254.674
G01 X255.389 Y254.205
G01 X190.696 Y141.215
G01 X190.607 Y141.193
G01 X190.523 Y141.165
G01 X190.442 Y141.131
G01 X190.367 Y141.093
G01 X190.296 Y141.051
G01 X190.230 Y141.004
G01 X190.170 Y140.953
G01 X190.115 Y140.899
G01 X190.066 Y140.842
G01 X190.023 Y140.783
G01 X189.986 Y140.721
G01 X189.954 Y140.658
G01 X189.930 Y140.594
G01 X189.911 Y140.529
G01 X189.898 Y140.463
G01 X189.892 Y140.398
G01 X189.891 Y140.334
G01 X189.897 Y140.270
G01 X189.909 Y140.209
G01 X189.926 Y140.149
G01 X189.949 Y140.091
G01 X189.977 Y140.036
G01 X190.000 Y140.000
G01 X189.954 Y140.075
G01 X189.916 Y140.155
G01 X189.886 Y140.238
G01 X189.864 Y140.325
G01 X189.850 Y140.414
G01 X189.844 Y140.505
G01 X189.847 Y140.598
G01 X189.859 Y140.691
G01 X189.880 Y140.784
G01 X189.910 Y140.876
G01 X189.948 Y140.968
G01 X189.995 Y141.057
G01 X190.051 Y141.144
G01 X190.072 Y141.174
G01 X190.233 Y142.102
G01 X190.486 Y143.015
G01 X190.827 Y143.906
G01 X191.258 Y144.769
G01 X191.774 Y145.596
G01 X192.373 Y146.383
G01 X193.054 Y147.122
G01 X193.812 Y147.807
G01 X194.643 Y148.433
G01 X195.544 Y148.994
G01 X196.510 Y149.486
G01 X197.536 Y149.902
G01 X198.617 Y150.239
G01 X199.749 Y150.492
G01 X200.924 Y150.656
G01 X202.137 Y150.729
G01 X203.382 Y150.708
G01 X204.652 Y150.588
G01 X205.941 Y150.368
G01 X207.242 Y150.046
G01 X208.548 Y149.620
G01 X209.851 Y149.090
G01 X211.145 Y148.453
G01 X212.422 Y147.711
G01 X213.676 Y146.863
G01 X214.897 Y145.910
G01 X216.081 Y144.853
G01 X217.218 Y143.693
G01 X218.302 Y142.434
G01 X219.325 Y141.077
G01 X220.282 Y139.625
G01 X221.164 Y138.082
G01 X221.966 Y136.451
G01 X222.680 Y134.738
G01 X223.301 Y132.946
G01 X223.823 Y131.081
G01 X224.239 Y129.148
G01 X224.546 Y127.154
G01 X224.737 Y125.105
G01 X224.808 Y123.006
G01 X224.755 Y120.866
G01 X224.573 Y118.691
G01 X224.260 Y116.489
G01 X223.813 Y114.267
G01 X223.228 Y112.035
G01 X222.503 Y109.799
G01 X221.638 Y107.568
G01 X220.630 Y105.351
G01 X219.480 Y103.157
G01 X218.187 Y100.994
G01 X216.751 Y98.871
G01 X215.173 Y96.796
G01 X213.455 Y94.780
G01 X211.599 Y92.829
G01 X209.607 Y90.955
G01 X207.482 Y89.164
G01 X205.228 Y87.465
G01 X202.849 Y85.868
G01 X200.349 Y84.379
G01 X197.733 Y83.008
G01 X195.008 Y81.762
G01 X192.179 Y80.648
G01 X189.252 Y79.674
G01 X186.236 Y78.846
G01 X183.136 Y78.171
G01 X179.961 Y77.655
G01 X176.719 Y77.304
G01 X173.420 Y77.123
G01 X170.071 Y77.118
G01 X166.682 Y77.291
G01 X163.263 Y77.648
G01 X159.824 Y78.191
G01 X156.374 Y78.924
G01 X152.925 Y79.848
G01 X149.487 Y80.965
G01 X146.071 Y82.277
G01 X142.687 Y83.784
G01 X139.346 Y85.485
G01 X136.060 Y87.381
G01 X132.840 Y89.469
G01 X129.696 Y91.748
G01 X126.640 Y94.215
G01 X123.683 Y96.867
G01 X120.835 Y99.700
G01 X118.107 Y102.710
G01 X115.510 Y105.892
G01 X113.054 Y109.240
G01 X110.750 Y112.747
G01 X108.606 Y116.407
G01 X106.633 Y120.212
G01 X104.839 Y124.155
G01 X103.234 Y128.226
G01 X101.825 Y132.417
G01 X100.621 Y136.719
G01 X99.629 Y141.120
G01 X98.855 Y145.611
G01 X98.307 Y150.180
G01 X97.990 Y154.816
G01 X97.909 Y159.507
G01 X98.070 Y164.242
G01 X98.475 Y169.007
G01 X99.128 Y173.790
G01 X100.033 Y178.579
G01 X101.190 Y183.359
G01 X102.602 Y188.117
G01 X104.269 Y192.840
G01 X106.191 Y197.514
G01 X108.367 Y202.126
G01 X110.795 Y206.661
G01 X113.474 Y211.106
G01 X116.399 Y215.448
G01 X119.568 Y219.672
G01 X122.975 Y223.765
G01 X126.616 Y227.714
G01 X130.485 Y231.506
G01 X134.574 Y235.127
G01 X138.876 Y238.566
G01 X143.383 Y241.809
G01 X148.086 Y244.846
G01 X152.976 Y247.664
G01 X158.042 Y250.253
G01 X163.273 Y252.602
G01 X168.659 Y254.701
G01 X174.186 Y256.540
G01 X179.843 Y258.111
G01 X185.616 Y259.406
G01 X191.492 Y260.416
G01 X197.457 Y261.135
G01 X203.495 Y261.556
G01 X209.593 Y261.675
G01 X215.734 Y261.485
G01 X221.903 Y260.984
G01 X228.085 Y260.168
G01 X234.263 Y259.035
G01 X240.420 Y257.582
G01 X246.541 Y255.811
G01 X252.608 Y253.719
G01 X258.605 Y251.310
G01 X259.532 Y250.906
G01 X190.740 Y141.180
G01 X190.656 Y141.170
G01 X190.575 Y141.154
G01 X190.497 Y141.134
G01 X190.422 Y141.109
G01 X190.351 Y141.079
G01 X190.284 Y141.045
G01 X190.222 Y141.008
G01 X190.163 Y140.967
G01 X190.110 Y140.922
G01 X190.061 Y140.875
G01 X190.017 Y140.826
G01 X189.978 Y140.774
G01 X189.944 Y140.721
G01 X189.915 Y140.666
G01 X189.891 Y140.610
G01 X189.873 Y140.554
G01 X189.860 Y140.497
G01 X189.852 Y140.441
G01 X189.849 Y140.385
G01 X189.852 Y140.330
G01 X189.859 Y140.277
G01 X189.871 Y140.225
G01 X189.888 Y140.175
G01 X189.910 Y140.127
G01 X189.935 Y140.082
G01 X189.965 Y140.040
G01 X189.999 Y140.001
G01 X190.000 Y140.000
G01 X189.965 Y140.040
G01 X189.934 Y140.084
G01 X189.907 Y140.130
G01 X189.885 Y140.179
G01 X189.867 Y140.231
G01 X189.855 Y140.284
G01 X189.847 Y140.340
G01 X189.844 Y140.396
G01 X189.847 Y140.454
G01 X189.855 Y140.512
G01 X189.868 Y140.570
G01 X189.887 Y140.629
G01 X189.911 Y140.686
G01 X189.941 Y140.743
G01 X189.976 Y140.798
G01 X190.016 Y140.851
G01 X190.041 Y140.881
G01 X190.173 Y141.802
G01 X190.395 Y142.710
G01 X190.707 Y143.599
G01 X191.106 Y144.461
G01 X191.591 Y145.291
G01 X192.159 Y146.081
G01 X192.808 Y146.827
G01 X193.535 Y147.521
G01 X194.335 Y148.158
G01 X195.206 Y148.734
G01 X196.142 Y149.241
G01 X197.139 Y149.676
G01 X198.192 Y150.033
G01 X199.297 Y150.308
G01 X200.446 Y150.498
G01 X201.635 Y150.598
G01 X202.858 Y150.605
G01 X204.107 Y150.516
G01 X205.377 Y150.329
G01 X206.660 Y150.042
G01 X207.951 Y149.652
G01 X209.241 Y149.158
G01 X210.524 Y148.561
G01 X211.793 Y147.858
G01 X213.040 Y147.051
G01 X214.259 Y146.140
G01 X215.441 Y145.126
G01 X216.580 Y144.010
G01 X217.668 Y142.794
G01 X218.699 Y141.481
G01 X219.666 Y140.073
G01 X220.561 Y138.574
G01 X221.379 Y136.987
G01 X222.112 Y135.317
G01 X222.755 Y133.568
G01 X223.301 Y131.746
G01 X223.745 Y129.854
G01 X224.082 Y127.900
G01 X224.305 Y125.889
G01 X224.412 Y123.828
G01 X224.397 Y121.723
G01 X224.256 Y119.582
G01 X223.987 Y117.412
G01 X223.584 Y115.220
G01 X223.047 Y113.015
G01 X222.373 Y110.804
G01 X221.559 Y108.595
G01 X220.606 Y106.398
G01 X219.511 Y104.221
G01 X218.275 Y102.071
G01 X216.897 Y99.959
G01 X215.380 Y97.892
G01 X213.723 Y95.880
G01 X211.928 Y93.930
G01 X209.999 Y92.053
G01 X207.937 Y90.256
G01 X205.746 Y88.548
G01 X203.430 Y86.937
G01 X200.994 Y85.432
G01 X198.442 Y84.040
G01 X195.779 Y82.769
G01 X193.012 Y81.627
G01 X190.146 Y80.621
G01 X187.189 Y79.758
G01 X184.148 Y79.044
G01 X181.030 Y78.486
G01 X177.843 Y78.089
G01 X174.597 Y77.859
G01 X171.299 Y77.801
G01 X167.959 Y77.918
G01 X164.586 Y78.216
G01 X161.190 Y78.697
G01 X157.781 Y79.364
G01 X154.369 Y80.221
G01 X150.965 Y81.268
G01 X147.579 Y82.507
G01 X144.222 Y83.938
G01 X140.904 Y85.562
G01 X137.637 Y87.379
G01 X134.432 Y89.386
G01 X131.299 Y91.583
G01 X128.249 Y93.967
G01 X125.294 Y96.534
G01 X122.444 Y99.282
G01 X119.710 Y102.207
G01 X117.102 Y105.302
G01 X114.630 Y108.563
G01 X112.305 Y111.984
G01 X110.136 Y115.559
G01 X108.133 Y119.279
G01 X106.304 Y123.138
G01 X104.660 Y127.126
G01 X103.207 Y131.236
G01 X101.954 Y135.458
G01 X100.909 Y139.781
G01 X100.078 Y144.196
G01 X99.468 Y148.692
G01 X99.085 Y153.258
G01 X98.933 Y157.882
G01 X99.019 Y162.552
G01 X99.346 Y167.256
G01 X99.918 Y171.982
G01 X100.737 Y176.717
G01 X101.806 Y181.448
G01 X103.126 Y186.161
G01 X104.698 Y190.843
G01 X106.522 Y195.482
G01 X108.598 Y200.062
G01 X110.924 Y204.571
G01 X113.498 Y208.996
G01 X116.317 Y213.321
G01 X119.378 Y217.535
G01 X122.677 Y221.623
G01 X126.208 Y225.572
G01 X129.966 Y229.370
G01 X133.945 Y233.003
G01 X138.136 Y236.460
G01 X142.532 Y239.727
G01 X147.125 Y242.793
G01 X151.906 Y245.646
G01 X156.864 Y248.276
G01 X161.989 Y250.672
G01 X167.270 Y252.823
G01 X172.694 Y254.721
G01 X178.251 Y256.355
G01 X183.927 Y257.719
G01 X189.708 Y258.804
G01 X195.581 Y259.602
G01 X201.532 Y260.109
G01 X207.545 Y260.317
G01 X213.607 Y260.222
G01 X219.701 Y259.821
G01 X225.811 Y259.108
G01 X231.923 Y258.082
G01 X238.020 Y256.742
G01 X244.085 Y255.085
G01 X250.103 Y253.113
G01 X256.056 Y250.825
G01 X261.928 Y248.224
G01 X263.516 Y247.459
G01 X190.790 Y141.155
G01 X190.706 Y141.149
G01 X190.624 Y141.137
G01 X190.544 Y141.119
G01 X190.469 Y141.097
G01 X190.396 Y141.070
G01 X190.328 Y141.039
G01 X190.263 Y141.004
G01 X190.203 Y140.965
G01 X190.147 Y140.922
G01 X190.096 Y140.877
G01 X190.050 Y140.829
G01 X190.009 Y140.779
G01 X189.972 Y140.727
G01 X189.941 Y140.673
G01 X189.915 Y140.618
G01 X189.895 Y140.562
G01 X189.879 Y140.506
G01 X189.869 Y140.450
G01 X189.864 Y140.394
G01 X189.864 Y140.339
G01 X189.869 Y140.284
G01 X189.879 Y140.232
G01 X189.894 Y140.181
G01 X189.914 Y140.132
G01 X189.938 Y140.086
G01 X189.966 Y140.042
G01 X189.998 Y140.002
G01 X190.000 Y140.000
G01 X189.961 Y140.048
G01 X189.927 Y140.100
G01 X189.899 Y140.155
G01 X189.875 Y140.213
G01 X189.857 Y140.273
G01 X189.845 Y140.336
G01 X189.838 Y140.400
G01 X189.838 Y140.466
G01 X189.843 Y140.532
G01 X189.855 Y140.599
G01 X189.873 Y140.666
G01 X189.898 Y140.733
G01 X189.928 Y140.798
G01 X189.965 Y140.863
G01 X190.008 Y140.925
G01 X190.051 Y140.979
G01 X190.192 Y141.888
G01 X190.422 Y142.785
G01 X190.741 Y143.660
G01 X191.145 Y144.510
G01 X191.635 Y145.326
G01 X192.206 Y146.103
G01 X192.857 Y146.834
G01 X193.584 Y147.514
G01 X194.384 Y148.138
G01 X195.253 Y148.699
G01 X196.186 Y149.192
G01 X197.179 Y149.613
G01 X198.227 Y149.957
G01 X199.325 Y150.220
G01 X200.466 Y150.397
G01 X201.646 Y150.486
G01 X202.858 Y150.482
G01 X204.097 Y150.383
G01 X205.354 Y150.186
G01 X206.625 Y149.890
G01 X207.901 Y149.492
G01 X209.177 Y148.992
G01 X210.444 Y148.389
G01 X211.697 Y147.682
G01 X212.927 Y146.872
G01 X214.128 Y145.959
G01 X215.292 Y144.944
G01 X216.413 Y143.829
G01 X217.483 Y142.615
G01 X218.496 Y141.306
G01 X219.444 Y139.903
G01 X220.320 Y138.410
G01 X221.119 Y136.831
G01 X221.834 Y135.170
G01 X222.459 Y133.432
G01 X222.987 Y131.621
G01 X223.414 Y129.743
G01 X223.734 Y127.804
G01 X223.942 Y125.809
G01 X224.034 Y123.765
G01 X224.005 Y121.679
G01 X223.851 Y119.558
G01 X223.569 Y117.409
G01 X223.155 Y115.240
G01 X222.608 Y113.058
G01 X221.926 Y110.872
G01 X221.105 Y108.689
G01 X220.145 Y106.518
G01 X219.046 Y104.367
G01 X217.808 Y102.246
G01 X216.429 Y100.162
G01 X214.912 Y98.124
G01 X213.257 Y96.141
G01 X211.467 Y94.221
G01 X209.544 Y92.373
G01 X207.490 Y90.606
G01 X205.308 Y88.928
G01 X203.004 Y87.347
G01 X200.581 Y85.871
G01 X198.044 Y84.508
G01 X195.399 Y83.267
G01 X192.650 Y82.153
G01 X189.806 Y81.174
G01 X186.871 Y80.338
G01 X183.855 Y79.650
G01 X180.763 Y79.116
G01 X177.605 Y78.743
G01 X174.388 Y78.535
G01 X171.121 Y78.497
G01 X167.814 Y78.634
G01 X164.475 Y78.949
G01 X161.115 Y79.447
G01 X157.743 Y80.129
G01 X154.370 Y80.997
G01 X151.005 Y82.055
G01 X147.659 Y83.303
G01 X144.343 Y84.741
G01 X141.068 Y86.369
G01 X137.844 Y88.188
G01 X134.682 Y90.195
G01 X131.593 Y92.389
G01 X128.588 Y94.768
G01 X125.678 Y97.328
G01 X122.872 Y100.066
G01 X120.182 Y102.978
G01 X117.618 Y106.058
G01 X115.191 Y109.302
G01 X112.909 Y112.703
G01 X110.783 Y116.255
G01 X108.822 Y119.951
G01 X107.035 Y123.782
G01 X105.430 Y127.741
G01 X104.017 Y131.818
G01 X102.801 Y136.005
G01 X101.792 Y140.291
G01 X100.996 Y144.667
G01 X100.419 Y149.122
G01 X100.066 Y153.644
G01 X99.944 Y158.223
G01 X100.057 Y162.846
G01 X100.408 Y167.501
G01 X101.002 Y172.176
G01 X101.841 Y176.858
G01 X102.927 Y181.535
G01 X104.262 Y186.193
G01 X105.846 Y190.819
G01 X107.679 Y195.400
G01 X109.761 Y199.922
G01 X112.090 Y204.371
G01 X114.664 Y208.736
G01 X117.480 Y213.001
G01 X120.535 Y217.154
G01 X123.824 Y221.181
G01 X127.343 Y225.070
G01 X131.085 Y228.807
G01 X135.044 Y232.380
G01 X139.213 Y235.776
G01 X143.584 Y238.984
G01 X148.148 Y241.992
G01 X152.896 Y244.788
G01 X157.819 Y247.362
G01 X162.906 Y249.703
G01 X168.145 Y251.802
G01 X173.526 Y253.648
G01 X179.035 Y255.234
G01 X184.660 Y256.550
G01 X190.389 Y257.590
G01 X196.206 Y258.346
G01 X202.099 Y258.812
G01 X208.052 Y258.983
G01 X214.050 Y258.854
G01 X220.079 Y258.421
G01 X226.123 Y257.680
G01 X232.166 Y256.630
G01 X238.192 Y255.267
G01 X244.185 Y253.592
G01 X250.129 Y251.605
G01 X256.008 Y249.306
G01 X261.804 Y246.698
G01 X267.337 Y243.871
G01 X190.832 Y141.117
G01 X190.755 Y141.125
G01 X190.680 Y141.129
G01 X190.606 Y141.128
G01 X190.534 Y141.123
G01 X190.464 Y141.113
G01 X190.396 Y141.100
G01 X190.330 Y141.082
G01 X190.268 Y141.061
G01 X190.208 Y141.036
G01 X190.151 Y141.008
G01 X190.098 Y140.977
G01 X190.048 Y140.944
G01 X190.002 Y140.908
G01 X189.959 Y140.869
G01 X189.920 Y140.829
G01 X189.885 Y140.787
G01 X189.853 Y140.744
G01 X189.826 Y140.700
G01 X189.803 Y140.655
G01 X189.783 Y140.609
G01 X189.768 Y140.563
G01 X189.756 Y140.517
G01 X189.749 Y140.472
G01 X189.745 Y140.427
G01 X189.745 Y140.383
G01 X189.749 Y140.340
G01 X189.756 Y140.298
G01 X189.767 Y140.258
G01 X189.781 Y140.220
G01 X189.798 Y140.184
G01 X189.818 Y140.150
G01 X189.840 Y140.119
G01 X189.866 Y140.090
G01 X189.893 Y140.064
G01 X189.923 Y140.041
G01 X189.955 Y140.021
G01 X189.989 Y140.005
G01 X190.000 Y140.000
G01 X189.979 Y140.010
G01 X189.958 Y140.022
G01 X189.939 Y140.035
G01 X189.921 Y140.051
G01 X189.904 Y140.069
G01 X189.889 Y140.088
G01 X189.876 Y140.109
G01 X189.865 Y140.131
G01 X189.855 Y140.155
G01 X189.848 Y140.180
G01 X189.843 Y140.206
G01 X189.839 Y140.233
G01 X189.839 Y140.261
G01 X189.840 Y140.289
G01 X189.844 Y140.317
G01 X189.851 Y140.346
G01 X189.860 Y140.375
G01 X189.871 Y140.404
G01 X189.885 Y140.433
G01 X189.901 Y140.461
G01 X189.920 Y140.489
G01 X189.942 Y140.515
G01 X189.966 Y140.541
G01 X189.992 Y140.566
G01 X190.019 Y140.588
G01 X190.121 Y141.491
G01 X190.312 Y142.384
G01 X190.590 Y143.259
G01 X190.954 Y144.111
G01 X191.403 Y144.932
G01 X191.935 Y145.717
G01 X192.546 Y146.460
G01 X193.234 Y147.155
G01 X193.995 Y147.796
G01 X194.826 Y148.377
G01 X195.723 Y148.894
G01 X196.680 Y149.341
G01 X197.694 Y149.714
G01 X198.760 Y150.008
G01 X199.871 Y150.219
G01 X201.023 Y150.343
G01 X202.209 Y150.378
G01 X203.423 Y150.320
G01 X204.659 Y150.166
G01 X205.911 Y149.915
G01 X207.172 Y149.564
G01 X208.434 Y149.112
G01 X209.692 Y148.559
G01 X210.938 Y147.903
G01 X212.165 Y147.145
G01 X213.365 Y146.284
G01 X214.533 Y145.323
G01 X215.660 Y144.261
G01 X216.740 Y143.102
G01 X217.766 Y141.846
G01 X218.731 Y140.497
G01 X219.628 Y139.058
G01 X220.452 Y137.532
G01 X221.194 Y135.923
G01 X221.850 Y134.236
G01 X222.413 Y132.474
G01 X222.878 Y130.644
G01 X223.240 Y128.751
G01 X223.492 Y126.801
G01 X223.632 Y124.800
G01 X223.653 Y122.754
G01 X223.553 Y120.670
G01 X223.328 Y118.555
G01 X222.974 Y116.418
G01 X222.489 Y114.264
G01 X221.870 Y112.103
G01 X221.116 Y109.942
G01 X220.225 Y107.789
G01 X219.196 Y105.653
G01 X218.029 Y103.542
G01 X216.724 Y101.465
G01 X215.281 Y99.429
G01 X213.702 Y97.444
G01 X211.988 Y95.519
G01 X210.140 Y93.661
G01 X208.163 Y91.879
G01 X206.059 Y90.181
G01 X203.831 Y88.576
G01 X201.483 Y87.072
G01 X199.021 Y85.677
G01 X196.449 Y84.398
G01 X193.773 Y83.242
G01 X191.000 Y82.218
G01 X188.134 Y81.331
G01 X185.184 Y80.588
G01 X182.157 Y79.995
G01 X179.061 Y79.559
G01 X175.903 Y79.284
G01 X172.692 Y79.176
G01 X169.438 Y79.238
G01 X166.148 Y79.476
G01 X162.833 Y79.891
G01 X159.502 Y80.489
G01 X156.166 Y81.270
G01 X152.833 Y82.238
G01 X149.516 Y83.392
G01 X146.223 Y84.735
G01 X142.966 Y86.267
G01 X139.755 Y87.986
G01 X136.601 Y89.893
G01 X133.515 Y91.985
G01 X130.507 Y94.261
G01 X127.589 Y96.718
G01 X124.770 Y99.352
G01 X122.060 Y102.160
G01 X119.472 Y105.137
G01 X117.013 Y108.278
G01 X114.695 Y111.577
G01 X112.527 Y115.027
G01 X110.518 Y118.623
G01 X108.678 Y122.356
G01 X107.014 Y126.219
G01 X105.536 Y130.203
G01 X104.251 Y134.299
G01 X103.167 Y138.498
G01 X102.290 Y142.789
G01 X101.627 Y147.163
G01 X101.185 Y151.608
G01 X100.968 Y156.114
G01 X100.982 Y160.668
G01 X101.230 Y165.260
G01 X101.716 Y169.876
G01 X102.443 Y174.505
G01 X103.415 Y179.134
G01 X104.631 Y183.749
G01 X106.094 Y188.339
G01 X107.803 Y192.889
G01 X109.759 Y197.386
G01 X111.959 Y201.818
G01 X114.404 Y206.171
G01 X117.088 Y210.432
G01 X120.011 Y214.587
G01 X123.167 Y218.623
G01 X126.552 Y222.527
G01 X130.160 Y226.287
G01 X133.986 Y229.890
G01 X138.022 Y233.323
G01 X142.262 Y236.575
G01 X146.696 Y239.634
G01 X151.316 Y242.489
G01 X156.113 Y245.127
G01 X161.077 Y247.540
G01 X166.196 Y249.717
G01 X171.459 Y251.649
G01 X176.855 Y253.326
G01 X182.372 Y254.741
G01 X187.995 Y255.885
G01 X193.713 Y256.751
G01 X199.510 Y257.333
G01 X205.374 Y257.625
G01 X211.288 Y257.623
G01 X217.240 Y257.321
G01 X223.212 Y256.716
G01 X229.190 Y255.806
G01 X235.158 Y254.589
G01 X241.100 Y253.062
G01 X247.000 Y251.227
G01 X252.843 Y249.083
G01 X258.611 Y246.631
G01 X264.288 Y243.875
G01 X269.860 Y240.816
G01 X270.989 Y240.151
G01 X190.880 Y141.089
G01 X190.806 Y141.104
G01 X190.733 Y141.115
G01 X190.661 Y141.121
G01 X190.590 Y141.123
G01 X190.520 Y141.120
G01 X190.452 Y141.114
G01 X190.386 Y141.104
G01 X190.322 Y141.090
G01 X190.260 Y141.072
G01 X190.201 Y141.051
G01 X190.145 Y141.027
G01 X190.091 Y141.000
G01 X190.041 Y140.971
G01 X189.993 Y140.939
G01 X189.949 Y140.904
G01 X189.908 Y140.868
G01 X189.871 Y140.830
G01 X189.837 Y140.790
G01 X189.807 Y140.749
G01 X189.780 Y140.707
G01 X189.757 Y140.665
G01 X189.737 Y140.622
G01 X189.721 Y140.578
G01 X189.709 Y140.535
G01 X189.700 Y140.492
G01 X189.695 Y140.449
G01 X189.693 Y140.408
G01 X189.695 Y140.367
G01 X189.699 Y140.327
G01 X189.707 Y140.289
G01 X189.718 Y140.252
G01 X189.731 Y140.217
G01 X189.748 Y140.184
G01 X189.767 Y140.154
G01 X189.788 Y140.125
G01 X189.811 Y140.099
G01 X189.836 Y140.076
G01 X189.863 Y140.055
G01 X189.892 Y140.038
G01 X189.922 Y140.023
G01 X189.953 Y140.011
G01 X189.985 Y140.003
G01 X190.000 Y140.000
G01 X189.984 Y140.004
G01 X189.968 Y140.009
G01 X189.952 Y140.016
G01 X189.937 Y140.024
G01 X189.923 Y140.034
G01 X189.910 Y140.045
G01 X189.897 Y140.057
G01 X189.886 Y140.071
G01 X189.876 Y140.086
G01 X189.867 Y140.103
G01 X189.859 Y140.120
G01 X189.853 Y140.138
G01 X189.848 Y140.157
G01 X189.845 Y140.177
G01 X189.844 Y140.198
G01 X189.844 Y140.219
G01 X189.846 Y140.240
G01 X189.849 Y140.262
G01 X189.855 Y140.284
G01 X189.862 Y140.306
G01 X189.871 Y140.328
G01 X189.882 Y140.350
G01 X189.895 Y140.372
G01 X189.909 Y140.393
G01 X189.926 Y140.413
G01 X189.944 Y140.433
G01 X189.964 Y140.452
G01 X189.986 Y140.470
G01 X190.009 Y140.487
G01 X190.013 Y140.490
G01 X190.105 Y141.384
G01 X190.285 Y142.268
G01 X190.551 Y143.136
G01 X190.903 Y143.980
G01 X191.339 Y144.796
G01 X191.856 Y145.577
G01 X192.453 Y146.316
G01 X193.125 Y147.008
G01 X193.871 Y147.647
G01 X194.686 Y148.228
G01 X195.566 Y148.746
G01 X196.507 Y149.195
G01 X197.504 Y149.572
G01 X198.553 Y149.870
G01 X199.648 Y150.088
G01 X200.783 Y150.220
G01 X201.952 Y150.263
G01 X203.151 Y150.215
G01 X204.371 Y150.073
G01 X205.608 Y149.835
G01 X206.854 Y149.498
G01 X208.102 Y149.061
G01 X209.347 Y148.524
G01 X210.580 Y147.886
G01 X211.796 Y147.146
G01 X212.986 Y146.306
G01 X214.144 Y145.365
G01 X215.263 Y144.325
G01 X216.337 Y143.188
G01 X217.357 Y141.956
G01 X218.318 Y140.632
G01 X219.212 Y139.217
G01 X220.034 Y137.717
G01 X220.776 Y136.134
G01 X221.434 Y134.473
G01 X222.001 Y132.739
G01 X222.471 Y130.936
G01 X222.839 Y129.070
G01 X223.100 Y127.147
G01 X223.249 Y125.172
G01 X223.283 Y123.153
G01 X223.196 Y121.096
G01 X222.986 Y119.008
G01 X222.649 Y116.896
G01 X222.183 Y114.768
G01 X221.585 Y112.631
G01 X220.853 Y110.494
G01 X219.985 Y108.364
G01 X218.982 Y106.249
G01 X217.842 Y104.159
G01 X216.565 Y102.100
G01 X215.152 Y100.083
G01 X213.604 Y98.115
G01 X211.922 Y96.204
G01 X210.109 Y94.359
G01 X208.166 Y92.589
G01 X206.098 Y90.902
G01 X203.907 Y89.305
G01 X201.597 Y87.807
G01 X199.174 Y86.416
G01 X196.641 Y85.139
G01 X194.006 Y83.984
G01 X191.272 Y82.957
G01 X188.448 Y82.066
G01 X185.539 Y81.316
G01 X182.553 Y80.715
G01 X179.497 Y80.268
G01 X176.380 Y79.979
G01 X173.210 Y79.855
G01 X169.996 Y79.899
G01 X166.746 Y80.116
G01 X163.470 Y80.509
G01 X160.177 Y81.082
G01 X156.878 Y81.836
G01 X153.582 Y82.774
G01 X150.299 Y83.897
G01 X147.040 Y85.206
G01 X143.815 Y86.701
G01 X140.635 Y88.383
G01 X137.510 Y90.249
G01 X134.451 Y92.300
G01 X131.468 Y94.532
G01 X128.572 Y96.944
G01 X125.774 Y99.531
G01 X123.083 Y102.290
G01 X120.511 Y105.217
G01 X118.066 Y108.307
G01 X115.759 Y111.553
G01 X113.599 Y114.951
G01 X111.596 Y118.492
G01 X109.759 Y122.170
G01 X108.096 Y125.978
G01 X106.615 Y129.905
G01 X105.325 Y133.945
G01 X104.232 Y138.087
G01 X103.344 Y142.322
G01 X102.667 Y146.639
G01 X102.207 Y151.028
G01 X101.969 Y155.478
G01 X101.959 Y159.978
G01 X102.181 Y164.515
G01 X102.637 Y169.078
G01 X103.332 Y173.655
G01 X104.268 Y178.233
G01 X105.446 Y182.799
G01 X106.868 Y187.341
G01 X108.533 Y191.845
G01 X110.443 Y196.298
G01 X112.594 Y200.688
G01 X114.987 Y205.001
G01 X117.618 Y209.224
G01 X120.484 Y213.344
G01 X123.581 Y217.348
G01 X126.906 Y221.223
G01 X130.452 Y224.956
G01 X134.214 Y228.535
G01 X138.184 Y231.948
G01 X142.356 Y235.183
G01 X146.722 Y238.228
G01 X151.273 Y241.071
G01 X155.999 Y243.703
G01 X160.891 Y246.112
G01 X165.938 Y248.289
G01 X171.129 Y250.225
G01 X176.452 Y251.909
G01 X181.896 Y253.335
G01 X187.446 Y254.494
G01 X193.092 Y255.379
G01 X198.817 Y255.983
G01 X204.610 Y256.302
G01 X210.454 Y256.329
G01 X216.336 Y256.061
G01 X222.241 Y255.494
G01 X228.152 Y254.625
G01 X234.056 Y253.452
G01 X239.935 Y251.973
G01 X245.775 Y250.189
G01 X251.559 Y248.100
G01 X257.271 Y245.707
G01 X262.895 Y243.012
G01 X268.416 Y240.017
G01 X273.817 Y236.728
G01 X274.467 Y236.306
G01 X190.918 Y141.047
G01 X190.846 Y141.066
G01 X190.775 Y141.081
G01 X190.704 Y141.092
G01 X190.634 Y141.098
G01 X190.565 Y141.100
G01 X190.498 Y141.098
G01 X190.432 Y141.092
G01 X190.368 Y141.083
G01 X190.305 Y141.069
G01 X190.246 Y141.053
G01 X190.188 Y141.033
G01 X190.133 Y141.010
G01 X190.081 Y140.984
G01 X190.031 Y140.956
G01 X189.985 Y140.925
G01 X189.942 Y140.892
G01 X189.901 Y140.858
G01 X189.865 Y140.821
G01 X189.831 Y140.783
G01 X189.801 Y140.744
G01 X189.774 Y140.703
G01 X189.751 Y140.662
G01 X189.731 Y140.621
G01 X189.715 Y140.579
G01 X189.702 Y140.537
G01 X189.692 Y140.495
G01 X189.686 Y140.454
G01 X189.683 Y140.413
G01 X189.683 Y140.373
G01 X189.687 Y140.335
G01 X189.693 Y140.297
G01 X189.702 Y140.261
G01 X189.714 Y140.227
G01 X189.729 Y140.195
G01 X189.745 Y140.164
G01 X189.765 Y140.136
G01 X189.786 Y140.110
G01 X189.809 Y140.086
G01 X189.834 Y140.066
G01 X189.861 Y140.047
G01 X189.888 Y140.032
G01 X189.917 Y140.019
G01 X189.947 Y140.010
G01 X189.977 Y140.003
G01 X190.000 Y140.000
G01 X189.984 Y140.002
G01 X189.969 Y140.006
G01 X189.953 Y140.012
G01 X189.939 Y140.018
G01 X189.925 Y140.027
G01 X189.911 Y140.036
G01 X189.899 Y140.048
G01 X189.887 Y140.060
G01 X189.876 Y140.074
G01 X189.867 Y140.089
G01 X189.858 Y140.104
G01 X189.851 Y140.121
G01 X189.845 Y140.139
G01 X189.841 Y140.158
G01 X189.838 Y140.177
G01 X189.837 Y140.197
G01 X189.837 Y140.218
G01 X189.839 Y140.239
G01 X189.843 Y140.260
G01 X189.848 Y140.282
G01 X189.855 Y140.303
G01 X189.864 Y140.325
G01 X189.875 Y140.346
G01 X189.887 Y140.367
G01 X189.902 Y140.388
G01 X189.918 Y140.408
G01 X189.935 Y140.427
G01 X189.955 Y140.446
G01 X189.976 Y140.464
G01 X189.999 Y140.480
G01 X190.013 Y140.490
G01 X190.105 Y141.374
G01 X190.283 Y142.248
G01 X190.547 Y143.106
G01 X190.896 Y143.941
G01 X191.327 Y144.748
G01 X191.839 Y145.519
G01 X192.429 Y146.250
G01 X193.095 Y146.934
G01 X193.833 Y147.566
G01 X194.639 Y148.140
G01 X195.510 Y148.652
G01 X196.441 Y149.096
G01 X197.427 Y149.467
G01 X198.464 Y149.762
G01 X199.547 Y149.977
G01 X200.670 Y150.107
G01 X201.827 Y150.149
G01 X203.012 Y150.101
G01 X204.219 Y149.960
G01 X205.442 Y149.723
G01 X206.674 Y149.390
G01 X207.909 Y148.957
G01 X209.139 Y148.426
G01 X210.359 Y147.794
G01 X211.561 Y147.062
G01 X212.738 Y146.230
G01 X213.883 Y145.299
G01 X214.989 Y144.271
G01 X216.050 Y143.146
G01 X217.059 Y141.927
G01 X218.009 Y140.616
G01 X218.893 Y139.217
G01 X219.705 Y137.733
G01 X220.439 Y136.167
G01 X221.088 Y134.524
G01 X221.648 Y132.809
G01 X222.112 Y131.025
G01 X222.476 Y129.180
G01 X222.733 Y127.278
G01 X222.880 Y125.325
G01 X222.913 Y123.328
G01 X222.826 Y121.294
G01 X222.618 Y119.228
G01 X222.284 Y117.140
G01 X221.822 Y115.035
G01 X221.230 Y112.922
G01 X220.505 Y110.809
G01 X219.646 Y108.702
G01 X218.653 Y106.611
G01 X217.525 Y104.544
G01 X216.261 Y102.509
G01 X214.863 Y100.514
G01 X213.332 Y98.568
G01 X211.668 Y96.679
G01 X209.874 Y94.856
G01 X207.952 Y93.106
G01 X205.906 Y91.437
G01 X203.739 Y89.859
G01 X201.454 Y88.379
G01 X199.057 Y87.004
G01 X196.552 Y85.741
G01 X193.945 Y84.600
G01 X191.241 Y83.585
G01 X188.448 Y82.705
G01 X185.570 Y81.964
G01 X182.617 Y81.371
G01 X179.595 Y80.929
G01 X176.513 Y80.645
G01 X173.377 Y80.523
G01 X170.198 Y80.568
G01 X166.984 Y80.784
G01 X163.745 Y81.174
G01 X160.489 Y81.741
G01 X157.226 Y82.487
G01 X153.966 Y83.416
G01 X150.720 Y84.527
G01 X147.498 Y85.823
G01 X144.309 Y87.303
G01 X141.164 Y88.967
G01 X138.074 Y90.814
G01 X135.050 Y92.843
G01 X132.101 Y95.051
G01 X129.238 Y97.437
G01 X126.471 Y99.997
G01 X123.811 Y102.727
G01 X121.268 Y105.622
G01 X118.851 Y108.678
G01 X116.570 Y111.890
G01 X114.436 Y115.250
G01 X112.456 Y118.753
G01 X110.640 Y122.391
G01 X108.996 Y126.157
G01 X107.533 Y130.042
G01 X106.258 Y134.037
G01 X105.179 Y138.134
G01 X104.302 Y142.322
G01 X103.634 Y146.592
G01 X103.180 Y150.933
G01 X102.947 Y155.334
G01 X102.938 Y159.783
G01 X103.159 Y164.270
G01 X103.612 Y168.783
G01 X104.300 Y173.309
G01 X105.227 Y177.836
G01 X106.394 Y182.351
G01 X107.801 Y186.842
G01 X109.450 Y191.296
G01 X111.339 Y195.699
G01 X113.468 Y200.040
G01 X115.836 Y204.305
G01 X118.439 Y208.480
G01 X121.274 Y212.554
G01 X124.339 Y216.512
G01 X127.628 Y220.343
G01 X131.136 Y224.034
G01 X134.857 Y227.573
G01 X138.785 Y230.947
G01 X142.912 Y234.144
G01 X147.230 Y237.154
G01 X151.731 Y239.965
G01 X156.406 Y242.566
G01 X161.245 Y244.947
G01 X166.236 Y247.099
G01 X171.371 Y249.011
G01 X176.635 Y250.675
G01 X182.019 Y252.083
G01 X187.509 Y253.227
G01 X193.092 Y254.101
G01 X198.754 Y254.697
G01 X204.482 Y255.010
G01 X210.262 Y255.036
G01 X216.079 Y254.769
G01 X221.918 Y254.206
G01 X227.764 Y253.345
G01 X233.602 Y252.183
G01 X239.416 Y250.719
G01 X245.190 Y248.953
G01 X250.910 Y246.885
G01 X256.558 Y244.517
G01 X262.119 Y241.850
G01 X267.578 Y238.887
G01 X272.918 Y235.632
G01 X277.769 Y232.344
G01 X190.964 Y141.015
G01 X190.894 Y141.038
G01 X190.823 Y141.057
G01 X190.753 Y141.072
G01 X190.684 Y141.082
G01 X190.615 Y141.088
G01 X190.547 Y141.090
G01 X190.481 Y141.088
G01 X190.416 Y141.082
G01 X190.353 Y141.073
G01 X190.292 Y141.060
G01 X190.233 Y141.044
G01 X190.177 Y141.024
G01 X190.123 Y141.002
G01 X190.071 Y140.977
G01 X190.022 Y140.949
G01 X189.977 Y140.919
G01 X189.934 Y140.886
G01 X189.894 Y140.852
G01 X189.858 Y140.816
G01 X189.824 Y140.779
G01 X189.794 Y140.741
G01 X189.768 Y140.701
G01 X189.744 Y140.661
G01 X189.725 Y140.620
G01 X189.708 Y140.579
G01 X189.695 Y140.538
G01 X189.685 Y140.497
G01 X189.678 Y140.456
G01 X189.675 Y140.416
G01 X189.674 Y140.377
G01 X189.677 Y140.339
G01 X189.683 Y140.302
G01 X189.691 Y140.266
G01 X189.702 Y140.232
G01 X189.715 Y140.200
G01 X189.731 Y140.170
G01 X189.750 Y140.142
G01 X189.770 Y140.116
G01 X189.792 Y140.092
G01 X189.816 Y140.071
G01 X189.841 Y140.052
G01 X189.868 Y140.037
G01 X189.895 Y140.023
G01 X189.924 Y140.013
G01 X189.953 Y140.006
G01 X189.983 Y140.001
G01 X190.000 Y140.000
G01 X189.985 Y140.001
G01 X189.969 Y140.004
G01 X189.954 Y140.009
G01 X189.940 Y140.015
G01 X189.926 Y140.022
G01 X189.912 Y140.031
G01 X189.900 Y140.041
G01 X189.888 Y140.052
G01 X189.877 Y140.065
G01 X189.867 Y140.079
G01 X189.858 Y140.094
G01 X189.850 Y140.110
G01 X189.844 Y140.127
G01 X189.839 Y140.145
G01 X189.835 Y140.164
G01 X189.833 Y140.183
G01 X189.832 Y140.203
G01 X189.833 Y140.223
G01 X189.836 Y140.244
G01 X189.840 Y140.265
G01 X189.845 Y140.286
G01 X189.853 Y140.307
G01 X189.862 Y140.328
G01 X189.873 Y140.349
G01 X189.886 Y140.370
G01 X189.901 Y140.390
G01 X189.917 Y140.410
G01 X189.935 Y140.429
G01 X189.954 Y140.447
G01 X189.975 Y140.464
G01 X189.998 Y140.480
G01 X190.013 Y140.490
G01 X190.105 Y141.364
G01 X190.281 Y142.228
G01 X190.543 Y143.077
G01 X190.888 Y143.902
G01 X191.315 Y144.700
G01 X191.822 Y145.462
G01 X192.406 Y146.185
G01 X193.065 Y146.861
G01 X193.795 Y147.486
G01 X194.592 Y148.053
G01 X195.454 Y148.559
G01 X196.375 Y148.997
G01 X197.351 Y149.364
G01 X198.377 Y149.655
G01 X199.448 Y149.867
G01 X200.558 Y149.995
G01 X201.702 Y150.037
G01 X202.875 Y149.988
G01 X204.068 Y149.848
G01 X205.278 Y149.614
G01 X206.496 Y149.283
G01 X207.717 Y148.855
G01 X208.934 Y148.329
G01 X210.140 Y147.703
G01 X211.329 Y146.979
G01 X212.492 Y146.155
G01 X213.624 Y145.234
G01 X214.718 Y144.216
G01 X215.767 Y143.104
G01 X216.764 Y141.898
G01 X217.703 Y140.601
G01 X218.577 Y139.217
G01 X219.379 Y137.749
G01 X220.105 Y136.200
G01 X220.747 Y134.575
G01 X221.300 Y132.878
G01 X221.758 Y131.114
G01 X222.117 Y129.288
G01 X222.371 Y127.407
G01 X222.515 Y125.476
G01 X222.547 Y123.501
G01 X222.461 Y121.489
G01 X222.254 Y119.446
G01 X221.923 Y117.381
G01 X221.465 Y115.300
G01 X220.879 Y113.210
G01 X220.161 Y111.120
G01 X219.311 Y109.037
G01 X218.328 Y106.970
G01 X217.212 Y104.926
G01 X215.961 Y102.913
G01 X214.578 Y100.941
G01 X213.063 Y99.017
G01 X211.416 Y97.149
G01 X209.642 Y95.346
G01 X207.741 Y93.616
G01 X205.716 Y91.967
G01 X203.572 Y90.407
G01 X201.312 Y88.943
G01 X198.941 Y87.584
G01 X196.464 Y86.337
G01 X193.885 Y85.209
G01 X191.211 Y84.206
G01 X188.447 Y83.336
G01 X185.602 Y82.605
G01 X182.681 Y82.019
G01 X179.692 Y81.583
G01 X176.643 Y81.303
G01 X173.543 Y81.184
G01 X170.399 Y81.229
G01 X167.220 Y81.443
G01 X164.016 Y81.830
G01 X160.796 Y82.392
G01 X157.570 Y83.132
G01 X154.347 Y84.051
G01 X151.137 Y85.151
G01 X147.950 Y86.434
G01 X144.797 Y87.898
G01 X141.688 Y89.545
G01 X138.632 Y91.372
G01 X135.642 Y93.380
G01 X132.726 Y95.565
G01 X129.895 Y97.925
G01 X127.160 Y100.458
G01 X124.530 Y103.158
G01 X122.016 Y106.022
G01 X119.627 Y109.045
G01 X117.373 Y112.222
G01 X115.263 Y115.546
G01 X113.306 Y119.011
G01 X111.511 Y122.610
G01 X109.887 Y126.334
G01 X108.441 Y130.177
G01 X107.181 Y134.128
G01 X106.115 Y138.180
G01 X105.249 Y142.322
G01 X104.590 Y146.545
G01 X104.143 Y150.838
G01 X103.913 Y155.190
G01 X103.906 Y159.591
G01 X104.126 Y164.028
G01 X104.575 Y168.491
G01 X105.258 Y172.966
G01 X106.176 Y177.443
G01 X107.331 Y181.908
G01 X108.724 Y186.349
G01 X110.355 Y190.753
G01 X112.225 Y195.107
G01 X114.332 Y199.399
G01 X116.675 Y203.616
G01 X119.250 Y207.745
G01 X122.056 Y211.772
G01 X125.088 Y215.686
G01 X128.342 Y219.474
G01 X131.812 Y223.123
G01 X135.493 Y226.621
G01 X139.378 Y229.956
G01 X143.461 Y233.117
G01 X147.732 Y236.092
G01 X152.185 Y238.871
G01 X156.809 Y241.442
G01 X161.594 Y243.795
G01 X166.532 Y245.921
G01 X171.609 Y247.811
G01 X176.817 Y249.455
G01 X182.141 Y250.846
G01 X187.570 Y251.976
G01 X193.092 Y252.838
G01 X198.692 Y253.426
G01 X204.357 Y253.734
G01 X210.073 Y253.757
G01 X215.825 Y253.491
G01 X221.599 Y252.933
G01 X227.381 Y252.079
G01 X233.153 Y250.928
G01 X238.902 Y249.479
G01 X244.612 Y247.731
G01 X250.268 Y245.684
G01 X255.853 Y243.340
G01 X261.352 Y240.701
G01 X266.749 Y237.769
G01 X272.029 Y234.549
G01 X277.177 Y231.044
G01 X280.889 Y228.273
G01 X190.999 Y140.970
G01 X190.930 Y140.996
G01 X190.860 Y141.018
G01 X190.791 Y141.035
G01 X190.723 Y141.048
G01 X190.655 Y141.057
G01 X190.588 Y141.062
G01 X190.522 Y141.062
G01 X190.457 Y141.059
G01 X190.394 Y141.053
G01 X190.333 Y141.042
G01 X190.274 Y141.029
G01 X190.217 Y141.012
G01 X190.162 Y140.992
G01 X190.110 Y140.969
G01 X190.060 Y140.943
G01 X190.013 Y140.915
G01 X189.969 Y140.885
G01 X189.929 Y140.853
G01 X189.891 Y140.819
G01 X189.856 Y140.783
G01 X189.825 Y140.746
G01 X189.797 Y140.708
G01 X189.772 Y140.669
G01 X189.750 Y140.629
G01 X189.732 Y140.589
G01 X189.717 Y140.548
G01 X189.705 Y140.508
G01 X189.697 Y140.468
G01 X189.692 Y140.428
G01 X189.690 Y140.389
G01 X189.691 Y140.351
G01 X189.695 Y140.314
G01 X189.701 Y140.279
G01 X189.711 Y140.244
G01 X189.723 Y140.212
G01 X189.737 Y140.181
G01 X189.754 Y140.152
G01 X189.773 Y140.126
G01 X189.794 Y140.101
G01 X189.817 Y140.079
G01 X189.841 Y140.060
G01 X189.866 Y140.043
G01 X189.893 Y140.028
G01 X189.921 Y140.017
G01 X189.950 Y140.008
G01 X189.979 Y140.002
G01 X190.000 Y140.000
G01 X189.984 Y140.002
G01 X189.969 Y140.006
G01 X189.954 Y140.011
G01 X189.939 Y140.017
G01 X189.925 Y140.025
G01 X189.912 Y140.035
G01 X189.899 Y140.045
G01 X189.887 Y140.057
G01 X189.876 Y140.071
G01 X189.867 Y140.085
G01 X189.858 Y140.101
G01 X189.851 Y140.118
G01 X189.845 Y140.135
G01 X189.840 Y140.154
G01 X189.837 Y140.173
G01 X189.836 Y140.192
G01 X189.836 Y140.213
G01 X189.837 Y140.234
G01 X189.840 Y140.255
G01 X189.845 Y140.276
G01 X189.852 Y140.298
G01 X189.860 Y140.319
G01 X189.871 Y140.340
G01 X189.883 Y140.361
G01 X189.896 Y140.382
G01 X189.912 Y140.402
G01 X189.929 Y140.421
G01 X189.948 Y140.440
G01 X189.968 Y140.458
G01 X189.991 Y140.475
G01 X190.014 Y140.490
G01 X190.104 Y141.354
G01 X190.280 Y142.209
G01 X190.539 Y143.048
G01 X190.881 Y143.864
G01 X191.303 Y144.652
G01 X191.805 Y145.406
G01 X192.383 Y146.120
G01 X193.035 Y146.789
G01 X193.757 Y147.406
G01 X194.546 Y147.967
G01 X195.399 Y148.466
G01 X196.310 Y148.900
G01 X197.275 Y149.262
G01 X198.290 Y149.550
G01 X199.350 Y149.758
G01 X200.448 Y149.885
G01 X201.580 Y149.925
G01 X202.739 Y149.877
G01 X203.920 Y149.738
G01 X205.116 Y149.505
G01 X206.321 Y149.178
G01 X207.528 Y148.754
G01 X208.731 Y148.232
G01 X209.924 Y147.613
G01 X211.099 Y146.896
G01 X212.249 Y146.082
G01 X213.369 Y145.170
G01 X214.450 Y144.163
G01 X215.487 Y143.062
G01 X216.473 Y141.869
G01 X217.401 Y140.586
G01 X218.265 Y139.217
G01 X219.058 Y137.764
G01 X219.775 Y136.232
G01 X220.409 Y134.625
G01 X220.955 Y132.946
G01 X221.408 Y131.201
G01 X221.762 Y129.396
G01 X222.012 Y127.535
G01 X222.155 Y125.625
G01 X222.185 Y123.672
G01 X222.099 Y121.682
G01 X221.894 Y119.662
G01 X221.566 Y117.619
G01 X221.112 Y115.561
G01 X220.532 Y113.495
G01 X219.821 Y111.428
G01 X218.980 Y109.368
G01 X218.007 Y107.324
G01 X216.902 Y105.303
G01 X215.665 Y103.313
G01 X214.296 Y101.363
G01 X212.797 Y99.460
G01 X211.168 Y97.614
G01 X209.412 Y95.831
G01 X207.531 Y94.121
G01 X205.529 Y92.491
G01 X203.408 Y90.948
G01 X201.172 Y89.502
G01 X198.827 Y88.159
G01 X196.376 Y86.926
G01 X193.825 Y85.811
G01 X191.180 Y84.820
G01 X188.447 Y83.961
G01 X185.633 Y83.239
G01 X182.744 Y82.660
G01 X179.788 Y82.230
G01 X176.773 Y81.954
G01 X173.706 Y81.837
G01 X170.597 Y81.883
G01 X167.454 Y82.096
G01 X164.285 Y82.479
G01 X161.101 Y83.036
G01 X157.910 Y83.768
G01 X154.723 Y84.679
G01 X151.549 Y85.768
G01 X148.398 Y87.037
G01 X145.280 Y88.487
G01 X142.205 Y90.116
G01 X139.184 Y91.924
G01 X136.227 Y93.911
G01 X133.344 Y96.073
G01 X130.546 Y98.408
G01 X127.842 Y100.913
G01 X125.242 Y103.584
G01 X122.756 Y106.418
G01 X120.394 Y109.409
G01 X118.166 Y112.551
G01 X116.080 Y115.839
G01 X114.146 Y119.266
G01 X112.373 Y122.825
G01 X110.767 Y126.509
G01 X109.339 Y130.310
G01 X108.094 Y134.218
G01 X107.041 Y138.226
G01 X106.186 Y142.322
G01 X105.535 Y146.499
G01 X105.094 Y150.744
G01 X104.869 Y155.049
G01 X104.863 Y159.401
G01 X105.082 Y163.789
G01 X105.528 Y168.202
G01 X106.204 Y172.628
G01 X107.113 Y177.055
G01 X108.257 Y181.470
G01 X109.636 Y185.861
G01 X111.251 Y190.216
G01 X113.102 Y194.522
G01 X115.187 Y198.766
G01 X117.505 Y202.935
G01 X120.053 Y207.017
G01 X122.829 Y210.999
G01 X125.829 Y214.869
G01 X129.048 Y218.614
G01 X132.481 Y222.221
G01 X136.122 Y225.680
G01 X139.966 Y228.977
G01 X144.004 Y232.102
G01 X148.229 Y235.043
G01 X152.633 Y237.789
G01 X157.206 Y240.330
G01 X161.940 Y242.656
G01 X166.823 Y244.757
G01 X171.846 Y246.624
G01 X176.996 Y248.248
G01 X182.262 Y249.622
G01 X187.631 Y250.738
G01 X193.092 Y251.589
G01 X198.630 Y252.168
G01 X204.233 Y252.471
G01 X209.885 Y252.492
G01 X215.574 Y252.228
G01 X221.284 Y251.674
G01 X227.001 Y250.828
G01 X232.710 Y249.688
G01 X238.395 Y248.253
G01 X244.041 Y246.522
G01 X249.633 Y244.496
G01 X255.155 Y242.176
G01 X260.593 Y239.565
G01 X265.929 Y236.664
G01 X271.150 Y233.477
G01 X276.240 Y230.010
G01 X281.183 Y226.267
G01 X283.825 Y224.100
G01 X191.043 Y140.934
G01 X190.972 Y140.961
G01 X190.902 Y140.984
G01 X190.831 Y141.002
G01 X190.762 Y141.015
G01 X190.693 Y141.024
G01 X190.625 Y141.029
G01 X190.558 Y141.030
G01 X190.492 Y141.026
G01 X190.429 Y141.019
G01 X190.367 Y141.008
G01 X190.307 Y140.994
G01 X190.250 Y140.976
G01 X190.195 Y140.955
G01 X190.143 Y140.931
G01 X190.094 Y140.905
G01 X190.048 Y140.875
G01 X190.005 Y140.844
G01 X189.965 Y140.811
G01 X189.928 Y140.775
G01 X189.895 Y140.738
G01 X189.865 Y140.700
G01 X189.838 Y140.661
G01 X189.815 Y140.621
G01 X189.796 Y140.580
G01 X189.780 Y140.539
G01 X189.768 Y140.498
G01 X189.759 Y140.457
G01 X189.753 Y140.417
G01 X189.751 Y140.377
G01 X189.752 Y140.338
G01 X189.757 Y140.300
G01 X189.764 Y140.263
G01 X189.774 Y140.228
G01 X189.788 Y140.195
G01 X189.804 Y140.163
G01 X189.822 Y140.134
G01 X189.843 Y140.106
G01 X189.866 Y140.082
G01 X189.891 Y140.059
G01 X189.917 Y140.040
G01 X189.946 Y140.023
G01 X189.975 Y140.009
G01 X190.000 Y140.000
G01 X189.979 Y140.008
G01 X189.959 Y140.018
G01 X189.940 Y140.030
G01 X189.922 Y140.043
G01 X189.905 Y140.059
G01 X189.890 Y140.076
G01 X189.876 Y140.095
G01 X189.864 Y140.115
G01 X189.853 Y140.137
G01 X189.845 Y140.160
G01 X189.838 Y140.184
G01 X189.833 Y140.209
G01 X189.831 Y140.235
G01 X189.831 Y140.262
G01 X189.832 Y140.289
G01 X189.837 Y140.317
G01 X189.843 Y140.345
G01 X189.852 Y140.373
G01 X189.863 Y140.401
G01 X189.877 Y140.429
G01 X189.893 Y140.456
G01 X189.912 Y140.482
G01 X189.932 Y140.508
G01 X189.956 Y140.533
G01 X189.981 Y140.557
G01 X190.009 Y140.580
G01 X190.020 Y140.588
G01 X190.120 Y141.442
G01 X190.303 Y142.285
G01 X190.569 Y143.112
G01 X190.917 Y143.917
G01 X191.345 Y144.692
G01 X191.850 Y145.434
G01 X192.431 Y146.135
G01 X193.084 Y146.790
G01 X193.806 Y147.394
G01 X194.594 Y147.941
G01 X195.444 Y148.427
G01 X196.352 Y148.848
G01 X197.313 Y149.197
G01 X198.322 Y149.473
G01 X199.375 Y149.669
G01 X200.465 Y149.784
G01 X201.588 Y149.814
G01 X202.737 Y149.755
G01 X203.907 Y149.607
G01 X205.091 Y149.366
G01 X206.283 Y149.030
G01 X207.477 Y148.599
G01 X208.666 Y148.072
G01 X209.844 Y147.448
G01 X211.003 Y146.728
G01 X212.137 Y145.911
G01 X213.240 Y144.998
G01 X214.305 Y143.991
G01 X215.324 Y142.890
G01 X216.293 Y141.700
G01 X217.203 Y140.421
G01 X218.049 Y139.057
G01 X218.825 Y137.611
G01 X219.524 Y136.086
G01 X220.141 Y134.488
G01 X220.670 Y132.820
G01 X221.106 Y131.087
G01 X221.444 Y129.295
G01 X221.679 Y127.449
G01 X221.807 Y125.554
G01 X221.823 Y123.618
G01 X221.725 Y121.646
G01 X221.507 Y119.646
G01 X221.168 Y117.623
G01 X220.704 Y115.587
G01 X220.115 Y113.543
G01 X219.397 Y111.499
G01 X218.549 Y109.464
G01 X217.571 Y107.445
G01 X216.463 Y105.449
G01 X215.224 Y103.486
G01 X213.854 Y101.563
G01 X212.356 Y99.688
G01 X210.730 Y97.869
G01 X208.979 Y96.114
G01 X207.104 Y94.432
G01 X205.110 Y92.830
G01 X202.998 Y91.316
G01 X200.774 Y89.897
G01 X198.442 Y88.582
G01 X196.006 Y87.376
G01 X193.472 Y86.288
G01 X190.846 Y85.324
G01 X188.133 Y84.490
G01 X185.341 Y83.793
G01 X182.476 Y83.238
G01 X179.545 Y82.831
G01 X176.557 Y82.577
G01 X173.519 Y82.480
G01 X170.440 Y82.545
G01 X167.328 Y82.776
G01 X164.192 Y83.175
G01 X161.042 Y83.747
G01 X157.887 Y84.492
G01 X154.736 Y85.414
G01 X151.599 Y86.512
G01 X148.486 Y87.789
G01 X145.408 Y89.244
G01 X142.373 Y90.876
G01 X139.393 Y92.686
G01 X136.477 Y94.671
G01 X133.636 Y96.830
G01 X130.879 Y99.160
G01 X128.217 Y101.657
G01 X125.659 Y104.318
G01 X123.215 Y107.139
G01 X120.895 Y110.115
G01 X118.708 Y113.240
G01 X116.663 Y116.508
G01 X114.769 Y119.914
G01 X113.035 Y123.449
G01 X111.468 Y127.106
G01 X110.077 Y130.878
G01 X108.869 Y134.755
G01 X107.850 Y138.729
G01 X107.029 Y142.790
G01 X106.410 Y146.929
G01 X105.999 Y151.135
G01 X105.802 Y155.398
G01 X105.823 Y159.706
G01 X106.066 Y164.049
G01 X106.534 Y168.416
G01 X107.231 Y172.793
G01 X108.158 Y177.170
G01 X109.317 Y181.534
G01 X110.709 Y185.873
G01 X112.334 Y190.174
G01 X114.192 Y194.425
G01 X116.282 Y198.614
G01 X118.602 Y202.727
G01 X121.149 Y206.753
G01 X123.921 Y210.678
G01 X126.914 Y214.490
G01 X130.123 Y218.178
G01 X133.543 Y221.728
G01 X137.168 Y225.130
G01 X140.992 Y228.370
G01 X145.008 Y231.439
G01 X149.209 Y234.325
G01 X153.584 Y237.016
G01 X158.126 Y239.504
G01 X162.826 Y241.778
G01 X167.672 Y243.828
G01 X172.654 Y245.646
G01 X177.762 Y247.223
G01 X182.982 Y248.551
G01 X188.304 Y249.623
G01 X193.714 Y250.432
G01 X199.199 Y250.973
G01 X204.746 Y251.239
G01 X210.341 Y251.226
G01 X215.969 Y250.930
G01 X221.618 Y250.348
G01 X227.271 Y249.476
G01 X232.914 Y248.314
G01 X238.532 Y246.859
G01 X244.110 Y245.113
G01 X249.632 Y243.074
G01 X255.084 Y240.745
G01 X260.450 Y238.128
G01 X265.714 Y235.225
G01 X270.862 Y232.040
G01 X275.879 Y228.578
G01 X280.749 Y224.844
G01 X285.458 Y220.844
G01 X286.574 Y219.835
G01 X191.073 Y140.887
G01 X191.004 Y140.916
G01 X190.934 Y140.941
G01 X190.864 Y140.961
G01 X190.795 Y140.976
G01 X190.727 Y140.987
G01 X190.659 Y140.994
G01 X190.592 Y140.996
G01 X190.527 Y140.995
G01 X190.464 Y140.989
G01 X190.402 Y140.980
G01 X190.342 Y140.967
G01 X190.285 Y140.951
G01 X190.230 Y140.931
G01 X190.177 Y140.909
G01 X190.128 Y140.883
G01 X190.081 Y140.855
G01 X190.038 Y140.825
G01 X189.997 Y140.793
G01 X189.960 Y140.758
G01 X189.926 Y140.722
G01 X189.896 Y140.685
G01 X189.869 Y140.646
G01 X189.846 Y140.607
G01 X189.826 Y140.567
G01 X189.810 Y140.526
G01 X189.797 Y140.485
G01 X189.788 Y140.445
G01 X189.782 Y140.404
G01 X189.780 Y140.365
G01 X189.781 Y140.326
G01 X189.785 Y140.288
G01 X189.792 Y140.251
G01 X189.802 Y140.216
G01 X189.816 Y140.183
G01 X189.832 Y140.151
G01 X189.850 Y140.122
G01 X189.871 Y140.095
G01 X189.895 Y140.070
G01 X189.920 Y140.048
G01 X189.947 Y140.028
G01 X189.976 Y140.011
G01 X190.000 Y140.000
G01 X189.978 Y140.010
G01 X189.958 Y140.023
G01 X189.939 Y140.037
G01 X189.921 Y140.054
G01 X189.904 Y140.072
G01 X189.890 Y140.092
G01 X189.877 Y140.113
G01 X189.865 Y140.136
G01 X189.856 Y140.161
G01 X189.849 Y140.186
G01 X189.844 Y140.213
G01 X189.842 Y140.240
G01 X189.842 Y140.268
G01 X189.844 Y140.297
G01 X189.849 Y140.326
G01 X189.856 Y140.355
G01 X189.865 Y140.384
G01 X189.878 Y140.413
G01 X189.892 Y140.442
G01 X189.910 Y140.470
G01 X189.929 Y140.498
G01 X189.952 Y140.524
G01 X189.977 Y140.550
G01 X190.004 Y140.575
G01 X190.020 Y140.588
G01 X190.119 Y141.432
G01 X190.301 Y142.266
G01 X190.565 Y143.084
G01 X190.910 Y143.879
G01 X191.333 Y144.646
G01 X191.833 Y145.379
G01 X192.408 Y146.072
G01 X193.055 Y146.719
G01 X193.770 Y147.316
G01 X194.550 Y147.857
G01 X195.391 Y148.337
G01 X196.289 Y148.752
G01 X197.239 Y149.098
G01 X198.238 Y149.369
G01 X199.279 Y149.563
G01 X200.357 Y149.676
G01 X201.468 Y149.705
G01 X202.604 Y149.646
G01 X203.761 Y149.499
G01 X204.932 Y149.259
G01 X206.111 Y148.927
G01 X207.292 Y148.500
G01 X208.468 Y147.978
G01 X209.632 Y147.361
G01 X210.778 Y146.647
G01 X211.900 Y145.838
G01 X212.990 Y144.935
G01 X214.043 Y143.938
G01 X215.051 Y142.850
G01 X216.008 Y141.672
G01 X216.907 Y140.406
G01 X217.743 Y139.057
G01 X218.510 Y137.626
G01 X219.201 Y136.118
G01 X219.810 Y134.537
G01 X220.333 Y132.887
G01 X220.764 Y131.173
G01 X221.097 Y129.400
G01 X221.329 Y127.574
G01 X221.454 Y125.700
G01 X221.470 Y123.785
G01 X221.371 Y121.835
G01 X221.155 Y119.856
G01 X220.819 Y117.857
G01 X220.359 Y115.842
G01 X219.775 Y113.821
G01 X219.064 Y111.800
G01 X218.225 Y109.788
G01 X217.257 Y107.791
G01 X216.160 Y105.818
G01 X214.933 Y103.877
G01 X213.578 Y101.975
G01 X212.096 Y100.122
G01 X210.487 Y98.323
G01 X208.754 Y96.589
G01 X206.900 Y94.926
G01 X204.926 Y93.342
G01 X202.838 Y91.846
G01 X200.637 Y90.443
G01 X198.330 Y89.143
G01 X195.921 Y87.952
G01 X193.414 Y86.877
G01 X190.816 Y85.924
G01 X188.133 Y85.101
G01 X185.371 Y84.412
G01 X182.537 Y83.865
G01 X179.639 Y83.463
G01 X176.683 Y83.213
G01 X173.679 Y83.119
G01 X170.633 Y83.184
G01 X167.556 Y83.414
G01 X164.455 Y83.810
G01 X161.340 Y84.377
G01 X158.219 Y85.115
G01 X155.104 Y86.028
G01 X152.002 Y87.115
G01 X148.924 Y88.379
G01 X145.880 Y89.819
G01 X142.879 Y91.435
G01 X139.933 Y93.226
G01 X137.050 Y95.190
G01 X134.241 Y97.327
G01 X131.515 Y99.632
G01 X128.883 Y102.102
G01 X126.354 Y104.735
G01 X123.939 Y107.526
G01 X121.645 Y110.470
G01 X119.484 Y113.562
G01 X117.463 Y116.795
G01 X115.591 Y120.163
G01 X113.877 Y123.660
G01 X112.329 Y127.278
G01 X110.955 Y131.008
G01 X109.761 Y134.843
G01 X108.756 Y138.774
G01 X107.945 Y142.790
G01 X107.335 Y146.884
G01 X106.930 Y151.043
G01 X106.737 Y155.259
G01 X106.759 Y159.520
G01 X107.001 Y163.815
G01 X107.466 Y168.133
G01 X108.157 Y172.462
G01 X109.075 Y176.790
G01 X110.223 Y181.106
G01 X111.601 Y185.396
G01 X113.210 Y189.649
G01 X115.049 Y193.853
G01 X117.117 Y197.994
G01 X119.413 Y202.061
G01 X121.934 Y206.041
G01 X124.677 Y209.922
G01 X127.638 Y213.691
G01 X130.813 Y217.337
G01 X134.197 Y220.847
G01 X137.783 Y224.209
G01 X141.567 Y227.413
G01 X145.540 Y230.446
G01 X149.694 Y233.298
G01 X154.023 Y235.958
G01 X158.516 Y238.417
G01 X163.164 Y240.664
G01 X167.957 Y242.689
G01 X172.885 Y244.485
G01 X177.937 Y246.043
G01 X183.100 Y247.354
G01 X188.363 Y248.412
G01 X193.714 Y249.211
G01 X199.138 Y249.743
G01 X204.624 Y250.004
G01 X210.157 Y249.989
G01 X215.724 Y249.695
G01 X221.310 Y249.116
G01 X226.900 Y248.252
G01 X232.480 Y247.101
G01 X238.036 Y245.660
G01 X243.551 Y243.931
G01 X249.012 Y241.913
G01 X254.402 Y239.607
G01 X259.708 Y237.017
G01 X264.913 Y234.144
G01 X270.003 Y230.993
G01 X274.962 Y227.567
G01 X279.777 Y223.872
G01 X284.433 Y219.915
G01 X288.914 Y215.701
G01 X289.132 Y215.485
G01 X191.114 Y140.848
G01 X191.045 Y140.880
G01 X190.975 Y140.906
G01 X190.905 Y140.928
G01 X190.836 Y140.946
G01 X190.767 Y140.959
G01 X190.699 Y140.967
G01 X190.632 Y140.972
G01 X190.566 Y140.972
G01 X190.502 Y140.968
G01 X190.439 Y140.960
G01 X190.379 Y140.948
G01 X190.321 Y140.933
G01 X190.265 Y140.915
G01 X190.212 Y140.893
G01 X190.161 Y140.868
G01 X190.114 Y140.841
G01 X190.070 Y140.811
G01 X190.028 Y140.779
G01 X189.991 Y140.745
G01 X189.956 Y140.710
G01 X189.925 Y140.672
G01 X189.898 Y140.634
G01 X189.874 Y140.594
G01 X189.854 Y140.554
G01 X189.837 Y140.513
G01 X189.824 Y140.473
G01 X189.815 Y140.432
G01 X189.809 Y140.391
G01 X189.807 Y140.351
G01 X189.808 Y140.312
G01 X189.812 Y140.274
G01 X189.820 Y140.237
G01 X189.831 Y140.201
G01 X189.844 Y140.167
G01 X189.861 Y140.136
G01 X189.880 Y140.106
G01 X189.902 Y140.078
G01 X189.926 Y140.053
G01 X189.953 Y140.031
G01 X189.981 Y140.011
G01 X190.000 Y140.000
G01 X189.978 Y140.013
G01 X189.957 Y140.029
G01 X189.938 Y140.047
G01 X189.920 Y140.066
G01 X189.904 Y140.088
G01 X189.890 Y140.111
G01 X189.878 Y140.136
G01 X189.869 Y140.162
G01 X189.861 Y140.189
G01 X189.857 Y140.217
G01 X189.854 Y140.246
G01 X189.854 Y140.276
G01 X189.857 Y140.307
G01 X189.862 Y140.337
G01 X189.870 Y140.368
G01 X189.881 Y140.399
G01 X189.895 Y140.430
G01 X189.911 Y140.460
G01 X189.930 Y140.490
G01 X189.952 Y140.518
G01 X189.976 Y140.546
G01 X190.003 Y140.573
G01 X190.020 Y140.588
G01 X190.119 Y141.423
G01 X190.300 Y142.247
G01 X190.561 Y143.056
G01 X190.903 Y143.842
G01 X191.322 Y144.600
G01 X191.817 Y145.324
G01 X192.386 Y146.009
G01 X193.026 Y146.649
G01 X193.733 Y147.239
G01 X194.505 Y147.774
G01 X195.337 Y148.248
G01 X196.226 Y148.658
G01 X197.166 Y148.999
G01 X198.154 Y149.267
G01 X199.184 Y149.458
G01 X200.251 Y149.569
G01 X201.349 Y149.597
G01 X202.473 Y149.538
G01 X203.617 Y149.392
G01 X204.776 Y149.154
G01 X205.942 Y148.825
G01 X207.109 Y148.402
G01 X208.272 Y147.885
G01 X209.423 Y147.274
G01 X210.556 Y146.567
G01 X211.665 Y145.767
G01 X212.743 Y144.873
G01 X213.783 Y143.886
G01 X214.780 Y142.809
G01 X215.726 Y141.644
G01 X216.615 Y140.392
G01 X217.441 Y139.056
G01 X218.199 Y137.641
G01 X218.881 Y136.149
G01 X219.484 Y134.585
G01 X220.000 Y132.953
G01 X220.425 Y131.257
G01 X220.754 Y129.504
G01 X220.982 Y127.698
G01 X221.105 Y125.844
G01 X221.120 Y123.950
G01 X221.021 Y122.022
G01 X220.807 Y120.065
G01 X220.473 Y118.087
G01 X220.018 Y116.095
G01 X219.439 Y114.096
G01 X218.735 Y112.098
G01 X217.904 Y110.108
G01 X216.946 Y108.134
G01 X215.860 Y106.183
G01 X214.647 Y104.263
G01 X213.306 Y102.383
G01 X211.838 Y100.550
G01 X210.247 Y98.773
G01 X208.532 Y97.058
G01 X206.697 Y95.414
G01 X204.745 Y93.849
G01 X202.678 Y92.369
G01 X200.502 Y90.984
G01 X198.220 Y89.699
G01 X195.836 Y88.522
G01 X193.357 Y87.459
G01 X190.787 Y86.518
G01 X188.133 Y85.705
G01 X185.401 Y85.025
G01 X182.598 Y84.485
G01 X179.731 Y84.089
G01 X176.808 Y83.843
G01 X173.837 Y83.751
G01 X170.825 Y83.817
G01 X167.781 Y84.045
G01 X164.715 Y84.438
G01 X161.634 Y85.000
G01 X158.548 Y85.731
G01 X155.467 Y86.635
G01 X152.400 Y87.712
G01 X149.357 Y88.963
G01 X146.347 Y90.388
G01 X143.380 Y91.988
G01 X140.467 Y93.760
G01 X137.616 Y95.704
G01 X134.839 Y97.818
G01 X132.144 Y100.098
G01 X129.542 Y102.543
G01 X127.043 Y105.148
G01 X124.655 Y107.909
G01 X122.388 Y110.821
G01 X120.251 Y113.880
G01 X118.254 Y117.078
G01 X116.404 Y120.410
G01 X114.710 Y123.869
G01 X113.181 Y127.447
G01 X111.823 Y131.137
G01 X110.644 Y134.930
G01 X109.652 Y138.818
G01 X108.851 Y142.791
G01 X108.249 Y146.839
G01 X107.851 Y150.953
G01 X107.661 Y155.122
G01 X107.685 Y159.336
G01 X107.926 Y163.584
G01 X108.387 Y167.854
G01 X109.072 Y172.135
G01 X109.982 Y176.415
G01 X111.119 Y180.682
G01 X112.484 Y184.925
G01 X114.076 Y189.130
G01 X115.897 Y193.287
G01 X117.944 Y197.382
G01 X120.216 Y201.403
G01 X122.710 Y205.338
G01 X125.425 Y209.175
G01 X128.354 Y212.901
G01 X131.496 Y216.505
G01 X134.843 Y219.975
G01 X138.392 Y223.299
G01 X142.135 Y226.465
G01 X146.065 Y229.464
G01 X150.175 Y232.283
G01 X154.456 Y234.912
G01 X158.901 Y237.342
G01 X163.498 Y239.562
G01 X168.240 Y241.563
G01 X173.114 Y243.337
G01 X178.110 Y244.876
G01 X183.217 Y246.171
G01 X188.422 Y247.215
G01 X193.714 Y248.003
G01 X199.079 Y248.527
G01 X204.504 Y248.783
G01 X209.976 Y248.766
G01 X215.481 Y248.473
G01 X221.005 Y247.899
G01 X226.533 Y247.042
G01 X232.051 Y245.901
G01 X237.545 Y244.474
G01 X242.998 Y242.762
G01 X248.398 Y240.764
G01 X253.728 Y238.482
G01 X258.974 Y235.918
G01 X264.120 Y233.075
G01 X269.153 Y229.956
G01 X274.056 Y226.567
G01 X278.816 Y222.911
G01 X283.419 Y218.995
G01 X287.849 Y214.826
G01 X291.498 Y211.059
G01 X191.140 Y140.798
G01 X191.071 Y140.831
G01 X191.000 Y140.858
G01 X190.930 Y140.881
G01 X190.860 Y140.898
G01 X190.791 Y140.911
G01 X190.722 Y140.920
G01 X190.655 Y140.924
G01 X190.589 Y140.924
G01 X190.524 Y140.919
G01 X190.462 Y140.911
G01 X190.401 Y140.899
G01 X190.343 Y140.883
G01 X190.288 Y140.863
G01 X190.235 Y140.841
G01 X190.185 Y140.815
G01 X190.139 Y140.786
G01 X190.095 Y140.756
G01 X190.055 Y140.722
G01 X190.019 Y140.687
G01 X189.986 Y140.650
G01 X189.957 Y140.612
G01 X189.931 Y140.572
G01 X189.909 Y140.531
G01 X189.891 Y140.490
G01 X189.877 Y140.448
G01 X189.867 Y140.406
G01 X189.860 Y140.365
G01 X189.858 Y140.324
G01 X189.859 Y140.283
G01 X189.863 Y140.243
G01 X189.871 Y140.205
G01 X189.882 Y140.168
G01 X189.897 Y140.133
G01 X189.915 Y140.099
G01 X189.936 Y140.068
G01 X189.959 Y140.039
G01 X189.985 Y140.013
G01 X190.000 Y140.000
G01 X189.969 Y140.028
G01 X189.941 Y140.059
G01 X189.917 Y140.092
G01 X189.895 Y140.128
G01 X189.877 Y140.167
G01 X189.862 Y140.207
G01 X189.851 Y140.249
G01 X189.844 Y140.293
G01 X189.841 Y140.337
G01 X189.842 Y140.383
G01 X189.847 Y140.429
G01 X189.856 Y140.476
G01 X189.870 Y140.523
G01 X189.888 Y140.569
G01 X189.910 Y140.615
G01 X189.936 Y140.660
G01 X189.966 Y140.704
G01 X190.001 Y140.746
G01 X190.036 Y140.783
G01 X190.154 Y141.607
G01 X190.352 Y142.419
G01 X190.630 Y143.214
G01 X190.987 Y143.985
G01 X191.420 Y144.727
G01 X191.928 Y145.434
G01 X192.508 Y146.101
G01 X193.157 Y146.722
G01 X193.872 Y147.293
G01 X194.651 Y147.807
G01 X195.487 Y148.261
G01 X196.379 Y148.651
G01 X197.321 Y148.970
G01 X198.308 Y149.217
G01 X199.336 Y149.387
G01 X200.399 Y149.477
G01 X201.492 Y149.484
G01 X202.609 Y149.405
G01 X203.744 Y149.238
G01 X204.892 Y148.982
G01 X206.046 Y148.633
G01 X207.200 Y148.193
G01 X208.348 Y147.659
G01 X209.482 Y147.031
G01 X210.598 Y146.310
G01 X211.688 Y145.496
G01 X212.745 Y144.589
G01 X213.764 Y143.592
G01 X214.738 Y142.505
G01 X215.660 Y141.331
G01 X216.525 Y140.073
G01 X217.326 Y138.733
G01 X218.057 Y137.314
G01 X218.713 Y135.821
G01 X219.288 Y134.258
G01 X219.777 Y132.628
G01 X220.175 Y130.937
G01 X220.477 Y129.189
G01 X220.677 Y127.391
G01 X220.773 Y125.548
G01 X220.761 Y123.666
G01 X220.635 Y121.752
G01 X220.395 Y119.811
G01 X220.036 Y117.851
G01 X219.556 Y115.879
G01 X218.954 Y113.902
G01 X218.227 Y111.927
G01 X217.375 Y109.962
G01 X216.397 Y108.015
G01 X215.292 Y106.092
G01 X214.061 Y104.203
G01 X212.704 Y102.355
G01 X211.223 Y100.555
G01 X209.619 Y98.811
G01 X207.894 Y97.132
G01 X206.051 Y95.524
G01 X204.093 Y93.996
G01 X202.022 Y92.555
G01 X199.844 Y91.209
G01 X197.562 Y89.963
G01 X195.182 Y88.827
G01 X192.708 Y87.805
G01 X190.145 Y86.904
G01 X187.502 Y86.132
G01 X184.782 Y85.493
G01 X181.994 Y84.993
G01 X179.145 Y84.637
G01 X176.242 Y84.430
G01 X173.293 Y84.377
G01 X170.306 Y84.481
G01 X167.290 Y84.746
G01 X164.254 Y85.176
G01 X161.205 Y85.772
G01 X158.154 Y86.536
G01 X155.110 Y87.472
G01 X152.081 Y88.579
G01 X149.079 Y89.858
G01 X146.112 Y91.309
G01 X143.190 Y92.933
G01 X140.323 Y94.727
G01 X137.521 Y96.691
G01 X134.794 Y98.821
G01 X132.151 Y101.117
G01 X129.601 Y103.573
G01 X127.155 Y106.187
G01 X124.822 Y108.954
G01 X122.611 Y111.870
G01 X120.531 Y114.929
G01 X118.591 Y118.124
G01 X116.798 Y121.451
G01 X115.163 Y124.901
G01 X113.691 Y128.467
G01 X112.391 Y132.141
G01 X111.269 Y135.916
G01 X110.333 Y139.782
G01 X109.589 Y143.730
G01 X109.042 Y147.750
G01 X108.699 Y151.832
G01 X108.562 Y155.967
G01 X108.638 Y160.143
G01 X108.929 Y164.350
G01 X109.439 Y168.576
G01 X110.170 Y172.811
G01 X111.125 Y177.041
G01 X112.304 Y181.256
G01 X113.708 Y185.444
G01 X115.338 Y189.592
G01 X117.193 Y193.689
G01 X119.272 Y197.721
G01 X121.573 Y201.678
G01 X124.093 Y205.547
G01 X126.829 Y209.316
G01 X129.778 Y212.972
G01 X132.935 Y216.505
G01 X136.294 Y219.902
G01 X139.850 Y223.152
G01 X143.598 Y226.244
G01 X147.528 Y229.166
G01 X151.635 Y231.909
G01 X155.909 Y234.462
G01 X160.342 Y236.815
G01 X164.924 Y238.959
G01 X169.645 Y240.884
G01 X174.496 Y242.582
G01 X179.465 Y244.045
G01 X184.539 Y245.266
G01 X189.709 Y246.238
G01 X194.961 Y246.953
G01 X200.282 Y247.408
G01 X205.659 Y247.595
G01 X211.079 Y247.512
G01 X216.529 Y247.155
G01 X221.994 Y246.519
G01 X227.459 Y245.603
G01 X232.912 Y244.406
G01 X238.336 Y242.926
G01 X243.717 Y241.164
G01 X249.042 Y239.120
G01 X254.293 Y236.795
G01 X259.458 Y234.192
G01 X264.521 Y231.314
G01 X269.468 Y228.164
G01 X274.284 Y224.747
G01 X278.955 Y221.069
G01 X283.466 Y217.135
G01 X287.804 Y212.952
G01 X291.954 Y208.529
G01 X293.669 Y206.565
G01 X191.178 Y140.756
G01 X191.112 Y140.793
G01 X191.045 Y140.826
G01 X190.977 Y140.854
G01 X190.910 Y140.877
G01 X190.842 Y140.896
G01 X190.775 Y140.910
G01 X190.708 Y140.920
G01 X190.643 Y140.925
G01 X190.579 Y140.927
G01 X190.516 Y140.924
G01 X190.455 Y140.918
G01 X190.396 Y140.908
G01 X190.338 Y140.894
G01 X190.284 Y140.877
G01 X190.231 Y140.857
G01 X190.182 Y140.834
G01 X190.135 Y140.808
G01 X190.091 Y140.780
G01 X190.051 Y140.749
G01 X190.013 Y140.717
G01 X189.979 Y140.683
G01 X189.948 Y140.647
G01 X189.921 Y140.610
G01 X189.897 Y140.571
G01 X189.877 Y140.532
G01 X189.860 Y140.493
G01 X189.847 Y140.453
G01 X189.838 Y140.413
G01 X189.832 Y140.374
G01 X189.829 Y140.334
G01 X189.830 Y140.296
G01 X189.834 Y140.259
G01 X189.841 Y140.222
G01 X189.852 Y140.187
G01 X189.865 Y140.154
G01 X189.882 Y140.123
G01 X189.901 Y140.094
G01 X189.922 Y140.066
G01 X189.946 Y140.042
G01 X189.972 Y140.019
G01 X190.000 Y140.000
G01 X189.974 Y140.018
G01 X189.949 Y140.039
G01 X189.927 Y140.062
G01 X189.907 Y140.088
G01 X189.889 Y140.115
G01 X189.874 Y140.144
G01 X189.861 Y140.176
G01 X189.851 Y140.208
G01 X189.845 Y140.242
G01 X189.841 Y140.277
G01 X189.840 Y140.313
G01 X189.842 Y140.350
G01 X189.848 Y140.387
G01 X189.857 Y140.424
G01 X189.869 Y140.461
G01 X189.885 Y140.498
G01 X189.904 Y140.535
G01 X189.926 Y140.571
G01 X189.952 Y140.605
G01 X189.980 Y140.639
G01 X190.012 Y140.671
G01 X190.028 Y140.685
G01 X190.136 Y141.501
G01 X190.323 Y142.306
G01 X190.589 Y143.094
G01 X190.934 Y143.859
G01 X191.354 Y144.596
G01 X191.848 Y145.300
G01 X192.414 Y145.964
G01 X193.049 Y146.583
G01 X193.749 Y147.153
G01 X194.512 Y147.668
G01 X195.334 Y148.124
G01 X196.210 Y148.516
G01 X197.136 Y148.840
G01 X198.108 Y149.092
G01 X199.120 Y149.268
G01 X200.168 Y149.366
G01 X201.245 Y149.382
G01 X202.348 Y149.313
G01 X203.469 Y149.158
G01 X204.603 Y148.914
G01 X205.744 Y148.579
G01 X206.885 Y148.154
G01 X208.021 Y147.636
