;  Created by Sandify
;  https://sandify.org
;  Version: 0.2.4
;
;  Machine type: Rectangular
;    Min X (mm): 0
;    Max X (mm): 380
;    Min Y (mm): 0
;    Max Y (mm): 280
;  Content type: shape
;  Layer:
;    Shape: FileImport
;    Name: SierpinskiPentagon2.thr
;    From file:: SierpinskiPentagon2.thr
;    Aspect Ratio: true
;    Comments: 
;    Visible: true
;    Initial width: 10
;    Initial height: 10
;    X offset: 0
;    Y offset: 0
;    Rotate (degrees): 0
;    Reverse path: false
;    Fine tuning:
;      Connect to next layer: line
;      Draw portion of path (%): 100
;      Backtrack at end (%): 0
;      Rotate starting point (%): 0
;  Reverse export path: false
;
; File name: 'SierpinskiPentagon2'
;

G01 X190.000 Y140.000
G01 X189.972 Y140.579
G01 X189.886 Y141.153
G01 X189.745 Y141.720
G01 X189.548 Y142.273
G01 X189.440 Y142.520
G01 X187.200 Y152.600
G01 X187.054 Y157.205
G01 X187.200 Y160.236
G01 X187.200 Y166.600
G01 X188.485 Y167.120
G01 X189.815 Y167.577
G01 X191.186 Y167.968
G01 X192.042 Y168.173
G01 X193.509 Y168.757
G01 X195.039 Y169.263
G01 X196.626 Y169.687
G01 X196.883 Y169.746
G01 X198.620 Y170.376
G01 X200.433 Y170.905
G01 X200.515 Y170.926
G01 X201.693 Y169.548
G01 X202.762 Y168.130
G01 X203.721 Y166.681
G01 X204.255 Y165.778
G01 X205.230 Y164.606
G01 X206.124 Y163.402
G01 X206.938 Y162.170
G01 X207.248 Y161.659
G01 X208.086 Y160.556
G01 X208.744 Y159.600
G01 X204.891 Y154.114
G01 X203.507 Y152.392
G01 X201.630 Y149.663
G01 X200.515 Y148.274
G01 X199.869 Y148.582
G01 X199.219 Y148.848
G01 X198.567 Y149.070
G01 X197.916 Y149.251
G01 X197.268 Y149.390
G01 X196.883 Y149.454
G01 X196.365 Y149.709
G01 X195.838 Y149.937
G01 X195.304 Y150.136
G01 X194.765 Y150.307
G01 X194.221 Y150.450
G01 X193.676 Y150.564
G01 X193.252 Y150.634
G01 X192.752 Y150.882
G01 X192.235 Y151.106
G01 X191.703 Y151.305
G01 X191.157 Y151.479
G01 X190.598 Y151.627
G01 X190.027 Y151.746
G01 X189.621 Y151.813
G01 X189.018 Y152.066
G01 X188.390 Y152.287
G01 X187.738 Y152.475
G01 X187.200 Y152.600
G01 X187.054 Y157.205
G01 X187.200 Y160.236
G01 X187.200 Y166.600
G01 X188.485 Y167.120
G01 X189.815 Y167.577
G01 X191.186 Y167.968
G01 X192.042 Y168.173
G01 X193.509 Y168.757
G01 X195.039 Y169.263
G01 X196.626 Y169.687
G01 X196.883 Y169.746
G01 X198.620 Y170.376
G01 X200.433 Y170.905
G01 X200.515 Y170.926
G01 X201.693 Y169.548
G01 X202.762 Y168.130
G01 X203.721 Y166.681
G01 X204.255 Y165.778
G01 X205.230 Y164.606
G01 X206.124 Y163.402
G01 X206.938 Y162.170
G01 X207.248 Y161.659
G01 X208.086 Y160.556
G01 X208.744 Y159.600
G01 X204.891 Y154.114
G01 X203.507 Y152.392
G01 X201.630 Y149.663
G01 X200.515 Y148.274
G01 X199.869 Y148.582
G01 X199.219 Y148.848
G01 X198.567 Y149.070
G01 X197.916 Y149.251
G01 X197.268 Y149.390
G01 X196.883 Y149.454
G01 X196.365 Y149.709
G01 X195.838 Y149.937
G01 X195.304 Y150.136
G01 X194.765 Y150.307
G01 X194.221 Y150.450
G01 X193.676 Y150.564
G01 X193.252 Y150.634
G01 X192.752 Y150.882
G01 X192.235 Y151.106
G01 X191.703 Y151.305
G01 X191.157 Y151.479
G01 X190.598 Y151.627
G01 X190.027 Y151.746
G01 X189.621 Y151.813
G01 X189.018 Y152.066
G01 X188.390 Y152.287
G01 X187.738 Y152.475
G01 X187.200 Y152.600
G01 X187.131 Y156.758
G01 X187.200 Y158.200
G01 X188.069 Y158.579
G01 X188.969 Y158.915
G01 X189.897 Y159.208
G01 X190.851 Y159.454
G01 X191.461 Y159.584
G01 X192.473 Y159.915
G01 X192.526 Y159.930
G01 X193.359 Y158.982
G01 X194.106 Y158.002
G01 X194.765 Y156.996
G01 X195.159 Y156.306
G01 X195.753 Y155.495
G01 X195.818 Y155.400
G01 X194.453 Y153.802
G01 X193.261 Y152.112
G01 X192.526 Y150.870
G01 X192.013 Y151.111
G01 X191.483 Y151.327
G01 X190.936 Y151.518
G01 X190.374 Y151.683
G01 X189.798 Y151.819
G01 X189.330 Y151.908
G01 X188.716 Y152.155
G01 X188.075 Y152.370
G01 X187.411 Y152.551
G01 X187.200 Y152.600
G01 X187.863 Y152.480
G01 X188.508 Y152.326
G01 X189.132 Y152.140
G01 X189.734 Y151.922
G01 X190.313 Y151.676
G01 X190.831 Y151.420
G01 X191.386 Y151.325
G01 X191.933 Y151.204
G01 X192.471 Y151.056
G01 X193.000 Y150.882
G01 X193.518 Y150.683
G01 X194.023 Y150.460
G01 X194.463 Y150.240
G01 X195.027 Y150.144
G01 X195.592 Y150.017
G01 X196.157 Y149.859
G01 X196.719 Y149.669
G01 X197.278 Y149.447
G01 X197.831 Y149.194
G01 X198.094 Y149.060
G01 X198.771 Y148.898
G01 X199.451 Y148.691
G01 X200.131 Y148.437
G01 X200.515 Y148.274
G01 X199.857 Y148.572
G01 X199.196 Y148.826
G01 X198.535 Y149.036
G01 X197.875 Y149.203
G01 X197.319 Y149.312
G01 X196.767 Y149.537
G01 X196.210 Y149.731
G01 X195.650 Y149.894
G01 X195.189 Y150.004
G01 X195.317 Y151.613
G01 X195.299 Y153.255
G01 X195.189 Y154.484
G01 X195.189 Y155.604
G01 X196.233 Y156.066
G01 X197.335 Y156.460
G01 X198.489 Y156.784
G01 X199.450 Y156.989
G01 X200.515 Y157.335
G01 X201.192 Y156.561
G01 X201.820 Y155.763
G01 X202.396 Y154.943
G01 X202.921 Y154.106
G01 X203.148 Y153.710
G01 X203.704 Y152.953
G01 X203.806 Y152.804
G01 X201.891 Y149.989
G01 X200.515 Y148.274
G01 X202.688 Y151.033
G01 X204.255 Y153.422
G01 X208.476 Y159.192
G01 X208.744 Y159.600
G01 X205.452 Y155.070
G01 X204.414 Y155.508
G01 X203.370 Y155.881
G01 X202.325 Y156.190
G01 X201.282 Y156.435
G01 X201.191 Y156.454
G01 X200.238 Y156.767
G01 X200.126 Y156.800
G01 X200.269 Y159.098
G01 X200.209 Y161.447
G01 X200.126 Y162.400
G01 X201.842 Y163.103
G01 X203.649 Y163.688
G01 X205.452 Y164.130
G01 X206.392 Y163.026
G01 X207.261 Y161.889
G01 X208.059 Y160.722
G01 X208.744 Y159.600
G01 X208.005 Y160.780
G01 X207.196 Y161.934
G01 X206.316 Y163.058
G01 X205.751 Y163.719
G01 X204.914 Y165.042
G01 X203.983 Y166.340
G01 X202.961 Y167.605
G01 X202.759 Y167.837
G01 X201.743 Y169.342
G01 X200.609 Y170.812
G01 X200.515 Y170.926
G01 X201.683 Y169.522
G01 X202.739 Y168.079
G01 X203.682 Y166.606
G01 X203.806 Y166.396
G01 X200.515 Y161.865
G01 X199.421 Y162.335
G01 X198.306 Y162.750
G01 X197.173 Y163.109
G01 X196.025 Y163.412
G01 X195.189 Y163.596
G01 X195.189 Y169.196
G01 X196.832 Y169.855
G01 X198.553 Y170.421
G01 X200.344 Y170.888
G01 X200.515 Y170.926
G01 X198.725 Y170.497
G01 X197.003 Y169.969
G01 X195.355 Y169.348
G01 X194.463 Y168.960
G01 X192.978 Y168.584
G01 X191.541 Y168.133
G01 X190.156 Y167.612
G01 X189.621 Y167.387
G01 X188.299 Y166.989
G01 X187.200 Y166.600
G01 X188.485 Y167.134
G01 X189.815 Y167.605
G01 X191.188 Y168.010
G01 X192.526 Y168.330
G01 X193.736 Y166.901
G01 X194.813 Y165.425
G01 X195.755 Y163.911
G01 X195.818 Y163.800
G01 X194.212 Y161.825
G01 X192.815 Y159.754
G01 X192.526 Y159.270
G01 X191.601 Y159.665
G01 X190.644 Y160.016
G01 X189.656 Y160.320
G01 X188.640 Y160.574
G01 X188.265 Y160.654
G01 X187.200 Y161.000
G01 X187.200 Y166.600
G01 X187.084 Y158.787
G01 X187.200 Y156.418
G01 X187.198 Y152.651
G01 X187.200 Y152.600
G01 X187.863 Y152.480
G01 X188.508 Y152.326
G01 X189.132 Y152.140
G01 X189.734 Y151.922
G01 X190.313 Y151.676
G01 X190.831 Y151.420
G01 X191.386 Y151.325
G01 X191.933 Y151.204
G01 X192.471 Y151.056
G01 X193.000 Y150.882
G01 X193.518 Y150.683
G01 X194.023 Y150.460
G01 X194.463 Y150.240
G01 X195.027 Y150.144
G01 X195.592 Y150.017
G01 X196.157 Y149.859
G01 X196.719 Y149.669
G01 X197.278 Y149.447
G01 X197.831 Y149.194
G01 X198.094 Y149.060
G01 X198.771 Y148.898
G01 X199.451 Y148.691
G01 X200.131 Y148.437
G01 X200.515 Y148.274
G01 X203.066 Y149.281
G01 X205.737 Y150.054
G01 X206.567 Y150.240
G01 X211.829 Y152.054
G01 X213.830 Y152.600
G01 X214.709 Y151.551
G01 X215.543 Y150.446
G01 X216.327 Y149.287
G01 X216.822 Y148.481
G01 X217.796 Y147.310
G01 X218.718 Y146.064
G01 X219.584 Y144.744
G01 X219.814 Y144.363
G01 X220.896 Y142.982
G01 X221.911 Y141.505
G01 X222.059 Y141.274
G01 X221.053 Y139.709
G01 X219.974 Y138.246
G01 X219.066 Y137.155
G01 X218.233 Y135.830
G01 X217.341 Y134.579
G01 X216.396 Y133.405
G01 X216.074 Y133.036
G01 X215.320 Y131.887
G01 X214.518 Y130.795
G01 X213.830 Y129.948
G01 X205.162 Y132.708
G01 X204.146 Y133.094
G01 X200.515 Y134.274
G01 X200.605 Y134.883
G01 X200.661 Y135.486
G01 X200.684 Y136.083
G01 X200.674 Y136.671
G01 X200.633 Y137.248
G01 X200.562 Y137.813
G01 X200.515 Y138.092
G01 X200.596 Y138.610
G01 X200.651 Y139.132
G01 X200.681 Y139.655
G01 X200.685 Y140.180
G01 X200.664 Y140.704
G01 X200.616 Y141.226
G01 X200.543 Y141.746
G01 X200.515 Y141.910
G01 X200.601 Y142.469
G01 X200.658 Y143.040
G01 X200.683 Y143.623
G01 X200.677 Y144.216
G01 X200.637 Y144.816
G01 X200.564 Y145.423
G01 X200.515 Y145.728
G01 X200.572 Y146.451
G01 X200.583 Y147.194
G01 X200.545 Y147.952
G01 X200.515 Y148.274
G01 X202.981 Y149.220
G01 X205.561 Y149.941
G01 X205.841 Y150.004
G01 X206.462 Y149.300
G01 X207.053 Y148.558
G01 X207.610 Y147.780
G01 X208.131 Y146.969
G01 X208.474 Y146.380
G01 X209.076 Y145.556
G01 X209.132 Y145.474
G01 X208.434 Y144.308
G01 X207.670 Y143.224
G01 X206.846 Y142.226
G01 X206.499 Y141.849
G01 X205.881 Y140.994
G01 X205.841 Y140.943
G01 X204.350 Y141.564
G01 X202.840 Y142.041
G01 X201.580 Y142.328
G01 X200.548 Y142.665
G01 X200.515 Y142.674
G01 X200.591 Y143.254
G01 X200.634 Y143.848
G01 X200.645 Y144.454
G01 X200.621 Y145.070
G01 X200.562 Y145.694
G01 X200.515 Y146.034
G01 X200.562 Y146.771
G01 X200.562 Y147.527
G01 X200.515 Y148.274
G01 X200.613 Y147.538
G01 X200.665 Y146.814
G01 X200.673 Y146.103
G01 X200.637 Y145.408
G01 X200.559 Y144.731
G01 X200.515 Y144.456
G01 X200.601 Y143.890
G01 X200.657 Y143.327
G01 X200.684 Y142.768
G01 X200.682 Y142.215
G01 X200.651 Y141.668
G01 X200.593 Y141.130
G01 X200.515 Y140.637
G01 X200.596 Y140.121
G01 X200.652 Y139.599
G01 X200.681 Y139.071
G01 X200.685 Y138.540
G01 X200.662 Y138.006
G01 X200.612 Y137.471
G01 X200.535 Y136.936
G01 X200.515 Y136.819
G01 X200.569 Y136.228
G01 X200.590 Y135.623
G01 X200.576 Y135.008
G01 X200.527 Y134.384
G01 X200.515 Y134.274
G01 X200.593 Y134.889
G01 X200.636 Y135.497
G01 X200.645 Y136.097
G01 X200.622 Y136.687
G01 X200.567 Y137.265
G01 X200.515 Y137.634
G01 X200.558 Y138.163
G01 X200.574 Y138.691
G01 X200.564 Y139.216
G01 X200.529 Y139.737
G01 X200.515 Y139.874
G01 X202.857 Y140.477
G01 X205.159 Y141.309
G01 X205.841 Y141.604
G01 X206.522 Y140.857
G01 X207.167 Y140.047
G01 X207.771 Y139.176
G01 X208.329 Y138.246
G01 X208.474 Y137.980
G01 X209.132 Y137.074
G01 X208.625 Y136.208
G01 X208.079 Y135.385
G01 X207.499 Y134.606
G01 X206.886 Y133.872
G01 X206.499 Y133.449
G01 X205.982 Y132.728
G01 X205.841 Y132.543
G01 X201.371 Y133.949
G01 X200.515 Y134.274
G01 X205.740 Y132.405
G01 X208.988 Y131.521
G01 X213.830 Y129.948
G01 X208.504 Y131.678
G01 X208.598 Y132.710
G01 X208.636 Y133.731
G01 X208.620 Y134.739
G01 X208.551 Y135.729
G01 X208.504 Y136.158
G01 X208.508 Y137.096
G01 X208.504 Y137.278
G01 X211.022 Y137.955
G01 X213.513 Y138.873
G01 X213.830 Y139.009
G01 X214.927 Y137.734
G01 X215.954 Y136.349
G01 X216.902 Y134.858
G01 X217.121 Y134.478
G01 X216.382 Y133.265
G01 X215.591 Y132.111
G01 X214.751 Y131.018
G01 X213.866 Y129.988
G01 X213.830 Y129.948
G01 X214.703 Y130.980
G01 X215.531 Y132.074
G01 X216.310 Y133.228
G01 X216.822 Y134.066
G01 X217.821 Y135.263
G01 X218.765 Y136.545
G01 X219.648 Y137.907
G01 X219.814 Y138.185
G01 X220.949 Y139.637
G01 X222.010 Y141.197
G01 X222.059 Y141.274
G01 X221.074 Y139.709
G01 X220.015 Y138.243
G01 X218.889 Y136.881
G01 X218.767 Y136.743
G01 X213.441 Y138.474
G01 X213.550 Y139.625
G01 X213.603 Y140.783
G01 X213.598 Y141.945
G01 X213.536 Y143.109
G01 X213.441 Y144.074
G01 X218.767 Y145.804
G01 X219.851 Y144.512
G01 X220.875 Y143.127
G01 X221.833 Y141.651
G01 X222.059 Y141.274
G01 X221.145 Y142.773
G01 X220.163 Y144.186
G01 X219.120 Y145.509
G01 X218.318 Y146.422
G01 X217.526 Y147.680
G01 X216.680 Y148.876
G01 X215.783 Y150.008
G01 X215.326 Y150.541
G01 X214.549 Y151.662
G01 X213.830 Y152.600
G01 X214.721 Y151.557
G01 X215.568 Y150.456
G01 X216.365 Y149.300
G01 X217.109 Y148.091
G01 X217.121 Y148.070
G01 X216.070 Y146.383
G01 X214.922 Y144.819
G01 X213.830 Y143.539
G01 X211.831 Y144.346
G01 X209.814 Y144.967
G01 X208.504 Y145.270
G01 X208.598 Y146.298
G01 X208.636 Y147.349
G01 X208.614 Y148.418
G01 X208.531 Y149.502
G01 X208.504 Y149.750
G01 X208.504 Y150.870
G01 X213.830 Y152.600
G01 X208.487 Y150.968
G01 X206.567 Y150.240
G01 X203.864 Y149.540
G01 X201.275 Y148.603
G01 X200.515 Y148.274
G01 X200.613 Y147.538
G01 X200.665 Y146.814
G01 X200.673 Y146.103
G01 X200.637 Y145.408
G01 X200.559 Y144.731
G01 X200.515 Y144.456
G01 X200.601 Y143.890
G01 X200.657 Y143.327
G01 X200.684 Y142.768
G01 X200.682 Y142.215
G01 X200.651 Y141.668
G01 X200.593 Y141.130
G01 X200.515 Y140.637
G01 X200.596 Y140.121
G01 X200.652 Y139.599
G01 X200.681 Y139.071
G01 X200.685 Y138.540
G01 X200.662 Y138.006
G01 X200.612 Y137.471
G01 X200.535 Y136.936
G01 X200.515 Y136.819
G01 X200.569 Y136.228
G01 X200.590 Y135.623
G01 X200.576 Y135.008
G01 X200.527 Y134.384
G01 X200.515 Y134.274
G01 X201.736 Y132.841
G01 X202.838 Y131.276
G01 X203.507 Y130.155
G01 X205.743 Y127.297
G01 X207.248 Y125.007
G01 X208.744 Y122.948
G01 X208.073 Y121.859
G01 X207.339 Y120.797
G01 X206.545 Y119.763
G01 X205.751 Y118.829
G01 X205.001 Y117.623
G01 X204.169 Y116.441
G01 X203.257 Y115.288
G01 X202.759 Y114.710
G01 X201.846 Y113.341
G01 X200.829 Y112.003
G01 X200.515 Y111.621
G01 X198.820 Y112.056
G01 X197.194 Y112.587
G01 X195.673 Y113.194
G01 X194.255 Y113.543
G01 X192.886 Y113.964
G01 X191.568 Y114.454
G01 X190.831 Y114.768
G01 X189.598 Y115.097
G01 X188.398 Y115.486
G01 X187.236 Y115.932
G01 X187.200 Y115.948
G01 X187.085 Y122.490
G01 X187.200 Y124.857
G01 X187.091 Y127.683
G01 X187.200 Y129.948
G01 X187.751 Y130.063
G01 X188.284 Y130.208
G01 X188.797 Y130.381
G01 X189.289 Y130.580
G01 X189.621 Y130.734
G01 X190.075 Y130.824
G01 X190.520 Y130.937
G01 X190.953 Y131.070
G01 X191.375 Y131.224
G01 X191.784 Y131.398
G01 X192.042 Y131.521
G01 X192.464 Y131.603
G01 X192.882 Y131.707
G01 X193.297 Y131.831
G01 X193.706 Y131.976
G01 X194.108 Y132.142
G01 X194.463 Y132.307
G01 X194.923 Y132.399
G01 X195.386 Y132.517
G01 X195.848 Y132.663
G01 X196.309 Y132.836
G01 X196.766 Y133.037
G01 X196.883 Y133.094
G01 X197.494 Y133.185
G01 X198.111 Y133.321
G01 X198.733 Y133.501
G01 X199.355 Y133.727
G01 X199.976 Y133.998
G01 X200.515 Y134.274
G01 X201.680 Y132.875
G01 X202.730 Y131.350
G01 X203.148 Y130.649
G01 X203.806 Y129.743
G01 X203.379 Y129.002
G01 X202.912 Y128.278
G01 X202.406 Y127.574
G01 X201.861 Y126.892
G01 X201.280 Y126.233
G01 X201.173 Y126.119
G01 X200.636 Y125.371
G01 X200.515 Y125.213
G01 X199.288 Y125.479
G01 X198.113 Y125.828
G01 X196.997 Y126.255
G01 X196.254 Y126.597
G01 X195.353 Y126.883
G01 X195.189 Y126.943
G01 X195.329 Y128.298
G01 X195.350 Y129.633
G01 X195.255 Y130.939
G01 X195.189 Y131.423
G01 X195.200 Y132.287
G01 X195.189 Y132.543
G01 X195.691 Y132.622
G01 X196.198 Y132.732
G01 X196.708 Y132.874
G01 X197.218 Y133.050
G01 X197.726 Y133.259
G01 X198.231 Y133.501
G01 X198.384 Y133.582
G01 X199.058 Y133.746
G01 X199.736 Y133.961
G01 X200.413 Y134.229
G01 X200.515 Y134.274
G01 X199.898 Y133.962
G01 X199.277 Y133.696
G01 X198.655 Y133.476
G01 X198.033 Y133.301
G01 X197.417 Y133.172
G01 X196.883 Y133.094
G01 X196.427 Y132.885
G01 X195.967 Y132.705
G01 X195.505 Y132.552
G01 X195.042 Y132.427
G01 X194.581 Y132.328
G01 X194.463 Y132.307
G01 X194.066 Y132.123
G01 X193.663 Y131.960
G01 X193.253 Y131.817
G01 X192.838 Y131.695
G01 X192.419 Y131.593
G01 X192.042 Y131.521
G01 X191.641 Y131.335
G01 X191.228 Y131.168
G01 X190.802 Y131.021
G01 X190.364 Y130.895
G01 X189.916 Y130.790
G01 X189.621 Y130.734
G01 X189.144 Y130.518
G01 X188.646 Y130.327
G01 X188.127 Y130.162
G01 X187.588 Y130.025
G01 X187.200 Y129.948
G01 X187.745 Y130.037
G01 X188.275 Y130.154
G01 X188.787 Y130.300
G01 X189.281 Y130.471
G01 X189.755 Y130.667
G01 X190.208 Y130.886
G01 X190.396 Y130.986
G01 X190.831 Y131.080
G01 X191.259 Y131.194
G01 X191.678 Y131.329
G01 X192.086 Y131.484
G01 X192.483 Y131.658
G01 X192.526 Y131.678
G01 X193.618 Y129.894
G01 X194.890 Y128.201
G01 X195.818 Y127.148
G01 X195.370 Y126.396
G01 X194.862 Y125.659
G01 X194.294 Y124.940
G01 X193.843 Y124.429
G01 X193.221 Y123.506
G01 X192.526 Y122.617
G01 X191.643 Y122.799
G01 X190.783 Y123.026
G01 X189.951 Y123.294
G01 X189.146 Y123.603
G01 X188.371 Y123.950
G01 X188.265 Y124.001
G01 X187.504 Y124.240
G01 X187.200 Y124.348
G01 X187.071 Y127.267
G01 X187.200 Y129.948
G01 X187.041 Y126.924
G01 X187.173 Y123.867
G01 X187.200 Y123.584
G01 X187.172 Y116.519
G01 X187.200 Y115.948
G01 X187.200 Y121.548
G01 X188.141 Y121.750
G01 X189.056 Y121.999
G01 X189.941 Y122.293
G01 X190.795 Y122.630
G01 X191.461 Y122.932
G01 X192.274 Y123.189
G01 X192.526 Y123.278
G01 X193.767 Y121.320
G01 X195.206 Y119.449
G01 X195.818 Y118.748
G01 X195.010 Y117.393
G01 X194.084 Y116.069
G01 X193.039 Y114.785
G01 X192.526 Y114.217
G01 X191.239 Y114.513
G01 X189.987 Y114.871
G01 X188.773 Y115.290
G01 X187.601 Y115.767
G01 X187.200 Y115.948
G01 X188.359 Y115.465
G01 X189.558 Y115.039
G01 X190.795 Y114.673
G01 X192.042 Y114.374
G01 X193.385 Y113.826
G01 X194.786 Y113.349
G01 X196.242 Y112.949
G01 X196.883 Y112.801
G01 X198.506 Y112.203
G01 X200.204 Y111.701
G01 X200.515 Y111.621
G01 X198.826 Y112.037
G01 X197.205 Y112.548
G01 X195.655 Y113.148
G01 X195.189 Y113.352
G01 X195.191 Y118.917
G01 X195.189 Y118.952
G01 X196.233 Y119.174
G01 X197.267 Y119.448
G01 X198.290 Y119.773
G01 X199.298 Y120.150
G01 X200.289 Y120.577
G01 X200.515 Y120.682
G01 X203.806 Y116.152
G01 X202.978 Y114.808
G01 X202.050 Y113.489
G01 X201.023 Y112.203
G01 X200.515 Y111.621
G01 X201.580 Y112.907
G01 X202.545 Y114.228
G01 X203.410 Y115.576
G01 X203.507 Y115.740
G01 X204.429 Y116.836
G01 X205.277 Y117.964
G01 X206.050 Y119.117
G01 X206.500 Y119.859
G01 X207.311 Y120.866
G01 X208.064 Y121.904
G01 X208.744 Y122.948
G01 X208.082 Y121.850
G01 X207.357 Y120.777
G01 X206.570 Y119.732
G01 X205.722 Y118.718
G01 X205.452 Y118.417
G01 X203.618 Y118.859
G01 X201.867 Y119.426
G01 X200.205 Y120.111
G01 X200.126 Y120.148
G01 X200.285 Y122.068
G01 X200.282 Y123.954
G01 X200.126 Y125.748
G01 X201.061 Y125.947
G01 X201.999 Y126.206
G01 X202.938 Y126.523
G01 X203.875 Y126.899
G01 X204.387 Y127.132
G01 X205.452 Y127.478
G01 X208.308 Y123.612
G01 X208.744 Y122.948
G01 X206.313 Y126.561
G01 X204.255 Y129.125
G01 X203.030 Y131.036
G01 X201.656 Y132.797
G01 X201.263 Y133.244
G01 X200.515 Y134.274
G01 X199.898 Y133.962
G01 X199.277 Y133.696
G01 X198.655 Y133.476
G01 X198.033 Y133.301
G01 X197.417 Y133.172
G01 X196.883 Y133.094
G01 X196.427 Y132.885
G01 X195.967 Y132.705
G01 X195.505 Y132.552
G01 X195.042 Y132.427
G01 X194.581 Y132.328
G01 X194.463 Y132.307
G01 X194.066 Y132.123
G01 X193.663 Y131.960
G01 X193.253 Y131.817
G01 X192.838 Y131.695
G01 X192.419 Y131.593
G01 X192.042 Y131.521
G01 X191.641 Y131.335
G01 X191.228 Y131.168
G01 X190.802 Y131.021
G01 X190.364 Y130.895
G01 X189.916 Y130.790
G01 X189.621 Y130.734
G01 X189.144 Y130.518
G01 X188.646 Y130.327
G01 X188.127 Y130.162
G01 X187.588 Y130.025
G01 X187.200 Y129.948
G01 X186.062 Y128.146
G01 X184.742 Y126.436
G01 X184.208 Y125.829
G01 X181.569 Y121.956
G01 X179.719 Y119.651
G01 X178.971 Y118.621
G01 X177.772 Y118.906
G01 X176.574 Y119.258
G01 X175.382 Y119.677
G01 X174.199 Y120.163
G01 X174.129 Y120.194
G01 X172.761 Y120.528
G01 X171.389 Y120.949
G01 X170.017 Y121.459
G01 X169.288 Y121.768
G01 X167.680 Y122.218
G01 X166.069 Y122.784
G01 X165.656 Y122.948
G01 X165.548 Y124.603
G01 X165.542 Y126.227
G01 X165.635 Y127.813
G01 X165.656 Y128.038
G01 X165.552 Y129.443
G01 X165.527 Y130.829
G01 X165.577 Y132.191
G01 X165.656 Y133.129
G01 X165.590 Y134.388
G01 X165.589 Y135.636
G01 X165.650 Y136.871
G01 X165.656 Y136.948
G01 X169.860 Y138.473
G01 X172.919 Y139.307
G01 X175.013 Y140.128
G01 X177.142 Y140.742
G01 X177.761 Y140.880
G01 X178.971 Y141.274
G01 X179.304 Y140.706
G01 X179.664 Y140.174
G01 X180.051 Y139.679
G01 X180.460 Y139.222
G01 X180.467 Y139.214
G01 X180.713 Y138.774
G01 X180.979 Y138.355
G01 X181.264 Y137.959
G01 X181.564 Y137.587
G01 X181.880 Y137.240
G01 X181.963 Y137.155
G01 X182.165 Y136.786
G01 X182.384 Y136.429
G01 X182.618 Y136.086
G01 X182.868 Y135.758
G01 X183.132 Y135.444
G01 X183.409 Y135.147
G01 X183.460 Y135.096
G01 X183.655 Y134.737
G01 X183.870 Y134.385
G01 X184.104 Y134.042
G01 X184.357 Y133.708
G01 X184.629 Y133.385
G01 X184.919 Y133.074
G01 X184.956 Y133.036
G01 X185.187 Y132.619
G01 X185.447 Y132.207
G01 X185.737 Y131.804
G01 X186.055 Y131.410
G01 X186.402 Y131.029
G01 X186.452 Y130.977
G01 X186.786 Y130.480
G01 X187.161 Y129.995
G01 X187.200 Y129.948
G01 X186.040 Y128.081
G01 X184.692 Y126.308
G01 X183.908 Y125.417
G01 X183.124 Y125.574
G01 X182.341 Y125.773
G01 X181.561 Y126.015
G01 X180.786 Y126.299
G01 X180.019 Y126.626
G01 X179.648 Y126.801
G01 X178.793 Y127.072
G01 X178.582 Y127.148
G01 X178.458 Y128.225
G01 X178.410 Y129.283
G01 X178.438 Y130.316
G01 X178.537 Y131.320
G01 X178.582 Y131.628
G01 X178.573 Y132.454
G01 X178.582 Y132.748
G01 X180.369 Y133.197
G01 X182.080 Y133.802
G01 X182.843 Y134.132
G01 X183.897 Y134.474
G01 X183.908 Y134.478
G01 X184.094 Y134.093
G01 X184.303 Y133.714
G01 X184.536 Y133.340
G01 X184.791 Y132.975
G01 X185.069 Y132.619
G01 X185.370 Y132.274
G01 X185.693 Y131.941
G01 X185.883 Y131.760
G01 X186.166 Y131.281
G01 X186.487 Y130.810
G01 X186.845 Y130.351
G01 X187.200 Y129.948
G01 X186.805 Y130.383
G01 X186.446 Y130.833
G01 X186.123 Y131.293
G01 X185.837 Y131.763
G01 X185.704 Y132.007
G01 X185.388 Y132.345
G01 X185.094 Y132.694
G01 X184.823 Y133.053
G01 X184.576 Y133.422
G01 X184.352 Y133.797
G01 X184.208 Y134.066
G01 X183.928 Y134.362
G01 X183.663 Y134.670
G01 X183.414 Y134.991
G01 X183.181 Y135.324
G01 X182.965 Y135.667
G01 X182.766 Y136.021
G01 X182.711 Y136.125
G01 X182.418 Y136.435
G01 X182.139 Y136.765
G01 X181.873 Y137.113
G01 X181.623 Y137.480
G01 X181.390 Y137.864
G01 X181.215 Y138.185
G01 X180.857 Y138.574
G01 X180.516 Y138.995
G01 X180.195 Y139.445
G01 X179.896 Y139.925
G01 X179.719 Y140.244
G01 X179.304 Y140.780
G01 X178.971 Y141.274
G01 X179.268 Y140.708
G01 X179.594 Y140.175
G01 X179.945 Y139.675
G01 X180.320 Y139.211
G01 X180.715 Y138.782
G01 X180.946 Y138.555
G01 X181.182 Y138.145
G01 X181.437 Y137.755
G01 X181.708 Y137.385
G01 X181.995 Y137.036
G01 X182.263 Y136.743
G01 X181.562 Y135.950
G01 X180.923 Y135.082
G01 X180.351 Y134.142
G01 X180.288 Y134.025
G01 X179.250 Y132.636
G01 X178.971 Y132.213
G01 X178.061 Y132.420
G01 X177.146 Y132.698
G01 X176.231 Y133.049
G01 X175.775 Y133.251
G01 X174.591 Y133.595
G01 X173.645 Y133.943
G01 X173.550 Y134.811
G01 X173.501 Y135.673
G01 X173.496 Y136.527
G01 X173.535 Y137.371
G01 X173.616 Y138.203
G01 X173.645 Y138.423
G01 X173.637 Y139.230
G01 X173.645 Y139.543
G01 X175.630 Y140.304
G01 X177.646 Y140.869
G01 X177.906 Y140.928
G01 X178.971 Y141.274
G01 X177.176 Y140.846
G01 X175.400 Y140.245
G01 X174.129 Y139.701
G01 X170.574 Y138.678
G01 X168.077 Y137.734
G01 X165.656 Y136.948
G01 X170.375 Y138.512
G01 X170.982 Y138.678
G01 X171.494 Y137.797
G01 X172.046 Y136.963
G01 X172.634 Y136.178
G01 X173.255 Y135.442
G01 X173.615 Y135.054
G01 X174.123 Y134.343
G01 X174.274 Y134.148
G01 X173.043 Y132.723
G01 X171.918 Y131.166
G01 X170.982 Y129.617
G01 X169.332 Y130.000
G01 X167.676 Y130.520
G01 X166.024 Y131.181
G01 X165.656 Y131.348
G01 X165.543 Y132.637
G01 X165.497 Y133.917
G01 X165.518 Y135.184
G01 X165.602 Y136.434
G01 X165.656 Y136.948
G01 X165.558 Y135.708
G01 X165.524 Y134.452
G01 X165.555 Y133.182
G01 X165.652 Y131.902
G01 X165.656 Y131.857
G01 X165.553 Y130.464
G01 X165.528 Y129.043
G01 X165.586 Y127.596
G01 X165.656 Y126.766
G01 X165.589 Y125.133
G01 X165.624 Y123.462
G01 X165.656 Y122.948
G01 X165.532 Y124.593
G01 X165.510 Y126.208
G01 X165.585 Y127.788
G01 X165.656 Y128.548
G01 X170.982 Y130.278
G01 X171.528 Y129.383
G01 X172.115 Y128.518
G01 X172.743 Y127.684
G01 X173.409 Y126.885
G01 X173.615 Y126.654
G01 X174.227 Y125.809
G01 X174.274 Y125.748
G01 X170.982 Y121.217
G01 X169.432 Y121.590
G01 X167.875 Y122.071
G01 X166.317 Y122.663
G01 X165.656 Y122.948
G01 X167.228 Y122.321
G01 X168.801 Y121.807
G01 X170.368 Y121.403
G01 X170.498 Y121.374
G01 X171.811 Y120.836
G01 X173.130 Y120.381
G01 X174.448 Y120.008
G01 X175.340 Y119.801
G01 X176.508 Y119.351
G01 X177.685 Y118.966
G01 X178.867 Y118.646
G01 X178.971 Y118.621
G01 X177.765 Y118.894
G01 X176.559 Y119.235
G01 X175.358 Y119.643
G01 X174.165 Y120.121
G01 X173.645 Y120.352
G01 X173.497 Y122.045
G01 X173.475 Y123.703
G01 X173.573 Y125.318
G01 X173.645 Y125.952
G01 X175.722 Y126.463
G01 X177.707 Y127.142
G01 X178.971 Y127.682
G01 X179.402 Y126.925
G01 X179.881 Y126.182
G01 X180.408 Y125.454
G01 X180.982 Y124.746
G01 X181.603 Y124.059
G01 X181.604 Y124.058
G01 X182.197 Y123.236
G01 X182.263 Y123.152
G01 X178.971 Y118.621
G01 X182.216 Y122.901
G01 X183.460 Y124.799
G01 X185.087 Y126.838
G01 X186.452 Y128.918
G01 X187.200 Y129.948
G01 X186.805 Y130.383
G01 X186.446 Y130.833
G01 X186.123 Y131.293
G01 X185.837 Y131.763
G01 X185.704 Y132.007
G01 X185.388 Y132.345
G01 X185.094 Y132.694
G01 X184.823 Y133.053
G01 X184.576 Y133.422
G01 X184.352 Y133.797
G01 X184.208 Y134.066
G01 X183.928 Y134.362
G01 X183.663 Y134.670
G01 X183.414 Y134.991
G01 X183.181 Y135.324
G01 X182.965 Y135.667
G01 X182.766 Y136.021
G01 X182.711 Y136.125
G01 X182.418 Y136.435
G01 X182.139 Y136.765
G01 X181.873 Y137.113
G01 X181.623 Y137.480
G01 X181.390 Y137.864
G01 X181.215 Y138.185
G01 X180.857 Y138.574
G01 X180.516 Y138.995
G01 X180.195 Y139.445
G01 X179.896 Y139.925
G01 X179.719 Y140.244
G01 X179.304 Y140.780
G01 X178.971 Y141.274
G01 X174.541 Y142.559
G01 X171.708 Y143.634
G01 X165.656 Y145.600
G01 X165.556 Y146.902
G01 X165.525 Y148.227
G01 X165.567 Y149.572
G01 X165.656 Y150.691
G01 X165.550 Y152.202
G01 X165.536 Y153.748
G01 X165.615 Y155.324
G01 X165.656 Y155.782
G01 X165.590 Y157.584
G01 X165.645 Y159.428
G01 X165.656 Y159.600
G01 X167.256 Y160.229
G01 X168.858 Y160.750
G01 X170.455 Y161.163
G01 X170.498 Y161.173
G01 X171.876 Y161.726
G01 X173.260 Y162.196
G01 X174.647 Y162.583
G01 X175.340 Y162.746
G01 X176.598 Y163.222
G01 X177.868 Y163.629
G01 X178.971 Y163.926
G01 X181.886 Y160.148
G01 X183.460 Y157.748
G01 X185.060 Y155.748
G01 X186.446 Y153.640
G01 X186.452 Y153.630
G01 X187.200 Y152.600
G01 X186.689 Y152.071
G01 X186.222 Y151.522
G01 X185.801 Y150.958
G01 X185.426 Y150.381
G01 X185.097 Y149.795
G01 X184.956 Y149.511
G01 X184.568 Y149.129
G01 X184.206 Y148.732
G01 X183.869 Y148.322
G01 X183.559 Y147.901
G01 X183.275 Y147.469
G01 X183.017 Y147.028
G01 X182.786 Y146.581
G01 X182.711 Y146.422
G01 X182.367 Y146.087
G01 X182.038 Y145.734
G01 X181.725 Y145.363
G01 X181.429 Y144.975
G01 X181.152 Y144.571
G01 X180.894 Y144.151
G01 X180.656 Y143.718
G01 X180.467 Y143.333
G01 X180.102 Y142.924
G01 X179.754 Y142.488
G01 X179.426 Y142.024
G01 X179.119 Y141.533
G01 X178.971 Y141.274
G01 X175.033 Y142.478
G01 X173.645 Y143.004
G01 X173.550 Y143.865
G01 X173.501 Y144.742
G01 X173.499 Y145.632
G01 X173.545 Y146.535
G01 X173.640 Y147.446
G01 X173.645 Y147.484
G01 X173.641 Y148.480
G01 X173.645 Y148.604
G01 X174.660 Y149.058
G01 X175.679 Y149.433
G01 X176.697 Y149.732
G01 X177.708 Y149.954
G01 X177.906 Y149.989
G01 X178.742 Y150.268
G01 X178.971 Y150.335
G01 X180.340 Y148.200
G01 X181.888 Y146.228
G01 X182.263 Y145.804
G01 X181.924 Y145.460
G01 X181.601 Y145.096
G01 X181.295 Y144.714
G01 X181.006 Y144.314
G01 X180.735 Y143.897
G01 X180.484 Y143.464
G01 X180.288 Y143.086
G01 X179.923 Y142.665
G01 X179.578 Y142.216
G01 X179.252 Y141.739
G01 X178.971 Y141.274
G01 X179.228 Y141.783
G01 X179.508 Y142.271
G01 X179.809 Y142.735
G01 X180.130 Y143.176
G01 X180.470 Y143.592
G01 X180.826 Y143.982
G01 X181.197 Y144.346
G01 X181.215 Y144.363
G01 X181.428 Y144.795
G01 X181.662 Y145.217
G01 X181.917 Y145.628
G01 X182.193 Y146.026
G01 X182.488 Y146.410
G01 X182.801 Y146.780
G01 X183.133 Y147.135
G01 X183.460 Y147.452
G01 X183.699 Y147.933
G01 X183.970 Y148.408
G01 X184.272 Y148.876
G01 X184.606 Y149.333
G01 X184.972 Y149.779
G01 X185.369 Y150.210
G01 X185.704 Y150.541
G01 X186.079 Y151.158
G01 X186.504 Y151.763
G01 X186.980 Y152.353
G01 X187.200 Y152.600
G01 X186.694 Y152.052
G01 X186.234 Y151.486
G01 X185.821 Y150.905
G01 X185.457 Y150.311
G01 X185.225 Y149.882
G01 X184.849 Y149.446
G01 X184.505 Y148.998
G01 X184.191 Y148.539
G01 X183.909 Y148.071
G01 X183.908 Y148.070
G01 X182.906 Y148.496
G01 X181.849 Y148.842
G01 X180.742 Y149.102
G01 X180.713 Y149.108
G01 X179.150 Y149.643
G01 X178.582 Y149.800
G01 X178.460 Y150.933
G01 X178.423 Y152.100
G01 X178.475 Y153.295
G01 X178.582 Y154.280
G01 X178.582 Y155.400
G01 X179.459 Y155.781
G01 X180.345 Y156.114
G01 X181.239 Y156.398
G01 X182.136 Y156.633
G01 X182.843 Y156.784
G01 X183.693 Y157.066
G01 X183.908 Y157.130
G01 X185.363 Y155.393
G01 X186.632 Y153.559
G01 X187.200 Y152.600
G01 X186.044 Y154.420
G01 X184.704 Y156.153
G01 X184.208 Y156.719
G01 X181.861 Y160.224
G01 X179.719 Y162.897
G01 X178.971 Y163.926
G01 X182.072 Y159.686
G01 X182.263 Y159.396
G01 X181.523 Y158.549
G01 X180.847 Y157.678
G01 X180.236 Y156.787
G01 X179.689 Y155.879
G01 X179.629 Y155.771
G01 X179.055 Y154.988
G01 X178.971 Y154.865
G01 X177.187 Y155.606
G01 X175.307 Y156.205
G01 X173.645 Y156.596
G01 X173.503 Y158.471
G01 X173.508 Y160.398
G01 X173.645 Y162.196
G01 X174.918 Y162.725
G01 X176.202 Y163.183
G01 X177.495 Y163.571
G01 X178.792 Y163.888
G01 X178.971 Y163.926
G01 X177.679 Y163.607
G01 X176.393 Y163.218
G01 X175.115 Y162.759
G01 X174.129 Y162.353
G01 X172.700 Y161.994
G01 X171.269 Y161.547
G01 X169.841 Y161.012
G01 X169.288 Y160.780
G01 X167.656 Y160.318
G01 X166.022 Y159.744
G01 X165.656 Y159.600
G01 X167.243 Y160.241
G01 X168.832 Y160.775
G01 X170.418 Y161.203
G01 X170.982 Y161.330
G01 X174.274 Y156.800
G01 X173.523 Y155.955
G01 X172.817 Y155.077
G01 X172.157 Y154.169
G01 X171.545 Y153.232
G01 X170.982 Y152.270
G01 X165.866 Y153.943
G01 X165.656 Y154.000
G01 X165.533 Y155.717
G01 X165.521 Y157.479
G01 X165.625 Y159.278
G01 X165.656 Y159.600
G01 X165.548 Y157.783
G01 X165.557 Y156.003
G01 X165.656 Y154.509
G01 X165.550 Y152.991
G01 X165.532 Y151.498
G01 X165.601 Y150.036
G01 X165.656 Y149.418
G01 X165.589 Y148.091
G01 X165.593 Y146.780
G01 X165.656 Y145.600
G01 X165.542 Y146.906
G01 X165.498 Y148.236
G01 X165.527 Y149.587
G01 X165.630 Y150.955
G01 X165.656 Y151.200
G01 X167.232 Y151.862
G01 X168.812 Y152.397
G01 X170.387 Y152.807
G01 X170.982 Y152.930
G01 X172.403 Y150.741
G01 X173.988 Y148.725
G01 X174.274 Y148.400
G01 X173.666 Y147.720
G01 X173.088 Y147.000
G01 X172.541 Y146.241
G01 X172.029 Y145.446
G01 X171.640 Y144.776
G01 X171.037 Y143.950
G01 X170.982 Y143.870
G01 X165.656 Y145.600
G01 X173.520 Y142.948
G01 X175.340 Y142.454
G01 X178.844 Y141.308
G01 X178.971 Y141.274
G01 X179.228 Y141.783
G01 X179.508 Y142.271
G01 X179.809 Y142.735
G01 X180.130 Y143.176
G01 X180.470 Y143.592
G01 X180.826 Y143.982
G01 X181.197 Y144.346
G01 X181.215 Y144.363
G01 X181.428 Y144.795
G01 X181.662 Y145.217
G01 X181.917 Y145.628
G01 X182.193 Y146.026
G01 X182.488 Y146.410
G01 X182.801 Y146.780
G01 X183.133 Y147.135
G01 X183.460 Y147.452
G01 X183.699 Y147.933
G01 X183.970 Y148.408
G01 X184.272 Y148.876
G01 X184.606 Y149.333
G01 X184.972 Y149.779
G01 X185.369 Y150.210
G01 X185.704 Y150.541
G01 X186.079 Y151.158
G01 X186.504 Y151.763
G01 X186.980 Y152.353
G01 X187.200 Y152.600
G01 X186.689 Y152.071
G01 X186.222 Y151.522
G01 X185.801 Y150.958
G01 X185.426 Y150.381
G01 X185.097 Y149.795
G01 X184.956 Y149.511
G01 X184.568 Y149.129
G01 X184.206 Y148.732
G01 X183.869 Y148.322
G01 X183.559 Y147.901
G01 X183.275 Y147.469
G01 X183.017 Y147.028
G01 X182.786 Y146.581
G01 X182.711 Y146.422
G01 X182.367 Y146.087
G01 X182.038 Y145.734
G01 X181.725 Y145.363
G01 X181.429 Y144.975
G01 X181.152 Y144.571
G01 X180.894 Y144.151
G01 X180.656 Y143.718
G01 X180.467 Y143.333
G01 X180.102 Y142.924
G01 X179.754 Y142.488
G01 X179.426 Y142.024
G01 X179.119 Y141.533
G01 X178.971 Y141.274
G01 X174.541 Y142.559
G01 X171.708 Y143.634
G01 X165.656 Y145.600
G01 X165.556 Y146.902
G01 X165.525 Y148.227
G01 X165.567 Y149.572
G01 X165.656 Y150.691
G01 X165.550 Y152.202
G01 X165.536 Y153.748
G01 X165.615 Y155.324
G01 X165.656 Y155.782
G01 X165.590 Y157.584
G01 X165.645 Y159.428
G01 X165.656 Y159.600
G01 X167.256 Y160.229
G01 X168.858 Y160.750
G01 X170.455 Y161.163
G01 X170.498 Y161.173
G01 X171.876 Y161.726
G01 X173.260 Y162.196
G01 X174.647 Y162.583
G01 X175.340 Y162.746
G01 X176.598 Y163.222
G01 X177.868 Y163.629
G01 X178.971 Y163.926
G01 X181.886 Y160.148
G01 X183.460 Y157.748
G01 X185.060 Y155.748
G01 X186.446 Y153.640
G01 X186.452 Y153.630
G01 X187.200 Y152.600
G01 X186.694 Y152.052
G01 X186.234 Y151.486
G01 X185.821 Y150.905
G01 X185.457 Y150.311
G01 X185.225 Y149.882
G01 X184.849 Y149.446
G01 X184.505 Y148.998
G01 X184.191 Y148.539
G01 X183.909 Y148.071
G01 X183.908 Y148.070
G01 X182.906 Y148.496
G01 X181.849 Y148.842
G01 X180.742 Y149.102
G01 X180.713 Y149.108
G01 X179.150 Y149.643
G01 X178.582 Y149.800
G01 X178.460 Y150.933
G01 X178.423 Y152.100
G01 X178.475 Y153.295
G01 X178.582 Y154.280
G01 X178.582 Y155.400
G01 X179.459 Y155.781
G01 X180.345 Y156.114
G01 X181.239 Y156.398
G01 X182.136 Y156.633
G01 X182.843 Y156.784
G01 X183.693 Y157.066
G01 X183.908 Y157.130
G01 X185.363 Y155.393
G01 X186.632 Y153.559
G01 X187.200 Y152.600
G01 X186.044 Y154.420
G01 X184.704 Y156.153
G01 X184.208 Y156.719
G01 X181.861 Y160.224
G01 X179.719 Y162.897
G01 X178.971 Y163.926
G01 X182.072 Y159.686
G01 X182.263 Y159.396
G01 X181.523 Y158.549
G01 X180.847 Y157.678
G01 X180.236 Y156.787
G01 X179.689 Y155.879
G01 X179.629 Y155.771
G01 X179.055 Y154.988
G01 X178.971 Y154.865
G01 X177.187 Y155.606
G01 X175.307 Y156.205
G01 X173.645 Y156.596
G01 X173.503 Y158.471
G01 X173.508 Y160.398
G01 X173.645 Y162.196
G01 X174.918 Y162.725
G01 X176.202 Y163.183
G01 X177.495 Y163.571
G01 X178.792 Y163.888
G01 X178.971 Y163.926
G01 X177.679 Y163.607
G01 X176.393 Y163.218
G01 X175.115 Y162.759
G01 X174.129 Y162.353
G01 X172.700 Y161.994
G01 X171.269 Y161.547
G01 X169.841 Y161.012
G01 X169.288 Y160.780
G01 X167.656 Y160.318
G01 X166.022 Y159.744
G01 X165.656 Y159.600
G01 X167.243 Y160.241
G01 X168.832 Y160.775
G01 X170.418 Y161.203
G01 X170.982 Y161.330
G01 X174.274 Y156.800
G01 X173.523 Y155.955
G01 X172.817 Y155.077
G01 X172.157 Y154.169
G01 X171.545 Y153.232
G01 X170.982 Y152.270
G01 X165.866 Y153.943
G01 X165.656 Y154.000
G01 X165.533 Y155.717
G01 X165.521 Y157.479
G01 X165.625 Y159.278
G01 X165.656 Y159.600
G01 X165.548 Y157.783
G01 X165.557 Y156.003
G01 X165.656 Y154.509
G01 X165.550 Y152.991
G01 X165.532 Y151.498
G01 X165.601 Y150.036
G01 X165.656 Y149.418
G01 X165.589 Y148.091
G01 X165.593 Y146.780
G01 X165.656 Y145.600
G01 X165.542 Y146.906
G01 X165.498 Y148.236
G01 X165.527 Y149.587
G01 X165.630 Y150.955
G01 X165.656 Y151.200
G01 X167.232 Y151.862
G01 X168.812 Y152.397
G01 X170.387 Y152.807
G01 X170.982 Y152.930
G01 X172.403 Y150.741
G01 X173.988 Y148.725
G01 X174.274 Y148.400
G01 X173.666 Y147.720
G01 X173.088 Y147.000
G01 X172.541 Y146.241
G01 X172.029 Y145.446
G01 X171.640 Y144.776
G01 X171.037 Y143.950
G01 X170.982 Y143.870
G01 X165.656 Y145.600
G01 X173.520 Y142.948
G01 X175.340 Y142.454
G01 X178.844 Y141.308
G01 X178.971 Y141.274
G01 X175.033 Y142.478
G01 X173.645 Y143.004
G01 X173.550 Y143.865
G01 X173.501 Y144.742
G01 X173.499 Y145.632
G01 X173.545 Y146.535
G01 X173.640 Y147.446
G01 X173.645 Y147.484
G01 X173.641 Y148.480
G01 X173.645 Y148.604
G01 X174.660 Y149.058
G01 X175.679 Y149.433
G01 X176.697 Y149.732
G01 X177.708 Y149.954
G01 X177.906 Y149.989
G01 X178.742 Y150.268
G01 X178.971 Y150.335
G01 X180.340 Y148.200
G01 X181.888 Y146.228
G01 X182.263 Y145.804
G01 X181.924 Y145.460
G01 X181.601 Y145.096
G01 X181.295 Y144.714
G01 X181.006 Y144.314
G01 X180.735 Y143.897
G01 X180.484 Y143.464
G01 X180.288 Y143.086
G01 X179.923 Y142.665
G01 X179.578 Y142.216
G01 X179.252 Y141.739
G01 X178.971 Y141.274
G01 X179.228 Y141.783
G01 X179.508 Y142.271
G01 X179.809 Y142.735
G01 X180.130 Y143.176
G01 X180.470 Y143.592
G01 X180.826 Y143.982
G01 X181.197 Y144.346
G01 X181.215 Y144.363
G01 X181.428 Y144.795
G01 X181.662 Y145.217
G01 X181.917 Y145.628
G01 X182.193 Y146.026
G01 X182.488 Y146.410
G01 X182.801 Y146.780
G01 X183.133 Y147.135
G01 X183.460 Y147.452
G01 X183.699 Y147.933
G01 X183.970 Y148.408
G01 X184.272 Y148.876
G01 X184.606 Y149.333
G01 X184.972 Y149.779
G01 X185.369 Y150.210
G01 X185.704 Y150.541
G01 X186.079 Y151.158
G01 X186.504 Y151.763
G01 X186.980 Y152.353
G01 X187.200 Y152.600
G01 X186.044 Y154.420
G01 X184.704 Y156.153
G01 X184.208 Y156.719
G01 X181.861 Y160.224
G01 X179.719 Y162.897
G01 X178.971 Y163.926
G01 X177.139 Y164.643
G01 X175.212 Y165.234
G01 X174.129 Y165.499
G01 X171.676 Y166.453
G01 X169.094 Y167.223
G01 X168.077 Y167.466
G01 X165.656 Y168.252
G01 X165.529 Y171.392
G01 X165.655 Y174.607
G01 X165.656 Y174.616
G01 X165.510 Y178.733
G01 X165.656 Y182.252
G01 X167.900 Y183.120
G01 X170.171 Y183.869
G01 X172.461 Y184.501
G01 X172.919 Y184.612
G01 X175.117 Y185.430
G01 X177.355 Y186.140
G01 X178.971 Y186.579
G01 X182.106 Y182.556
G01 X184.208 Y179.371
G01 X186.462 Y176.367
G01 X187.200 Y175.252
G01 X185.686 Y173.425
G01 X184.344 Y171.538
G01 X183.460 Y170.104
G01 X182.280 Y168.670
G01 X181.225 Y167.196
G01 X180.467 Y165.986
G01 X179.521 Y164.736
G01 X178.971 Y163.926
G01 X177.127 Y164.666
G01 X175.185 Y165.279
G01 X173.645 Y165.657
G01 X173.543 Y168.849
G01 X173.645 Y171.257
G01 X175.262 Y171.883
G01 X176.902 Y172.427
G01 X178.559 Y172.886
G01 X178.971 Y172.987
G01 X181.830 Y169.114
G01 X182.263 Y168.457
G01 X181.163 Y167.161
G01 X180.170 Y165.828
G01 X179.287 Y164.465
G01 X178.971 Y163.926
G01 X179.819 Y165.281
G01 X180.774 Y166.608
G01 X181.836 Y167.900
G01 X181.963 Y168.045
G01 X183.029 Y169.771
G01 X184.246 Y171.457
G01 X185.612 Y173.092
G01 X185.704 Y173.193
G01 X187.188 Y175.237
G01 X187.200 Y175.252
G01 X185.692 Y173.383
G01 X184.360 Y171.454
G01 X183.908 Y170.722
G01 X182.151 Y171.416
G01 X180.311 Y172.009
G01 X178.582 Y172.452
G01 X178.582 Y178.052
G01 X180.420 Y178.744
G01 X182.297 Y179.346
G01 X183.908 Y179.783
G01 X186.206 Y176.753
G01 X187.200 Y175.252
G01 X185.030 Y178.512
G01 X182.711 Y181.430
G01 X179.607 Y185.780
G01 X178.971 Y186.579
G01 X182.176 Y182.180
G01 X182.263 Y182.048
G01 X180.603 Y179.940
G01 X179.131 Y177.775
G01 X178.971 Y177.518
G01 X176.637 Y178.385
G01 X174.193 Y179.110
G01 X173.645 Y179.248
G01 X173.645 Y184.848
G01 X175.849 Y185.648
G01 X178.093 Y186.340
G01 X178.971 Y186.579
G01 X176.700 Y185.977
G01 X174.461 Y185.265
G01 X172.261 Y184.444
G01 X171.708 Y184.219
G01 X169.414 Y183.578
G01 X167.139 Y182.818
G01 X165.656 Y182.252
G01 X167.924 Y183.074
G01 X170.213 Y183.775
G01 X170.982 Y183.983
G01 X174.274 Y179.452
G01 X172.819 Y177.621
G01 X171.505 Y175.744
G01 X170.982 Y174.922
G01 X168.056 Y175.973
G01 X165.656 Y176.652
G01 X165.602 Y180.962
G01 X165.656 Y182.252
G01 X165.510 Y178.058
G01 X165.656 Y174.616
G01 X165.529 Y171.401
G01 X165.655 Y168.261
G01 X165.656 Y168.252
G01 X165.558 Y171.355
G01 X165.656 Y173.852
G01 X167.618 Y174.587
G01 X169.593 Y175.211
G01 X170.982 Y175.583
G01 X174.274 Y171.052
G01 X173.113 Y169.639
G01 X172.053 Y168.188
G01 X171.093 Y166.706
G01 X170.982 Y166.522
G01 X168.108 Y167.566
G01 X165.656 Y168.252
G01 X168.612 Y167.437
G01 X171.425 Y166.405
G01 X171.708 Y166.286
G01 X173.902 Y165.742
G01 X175.995 Y165.050
G01 X177.761 Y164.320
G01 X178.971 Y163.926
G01 X179.819 Y165.281
G01 X180.774 Y166.608
G01 X181.836 Y167.900
G01 X181.963 Y168.045
G01 X183.029 Y169.771
G01 X184.246 Y171.457
G01 X185.612 Y173.092
G01 X185.704 Y173.193
G01 X187.188 Y175.237
G01 X187.200 Y175.252
G01 X187.200 Y189.252
G01 X189.614 Y190.179
G01 X192.111 Y190.986
G01 X194.463 Y191.612
G01 X197.162 Y192.596
G01 X199.968 Y193.436
G01 X200.515 Y193.579
G01 X202.620 Y190.935
G01 X204.492 Y188.219
G01 X205.003 Y187.401
G01 X206.773 Y185.158
G01 X208.360 Y182.860
G01 X208.744 Y182.252
G01 X203.667 Y175.399
G01 X202.759 Y174.015
G01 X200.515 Y170.926
G01 X199.022 Y171.534
G01 X197.494 Y172.070
G01 X195.936 Y172.532
G01 X194.463 Y172.893
G01 X192.883 Y173.533
G01 X191.251 Y174.097
G01 X189.571 Y174.580
G01 X188.410 Y174.859
G01 X187.200 Y175.252
G01 X187.200 Y180.852
G01 X189.195 Y181.598
G01 X191.257 Y182.244
G01 X192.526 Y182.583
G01 X194.373 Y180.210
G01 X195.818 Y178.052
G01 X193.623 Y175.179
G01 X192.526 Y173.522
G01 X190.893 Y174.160
G01 X189.203 Y174.718
G01 X187.460 Y175.190
G01 X187.200 Y175.252
G01 X188.949 Y174.814
G01 X190.649 Y174.291
G01 X192.294 Y173.686
G01 X193.252 Y173.286
G01 X194.853 Y172.890
G01 X196.422 Y172.418
G01 X197.957 Y171.872
G01 X199.304 Y171.320
G01 X200.515 Y170.926
G01 X199.017 Y171.516
G01 X197.486 Y172.034
G01 X195.926 Y172.476
G01 X195.189 Y172.657
G01 X195.189 Y178.257
G01 X197.261 Y179.037
G01 X199.421 Y179.703
G01 X200.515 Y179.987
G01 X202.037 Y178.072
G01 X203.398 Y176.107
G01 X203.806 Y175.457
G01 X200.515 Y170.926
G01 X204.446 Y176.504
G01 X205.751 Y178.134
G01 X208.744 Y182.252
G01 X205.452 Y177.722
G01 X203.579 Y178.424
G01 X201.674 Y179.032
G01 X200.126 Y179.452
G01 X200.126 Y185.052
G01 X202.738 Y185.995
G01 X205.452 Y186.783
G01 X207.183 Y184.553
G01 X208.734 Y182.269
G01 X208.744 Y182.252
G01 X207.222 Y184.608
G01 X205.513 Y186.912
G01 X204.255 Y188.430
G01 X202.375 Y191.195
G01 X200.515 Y193.579
G01 X202.597 Y190.843
G01 X203.806 Y189.048
G01 X200.515 Y184.518
G01 X198.377 Y185.300
G01 X196.187 Y185.978
G01 X195.189 Y186.248
G01 X195.189 Y191.848
G01 X197.920 Y192.818
G01 X200.515 Y193.579
G01 X197.695 Y192.809
G01 X194.977 Y191.894
G01 X193.252 Y191.219
G01 X190.723 Y190.504
G01 X188.273 Y189.667
G01 X187.200 Y189.252
G01 X189.614 Y190.122
G01 X192.107 Y190.871
G01 X192.526 Y190.983
G01 X194.752 Y188.045
G01 X195.818 Y186.452
G01 X193.254 Y183.021
G01 X192.526 Y181.922
G01 X190.474 Y182.685
G01 X188.352 Y183.345
G01 X187.200 Y183.652
G01 X187.200 Y189.252
G01 X187.200 Y175.252
G01 X188.949 Y174.814
G01 X190.649 Y174.291
G01 X192.294 Y173.686
G01 X193.252 Y173.286
G01 X194.853 Y172.890
G01 X196.422 Y172.418
G01 X197.957 Y171.872
G01 X199.304 Y171.320
G01 X200.515 Y170.926
G01 X202.561 Y171.742
G01 X204.712 Y172.428
G01 X206.567 Y172.893
G01 X209.210 Y173.891
G01 X211.989 Y174.706
G01 X212.619 Y174.859
G01 X213.830 Y175.252
G01 X215.184 Y173.579
G01 X216.433 Y171.858
G01 X217.570 Y170.104
G01 X218.840 Y168.542
G01 X220.023 Y166.929
G01 X221.117 Y165.269
G01 X221.310 Y164.956
G01 X222.059 Y163.926
G01 X219.110 Y159.578
G01 X216.822 Y156.719
G01 X214.802 Y153.818
G01 X213.830 Y152.600
G01 X212.293 Y153.226
G01 X210.755 Y153.734
G01 X209.223 Y154.123
G01 X208.988 Y154.173
G01 X207.786 Y154.688
G01 X206.580 Y155.120
G01 X205.376 Y155.471
G01 X204.178 Y155.740
G01 X204.146 Y155.746
G01 X203.138 Y156.153
G01 X202.125 Y156.499
G01 X201.110 Y156.786
G01 X200.515 Y156.926
G01 X200.638 Y159.162
G01 X200.564 Y161.446
G01 X200.515 Y162.017
G01 X200.647 Y165.434
G01 X200.515 Y168.381
G01 X200.515 Y170.926
G01 X202.549 Y171.711
G01 X204.684 Y172.367
G01 X205.841 Y172.657
G01 X207.055 Y171.167
G01 X208.163 Y169.637
G01 X209.132 Y168.126
G01 X205.841 Y163.596
G01 X204.536 Y164.132
G01 X203.217 Y164.598
G01 X201.888 Y164.994
G01 X200.552 Y165.318
G01 X200.515 Y165.326
G01 X200.580 Y169.494
G01 X200.515 Y170.926
G01 X200.686 Y167.004
G01 X200.515 Y163.290
G01 X200.629 Y160.761
G01 X200.522 Y158.282
G01 X200.515 Y158.199
G01 X200.515 Y156.926
G01 X200.658 Y159.199
G01 X200.601 Y161.522
G01 X200.515 Y162.526
G01 X202.272 Y163.242
G01 X204.123 Y163.836
G01 X205.841 Y164.257
G01 X206.788 Y163.141
G01 X207.664 Y161.992
G01 X208.468 Y160.813
G01 X209.132 Y159.726
G01 X205.841 Y155.196
G01 X204.780 Y155.641
G01 X203.714 Y156.020
G01 X202.647 Y156.332
G01 X201.583 Y156.579
G01 X201.580 Y156.580
G01 X200.608 Y156.899
G01 X200.515 Y156.926
G01 X201.550 Y156.704
G01 X202.588 Y156.421
G01 X203.626 Y156.075
G01 X204.660 Y155.666
G01 X205.357 Y155.353
G01 X206.625 Y155.064
G01 X207.900 Y154.687
G01 X209.178 Y154.220
G01 X210.198 Y153.780
G01 X211.784 Y153.344
G01 X213.372 Y152.784
G01 X213.830 Y152.600
G01 X212.314 Y153.239
G01 X210.795 Y153.760
G01 X209.281 Y154.166
G01 X208.504 Y154.330
G01 X208.643 Y155.961
G01 X208.664 Y157.639
G01 X208.564 Y159.355
G01 X208.504 Y159.930
G01 X211.535 Y161.025
G01 X213.830 Y161.661
G01 X214.837 Y160.443
G01 X215.782 Y159.179
G01 X216.662 Y157.871
G01 X217.121 Y157.130
G01 X215.085 Y154.172
G01 X213.830 Y152.600
G01 X216.060 Y155.461
G01 X217.570 Y157.748
G01 X220.829 Y162.058
G01 X222.059 Y163.926
G01 X218.767 Y159.396
G01 X216.901 Y160.126
G01 X215.035 Y160.721
G01 X213.441 Y161.126
G01 X213.561 Y163.429
G01 X213.509 Y165.793
G01 X213.441 Y166.726
G01 X217.093 Y167.992
G01 X218.767 Y168.457
G01 X220.007 Y166.902
G01 X221.165 Y165.295
G01 X222.059 Y163.926
G01 X220.986 Y165.586
G01 X219.828 Y167.199
G01 X218.586 Y168.758
G01 X218.318 Y169.075
G01 X217.194 Y170.810
G01 X215.967 Y172.505
G01 X214.638 Y174.152
G01 X214.578 Y174.223
G01 X213.830 Y175.252
G01 X215.172 Y173.562
G01 X216.406 Y171.826
G01 X217.121 Y170.722
G01 X213.830 Y166.191
G01 X212.125 Y166.855
G01 X210.414 Y167.416
G01 X208.702 Y167.875
G01 X208.504 Y167.922
G01 X208.597 Y171.297
G01 X208.504 Y173.522
G01 X211.347 Y174.550
G01 X213.830 Y175.252
G01 X210.891 Y174.434
G01 X208.093 Y173.417
G01 X207.777 Y173.286
G01 X205.442 Y172.678
G01 X203.211 Y171.925
G01 X201.725 Y171.320
G01 X200.515 Y170.926
G01 X200.686 Y167.004
G01 X200.515 Y163.290
G01 X200.629 Y160.761
G01 X200.522 Y158.282
G01 X200.515 Y158.199
G01 X200.515 Y156.926
G01 X201.190 Y156.183
G01 X201.817 Y155.415
G01 X202.397 Y154.625
G01 X202.927 Y153.815
G01 X203.409 Y152.989
G01 X203.507 Y152.808
G01 X204.124 Y152.133
G01 X204.707 Y151.429
G01 X205.255 Y150.697
G01 X205.767 Y149.939
G01 X206.241 Y149.157
G01 X206.500 Y148.689
G01 X207.115 Y147.966
G01 X207.700 Y147.204
G01 X208.250 Y146.403
G01 X208.744 Y145.600
G01 X208.013 Y144.432
G01 X207.215 Y143.349
G01 X206.500 Y142.511
G01 X205.985 Y141.635
G01 X205.426 Y140.816
G01 X204.827 Y140.056
G01 X204.255 Y139.422
G01 X203.883 Y138.753
G01 X203.480 Y138.118
G01 X203.050 Y137.520
G01 X202.594 Y136.960
G01 X202.115 Y136.438
G01 X202.011 Y136.333
G01 X201.683 Y135.796
G01 X201.332 Y135.283
G01 X200.958 Y134.793
G01 X200.564 Y134.329
G01 X200.515 Y134.274
G01 X198.667 Y134.713
G01 X196.891 Y135.317
G01 X195.673 Y135.847
G01 X194.938 Y135.999
G01 X194.232 Y136.212
G01 X193.560 Y136.484
G01 X193.252 Y136.634
G01 X192.874 Y136.716
G01 X192.513 Y136.828
G01 X192.170 Y136.966
G01 X192.042 Y137.027
G01 X191.814 Y137.059
G01 X191.594 Y137.107
G01 X191.384 Y137.168
G01 X191.183 Y137.243
G01 X190.994 Y137.331
G01 X190.831 Y137.420
G01 X190.691 Y137.431
G01 X190.553 Y137.449
G01 X190.419 Y137.474
G01 X190.289 Y137.506
G01 X190.163 Y137.544
G01 X190.041 Y137.589
G01 X189.925 Y137.640
G01 X189.813 Y137.696
G01 X189.707 Y137.758
G01 X189.621 Y137.813
G01 X189.511 Y137.819
G01 X189.400 Y137.831
G01 X189.289 Y137.848
G01 X189.179 Y137.871
G01 X189.069 Y137.899
G01 X188.960 Y137.933
G01 X188.852 Y137.973
G01 X188.746 Y138.019
G01 X188.641 Y138.070
G01 X188.538 Y138.126
G01 X188.438 Y138.189
G01 X188.410 Y138.207
G01 X188.258 Y138.219
G01 X188.104 Y138.243
G01 X187.948 Y138.277
G01 X187.790 Y138.323
G01 X187.633 Y138.380
G01 X187.476 Y138.449
G01 X187.320 Y138.529
G01 X187.200 Y138.600
G01 X187.170 Y138.755
G01 X187.148 Y138.909
G01 X187.135 Y139.062
G01 X187.129 Y139.214
G01 X187.131 Y139.364
G01 X187.142 Y139.512
G01 X187.159 Y139.657
G01 X187.184 Y139.800
G01 X187.200 Y139.873
G01 X187.172 Y140.010
G01 X187.151 Y140.150
G01 X187.137 Y140.293
G01 X187.129 Y140.437
G01 X187.130 Y140.582
G01 X187.137 Y140.728
G01 X187.152 Y140.875
G01 X187.175 Y141.022
G01 X187.200 Y141.145
G01 X187.167 Y141.325
G01 X187.145 Y141.510
G01 X187.135 Y141.700
G01 X187.136 Y141.895
G01 X187.151 Y142.094
G01 X187.178 Y142.296
G01 X187.200 Y142.418
G01 X187.164 Y142.704
G01 X187.149 Y142.998
G01 X187.157 Y143.300
G01 X187.188 Y143.608
G01 X187.200 Y143.691
G01 X187.115 Y144.217
G01 X187.076 Y144.760
G01 X187.084 Y145.315
G01 X187.140 Y145.880
G01 X187.200 Y146.236
G01 X187.081 Y147.461
G01 X187.077 Y148.709
G01 X187.189 Y149.973
G01 X187.200 Y150.055
G01 X187.191 Y152.414
G01 X187.200 Y152.600
G01 X187.795 Y152.878
G01 X188.411 Y153.127
G01 X189.045 Y153.347
G01 X189.698 Y153.536
G01 X190.367 Y153.692
G01 X190.831 Y153.780
G01 X191.549 Y154.106
G01 X192.300 Y154.395
G01 X193.083 Y154.642
G01 X193.896 Y154.847
G01 X194.463 Y154.960
G01 X195.419 Y155.370
G01 X196.427 Y155.720
G01 X197.480 Y156.007
G01 X198.094 Y156.140
G01 X199.372 Y156.602
G01 X200.515 Y156.926
G01 X201.180 Y156.169
G01 X201.797 Y155.388
G01 X202.364 Y154.586
G01 X202.881 Y153.766
G01 X203.148 Y153.302
G01 X203.695 Y152.558
G01 X203.806 Y152.396
G01 X202.087 Y149.825
G01 X200.515 Y147.865
G01 X199.864 Y148.163
G01 X199.210 Y148.416
G01 X198.555 Y148.625
G01 X197.902 Y148.791
G01 X197.319 Y148.904
G01 X196.780 Y149.126
G01 X196.236 Y149.316
G01 X195.690 Y149.476
G01 X195.189 Y149.596
G01 X195.321 Y151.110
G01 X195.315 Y152.657
G01 X195.189 Y154.076
G01 X195.189 Y155.196
G01 X196.219 Y155.654
G01 X197.305 Y156.045
G01 X198.444 Y156.366
G01 X199.450 Y156.580
G01 X200.515 Y156.926
G01 X199.217 Y156.603
G01 X197.978 Y156.196
G01 X196.883 Y155.746
G01 X195.898 Y155.526
G01 X194.951 Y155.249
G01 X194.046 Y154.917
G01 X193.252 Y154.566
G01 X192.482 Y154.409
G01 X191.735 Y154.213
G01 X191.014 Y153.978
G01 X190.320 Y153.707
G01 X189.654 Y153.403
G01 X189.621 Y153.387
G01 X188.974 Y153.227
G01 X188.342 Y153.037
G01 X187.726 Y152.817
G01 X187.200 Y152.600
G01 X187.797 Y152.866
G01 X188.413 Y153.104
G01 X189.048 Y153.311
G01 X189.699 Y153.488
G01 X190.365 Y153.633
G01 X190.396 Y153.638
G01 X191.088 Y153.908
G01 X191.808 Y154.141
G01 X192.526 Y154.330
G01 X193.109 Y153.675
G01 X193.634 Y152.998
G01 X194.101 Y152.304
G01 X194.501 Y151.612
G01 X194.938 Y151.092
G01 X195.335 Y150.557
G01 X195.692 Y150.010
G01 X195.818 Y149.800
G01 X193.893 Y147.358
G01 X192.526 Y145.270
G01 X192.271 Y145.403
G01 X192.009 Y145.524
G01 X191.740 Y145.632
G01 X191.466 Y145.727
G01 X191.187 Y145.808
G01 X190.903 Y145.876
G01 X190.615 Y145.930
G01 X190.396 Y145.962
G01 X190.105 Y146.112
G01 X189.801 Y146.247
G01 X189.483 Y146.367
G01 X189.153 Y146.471
G01 X188.812 Y146.557
G01 X188.461 Y146.625
G01 X188.265 Y146.654
G01 X187.863 Y146.808
G01 X187.442 Y146.939
G01 X187.200 Y147.000
G01 X187.063 Y148.534
G01 X187.072 Y150.095
G01 X187.200 Y151.480
G01 X187.200 Y152.600
G01 X187.045 Y150.772
G01 X187.061 Y148.963
G01 X187.200 Y147.509
G01 X187.121 Y146.696
G01 X187.115 Y145.896
G01 X187.180 Y145.112
G01 X187.200 Y144.964
G01 X187.166 Y144.493
G01 X187.171 Y144.032
G01 X187.200 Y143.691
G01 X187.163 Y143.382
G01 X187.149 Y143.078
G01 X187.158 Y142.781
G01 X187.188 Y142.493
G01 X187.200 Y142.418
G01 X187.165 Y142.215
G01 X187.143 Y142.014
G01 X187.134 Y141.817
G01 X187.137 Y141.624
G01 X187.153 Y141.435
G01 X187.179 Y141.253
G01 X187.200 Y141.145
G01 X187.171 Y140.998
G01 X187.149 Y140.851
G01 X187.136 Y140.704
G01 X187.129 Y140.558
G01 X187.130 Y140.413
G01 X187.138 Y140.269
G01 X187.154 Y140.127
G01 X187.176 Y139.988
G01 X187.200 Y139.873
G01 X187.171 Y139.732
G01 X187.150 Y139.588
G01 X187.136 Y139.441
G01 X187.129 Y139.292
G01 X187.131 Y139.141
G01 X187.140 Y138.988
G01 X187.158 Y138.835
G01 X187.183 Y138.680
G01 X187.200 Y138.600
G01 X187.174 Y138.756
G01 X187.156 Y138.912
G01 X187.147 Y139.066
G01 X187.145 Y139.218
G01 X187.152 Y139.369
G01 X187.167 Y139.516
G01 X187.189 Y139.661
G01 X187.200 Y139.720
G01 X187.176 Y139.857
G01 X187.159 Y139.996
G01 X187.148 Y140.136
G01 X187.145 Y140.277
G01 X187.148 Y140.419
G01 X187.159 Y140.561
G01 X187.176 Y140.703
G01 X187.200 Y140.840
G01 X187.173 Y141.002
G01 X187.155 Y141.168
G01 X187.147 Y141.339
G01 X187.149 Y141.513
G01 X187.161 Y141.690
G01 X187.184 Y141.869
G01 X187.200 Y141.960
G01 X187.130 Y142.227
G01 X187.079 Y142.505
G01 X187.049 Y142.793
G01 X187.041 Y143.090
G01 X187.056 Y143.394
G01 X187.093 Y143.703
G01 X187.154 Y144.017
G01 X187.200 Y144.200
G01 X187.416 Y144.322
G01 X187.636 Y144.433
G01 X187.862 Y144.533
G01 X188.091 Y144.621
G01 X188.324 Y144.698
G01 X188.560 Y144.763
G01 X188.799 Y144.817
G01 X189.039 Y144.858
G01 X189.280 Y144.888
G01 X189.330 Y144.892
G01 X189.562 Y145.023
G01 X189.805 Y145.143
G01 X190.059 Y145.251
G01 X190.323 Y145.346
G01 X190.596 Y145.428
G01 X190.878 Y145.495
G01 X191.168 Y145.548
G01 X191.461 Y145.584
G01 X191.801 Y145.721
G01 X192.157 Y145.837
G01 X192.526 Y145.930
G01 X192.764 Y145.696
G01 X192.985 Y145.453
G01 X193.189 Y145.202
G01 X193.376 Y144.945
G01 X193.545 Y144.682
G01 X193.697 Y144.414
G01 X193.831 Y144.143
G01 X193.843 Y144.118
G01 X194.042 Y143.926
G01 X194.231 Y143.725
G01 X194.411 Y143.514
G01 X194.580 Y143.295
G01 X194.738 Y143.067
G01 X194.884 Y142.832
G01 X195.020 Y142.590
G01 X195.143 Y142.342
G01 X195.159 Y142.306
G01 X195.349 Y142.082
G01 X195.528 Y141.845
G01 X195.698 Y141.596
G01 X195.818 Y141.400
G01 X195.664 Y141.072
G01 X195.492 Y140.763
G01 X195.304 Y140.473
G01 X195.102 Y140.203
G01 X194.886 Y139.955
G01 X194.659 Y139.728
G01 X194.501 Y139.588
G01 X194.416 Y139.376
G01 X194.321 Y139.171
G01 X194.216 Y138.975
G01 X194.103 Y138.786
G01 X193.982 Y138.606
G01 X193.853 Y138.435
G01 X193.717 Y138.273
G01 X193.574 Y138.121
G01 X193.426 Y137.978
G01 X193.273 Y137.846
G01 X193.184 Y137.776
G01 X193.090 Y137.607
G01 X192.987 Y137.443
G01 X192.876 Y137.283
G01 X192.756 Y137.128
G01 X192.627 Y136.978
G01 X192.526 Y136.870
G01 X192.240 Y136.927
G01 X191.965 Y137.005
G01 X191.704 Y137.102
G01 X191.461 Y137.216
G01 X191.279 Y137.240
G01 X191.104 Y137.276
G01 X190.935 Y137.322
G01 X190.773 Y137.378
G01 X190.620 Y137.443
G01 X190.474 Y137.517
G01 X190.396 Y137.562
G01 X190.272 Y137.574
G01 X190.151 Y137.592
G01 X190.032 Y137.616
G01 X189.916 Y137.645
G01 X189.803 Y137.681
G01 X189.694 Y137.721
G01 X189.587 Y137.767
G01 X189.485 Y137.818
G01 X189.386 Y137.873
G01 X189.330 Y137.908
G01 X189.219 Y137.917
G01 X189.107 Y137.933
G01 X188.994 Y137.955
G01 X188.882 Y137.982
G01 X188.770 Y138.016
G01 X188.658 Y138.056
G01 X188.548 Y138.103
G01 X188.439 Y138.155
G01 X188.331 Y138.214
G01 X188.265 Y138.254
G01 X188.107 Y138.273
G01 X187.947 Y138.304
G01 X187.785 Y138.346
G01 X187.622 Y138.400
G01 X187.460 Y138.467
G01 X187.299 Y138.545
G01 X187.200 Y138.600
G01 X187.354 Y138.511
G01 X187.510 Y138.433
G01 X187.668 Y138.367
G01 X187.825 Y138.312
G01 X187.982 Y138.269
G01 X188.138 Y138.237
G01 X188.292 Y138.216
G01 X188.410 Y138.207
G01 X188.510 Y138.143
G01 X188.612 Y138.085
G01 X188.717 Y138.032
G01 X188.823 Y137.985
G01 X188.930 Y137.944
G01 X189.039 Y137.908
G01 X189.148 Y137.878
G01 X189.259 Y137.854
G01 X189.369 Y137.835
G01 X189.480 Y137.822
G01 X189.590 Y137.814
G01 X189.621 Y137.813
G01 X189.723 Y137.748
G01 X189.830 Y137.687
G01 X189.942 Y137.632
G01 X190.060 Y137.582
G01 X190.182 Y137.538
G01 X190.309 Y137.500
G01 X190.439 Y137.469
G01 X190.574 Y137.445
G01 X190.712 Y137.429
G01 X190.831 Y137.420
G01 X191.010 Y137.322
G01 X191.201 Y137.236
G01 X191.402 Y137.162
G01 X191.614 Y137.102
G01 X191.834 Y137.056
G01 X192.042 Y137.027
G01 X192.432 Y136.807
G01 X192.847 Y136.619
G01 X193.287 Y136.465
G01 X193.748 Y136.346
G01 X194.227 Y136.265
G01 X194.463 Y136.240
G01 X195.577 Y135.751
G01 X196.749 Y135.363
G01 X197.969 Y135.082
G01 X198.094 Y135.060
G01 X200.505 Y134.276
G01 X200.515 Y134.274
G01 X198.532 Y134.795
G01 X196.630 Y135.494
G01 X196.254 Y135.658
G01 X195.195 Y136.002
G01 X195.189 Y136.004
G01 X195.248 Y136.355
G01 X195.285 Y136.701
G01 X195.302 Y137.042
G01 X195.297 Y137.376
G01 X195.274 Y137.703
G01 X195.231 Y138.021
G01 X195.189 Y138.244
G01 X195.239 Y138.510
G01 X195.275 Y138.775
G01 X195.298 Y139.041
G01 X195.308 Y139.306
G01 X195.305 Y139.570
G01 X195.288 Y139.832
G01 X195.259 Y140.091
G01 X195.217 Y140.347
G01 X195.189 Y140.484
G01 X195.211 Y140.746
G01 X195.219 Y141.010
G01 X195.214 Y141.278
G01 X195.195 Y141.547
G01 X195.189 Y141.604
G01 X200.515 Y143.335
G01 X200.937 Y142.886
G01 X201.340 Y142.404
G01 X201.722 Y141.890
G01 X202.079 Y141.343
G01 X202.411 Y140.766
G01 X202.490 Y140.616
G01 X202.994 Y140.003
G01 X203.468 Y139.341
G01 X203.806 Y138.804
G01 X203.440 Y138.168
G01 X203.045 Y137.565
G01 X202.623 Y136.996
G01 X202.179 Y136.462
G01 X201.831 Y136.086
G01 X201.500 Y135.558
G01 X201.146 Y135.054
G01 X200.770 Y134.573
G01 X200.515 Y134.274
G01 X200.941 Y134.720
G01 X201.349 Y135.195
G01 X201.736 Y135.697
G01 X202.101 Y136.226
G01 X202.442 Y136.780
G01 X202.757 Y137.359
G01 X202.759 Y137.363
G01 X203.284 Y137.928
G01 X203.783 Y138.538
G01 X204.253 Y139.193
G01 X204.691 Y139.890
G01 X205.003 Y140.452
G01 X205.700 Y141.246
G01 X206.354 Y142.109
G01 X206.959 Y143.040
G01 X207.248 Y143.541
G01 X208.111 Y144.655
G01 X208.744 Y145.600
G01 X208.053 Y144.441
G01 X207.295 Y143.365
G01 X206.478 Y142.374
G01 X206.111 Y141.976
G01 X205.502 Y141.133
G01 X205.452 Y141.070
G01 X204.042 Y141.667
G01 X202.613 Y142.130
G01 X201.191 Y142.454
G01 X200.222 Y142.773
G01 X200.126 Y142.800
G01 X200.203 Y143.368
G01 X200.249 Y143.951
G01 X200.261 Y144.546
G01 X200.239 Y145.151
G01 X200.182 Y145.765
G01 X200.126 Y146.160
G01 X200.175 Y146.895
G01 X200.175 Y147.650
G01 X200.126 Y148.400
G01 X202.389 Y149.290
G01 X204.758 Y149.974
G01 X205.452 Y150.130
G01 X206.065 Y149.439
G01 X206.646 Y148.711
G01 X207.194 Y147.949
G01 X207.707 Y147.154
G01 X208.085 Y146.506
G01 X208.675 Y145.700
G01 X208.744 Y145.600
G01 X208.261 Y146.447
G01 X207.740 Y147.261
G01 X207.184 Y148.039
G01 X206.594 Y148.780
G01 X205.974 Y149.483
G01 X205.751 Y149.719
G01 X205.302 Y150.512
G01 X204.813 Y151.284
G01 X204.284 Y152.034
G01 X203.718 Y152.758
G01 X203.115 Y153.456
G01 X202.759 Y153.837
G01 X202.249 Y154.667
G01 X201.687 Y155.479
G01 X201.075 Y156.271
G01 X200.515 Y156.926
G01 X199.217 Y156.603
G01 X197.978 Y156.196
G01 X196.883 Y155.746
G01 X195.898 Y155.526
G01 X194.951 Y155.249
G01 X194.046 Y154.917
G01 X193.252 Y154.566
G01 X192.482 Y154.409
G01 X191.735 Y154.213
G01 X191.014 Y153.978
G01 X190.320 Y153.707
G01 X189.654 Y153.403
G01 X189.621 Y153.387
G01 X188.974 Y153.227
G01 X188.342 Y153.037
G01 X187.726 Y152.817
G01 X187.200 Y152.600
G01 X187.795 Y152.878
G01 X188.411 Y153.127
G01 X189.045 Y153.347
G01 X189.698 Y153.536
G01 X190.367 Y153.692
G01 X190.831 Y153.780
G01 X191.549 Y154.106
G01 X192.300 Y154.395
G01 X193.083 Y154.642
G01 X193.896 Y154.847
G01 X194.463 Y154.960
G01 X195.419 Y155.370
G01 X196.427 Y155.720
G01 X197.480 Y156.007
G01 X198.094 Y156.140
G01 X199.372 Y156.602
G01 X200.515 Y156.926
G01 X201.190 Y156.183
G01 X201.817 Y155.415
G01 X202.397 Y154.625
G01 X202.927 Y153.815
G01 X203.409 Y152.989
G01 X203.507 Y152.808
G01 X204.124 Y152.133
G01 X204.707 Y151.429
G01 X205.255 Y150.697
G01 X205.767 Y149.939
G01 X206.241 Y149.157
G01 X206.500 Y148.689
G01 X207.115 Y147.966
G01 X207.700 Y147.204
G01 X208.250 Y146.403
G01 X208.744 Y145.600
G01 X208.013 Y144.432
G01 X207.215 Y143.349
G01 X206.500 Y142.511
G01 X205.985 Y141.635
G01 X205.426 Y140.816
G01 X204.827 Y140.056
G01 X204.255 Y139.422
G01 X203.883 Y138.753
G01 X203.480 Y138.118
G01 X203.050 Y137.520
G01 X202.594 Y136.960
G01 X202.115 Y136.438
G01 X202.011 Y136.333
G01 X201.683 Y135.796
G01 X201.332 Y135.283
G01 X200.958 Y134.793
G01 X200.564 Y134.329
G01 X200.515 Y134.274
G01 X198.667 Y134.713
G01 X196.891 Y135.317
G01 X195.673 Y135.847
G01 X194.938 Y135.999
G01 X194.232 Y136.212
G01 X193.560 Y136.484
G01 X193.252 Y136.634
G01 X192.874 Y136.716
G01 X192.513 Y136.828
G01 X192.170 Y136.966
G01 X192.042 Y137.027
G01 X191.814 Y137.059
G01 X191.594 Y137.107
G01 X191.384 Y137.168
G01 X191.183 Y137.243
G01 X190.994 Y137.331
G01 X190.831 Y137.420
G01 X190.691 Y137.431
G01 X190.553 Y137.449
G01 X190.419 Y137.474
G01 X190.289 Y137.506
G01 X190.163 Y137.544
G01 X190.041 Y137.589
G01 X189.925 Y137.640
G01 X189.813 Y137.696
G01 X189.707 Y137.758
G01 X189.621 Y137.813
G01 X189.511 Y137.819
G01 X189.400 Y137.831
G01 X189.289 Y137.848
G01 X189.179 Y137.871
G01 X189.069 Y137.899
G01 X188.960 Y137.933
G01 X188.852 Y137.973
G01 X188.746 Y138.019
G01 X188.641 Y138.070
G01 X188.538 Y138.126
G01 X188.438 Y138.189
G01 X188.410 Y138.207
G01 X188.258 Y138.219
G01 X188.104 Y138.243
G01 X187.948 Y138.277
G01 X187.790 Y138.323
G01 X187.633 Y138.380
G01 X187.476 Y138.449
G01 X187.320 Y138.529
G01 X187.200 Y138.600
G01 X187.170 Y138.755
G01 X187.148 Y138.909
G01 X187.135 Y139.062
G01 X187.129 Y139.214
G01 X187.131 Y139.364
G01 X187.142 Y139.512
G01 X187.159 Y139.657
G01 X187.184 Y139.800
G01 X187.200 Y139.873
G01 X187.172 Y140.010
G01 X187.151 Y140.150
G01 X187.137 Y140.293
G01 X187.129 Y140.437
G01 X187.130 Y140.582
G01 X187.137 Y140.728
G01 X187.152 Y140.875
G01 X187.175 Y141.022
G01 X187.200 Y141.145
G01 X187.167 Y141.325
G01 X187.145 Y141.510
G01 X187.135 Y141.700
G01 X187.136 Y141.895
G01 X187.151 Y142.094
G01 X187.178 Y142.296
G01 X187.200 Y142.418
G01 X187.164 Y142.704
G01 X187.149 Y142.998
G01 X187.157 Y143.300
G01 X187.188 Y143.608
G01 X187.200 Y143.691
G01 X187.115 Y144.217
G01 X187.076 Y144.760
G01 X187.084 Y145.315
G01 X187.140 Y145.880
G01 X187.200 Y146.236
G01 X187.081 Y147.461
G01 X187.077 Y148.709
G01 X187.189 Y149.973
G01 X187.200 Y150.055
G01 X187.191 Y152.414
G01 X187.200 Y152.600
G01 X187.797 Y152.866
G01 X188.413 Y153.104
G01 X189.048 Y153.311
G01 X189.699 Y153.488
G01 X190.365 Y153.633
G01 X190.396 Y153.638
G01 X191.088 Y153.908
G01 X191.808 Y154.141
G01 X192.526 Y154.330
G01 X193.109 Y153.675
G01 X193.634 Y152.998
G01 X194.101 Y152.304
G01 X194.501 Y151.612
G01 X194.938 Y151.092
G01 X195.335 Y150.557
G01 X195.692 Y150.010
G01 X195.818 Y149.800
G01 X193.893 Y147.358
G01 X192.526 Y145.270
G01 X192.271 Y145.403
G01 X192.009 Y145.524
G01 X191.740 Y145.632
G01 X191.466 Y145.727
G01 X191.187 Y145.808
G01 X190.903 Y145.876
G01 X190.615 Y145.930
G01 X190.396 Y145.962
G01 X190.105 Y146.112
G01 X189.801 Y146.247
G01 X189.483 Y146.367
G01 X189.153 Y146.471
G01 X188.812 Y146.557
G01 X188.461 Y146.625
G01 X188.265 Y146.654
G01 X187.863 Y146.808
G01 X187.442 Y146.939
G01 X187.200 Y147.000
G01 X187.063 Y148.534
G01 X187.072 Y150.095
G01 X187.200 Y151.480
G01 X187.200 Y152.600
G01 X187.045 Y150.772
G01 X187.061 Y148.963
G01 X187.200 Y147.509
G01 X187.121 Y146.696
G01 X187.115 Y145.896
G01 X187.180 Y145.112
G01 X187.200 Y144.964
G01 X187.166 Y144.493
G01 X187.171 Y144.032
G01 X187.200 Y143.691
G01 X187.163 Y143.382
G01 X187.149 Y143.078
G01 X187.158 Y142.781
G01 X187.188 Y142.493
G01 X187.200 Y142.418
G01 X187.165 Y142.215
G01 X187.143 Y142.014
G01 X187.134 Y141.817
G01 X187.137 Y141.624
G01 X187.153 Y141.435
G01 X187.179 Y141.253
G01 X187.200 Y141.145
G01 X187.171 Y140.998
G01 X187.149 Y140.851
G01 X187.136 Y140.704
G01 X187.129 Y140.558
G01 X187.130 Y140.413
G01 X187.138 Y140.269
G01 X187.154 Y140.127
G01 X187.176 Y139.988
G01 X187.200 Y139.873
G01 X187.171 Y139.732
G01 X187.150 Y139.588
G01 X187.136 Y139.441
G01 X187.129 Y139.292
G01 X187.131 Y139.141
G01 X187.140 Y138.988
G01 X187.158 Y138.835
G01 X187.183 Y138.680
G01 X187.200 Y138.600
G01 X187.174 Y138.756
G01 X187.156 Y138.912
G01 X187.147 Y139.066
G01 X187.145 Y139.218
G01 X187.152 Y139.369
G01 X187.167 Y139.516
G01 X187.189 Y139.661
G01 X187.200 Y139.720
G01 X187.176 Y139.857
G01 X187.159 Y139.996
G01 X187.148 Y140.136
G01 X187.145 Y140.277
G01 X187.148 Y140.419
G01 X187.159 Y140.561
G01 X187.176 Y140.703
G01 X187.200 Y140.840
G01 X187.173 Y141.002
G01 X187.155 Y141.168
G01 X187.147 Y141.339
G01 X187.149 Y141.513
G01 X187.161 Y141.690
G01 X187.184 Y141.869
G01 X187.200 Y141.960
G01 X187.130 Y142.227
G01 X187.079 Y142.505
G01 X187.049 Y142.793
G01 X187.041 Y143.090
G01 X187.056 Y143.394
G01 X187.093 Y143.703
G01 X187.154 Y144.017
G01 X187.200 Y144.200
G01 X187.416 Y144.322
G01 X187.636 Y144.433
G01 X187.862 Y144.533
G01 X188.091 Y144.621
G01 X188.324 Y144.698
G01 X188.560 Y144.763
G01 X188.799 Y144.817
G01 X189.039 Y144.858
G01 X189.280 Y144.888
G01 X189.330 Y144.892
G01 X189.562 Y145.023
G01 X189.805 Y145.143
G01 X190.059 Y145.251
G01 X190.323 Y145.346
G01 X190.596 Y145.428
G01 X190.878 Y145.495
G01 X191.168 Y145.548
G01 X191.461 Y145.584
G01 X191.801 Y145.721
G01 X192.157 Y145.837
G01 X192.526 Y145.930
G01 X192.764 Y145.696
G01 X192.985 Y145.453
G01 X193.189 Y145.202
G01 X193.376 Y144.945
G01 X193.545 Y144.682
G01 X193.697 Y144.414
G01 X193.831 Y144.143
G01 X193.843 Y144.118
G01 X194.042 Y143.926
G01 X194.231 Y143.725
G01 X194.411 Y143.514
G01 X194.580 Y143.295
G01 X194.738 Y143.067
G01 X194.884 Y142.832
G01 X195.020 Y142.590
G01 X195.143 Y142.342
G01 X195.159 Y142.306
G01 X195.349 Y142.082
G01 X195.528 Y141.845
G01 X195.698 Y141.596
G01 X195.818 Y141.400
G01 X195.664 Y141.072
G01 X195.492 Y140.763
G01 X195.304 Y140.473
G01 X195.102 Y140.203
G01 X194.886 Y139.955
G01 X194.659 Y139.728
G01 X194.501 Y139.588
G01 X194.416 Y139.376
G01 X194.321 Y139.171
G01 X194.216 Y138.975
G01 X194.103 Y138.786
G01 X193.982 Y138.606
G01 X193.853 Y138.435
G01 X193.717 Y138.273
G01 X193.574 Y138.121
G01 X193.426 Y137.978
G01 X193.273 Y137.846
G01 X193.184 Y137.776
G01 X193.090 Y137.607
G01 X192.987 Y137.443
G01 X192.876 Y137.283
G01 X192.756 Y137.128
G01 X192.627 Y136.978
G01 X192.526 Y136.870
G01 X192.240 Y136.927
G01 X191.965 Y137.005
G01 X191.704 Y137.102
G01 X191.461 Y137.216
G01 X191.279 Y137.240
G01 X191.104 Y137.276
G01 X190.935 Y137.322
G01 X190.773 Y137.378
G01 X190.620 Y137.443
G01 X190.474 Y137.517
G01 X190.396 Y137.562
G01 X190.272 Y137.574
G01 X190.151 Y137.592
G01 X190.032 Y137.616
G01 X189.916 Y137.645
G01 X189.803 Y137.681
G01 X189.694 Y137.721
G01 X189.587 Y137.767
G01 X189.485 Y137.818
G01 X189.386 Y137.873
G01 X189.330 Y137.908
G01 X189.219 Y137.917
G01 X189.107 Y137.933
G01 X188.994 Y137.955
G01 X188.882 Y137.982
G01 X188.770 Y138.016
G01 X188.658 Y138.056
G01 X188.548 Y138.103
G01 X188.439 Y138.155
G01 X188.331 Y138.214
G01 X188.265 Y138.254
G01 X188.107 Y138.273
G01 X187.947 Y138.304
G01 X187.785 Y138.346
G01 X187.622 Y138.400
G01 X187.460 Y138.467
G01 X187.299 Y138.545
G01 X187.200 Y138.600
G01 X187.354 Y138.511
G01 X187.510 Y138.433
G01 X187.668 Y138.367
G01 X187.825 Y138.312
G01 X187.982 Y138.269
G01 X188.138 Y138.237
G01 X188.292 Y138.216
G01 X188.410 Y138.207
G01 X188.510 Y138.143
G01 X188.612 Y138.085
G01 X188.717 Y138.032
G01 X188.823 Y137.985
G01 X188.930 Y137.944
G01 X189.039 Y137.908
G01 X189.148 Y137.878
G01 X189.259 Y137.854
G01 X189.369 Y137.835
G01 X189.480 Y137.822
G01 X189.590 Y137.814
G01 X189.621 Y137.813
G01 X189.723 Y137.748
G01 X189.830 Y137.687
G01 X189.942 Y137.632
G01 X190.060 Y137.582
G01 X190.182 Y137.538
G01 X190.309 Y137.500
G01 X190.439 Y137.469
G01 X190.574 Y137.445
G01 X190.712 Y137.429
G01 X190.831 Y137.420
G01 X191.010 Y137.322
G01 X191.201 Y137.236
G01 X191.402 Y137.162
G01 X191.614 Y137.102
G01 X191.834 Y137.056
G01 X192.042 Y137.027
G01 X192.432 Y136.807
G01 X192.847 Y136.619
G01 X193.287 Y136.465
G01 X193.748 Y136.346
G01 X194.227 Y136.265
G01 X194.463 Y136.240
G01 X195.577 Y135.751
G01 X196.749 Y135.363
G01 X197.969 Y135.082
G01 X198.094 Y135.060
G01 X200.505 Y134.276
G01 X200.515 Y134.274
G01 X198.532 Y134.795
G01 X196.630 Y135.494
G01 X196.254 Y135.658
G01 X195.195 Y136.002
G01 X195.189 Y136.004
G01 X195.248 Y136.355
G01 X195.285 Y136.701
G01 X195.302 Y137.042
G01 X195.297 Y137.376
G01 X195.274 Y137.703
G01 X195.231 Y138.021
G01 X195.189 Y138.244
G01 X195.239 Y138.510
G01 X195.275 Y138.775
G01 X195.298 Y139.041
G01 X195.308 Y139.306
G01 X195.305 Y139.570
G01 X195.288 Y139.832
G01 X195.259 Y140.091
G01 X195.217 Y140.347
G01 X195.189 Y140.484
G01 X195.211 Y140.746
G01 X195.219 Y141.010
G01 X195.214 Y141.278
G01 X195.195 Y141.547
G01 X195.189 Y141.604
G01 X200.515 Y143.335
G01 X200.937 Y142.886
G01 X201.340 Y142.404
G01 X201.722 Y141.890
G01 X202.079 Y141.343
G01 X202.411 Y140.766
G01 X202.490 Y140.616
G01 X202.994 Y140.003
G01 X203.468 Y139.341
G01 X203.806 Y138.804
G01 X203.440 Y138.168
G01 X203.045 Y137.565
G01 X202.623 Y136.996
G01 X202.179 Y136.462
G01 X201.831 Y136.086
G01 X201.500 Y135.558
G01 X201.146 Y135.054
G01 X200.770 Y134.573
G01 X200.515 Y134.274
G01 X200.941 Y134.720
G01 X201.349 Y135.195
G01 X201.736 Y135.697
G01 X202.101 Y136.226
G01 X202.442 Y136.780
G01 X202.757 Y137.359
G01 X202.759 Y137.363
G01 X203.284 Y137.928
G01 X203.783 Y138.538
G01 X204.253 Y139.193
G01 X204.691 Y139.890
G01 X205.003 Y140.452
G01 X205.700 Y141.246
G01 X206.354 Y142.109
G01 X206.959 Y143.040
G01 X207.248 Y143.541
G01 X208.111 Y144.655
G01 X208.744 Y145.600
G01 X208.053 Y144.441
G01 X207.295 Y143.365
G01 X206.478 Y142.374
G01 X206.111 Y141.976
G01 X205.502 Y141.133
G01 X205.452 Y141.070
G01 X204.042 Y141.667
G01 X202.613 Y142.130
G01 X201.191 Y142.454
G01 X200.222 Y142.773
G01 X200.126 Y142.800
G01 X200.203 Y143.368
G01 X200.249 Y143.951
G01 X200.261 Y144.546
G01 X200.239 Y145.151
G01 X200.182 Y145.765
G01 X200.126 Y146.160
G01 X200.175 Y146.895
G01 X200.175 Y147.650
G01 X200.126 Y148.400
G01 X202.389 Y149.290
G01 X204.758 Y149.974
G01 X205.452 Y150.130
G01 X206.065 Y149.439
G01 X206.646 Y148.711
G01 X207.194 Y147.949
G01 X207.707 Y147.154
G01 X208.085 Y146.506
G01 X208.675 Y145.700
G01 X208.744 Y145.600
G01 X208.261 Y146.447
G01 X207.740 Y147.261
G01 X207.184 Y148.039
G01 X206.594 Y148.780
G01 X205.974 Y149.483
G01 X205.751 Y149.719
G01 X205.302 Y150.512
G01 X204.813 Y151.284
G01 X204.284 Y152.034
G01 X203.718 Y152.758
G01 X203.115 Y153.456
G01 X202.759 Y153.837
G01 X202.249 Y154.667
G01 X201.687 Y155.479
G01 X201.075 Y156.271
G01 X200.515 Y156.926
G01 X201.180 Y156.169
G01 X201.797 Y155.388
G01 X202.364 Y154.586
G01 X202.881 Y153.766
G01 X203.148 Y153.302
G01 X203.695 Y152.558
G01 X203.806 Y152.396
G01 X202.087 Y149.825
G01 X200.515 Y147.865
G01 X199.864 Y148.163
G01 X199.210 Y148.416
G01 X198.555 Y148.625
G01 X197.902 Y148.791
G01 X197.319 Y148.904
G01 X196.780 Y149.126
G01 X196.236 Y149.316
G01 X195.690 Y149.476
G01 X195.189 Y149.596
G01 X195.321 Y151.110
G01 X195.315 Y152.657
G01 X195.189 Y154.076
G01 X195.189 Y155.196
G01 X196.219 Y155.654
G01 X197.305 Y156.045
G01 X198.444 Y156.366
G01 X199.450 Y156.580
G01 X200.515 Y156.926
G01 X199.217 Y156.603
G01 X197.978 Y156.196
G01 X196.883 Y155.746
G01 X195.898 Y155.526
G01 X194.951 Y155.249
G01 X194.046 Y154.917
G01 X193.252 Y154.566
G01 X192.482 Y154.409
G01 X191.735 Y154.213
G01 X191.014 Y153.978
G01 X190.320 Y153.707
G01 X189.654 Y153.403
G01 X189.621 Y153.387
G01 X188.974 Y153.227
G01 X188.342 Y153.037
G01 X187.726 Y152.817
G01 X187.200 Y152.600
G01 X187.045 Y150.772
G01 X187.061 Y148.963
G01 X187.200 Y147.509
G01 X187.121 Y146.696
G01 X187.115 Y145.896
G01 X187.180 Y145.112
G01 X187.200 Y144.964
G01 X187.166 Y144.493
G01 X187.171 Y144.032
G01 X187.200 Y143.691
G01 X187.163 Y143.382
G01 X187.149 Y143.078
G01 X187.158 Y142.781
G01 X187.188 Y142.493
G01 X187.200 Y142.418
G01 X187.165 Y142.215
G01 X187.143 Y142.014
G01 X187.134 Y141.817
G01 X187.137 Y141.624
G01 X187.153 Y141.435
G01 X187.179 Y141.253
G01 X187.200 Y141.145
G01 X187.171 Y140.998
G01 X187.149 Y140.851
G01 X187.136 Y140.704
G01 X187.129 Y140.558
G01 X187.130 Y140.413
G01 X187.138 Y140.269
G01 X187.154 Y140.127
G01 X187.176 Y139.988
G01 X187.200 Y139.873
G01 X187.171 Y139.732
G01 X187.150 Y139.588
G01 X187.136 Y139.441
G01 X187.129 Y139.292
G01 X187.131 Y139.141
G01 X187.140 Y138.988
G01 X187.158 Y138.835
G01 X187.183 Y138.680
G01 X187.200 Y138.600
G01 X187.267 Y138.461
G01 X187.341 Y138.326
G01 X187.421 Y138.194
G01 X187.508 Y138.066
G01 X187.601 Y137.942
G01 X187.701 Y137.823
G01 X187.806 Y137.708
G01 X187.917 Y137.599
G01 X187.948 Y137.570
G01 X188.025 Y137.413
G01 X188.112 Y137.258
G01 X188.209 Y137.106
G01 X188.318 Y136.956
G01 X188.436 Y136.811
G01 X188.565 Y136.669
G01 X188.696 Y136.541
G01 X188.815 Y136.318
G01 X188.953 Y136.099
G01 X189.109 Y135.886
G01 X189.284 Y135.678
G01 X189.444 Y135.511
G01 X189.637 Y135.104
G01 X189.868 Y134.706
G01 X190.137 Y134.319
G01 X190.444 Y133.948
G01 X190.787 Y133.593
G01 X190.940 Y133.452
G01 X191.448 Y132.541
G01 X192.047 Y131.666
G01 X192.734 Y130.835
G01 X193.185 Y130.363
G01 X194.429 Y128.522
G01 X195.429 Y127.274
G01 X194.989 Y126.506
G01 X194.487 Y125.751
G01 X193.922 Y125.015
G01 X193.295 Y124.301
G01 X193.185 Y124.185
G01 X192.542 Y123.137
G01 X191.804 Y122.117
G01 X190.972 Y121.130
G01 X190.940 Y121.096
G01 X190.013 Y119.590
G01 X188.939 Y118.133
G01 X187.948 Y116.977
G01 X187.200 Y115.948
G01 X186.041 Y116.222
G01 X184.902 Y116.552
G01 X183.786 Y116.936
G01 X182.696 Y117.373
G01 X182.358 Y117.521
G01 X181.212 Y117.791
G01 X180.075 Y118.120
G01 X178.949 Y118.508
G01 X177.836 Y118.954
G01 X177.517 Y119.094
G01 X176.298 Y119.419
G01 X175.081 Y119.814
G01 X173.885 Y120.274
G01 X173.757 Y121.997
G01 X173.756 Y123.683
G01 X173.881 Y125.324
G01 X173.885 Y125.365
G01 X173.755 Y126.641
G01 X173.710 Y127.893
G01 X173.748 Y129.117
G01 X173.865 Y130.307
G01 X173.885 Y130.456
G01 X173.802 Y131.451
G01 X173.776 Y132.431
G01 X173.807 Y133.392
G01 X173.885 Y134.274
G01 X183.595 Y137.363
G01 X184.779 Y137.813
G01 X186.564 Y138.359
G01 X187.200 Y138.600
G01 X187.270 Y138.463
G01 X187.347 Y138.330
G01 X187.430 Y138.200
G01 X187.520 Y138.075
G01 X187.615 Y137.954
G01 X187.717 Y137.838
G01 X187.824 Y137.727
G01 X187.858 Y137.694
G01 X187.935 Y137.545
G01 X188.021 Y137.398
G01 X188.117 Y137.254
G01 X188.222 Y137.113
G01 X188.336 Y136.976
G01 X188.460 Y136.844
G01 X188.517 Y136.788
G01 X188.608 Y136.549
G01 X188.719 Y136.312
G01 X188.849 Y136.078
G01 X189.000 Y135.849
G01 X189.171 Y135.625
G01 X189.362 Y135.408
G01 X189.572 Y135.200
G01 X189.800 Y135.002
G01 X189.833 Y134.976
G01 X190.086 Y134.582
G01 X190.377 Y134.203
G01 X190.492 Y134.070
G01 X190.218 Y133.504
G01 X189.891 Y132.952
G01 X189.510 Y132.418
G01 X189.076 Y131.906
G01 X188.591 Y131.419
G01 X188.517 Y131.351
G01 X187.855 Y130.361
G01 X187.200 Y129.539
G01 X186.673 Y129.637
G01 X186.150 Y129.762
G01 X185.630 Y129.913
G01 X185.116 Y130.090
G01 X184.610 Y130.294
G01 X184.111 Y130.524
G01 X184.004 Y130.577
G01 X183.432 Y130.717
G01 X182.859 Y130.890
G01 X182.287 Y131.097
G01 X181.874 Y131.270
G01 X181.780 Y131.994
G01 X181.736 Y132.707
G01 X181.742 Y133.403
G01 X181.795 Y134.081
G01 X181.874 Y134.630
G01 X181.822 Y135.154
G01 X181.801 Y135.671
G01 X181.811 Y136.177
G01 X181.850 Y136.672
G01 X181.874 Y136.870
G01 X184.647 Y137.630
G01 X187.200 Y138.600
G01 X184.293 Y137.489
G01 X181.277 Y136.662
G01 X181.148 Y136.634
G01 X173.885 Y134.274
G01 X179.211 Y136.004
G01 X179.485 Y135.507
G01 X179.781 Y135.028
G01 X180.099 Y134.566
G01 X180.438 Y134.124
G01 X180.796 Y133.701
G01 X181.172 Y133.300
G01 X181.186 Y133.286
G01 X181.474 Y132.818
G01 X181.787 Y132.362
G01 X182.125 Y131.920
G01 X182.486 Y131.493
G01 X182.503 Y131.474
G01 X179.211 Y126.943
G01 X178.267 Y127.142
G01 X177.317 Y127.402
G01 X176.366 Y127.726
G01 X175.416 Y128.113
G01 X174.950 Y128.328
G01 X173.885 Y128.674
G01 X173.779 Y129.750
G01 X173.739 Y130.809
G01 X173.763 Y131.847
G01 X173.848 Y132.859
G01 X173.885 Y133.154
G01 X173.879 Y134.067
G01 X173.885 Y134.274
G01 X173.803 Y133.333
G01 X173.776 Y132.370
G01 X173.805 Y131.389
G01 X173.885 Y130.456
G01 X173.758 Y129.270
G01 X173.711 Y128.051
G01 X173.745 Y126.802
G01 X173.864 Y125.528
G01 X173.885 Y125.365
G01 X173.758 Y123.725
G01 X173.755 Y122.040
G01 X173.880 Y120.318
G01 X173.885 Y120.274
G01 X173.737 Y121.975
G01 X173.715 Y123.642
G01 X173.815 Y125.265
G01 X173.885 Y125.874
G01 X175.905 Y126.365
G01 X177.834 Y127.016
G01 X179.211 Y127.604
G01 X179.641 Y126.847
G01 X180.120 Y126.103
G01 X180.648 Y125.375
G01 X181.223 Y124.666
G01 X181.844 Y123.980
G01 X182.441 Y123.154
G01 X182.503 Y123.074
G01 X179.211 Y118.543
G01 X178.011 Y118.815
G01 X176.811 Y119.153
G01 X175.617 Y119.559
G01 X174.430 Y120.032
G01 X173.885 Y120.274
G01 X175.075 Y119.780
G01 X176.273 Y119.356
G01 X177.477 Y118.999
G01 X178.682 Y118.710
G01 X178.727 Y118.701
G01 X179.819 Y118.244
G01 X180.928 Y117.843
G01 X182.052 Y117.498
G01 X183.189 Y117.211
G01 X183.569 Y117.127
G01 X184.667 Y116.702
G01 X185.792 Y116.329
G01 X186.941 Y116.011
G01 X187.200 Y115.948
G01 X186.039 Y116.209
G01 X184.897 Y116.527
G01 X183.777 Y116.899
G01 X182.680 Y117.324
G01 X181.874 Y117.678
G01 X181.741 Y120.367
G01 X181.849 Y123.010
G01 X181.874 Y123.278
G01 X182.964 Y123.509
G01 X184.012 Y123.806
G01 X185.013 Y124.163
G01 X185.964 Y124.579
G01 X186.135 Y124.662
G01 X186.980 Y124.929
G01 X187.200 Y125.009
G01 X187.812 Y123.957
G01 X188.520 Y122.932
G01 X189.325 Y121.941
G01 X189.833 Y121.384
G01 X190.492 Y120.478
G01 X189.494 Y118.847
G01 X188.338 Y117.271
G01 X187.200 Y115.948
G01 X188.495 Y117.509
G01 X189.630 Y119.136
G01 X190.192 Y120.066
G01 X191.108 Y121.165
G01 X191.916 Y122.304
G01 X192.437 Y123.155
G01 X193.133 Y123.946
G01 X193.758 Y124.762
G01 X194.311 Y125.600
G01 X194.681 Y126.244
G01 X195.183 Y126.912
G01 X195.429 Y127.274
G01 X194.983 Y126.523
G01 X194.476 Y125.786
G01 X193.908 Y125.067
G01 X193.454 Y124.555
G01 X192.827 Y123.624
G01 X192.137 Y122.743
G01 X191.269 Y122.922
G01 X190.422 Y123.144
G01 X189.601 Y123.406
G01 X188.807 Y123.709
G01 X188.041 Y124.048
G01 X187.877 Y124.128
G01 X187.121 Y124.364
G01 X186.811 Y124.474
G01 X186.666 Y127.031
G01 X186.762 Y129.559
G01 X186.811 Y130.074
G01 X187.365 Y130.163
G01 X187.902 Y130.283
G01 X188.421 Y130.430
G01 X188.920 Y130.605
G01 X189.398 Y130.805
G01 X189.854 Y131.029
G01 X190.007 Y131.112
G01 X190.439 Y131.204
G01 X190.862 Y131.316
G01 X191.275 Y131.449
G01 X191.678 Y131.601
G01 X192.068 Y131.771
G01 X192.137 Y131.804
G01 X193.026 Y130.360
G01 X194.061 Y128.988
G01 X194.771 Y128.180
G01 X195.429 Y127.274
G01 X194.144 Y128.790
G01 X193.023 Y130.398
G01 X192.437 Y131.392
G01 X191.818 Y132.120
G01 X191.278 Y132.885
G01 X190.940 Y133.452
G01 X190.582 Y133.798
G01 X190.260 Y134.163
G01 X189.975 Y134.544
G01 X189.728 Y134.937
G01 X189.519 Y135.341
G01 X189.444 Y135.511
G01 X189.254 Y135.712
G01 X189.082 Y135.921
G01 X188.929 Y136.135
G01 X188.794 Y136.355
G01 X188.696 Y136.541
G01 X188.558 Y136.677
G01 X188.429 Y136.819
G01 X188.311 Y136.964
G01 X188.204 Y137.114
G01 X188.107 Y137.267
G01 X188.020 Y137.422
G01 X187.948 Y137.570
G01 X187.835 Y137.678
G01 X187.728 Y137.792
G01 X187.627 Y137.910
G01 X187.532 Y138.032
G01 X187.444 Y138.159
G01 X187.361 Y138.290
G01 X187.286 Y138.425
G01 X187.217 Y138.563
G01 X187.200 Y138.600
G01 X184.293 Y137.489
G01 X181.277 Y136.662
G01 X181.148 Y136.634
G01 X173.885 Y134.274
G01 X172.702 Y132.879
G01 X171.619 Y131.356
G01 X170.893 Y130.155
G01 X169.038 Y127.863
G01 X167.368 Y125.367
G01 X167.152 Y125.007
G01 X165.656 Y122.948
G01 X163.685 Y123.430
G01 X161.706 Y124.066
G01 X159.728 Y124.859
G01 X159.604 Y124.914
G01 X157.024 Y125.605
G01 X154.444 Y126.514
G01 X153.552 Y126.880
G01 X152.341 Y127.274
G01 X152.227 Y129.269
G01 X152.216 Y131.244
G01 X152.307 Y133.194
G01 X152.341 Y133.637
G01 X152.230 Y135.511
G01 X152.211 Y137.381
G01 X152.285 Y139.241
G01 X152.341 Y140.001
G01 X152.341 Y141.274
G01 X156.509 Y142.783
G01 X159.604 Y143.634
G01 X162.364 Y144.689
G01 X165.147 Y145.483
G01 X165.656 Y145.600
G01 X166.513 Y144.202
G01 X167.445 Y142.901
G01 X168.446 Y141.703
G01 X168.649 Y141.481
G01 X169.315 Y140.418
G01 X170.033 Y139.423
G01 X170.797 Y138.499
G01 X170.893 Y138.392
G01 X171.428 Y137.515
G01 X172.001 Y136.686
G01 X172.611 Y135.906
G01 X173.137 Y135.303
G01 X173.657 Y134.571
G01 X173.885 Y134.274
G01 X172.666 Y132.864
G01 X171.549 Y131.323
G01 X170.594 Y129.743
G01 X168.900 Y130.141
G01 X167.201 Y130.681
G01 X165.507 Y131.365
G01 X165.268 Y131.474
G01 X165.155 Y132.778
G01 X165.111 Y134.072
G01 X165.133 Y135.354
G01 X165.220 Y136.618
G01 X165.268 Y137.074
G01 X169.910 Y138.618
G01 X170.594 Y138.804
G01 X171.121 Y137.903
G01 X171.688 Y137.050
G01 X172.293 Y136.248
G01 X172.932 Y135.498
G01 X173.227 Y135.180
G01 X173.748 Y134.453
G01 X173.885 Y134.274
G01 X173.282 Y134.968
G01 X172.709 Y135.709
G01 X172.168 Y136.494
G01 X171.665 Y137.321
G01 X171.641 Y137.363
G01 X170.922 Y138.209
G01 X170.243 Y139.120
G01 X169.609 Y140.094
G01 X169.397 Y140.452
G01 X168.453 Y141.533
G01 X167.569 Y142.707
G01 X166.750 Y143.971
G01 X166.404 Y144.570
G01 X165.656 Y145.600
G01 X166.546 Y144.196
G01 X167.512 Y142.893
G01 X168.289 Y141.976
G01 X168.948 Y141.070
G01 X168.069 Y140.037
G01 X167.244 Y138.920
G01 X166.477 Y137.723
G01 X166.315 Y137.445
G01 X165.656 Y136.539
G01 X162.492 Y137.458
G01 X160.330 Y138.270
G01 X160.229 Y139.727
G01 X160.199 Y141.190
G01 X160.241 Y142.656
G01 X160.330 Y143.870
G01 X163.032 Y144.873
G01 X165.656 Y145.600
G01 X162.870 Y144.853
G01 X160.105 Y143.845
G01 X159.604 Y143.634
G01 X155.399 Y142.422
G01 X152.341 Y141.274
G01 X156.779 Y142.760
G01 X157.667 Y143.004
G01 X158.704 Y141.364
G01 X159.822 Y139.833
G01 X160.959 Y138.474
G01 X159.665 Y136.908
G01 X158.458 Y135.211
G01 X157.667 Y133.943
G01 X153.967 Y135.066
G01 X152.341 Y135.674
G01 X152.249 Y137.532
G01 X152.249 Y139.388
G01 X152.339 Y141.239
G01 X152.341 Y141.274
G01 X152.231 Y139.423
G01 X152.211 Y137.564
G01 X152.283 Y135.703
G01 X152.341 Y134.910
G01 X152.228 Y132.993
G01 X152.214 Y131.052
G01 X152.300 Y129.093
G01 X152.341 Y128.546
G01 X152.341 Y127.274
G01 X152.247 Y129.274
G01 X152.256 Y131.253
G01 X152.341 Y132.874
G01 X157.667 Y134.604
G01 X158.582 Y133.157
G01 X159.559 Y131.787
G01 X160.594 Y130.495
G01 X160.959 Y130.074
G01 X159.114 Y127.720
G01 X157.667 Y125.543
G01 X154.901 Y126.331
G01 X152.341 Y127.274
G01 X155.058 Y126.247
G01 X157.780 Y125.454
G01 X158.394 Y125.307
G01 X160.478 Y124.471
G01 X162.565 Y123.803
G01 X164.446 Y123.341
G01 X165.656 Y122.948
G01 X163.714 Y123.448
G01 X161.765 Y124.100
G01 X160.330 Y124.678
G01 X160.220 Y126.428
G01 X160.209 Y128.152
G01 X160.293 Y129.843
G01 X160.330 Y130.278
G01 X165.656 Y132.009
G01 X166.313 Y130.914
G01 X167.018 Y129.864
G01 X167.769 Y128.862
G01 X168.562 Y127.908
G01 X168.948 Y127.478
G01 X166.716 Y124.555
G01 X165.656 Y122.948
G01 X167.674 Y125.942
G01 X169.397 Y128.096
G01 X170.678 Y130.067
G01 X172.099 Y131.882
G01 X172.389 Y132.214
G01 X173.347 Y133.595
G01 X173.885 Y134.274
G01 X173.282 Y134.968
G01 X172.709 Y135.709
G01 X172.168 Y136.494
G01 X171.665 Y137.321
G01 X171.641 Y137.363
G01 X170.922 Y138.209
G01 X170.243 Y139.120
G01 X169.609 Y140.094
G01 X169.397 Y140.452
G01 X168.453 Y141.533
G01 X167.569 Y142.707
G01 X166.750 Y143.971
G01 X166.404 Y144.570
G01 X165.656 Y145.600
G01 X152.341 Y149.926
G01 X152.225 Y151.968
G01 X152.221 Y154.044
G01 X152.330 Y156.148
G01 X152.341 Y156.290
G01 X152.223 Y158.592
G01 X152.241 Y160.944
G01 X152.341 Y162.654
G01 X152.341 Y163.926
G01 X154.813 Y164.861
G01 X157.282 Y165.612
G01 X158.394 Y165.893
G01 X160.484 Y166.705
G01 X162.576 Y167.376
G01 X164.446 Y167.859
G01 X165.656 Y168.252
G01 X173.790 Y157.044
G01 X173.885 Y156.926
G01 X173.134 Y156.058
G01 X172.428 Y155.158
G01 X171.771 Y154.227
G01 X171.162 Y153.268
G01 X170.893 Y152.808
G01 X170.143 Y151.942
G01 X169.431 Y151.033
G01 X168.762 Y150.083
G01 X168.137 Y149.094
G01 X167.900 Y148.689
G01 X167.115 Y147.725
G01 X166.371 Y146.704
G01 X165.673 Y145.628
G01 X165.656 Y145.600
G01 X160.330 Y147.330
G01 X160.223 Y148.928
G01 X160.203 Y150.553
G01 X160.272 Y152.202
G01 X160.330 Y152.930
G01 X162.325 Y153.714
G01 X164.322 Y154.335
G01 X165.656 Y154.661
G01 X167.302 Y152.194
G01 X168.948 Y150.130
G01 X168.147 Y149.224
G01 X167.386 Y148.263
G01 X166.667 Y147.249
G01 X165.994 Y146.185
G01 X165.656 Y145.600
G01 X166.318 Y146.687
G01 X167.026 Y147.723
G01 X167.778 Y148.705
G01 X168.571 Y149.633
G01 X168.649 Y149.719
G01 X169.245 Y150.706
G01 X169.886 Y151.659
G01 X170.571 Y152.575
G01 X171.297 Y153.451
G01 X171.641 Y153.837
G01 X172.254 Y154.794
G01 X172.918 Y155.724
G01 X173.630 Y156.625
G01 X173.885 Y156.926
G01 X173.125 Y156.067
G01 X172.409 Y155.174
G01 X171.741 Y154.250
G01 X171.121 Y153.297
G01 X170.594 Y152.396
G01 X165.310 Y154.115
G01 X165.268 Y154.126
G01 X165.145 Y155.862
G01 X165.135 Y157.643
G01 X165.242 Y159.462
G01 X165.268 Y159.726
G01 X166.879 Y160.375
G01 X168.493 Y160.915
G01 X170.103 Y161.346
G01 X170.594 Y161.457
G01 X173.885 Y156.926
G01 X165.740 Y168.125
G01 X165.656 Y168.252
G01 X168.948 Y163.722
G01 X167.948 Y162.519
G01 X167.015 Y161.275
G01 X166.151 Y159.994
G01 X165.656 Y159.191
G01 X160.771 Y160.801
G01 X160.330 Y160.922
G01 X160.221 Y163.268
G01 X160.273 Y165.673
G01 X160.330 Y166.522
G01 X162.339 Y167.283
G01 X164.350 Y167.913
G01 X165.656 Y168.252
G01 X163.632 Y167.726
G01 X161.602 Y167.067
G01 X159.604 Y166.286
G01 X157.224 Y165.644
G01 X154.837 Y164.830
G01 X153.552 Y164.320
G01 X152.341 Y163.926
G01 X154.839 Y164.842
G01 X157.333 Y165.573
G01 X157.667 Y165.657
G01 X160.959 Y161.126
G01 X159.843 Y159.751
G01 X158.792 Y158.316
G01 X157.810 Y156.826
G01 X157.667 Y156.596
G01 X152.341 Y158.326
G01 X152.245 Y160.723
G01 X152.296 Y163.172
G01 X152.341 Y163.926
G01 X152.221 Y161.476
G01 X152.249 Y159.073
G01 X152.341 Y157.563
G01 X152.224 Y155.409
G01 X152.225 Y153.286
G01 X152.341 Y151.202
G01 X152.341 Y151.199
G01 X152.341 Y149.926
G01 X152.246 Y151.961
G01 X152.261 Y154.029
G01 X152.341 Y155.526
G01 X154.977 Y156.494
G01 X157.612 Y157.243
G01 X157.667 Y157.257
G01 X159.699 Y154.308
G01 X160.959 Y152.726
G01 X159.911 Y151.461
G01 X158.918 Y150.123
G01 X157.985 Y148.714
G01 X157.667 Y148.196
G01 X152.341 Y149.926
G01 X165.656 Y145.600
G01 X166.318 Y146.687
G01 X167.026 Y147.723
G01 X167.778 Y148.705
G01 X168.571 Y149.633
G01 X168.649 Y149.719
G01 X169.245 Y150.706
G01 X169.886 Y151.659
G01 X170.571 Y152.575
G01 X171.297 Y153.451
G01 X171.641 Y153.837
G01 X172.254 Y154.794
G01 X172.918 Y155.724
G01 X173.630 Y156.625
G01 X173.885 Y156.926
G01 X173.762 Y158.824
G01 X173.790 Y160.772
G01 X173.885 Y162.017
G01 X173.732 Y164.682
G01 X173.805 Y167.410
G01 X173.885 Y168.381
G01 X173.885 Y170.926
G01 X175.475 Y171.564
G01 X177.089 Y172.121
G01 X178.722 Y172.595
G01 X179.937 Y172.893
G01 X181.518 Y173.527
G01 X183.136 Y174.086
G01 X184.789 Y174.566
G01 X185.990 Y174.859
G01 X187.200 Y175.252
G01 X189.003 Y173.018
G01 X190.581 Y170.698
G01 X190.940 Y170.104
G01 X192.289 Y168.444
G01 X193.478 Y166.727
G01 X193.933 Y165.986
G01 X194.970 Y164.609
G01 X195.429 Y163.926
G01 X193.862 Y161.967
G01 X192.502 Y159.916
G01 X192.437 Y159.808
G01 X191.365 Y158.582
G01 X190.419 Y157.303
G01 X189.603 Y155.978
G01 X189.444 Y155.689
G01 X188.738 Y154.898
G01 X188.108 Y154.077
G01 X187.556 Y153.232
G01 X187.200 Y152.600
G01 X186.448 Y152.947
G01 X185.656 Y153.249
G01 X184.826 Y153.503
G01 X183.961 Y153.707
G01 X183.569 Y153.780
G01 X182.484 Y154.236
G01 X181.341 Y154.617
G01 X180.142 Y154.918
G01 X179.937 Y154.960
G01 X178.338 Y155.624
G01 X176.651 Y156.164
G01 X175.096 Y156.533
G01 X173.885 Y156.926
G01 X173.743 Y158.846
G01 X173.754 Y160.818
G01 X173.885 Y162.526
G01 X175.161 Y163.056
G01 X176.449 Y163.515
G01 X177.746 Y163.903
G01 X179.049 Y164.222
G01 X179.211 Y164.257
G01 X182.160 Y160.250
G01 X182.503 Y159.726
G01 X181.750 Y158.863
G01 X181.063 Y157.975
G01 X180.444 Y157.066
G01 X179.891 Y156.140
G01 X179.869 Y156.102
G01 X179.287 Y155.306
G01 X179.211 Y155.196
G01 X177.477 Y155.921
G01 X175.648 Y156.511
G01 X173.885 Y156.926
G01 X175.822 Y156.436
G01 X177.670 Y155.800
G01 X178.727 Y155.353
G01 X180.068 Y155.019
G01 X181.348 Y154.593
G01 X182.358 Y154.173
G01 X183.334 Y153.963
G01 X184.271 Y153.692
G01 X185.164 Y153.364
G01 X185.990 Y152.993
G01 X186.736 Y152.767
G01 X187.200 Y152.600
G01 X186.453 Y152.929
G01 X185.667 Y153.215
G01 X184.845 Y153.453
G01 X184.004 Y153.638
G01 X183.002 Y154.009
G01 X181.950 Y154.312
G01 X181.874 Y154.330
G01 X181.720 Y156.432
G01 X181.755 Y158.579
G01 X181.874 Y159.930
G01 X182.842 Y160.362
G01 X183.832 Y160.747
G01 X184.843 Y161.083
G01 X185.873 Y161.370
G01 X186.918 Y161.606
G01 X187.200 Y161.661
G01 X188.390 Y160.212
G01 X189.432 Y158.703
G01 X189.833 Y158.037
G01 X190.492 Y157.130
G01 X189.669 Y156.220
G01 X188.937 Y155.272
G01 X188.297 Y154.294
G01 X187.858 Y153.506
G01 X187.324 Y152.784
G01 X187.200 Y152.600
G01 X187.695 Y153.459
G01 X188.269 Y154.298
G01 X188.919 Y155.112
G01 X189.444 Y155.689
G01 X190.233 Y157.022
G01 X191.151 Y158.312
G01 X192.196 Y159.549
G01 X192.437 Y159.808
G01 X193.786 Y161.862
G01 X195.343 Y163.827
G01 X195.429 Y163.926
G01 X193.872 Y162.023
G01 X192.516 Y160.029
G01 X192.137 Y159.396
G01 X191.202 Y159.796
G01 X190.233 Y160.150
G01 X189.232 Y160.456
G01 X188.202 Y160.711
G01 X187.877 Y160.780
G01 X186.811 Y161.126
G01 X186.811 Y166.726
G01 X188.098 Y167.260
G01 X189.430 Y167.732
G01 X190.803 Y168.137
G01 X192.137 Y168.457
G01 X193.367 Y167.002
G01 X194.459 Y165.498
G01 X195.413 Y163.955
G01 X195.429 Y163.926
G01 X194.474 Y165.445
G01 X193.382 Y166.924
G01 X192.437 Y168.045
G01 X191.132 Y170.105
G01 X189.631 Y172.100
G01 X188.696 Y173.193
G01 X187.200 Y175.252
G01 X189.005 Y172.959
G01 X190.492 Y170.722
G01 X189.042 Y168.953
G01 X187.766 Y167.120
G01 X187.200 Y166.191
G01 X185.800 Y166.774
G01 X184.337 Y167.281
G01 X182.814 Y167.707
G01 X181.874 Y167.922
G01 X181.874 Y173.522
G01 X183.478 Y174.145
G01 X185.124 Y174.691
G01 X186.808 Y175.157
G01 X187.200 Y175.252
G01 X185.506 Y174.825
G01 X183.846 Y174.316
G01 X182.226 Y173.729
G01 X181.148 Y173.286
G01 X179.506 Y172.873
G01 X177.883 Y172.379
G01 X176.283 Y171.805
G01 X175.096 Y171.320
G01 X173.885 Y170.926
G01 X175.483 Y171.547
G01 X177.103 Y172.086
G01 X178.741 Y172.542
G01 X179.211 Y172.657
G01 X182.008 Y168.879
G01 X182.503 Y168.126
G01 X181.413 Y166.846
G01 X180.429 Y165.529
G01 X179.554 Y164.182
G01 X179.211 Y163.596
G01 X177.399 Y164.326
G01 X175.491 Y164.932
G01 X173.885 Y165.326
G01 X173.781 Y168.486
G01 X173.885 Y170.926
G01 X173.746 Y167.776
G01 X173.874 Y164.692
G01 X173.885 Y164.563
G01 X173.770 Y162.273
G01 X173.839 Y160.034
G01 X173.885 Y159.472
G01 X173.857 Y157.665
G01 X173.885 Y156.926
G01 X175.822 Y156.436
G01 X177.670 Y155.800
G01 X178.727 Y155.353
G01 X180.068 Y155.019
G01 X181.348 Y154.593
G01 X182.358 Y154.173
G01 X183.334 Y153.963
G01 X184.271 Y153.692
G01 X185.164 Y153.364
G01 X185.990 Y152.993
G01 X186.736 Y152.767
G01 X187.200 Y152.600
G01 X186.448 Y152.947
G01 X185.656 Y153.249
G01 X184.826 Y153.503
G01 X183.961 Y153.707
G01 X183.569 Y153.780
G01 X182.484 Y154.236
G01 X181.341 Y154.617
G01 X180.142 Y154.918
G01 X179.937 Y154.960
G01 X178.338 Y155.624
G01 X176.651 Y156.164
G01 X175.096 Y156.533
G01 X173.885 Y156.926
G01 X173.762 Y158.824
G01 X173.790 Y160.772
G01 X173.885 Y162.017
G01 X173.732 Y164.682
G01 X173.805 Y167.410
G01 X173.885 Y168.381
G01 X173.885 Y170.926
G01 X175.475 Y171.564
G01 X177.089 Y172.121
G01 X178.722 Y172.595
G01 X179.937 Y172.893
G01 X181.518 Y173.527
G01 X183.136 Y174.086
G01 X184.789 Y174.566
G01 X185.990 Y174.859
G01 X187.200 Y175.252
G01 X189.003 Y173.018
G01 X190.581 Y170.698
G01 X190.940 Y170.104
G01 X192.289 Y168.444
G01 X193.478 Y166.727
G01 X193.933 Y165.986
G01 X194.970 Y164.609
G01 X195.429 Y163.926
G01 X193.862 Y161.967
G01 X192.502 Y159.916
G01 X192.437 Y159.808
G01 X191.365 Y158.582
G01 X190.419 Y157.303
G01 X189.603 Y155.978
G01 X189.444 Y155.689
G01 X188.738 Y154.898
G01 X188.108 Y154.077
G01 X187.556 Y153.232
G01 X187.200 Y152.600
G01 X186.453 Y152.929
G01 X185.667 Y153.215
G01 X184.845 Y153.453
G01 X184.004 Y153.638
G01 X183.002 Y154.009
G01 X181.950 Y154.312
G01 X181.874 Y154.330
G01 X181.720 Y156.432
G01 X181.755 Y158.579
G01 X181.874 Y159.930
G01 X182.842 Y160.362
G01 X183.832 Y160.747
G01 X184.843 Y161.083
G01 X185.873 Y161.370
G01 X186.918 Y161.606
G01 X187.200 Y161.661
G01 X188.390 Y160.212
G01 X189.432 Y158.703
G01 X189.833 Y158.037
G01 X190.492 Y157.130
G01 X189.669 Y156.220
G01 X188.937 Y155.272
G01 X188.297 Y154.294
G01 X187.858 Y153.506
G01 X187.324 Y152.784
G01 X187.200 Y152.600
G01 X187.695 Y153.459
G01 X188.269 Y154.298
G01 X188.919 Y155.112
G01 X189.444 Y155.689
G01 X190.233 Y157.022
G01 X191.151 Y158.312
G01 X192.196 Y159.549
G01 X192.437 Y159.808
G01 X193.786 Y161.862
G01 X195.343 Y163.827
G01 X195.429 Y163.926
G01 X193.872 Y162.023
G01 X192.516 Y160.029
G01 X192.137 Y159.396
G01 X191.202 Y159.796
G01 X190.233 Y160.150
G01 X189.232 Y160.456
G01 X188.202 Y160.711
G01 X187.877 Y160.780
G01 X186.811 Y161.126
G01 X186.811 Y166.726
G01 X188.098 Y167.260
G01 X189.430 Y167.732
G01 X190.803 Y168.137
G01 X192.137 Y168.457
G01 X193.367 Y167.002
G01 X194.459 Y165.498
G01 X195.413 Y163.955
G01 X195.429 Y163.926
G01 X194.474 Y165.445
G01 X193.382 Y166.924
G01 X192.437 Y168.045
G01 X191.132 Y170.105
G01 X189.631 Y172.100
G01 X188.696 Y173.193
G01 X187.200 Y175.252
G01 X189.005 Y172.959
G01 X190.492 Y170.722
G01 X189.042 Y168.953
G01 X187.766 Y167.120
G01 X187.200 Y166.191
G01 X185.800 Y166.774
G01 X184.337 Y167.281
G01 X182.814 Y167.707
G01 X181.874 Y167.922
G01 X181.874 Y173.522
G01 X183.478 Y174.145
G01 X185.124 Y174.691
G01 X186.808 Y175.157
G01 X187.200 Y175.252
G01 X185.506 Y174.825
G01 X183.846 Y174.316
G01 X182.226 Y173.729
G01 X181.148 Y173.286
G01 X179.506 Y172.873
G01 X177.883 Y172.379
G01 X176.283 Y171.805
G01 X175.096 Y171.320
G01 X173.885 Y170.926
G01 X175.483 Y171.547
G01 X177.103 Y172.086
G01 X178.741 Y172.542
G01 X179.211 Y172.657
G01 X182.008 Y168.879
G01 X182.503 Y168.126
G01 X181.413 Y166.846
G01 X180.429 Y165.529
G01 X179.554 Y164.182
G01 X179.211 Y163.596
G01 X177.399 Y164.326
G01 X175.491 Y164.932
G01 X173.885 Y165.326
G01 X173.781 Y168.486
G01 X173.885 Y170.926
G01 X173.746 Y167.776
G01 X173.874 Y164.692
G01 X173.885 Y164.563
G01 X173.770 Y162.273
G01 X173.839 Y160.034
G01 X173.885 Y159.472
G01 X173.857 Y157.665
G01 X173.885 Y156.926
G01 X173.743 Y158.846
G01 X173.754 Y160.818
G01 X173.885 Y162.526
G01 X175.161 Y163.056
G01 X176.449 Y163.515
G01 X177.746 Y163.903
G01 X179.049 Y164.222
G01 X179.211 Y164.257
G01 X182.160 Y160.250
G01 X182.503 Y159.726
G01 X181.750 Y158.863
G01 X181.063 Y157.975
G01 X180.444 Y157.066
G01 X179.891 Y156.140
G01 X179.869 Y156.102
G01 X179.287 Y155.306
G01 X179.211 Y155.196
G01 X177.477 Y155.921
G01 X175.648 Y156.511
G01 X173.885 Y156.926
G01 X175.822 Y156.436
G01 X177.670 Y155.800
G01 X178.727 Y155.353
G01 X180.068 Y155.019
G01 X181.348 Y154.593
G01 X182.358 Y154.173
G01 X183.334 Y153.963
G01 X184.271 Y153.692
G01 X185.164 Y153.364
G01 X185.990 Y152.993
G01 X186.736 Y152.767
G01 X187.200 Y152.600
G01 X187.695 Y153.459
G01 X188.269 Y154.298
G01 X188.919 Y155.112
G01 X189.444 Y155.689
G01 X190.233 Y157.022
G01 X191.151 Y158.312
G01 X192.196 Y159.549
G01 X192.437 Y159.808
G01 X193.786 Y161.862
G01 X195.343 Y163.827
G01 X195.429 Y163.926
G01 X195.551 Y171.572
G01 X195.429 Y174.108
G01 X195.429 Y177.926
G01 X197.500 Y178.731
G01 X199.662 Y179.421
G01 X201.481 Y179.893
G01 X203.953 Y180.826
G01 X206.542 Y181.608
G01 X207.533 Y181.859
G01 X208.744 Y182.252
G01 X210.302 Y180.304
G01 X211.715 Y178.307
G01 X212.484 Y177.104
G01 X213.883 Y175.372
G01 X215.167 Y173.593
G01 X216.225 Y171.956
G01 X216.973 Y170.926
G01 X208.744 Y159.600
G01 X207.443 Y160.131
G01 X206.137 Y160.583
G01 X204.828 Y160.956
G01 X203.902 Y161.173
G01 X202.742 Y161.653
G01 X201.569 Y162.070
G01 X200.386 Y162.425
G01 X199.196 Y162.717
G01 X199.060 Y162.746
G01 X197.938 Y163.178
G01 X196.796 Y163.555
G01 X195.636 Y163.876
G01 X195.429 Y163.926
G01 X195.429 Y169.526
G01 X197.099 Y170.194
G01 X198.847 Y170.766
G01 X200.668 Y171.237
G01 X200.755 Y171.257
G01 X201.933 Y169.836
G01 X202.999 Y168.377
G01 X203.952 Y166.887
G01 X204.047 Y166.726
G01 X200.755 Y162.196
G01 X199.642 Y162.671
G01 X198.508 Y163.091
G01 X197.357 Y163.454
G01 X196.190 Y163.759
G01 X195.429 Y163.926
G01 X196.601 Y163.646
G01 X197.758 Y163.308
G01 X198.898 Y162.914
G01 X200.018 Y162.464
G01 X200.271 Y162.353
G01 X201.480 Y162.063
G01 X202.686 Y161.707
G01 X203.884 Y161.286
G01 X205.071 Y160.798
G01 X205.112 Y160.780
G01 X206.441 Y160.419
G01 X207.769 Y159.977
G01 X208.744 Y159.600
G01 X207.453 Y160.143
G01 X206.155 Y160.607
G01 X204.855 Y160.993
G01 X203.556 Y161.302
G01 X203.418 Y161.330
G01 X203.540 Y164.070
G01 X203.423 Y166.868
G01 X203.418 Y166.930
G01 X205.577 Y167.762
G01 X207.848 Y168.443
G01 X208.744 Y168.661
G01 X209.846 Y167.320
G01 X210.863 Y165.940
G01 X211.793 Y164.527
G01 X212.035 Y164.130
G01 X208.744 Y159.600
G01 X216.973 Y170.926
G01 X213.681 Y166.396
G01 X211.978 Y167.059
G01 X210.268 Y167.620
G01 X208.557 Y168.079
G01 X208.355 Y168.126
G01 X208.447 Y171.548
G01 X208.355 Y173.726
G01 X211.186 Y174.750
G01 X213.681 Y175.457
G01 X215.028 Y173.760
G01 X216.266 Y172.018
G01 X216.973 Y170.926
G01 X215.815 Y172.710
G01 X214.547 Y174.453
G01 X213.232 Y176.075
G01 X211.940 Y178.048
G01 X210.509 Y179.979
G01 X209.492 Y181.223
G01 X208.744 Y182.252
G01 X210.290 Y180.281
G01 X211.690 Y178.263
G01 X212.035 Y177.722
G01 X208.744 Y173.191
G01 X206.987 Y173.860
G01 X205.210 Y174.437
G01 X203.418 Y174.922
G01 X203.418 Y180.522
G01 X206.030 Y181.472
G01 X208.744 Y182.252
G01 X206.021 Y181.497
G01 X203.419 Y180.579
G01 X202.692 Y180.286
G01 X200.388 Y179.671
G01 X198.176 Y178.929
G01 X196.639 Y178.320
G01 X195.429 Y177.926
G01 X197.495 Y178.705
G01 X199.649 Y179.370
G01 X200.755 Y179.657
G01 X202.260 Y177.765
G01 X203.607 Y175.824
G01 X204.047 Y175.126
G01 X200.755 Y170.596
G01 X199.269 Y171.182
G01 X197.752 Y171.696
G01 X196.206 Y172.136
G01 X195.429 Y172.326
G01 X195.429 Y177.926
G01 X195.530 Y168.561
G01 X195.429 Y166.472
G01 X195.429 Y163.926
G01 X196.601 Y163.646
G01 X197.758 Y163.308
G01 X198.898 Y162.914
G01 X200.018 Y162.464
G01 X200.271 Y162.353
G01 X201.480 Y162.063
G01 X202.686 Y161.707
G01 X203.884 Y161.286
G01 X205.071 Y160.798
G01 X205.112 Y160.780
G01 X206.441 Y160.419
G01 X207.769 Y159.977
G01 X208.744 Y159.600
G01 X211.910 Y160.768
G01 X214.796 Y161.566
G01 X219.511 Y163.225
G01 X222.059 Y163.926
G01 X223.303 Y162.398
G01 X224.474 Y160.804
G01 X225.569 Y159.150
G01 X225.799 Y158.778
G01 X227.089 Y157.190
G01 X228.309 Y155.520
G01 X229.453 Y153.771
G01 X229.539 Y153.630
G01 X230.288 Y152.600
G01 X228.568 Y150.014
G01 X226.698 Y147.628
G01 X226.547 Y147.452
G01 X225.235 Y145.399
G01 X223.814 Y143.494
G01 X222.807 Y142.303
G01 X222.059 Y141.274
G01 X218.547 Y142.542
G01 X216.006 Y143.240
G01 X213.632 Y144.131
G01 X211.238 Y144.797
G01 X211.165 Y144.813
G01 X209.384 Y145.421
G01 X208.744 Y145.600
G01 X208.856 Y146.657
G01 X208.908 Y147.739
G01 X208.898 Y148.841
G01 X208.825 Y149.961
G01 X208.744 Y150.691
G01 X208.864 Y152.023
G01 X208.897 Y153.391
G01 X208.839 Y154.791
G01 X208.744 Y155.782
G01 X208.819 Y157.493
G01 X208.769 Y159.248
G01 X208.744 Y159.600
G01 X211.858 Y160.718
G01 X214.070 Y161.330
G01 X215.076 Y160.114
G01 X216.020 Y158.851
G01 X216.901 Y157.543
G01 X217.361 Y156.800
G01 X215.387 Y153.921
G01 X214.070 Y152.270
G01 X212.532 Y152.916
G01 X210.991 Y153.443
G01 X209.455 Y153.850
G01 X208.744 Y154.000
G01 X208.882 Y155.604
G01 X208.907 Y157.253
G01 X208.812 Y158.940
G01 X208.744 Y159.600
G01 X208.866 Y157.882
G01 X208.867 Y156.202
G01 X208.750 Y154.566
G01 X208.744 Y154.509
G01 X208.865 Y153.175
G01 X208.902 Y151.865
G01 X208.857 Y150.584
G01 X208.744 Y149.418
G01 X208.821 Y148.327
G01 X208.837 Y147.251
G01 X208.794 Y146.194
G01 X208.744 Y145.600
G01 X208.838 Y146.651
G01 X208.874 Y147.725
G01 X208.849 Y148.818
G01 X208.761 Y149.927
G01 X208.744 Y150.080
G01 X208.744 Y151.200
G01 X214.070 Y152.930
G01 X214.970 Y151.874
G01 X215.824 Y150.760
G01 X216.629 Y149.591
G01 X217.361 Y148.400
G01 X216.283 Y146.677
G01 X215.104 Y145.081
G01 X214.070 Y143.870
G01 X212.084 Y144.672
G01 X210.082 Y145.290
G01 X208.744 Y145.600
G01 X210.712 Y145.096
G01 X212.672 Y144.411
G01 X213.586 Y144.027
G01 X216.581 Y143.206
G01 X219.547 Y142.099
G01 X219.638 Y142.060
G01 X222.059 Y141.274
G01 X218.448 Y142.533
G01 X216.733 Y143.004
G01 X216.840 Y144.359
G01 X216.879 Y145.731
G01 X216.846 Y147.118
G01 X216.742 Y148.515
G01 X216.733 Y148.604
G01 X222.059 Y150.335
G01 X223.207 Y148.932
G01 X224.294 Y147.442
G01 X225.313 Y145.865
G01 X225.350 Y145.804
G01 X224.110 Y143.893
G01 X222.771 Y142.119
G01 X222.059 Y141.274
G01 X223.479 Y142.981
G01 X224.805 Y144.830
G01 X225.799 Y146.422
G01 X227.595 Y148.668
G01 X229.252 Y151.104
G01 X229.539 Y151.570
G01 X230.288 Y152.600
G01 X228.520 Y150.001
G01 X226.996 Y148.070
G01 X223.938 Y149.168
G01 X221.670 Y149.800
G01 X221.775 Y151.569
G01 X221.782 Y153.372
G01 X221.686 Y155.203
G01 X221.670 Y155.400
G01 X226.996 Y157.130
G01 X228.295 Y155.498
G01 X229.521 Y153.779
G01 X230.288 Y152.600
G01 X229.131 Y154.382
G01 X227.898 Y156.081
G01 X226.594 Y157.694
G01 X226.547 Y157.748
G01 X225.462 Y159.427
G01 X224.300 Y161.042
G01 X223.066 Y162.590
G01 X222.807 Y162.897
G01 X222.059 Y163.926
G01 X223.287 Y162.387
G01 X224.442 Y160.785
G01 X225.350 Y159.396
G01 X223.007 Y156.056
G01 X222.059 Y154.865
G01 X219.904 Y155.693
G01 X217.749 Y156.347
G01 X216.733 Y156.596
G01 X216.851 Y158.554
G01 X216.839 Y160.562
