;  Created by Sandify
;  https://sandify.org
;  Version: 0.2.4
;
;  Machine type: Rectangular
;    Min X (mm): 0
;    Max X (mm): 380
;    Min Y (mm): 0
;    Max Y (mm): 280
;  Content type: shape
;  Layer:
;    Shape: FileImport
;    Name: SierpinskiTriangle.thr
;    From file:: SierpinskiTriangle.thr
;    Aspect Ratio: true
;    Comments: 
;    Visible: true
;    Initial width: 10
;    Initial height: 10
;    X offset: 0
;    Y offset: 0
;    Rotate (degrees): 0
;    Reverse path: false
;    Fine tuning:
;      Connect to next layer: line
;      Draw portion of path (%): 100
;      Backtrack at end (%): 0
;      Rotate starting point (%): 0
;  Reverse export path: false
;
; File name: 'SierpinskiTriangle'
;

G01 X190.000 Y140.000
G01 X190.000 Y147.875
G01 X189.620 Y147.729
G01 X189.255 Y147.565
G01 X188.905 Y147.384
G01 X188.570 Y147.187
G01 X188.253 Y146.975
G01 X187.952 Y146.750
G01 X187.727 Y146.563
G01 X187.407 Y146.443
G01 X187.094 Y146.308
G01 X186.788 Y146.158
G01 X186.490 Y145.993
G01 X186.200 Y145.813
G01 X185.920 Y145.620
G01 X185.649 Y145.413
G01 X185.453 Y145.250
G01 X185.107 Y145.120
G01 X184.762 Y144.967
G01 X184.421 Y144.794
G01 X184.084 Y144.598
G01 X183.754 Y144.381
G01 X183.430 Y144.142
G01 X183.180 Y143.938
G01 X188.863 Y140.656
G01 X188.880 Y140.576
G01 X188.901 Y140.498
G01 X188.927 Y140.424
G01 X188.957 Y140.354
G01 X188.992 Y140.288
G01 X189.031 Y140.226
G01 X189.073 Y140.169
G01 X189.118 Y140.116
G01 X189.166 Y140.068
G01 X189.217 Y140.026
G01 X189.269 Y139.988
G01 X189.324 Y139.956
G01 X189.379 Y139.929
G01 X189.435 Y139.907
G01 X189.492 Y139.890
G01 X189.549 Y139.879
G01 X189.606 Y139.874
G01 X189.662 Y139.873
G01 X189.718 Y139.878
G01 X189.771 Y139.887
G01 X189.823 Y139.902
G01 X189.873 Y139.921
G01 X189.921 Y139.945
G01 X189.966 Y139.974
G01 X190.000 Y140.000
G01 X189.977 Y139.983
G01 X189.953 Y139.968
G01 X189.927 Y139.956
G01 X189.900 Y139.946
G01 X189.872 Y139.938
G01 X189.843 Y139.934
G01 X189.813 Y139.932
G01 X189.783 Y139.932
G01 X189.752 Y139.936
G01 X189.722 Y139.942
G01 X189.691 Y139.952
G01 X189.661 Y139.964
G01 X189.631 Y139.979
G01 X189.602 Y139.997
G01 X189.574 Y140.018
G01 X189.547 Y140.041
G01 X189.521 Y140.067
G01 X189.497 Y140.096
G01 X189.475 Y140.127
G01 X189.455 Y140.161
G01 X189.436 Y140.197
G01 X189.420 Y140.235
G01 X189.407 Y140.275
G01 X189.396 Y140.317
G01 X189.387 Y140.361
G01 X189.382 Y140.406
G01 X189.380 Y140.453
G01 X189.381 Y140.501
G01 X189.385 Y140.549
G01 X189.392 Y140.599
G01 X189.403 Y140.649
G01 X189.417 Y140.699
G01 X189.435 Y140.750
G01 X189.457 Y140.800
G01 X189.482 Y140.850
G01 X189.511 Y140.899
G01 X189.543 Y140.948
G01 X189.579 Y140.995
G01 X189.619 Y141.041
G01 X189.662 Y141.086
G01 X189.708 Y141.129
G01 X189.758 Y141.170
G01 X189.811 Y141.208
G01 X189.868 Y141.244
G01 X189.928 Y141.278
G01 X189.990 Y141.308
G01 X190.000 Y141.313
G01 X190.000 Y147.875
G01 X190.000 Y155.750
G01 X189.243 Y155.417
G01 X188.518 Y155.049
G01 X187.827 Y154.647
G01 X187.173 Y154.214
G01 X186.590 Y153.781
G01 X185.946 Y153.504
G01 X185.321 Y153.197
G01 X184.716 Y152.862
G01 X184.132 Y152.499
G01 X183.572 Y152.110
G01 X183.180 Y151.813
G01 X184.148 Y151.393
G01 X185.057 Y150.909
G01 X185.904 Y150.364
G01 X186.590 Y149.844
G01 X187.201 Y149.575
G01 X187.778 Y149.270
G01 X188.317 Y148.934
G01 X188.818 Y148.568
G01 X188.863 Y148.531
G01 X189.306 Y148.307
G01 X189.724 Y148.060
G01 X190.000 Y147.875
G01 X190.000 Y141.313
G01 X189.937 Y141.280
G01 X189.878 Y141.244
G01 X189.821 Y141.205
G01 X189.768 Y141.164
G01 X189.719 Y141.121
G01 X189.674 Y141.076
G01 X189.632 Y141.029
G01 X189.594 Y140.980
G01 X189.560 Y140.931
G01 X189.529 Y140.881
G01 X189.503 Y140.829
G01 X189.480 Y140.778
G01 X189.461 Y140.726
G01 X189.446 Y140.675
G01 X189.435 Y140.623
G01 X189.427 Y140.573
G01 X189.423 Y140.523
G01 X189.422 Y140.474
G01 X189.425 Y140.426
G01 X189.431 Y140.380
G01 X189.440 Y140.336
G01 X189.452 Y140.293
G01 X189.466 Y140.252
G01 X189.484 Y140.214
G01 X189.503 Y140.178
G01 X189.525 Y140.144
G01 X189.549 Y140.113
G01 X189.575 Y140.085
G01 X189.603 Y140.059
G01 X189.631 Y140.036
G01 X189.661 Y140.017
G01 X189.692 Y140.000
G01 X189.724 Y139.986
G01 X189.756 Y139.976
G01 X189.789 Y139.969
G01 X189.822 Y139.964
G01 X189.854 Y139.963
G01 X189.886 Y139.965
G01 X189.917 Y139.970
G01 X189.948 Y139.978
G01 X189.977 Y139.989
G01 X190.000 Y140.000
G01 X189.942 Y139.973
G01 X189.881 Y139.952
G01 X189.818 Y139.937
G01 X189.754 Y139.928
G01 X189.688 Y139.925
G01 X189.622 Y139.929
G01 X189.555 Y139.939
G01 X189.489 Y139.955
G01 X189.423 Y139.977
G01 X189.359 Y140.006
G01 X189.296 Y140.042
G01 X189.235 Y140.083
G01 X189.176 Y140.131
G01 X189.121 Y140.184
G01 X189.069 Y140.243
G01 X189.021 Y140.308
G01 X188.977 Y140.378
G01 X188.938 Y140.453
G01 X188.904 Y140.532
G01 X188.875 Y140.616
G01 X188.863 Y140.656
G01 X183.180 Y143.938
G01 X183.111 Y144.442
G01 X183.076 Y144.962
G01 X183.076 Y145.496
G01 X183.112 Y146.041
G01 X183.180 Y146.563
G01 X183.060 Y147.367
G01 X183.004 Y148.198
G01 X183.014 Y149.051
G01 X183.091 Y149.921
G01 X183.180 Y150.500
G01 X183.176 Y151.728
G01 X183.180 Y151.813
G01 X182.556 Y151.545
G01 X181.942 Y151.245
G01 X181.339 Y150.913
G01 X180.750 Y150.548
G01 X180.176 Y150.151
G01 X179.770 Y149.844
G01 X179.062 Y149.536
G01 X178.361 Y149.183
G01 X177.668 Y148.783
G01 X176.988 Y148.337
G01 X176.360 Y147.875
G01 X183.180 Y143.938
G01 X188.863 Y140.656
G01 X188.913 Y140.559
G01 X188.968 Y140.467
G01 X189.030 Y140.383
G01 X189.098 Y140.306
G01 X189.171 Y140.237
G01 X189.248 Y140.175
G01 X189.328 Y140.122
G01 X189.412 Y140.077
G01 X189.499 Y140.041
G01 X189.587 Y140.014
G01 X189.677 Y139.995
G01 X189.768 Y139.985
G01 X189.858 Y139.984
G01 X189.948 Y139.991
G01 X190.000 Y140.000
G01 X189.964 Y139.995
G01 X189.927 Y139.993
G01 X189.890 Y139.995
G01 X189.854 Y140.001
G01 X189.818 Y140.010
G01 X189.782 Y140.022
G01 X189.747 Y140.039
G01 X189.714 Y140.058
G01 X189.681 Y140.081
G01 X189.651 Y140.107
G01 X189.622 Y140.137
G01 X189.596 Y140.169
G01 X189.571 Y140.205
G01 X189.550 Y140.243
G01 X189.531 Y140.284
G01 X189.515 Y140.327
G01 X189.503 Y140.372
G01 X189.493 Y140.419
G01 X189.487 Y140.468
G01 X189.485 Y140.519
G01 X189.487 Y140.571
G01 X189.492 Y140.623
G01 X189.502 Y140.677
G01 X189.516 Y140.731
G01 X189.533 Y140.785
G01 X189.555 Y140.840
G01 X189.582 Y140.893
G01 X189.612 Y140.947
G01 X189.647 Y140.999
G01 X189.686 Y141.050
G01 X189.729 Y141.100
G01 X189.776 Y141.148
G01 X189.828 Y141.193
G01 X189.883 Y141.237
G01 X189.942 Y141.278
G01 X190.000 Y141.313
G01 X190.000 Y155.750
G01 X190.000 Y163.625
G01 X188.865 Y163.105
G01 X187.781 Y162.531
G01 X186.750 Y161.908
G01 X185.775 Y161.240
G01 X185.453 Y161.000
G01 X184.497 Y160.495
G01 X183.580 Y159.947
G01 X183.180 Y159.687
G01 X184.422 Y159.081
G01 X185.588 Y158.402
G01 X186.590 Y157.719
G01 X187.547 Y157.278
G01 X188.452 Y156.788
G01 X189.303 Y156.252
G01 X190.000 Y155.750
G01 X190.000 Y163.625
G01 X190.000 Y171.500
G01 X188.489 Y170.750
G01 X187.052 Y169.929
G01 X185.692 Y169.043
G01 X185.453 Y168.875
G01 X184.139 Y168.151
G01 X183.180 Y167.563
G01 X184.749 Y166.799
G01 X186.227 Y165.950
G01 X187.608 Y165.024
G01 X187.727 Y164.937
G01 X188.985 Y164.255
G01 X190.000 Y163.625
G01 X190.000 Y155.750
G01 X189.198 Y156.323
G01 X188.340 Y156.853
G01 X187.428 Y157.337
G01 X186.590 Y157.719
G01 X185.498 Y158.459
G01 X184.326 Y159.132
G01 X183.180 Y159.687
G01 X183.009 Y163.916
G01 X183.180 Y167.563
G01 X181.911 Y166.944
G01 X180.686 Y166.267
G01 X179.508 Y165.537
G01 X178.633 Y164.938
G01 X177.453 Y164.292
G01 X176.360 Y163.625
G01 X178.393 Y162.596
G01 X180.291 Y161.429
G01 X180.907 Y161.000
G01 X182.419 Y160.168
G01 X183.180 Y159.687
G01 X184.422 Y159.081
G01 X185.588 Y158.402
G01 X186.590 Y157.719
G01 X187.547 Y157.278
G01 X188.452 Y156.788
G01 X189.303 Y156.252
G01 X190.000 Y155.750
G01 X190.000 Y141.313
G01 X189.937 Y141.281
G01 X189.877 Y141.247
G01 X189.820 Y141.210
G01 X189.767 Y141.171
G01 X189.717 Y141.129
G01 X189.671 Y141.086
G01 X189.628 Y141.040
G01 X189.589 Y140.993
G01 X189.553 Y140.945
G01 X189.521 Y140.896
G01 X189.493 Y140.846
G01 X189.469 Y140.795
G01 X189.448 Y140.744
G01 X189.431 Y140.693
G01 X189.418 Y140.643
G01 X189.408 Y140.592
G01 X189.401 Y140.542
G01 X189.399 Y140.494
G01 X189.399 Y140.446
G01 X189.402 Y140.399
G01 X189.409 Y140.354
G01 X189.419 Y140.311
G01 X189.431 Y140.269
G01 X189.446 Y140.230
G01 X189.463 Y140.192
G01 X189.483 Y140.157
G01 X189.504 Y140.124
G01 X189.528 Y140.094
G01 X189.553 Y140.066
G01 X189.580 Y140.041
G01 X189.608 Y140.019
G01 X189.638 Y140.000
G01 X189.668 Y139.984
G01 X189.698 Y139.970
G01 X189.730 Y139.960
G01 X189.761 Y139.952
G01 X189.792 Y139.948
G01 X189.824 Y139.947
G01 X189.854 Y139.948
G01 X189.885 Y139.952
G01 X189.914 Y139.959
G01 X189.942 Y139.969
G01 X189.969 Y139.982
G01 X189.995 Y139.997
G01 X190.000 Y140.000
G01 X189.951 Y139.970
G01 X189.899 Y139.945
G01 X189.845 Y139.925
G01 X189.789 Y139.910
G01 X189.731 Y139.901
G01 X189.672 Y139.897
G01 X189.611 Y139.898
G01 X189.551 Y139.906
G01 X189.490 Y139.919
G01 X189.430 Y139.938
G01 X189.370 Y139.963
G01 X189.311 Y139.993
G01 X189.255 Y140.029
G01 X189.200 Y140.071
G01 X189.147 Y140.118
G01 X189.098 Y140.170
G01 X189.051 Y140.228
G01 X189.009 Y140.290
G01 X188.970 Y140.357
G01 X188.935 Y140.429
G01 X188.905 Y140.504
G01 X188.881 Y140.584
G01 X188.863 Y140.656
G01 X176.360 Y147.875
G01 X176.265 Y148.856
G01 X176.235 Y149.864
G01 X176.272 Y150.896
G01 X176.360 Y151.812
G01 X176.265 Y153.128
G01 X176.268 Y154.480
G01 X176.360 Y155.750
G01 X175.371 Y155.305
G01 X174.393 Y154.801
G01 X173.430 Y154.237
G01 X172.485 Y153.614
G01 X171.813 Y153.125
G01 X170.706 Y152.532
G01 X169.614 Y151.861
G01 X169.540 Y151.813
G01 X176.360 Y147.875
G01 X176.265 Y148.856
G01 X176.235 Y149.864
G01 X176.272 Y150.896
G01 X176.360 Y151.812
G01 X176.265 Y153.128
G01 X176.268 Y154.480
G01 X176.360 Y155.750
G01 X176.225 Y157.581
G01 X176.238 Y159.459
G01 X176.360 Y161.000
G01 X176.353 Y163.456
G01 X176.360 Y163.625
G01 X175.147 Y163.036
G01 X173.960 Y162.384
G01 X172.800 Y161.672
G01 X171.813 Y161.000
G01 X170.576 Y160.322
G01 X169.540 Y159.688
G01 X173.329 Y157.697
G01 X176.360 Y155.750
G01 X176.264 Y154.371
G01 X176.269 Y153.022
G01 X176.360 Y151.812
G01 X176.263 Y150.764
G01 X176.235 Y149.735
G01 X176.274 Y148.730
G01 X176.360 Y147.875
G01 X169.540 Y151.813
G01 X169.419 Y153.270
G01 X169.393 Y154.767
G01 X169.466 Y156.297
G01 X169.540 Y157.063
G01 X169.511 Y158.866
G01 X169.540 Y159.688
G01 X168.183 Y159.022
G01 X166.844 Y158.270
G01 X165.526 Y157.431
G01 X164.994 Y157.063
G01 X163.503 Y156.234
G01 X162.720 Y155.750
G01 X169.540 Y151.813
G01 X176.360 Y147.875
G01 X188.863 Y140.656
G01 X188.878 Y140.576
G01 X188.897 Y140.500
G01 X188.922 Y140.426
G01 X188.950 Y140.356
G01 X188.983 Y140.290
G01 X189.020 Y140.229
G01 X189.060 Y140.171
G01 X189.103 Y140.118
G01 X189.149 Y140.070
G01 X189.198 Y140.026
G01 X189.248 Y139.988
G01 X189.301 Y139.954
G01 X189.354 Y139.926
G01 X189.409 Y139.902
G01 X189.465 Y139.884
G01 X189.520 Y139.871
G01 X189.576 Y139.864
G01 X189.630 Y139.861
G01 X189.684 Y139.863
G01 X189.737 Y139.870
G01 X189.789 Y139.882
G01 X189.838 Y139.899
G01 X189.885 Y139.920
G01 X189.929 Y139.946
G01 X189.971 Y139.975
G01 X190.000 Y140.000
G01 X189.978 Y139.981
G01 X189.953 Y139.965
G01 X189.928 Y139.951
G01 X189.900 Y139.940
G01 X189.872 Y139.931
G01 X189.843 Y139.925
G01 X189.812 Y139.921
G01 X189.781 Y139.921
G01 X189.750 Y139.923
G01 X189.718 Y139.928
G01 X189.686 Y139.936
G01 X189.655 Y139.947
G01 X189.624 Y139.961
G01 X189.593 Y139.978
G01 X189.564 Y139.998
G01 X189.535 Y140.021
G01 X189.508 Y140.047
G01 X189.482 Y140.075
G01 X189.457 Y140.106
G01 X189.435 Y140.139
G01 X189.415 Y140.175
G01 X189.397 Y140.213
G01 X189.381 Y140.254
G01 X189.368 Y140.296
G01 X189.357 Y140.340
G01 X189.350 Y140.386
G01 X189.345 Y140.434
G01 X189.344 Y140.483
G01 X189.346 Y140.533
G01 X189.351 Y140.584
G01 X189.360 Y140.635
G01 X189.372 Y140.687
G01 X189.388 Y140.740
G01 X189.408 Y140.792
G01 X189.431 Y140.844
G01 X189.458 Y140.896
G01 X189.489 Y140.947
G01 X189.523 Y140.997
G01 X189.562 Y141.046
G01 X189.604 Y141.094
G01 X189.649 Y141.140
G01 X189.699 Y141.184
G01 X189.751 Y141.226
G01 X189.807 Y141.265
G01 X189.867 Y141.302
G01 X189.929 Y141.336
G01 X189.995 Y141.367
G01 X190.000 Y141.370
G01 X190.000 Y171.500
G01 X190.000 Y179.375
G01 X188.112 Y178.437
G01 X186.315 Y177.411
G01 X184.615 Y176.303
G01 X184.317 Y176.094
G01 X183.180 Y175.437
G01 X185.101 Y174.501
G01 X186.914 Y173.465
G01 X188.613 Y172.337
G01 X188.863 Y172.156
G01 X190.000 Y171.500
G01 X190.000 Y179.375
G01 X190.000 Y187.250
G01 X187.736 Y186.081
G01 X185.587 Y184.807
G01 X184.317 Y183.969
G01 X183.180 Y183.313
G01 X185.469 Y182.144
G01 X187.627 Y180.859
G01 X188.863 Y180.031
G01 X190.000 Y179.375
G01 X190.000 Y171.500
G01 X188.399 Y172.595
G01 X186.690 Y173.606
G01 X184.879 Y174.525
G01 X184.317 Y174.781
G01 X183.180 Y175.437
G01 X183.180 Y183.313
G01 X181.193 Y182.300
G01 X179.289 Y181.199
G01 X177.497 Y180.031
G01 X176.360 Y179.375
G01 X178.865 Y178.092
G01 X181.211 Y176.662
G01 X182.043 Y176.094
G01 X183.180 Y175.437
G01 X185.101 Y174.501
G01 X186.914 Y173.465
G01 X188.613 Y172.337
G01 X188.863 Y172.156
G01 X190.000 Y171.500
G01 X190.000 Y187.250
G01 X190.000 Y195.125
G01 X187.359 Y193.769
G01 X184.850 Y192.289
G01 X183.180 Y191.188
G01 X185.835 Y189.839
G01 X188.342 Y188.358
G01 X190.000 Y187.250
G01 X190.000 Y195.125
G01 X190.000 Y203.000
G01 X186.983 Y201.412
G01 X184.122 Y199.684
G01 X183.180 Y199.063
G01 X186.208 Y197.481
G01 X189.064 Y195.749
G01 X190.000 Y195.125
G01 X190.000 Y187.250
G01 X187.602 Y188.818
G01 X185.050 Y190.261
G01 X183.180 Y191.188
G01 X183.180 Y199.063
G01 X180.458 Y197.644
G01 X177.858 Y196.104
G01 X176.360 Y195.125
G01 X179.523 Y193.476
G01 X182.489 Y191.655
G01 X183.180 Y191.188
G01 X185.835 Y189.839
G01 X188.342 Y188.358
G01 X190.000 Y187.250
G01 X190.000 Y171.500
G01 X188.399 Y172.595
G01 X186.690 Y173.606
G01 X184.879 Y174.525
G01 X184.317 Y174.781
G01 X182.258 Y176.138
G01 X180.052 Y177.372
G01 X178.633 Y178.063
G01 X176.360 Y179.375
G01 X176.336 Y186.743
G01 X176.360 Y187.250
G01 X174.185 Y186.154
G01 X172.084 Y184.959
G01 X170.062 Y183.669
G01 X169.540 Y183.312
G01 X172.774 Y181.643
G01 X175.793 Y179.767
G01 X176.360 Y179.375
G01 X176.336 Y186.743
G01 X176.360 Y187.250
G01 X176.360 Y195.125
G01 X173.842 Y193.822
G01 X171.419 Y192.405
G01 X169.540 Y191.187
G01 X173.033 Y189.348
G01 X176.294 Y187.296
G01 X176.360 Y187.250
G01 X176.337 Y179.874
G01 X176.360 Y179.375
G01 X173.386 Y181.290
G01 X170.193 Y183.001
G01 X169.540 Y183.312
G01 X169.470 Y189.631
G01 X169.540 Y191.187
G01 X167.134 Y189.946
G01 X164.800 Y188.592
G01 X162.720 Y187.250
G01 X166.886 Y184.999
G01 X169.540 Y183.312
G01 X172.774 Y181.643
G01 X175.793 Y179.767
G01 X176.360 Y179.375
G01 X178.865 Y178.092
G01 X181.211 Y176.662
G01 X182.043 Y176.094
G01 X184.050 Y175.108
G01 X185.940 Y174.016
G01 X187.708 Y172.826
G01 X187.727 Y172.813
G01 X189.359 Y171.897
G01 X190.000 Y171.500
G01 X190.000 Y141.370
G01 X189.935 Y141.331
G01 X189.873 Y141.289
G01 X189.815 Y141.244
G01 X189.762 Y141.197
G01 X189.712 Y141.148
G01 X189.667 Y141.097
G01 X189.626 Y141.044
G01 X189.590 Y140.990
G01 X189.558 Y140.935
G01 X189.530 Y140.880
G01 X189.506 Y140.824
G01 X189.487 Y140.767
G01 X189.472 Y140.711
G01 X189.462 Y140.656
G01 X189.455 Y140.601
G01 X189.453 Y140.547
G01 X189.454 Y140.495
G01 X189.459 Y140.444
G01 X189.468 Y140.395
G01 X189.480 Y140.347
G01 X189.496 Y140.302
G01 X189.514 Y140.260
G01 X189.536 Y140.220
G01 X189.560 Y140.182
G01 X189.586 Y140.148
G01 X189.615 Y140.117
G01 X189.646 Y140.089
G01 X189.679 Y140.064
G01 X189.713 Y140.043
G01 X189.748 Y140.025
G01 X189.784 Y140.011
G01 X189.821 Y140.000
G01 X189.859 Y139.993
G01 X189.896 Y139.990
G01 X189.934 Y139.990
G01 X189.971 Y139.994
G01 X190.000 Y140.000
G01 X189.913 Y139.984
G01 X189.825 Y139.976
G01 X189.735 Y139.977
G01 X189.646 Y139.986
G01 X189.557 Y140.004
G01 X189.470 Y140.031
G01 X189.384 Y140.067
G01 X189.301 Y140.111
G01 X189.220 Y140.163
G01 X189.143 Y140.223
G01 X189.071 Y140.292
G01 X189.003 Y140.367
G01 X188.941 Y140.451
G01 X188.885 Y140.541
G01 X188.835 Y140.637
G01 X188.814 Y140.685
G01 X162.720 Y155.750
G01 X162.573 Y157.684
G01 X162.551 Y159.669
G01 X162.661 Y161.698
G01 X162.720 Y162.313
G01 X162.720 Y163.625
G01 X160.958 Y162.757
G01 X159.216 Y161.771
G01 X157.503 Y160.668
G01 X157.037 Y160.344
G01 X155.900 Y159.688
G01 X162.720 Y155.750
G01 X162.573 Y157.684
G01 X162.551 Y159.669
G01 X162.661 Y161.698
G01 X162.720 Y162.313
G01 X162.720 Y163.625
G01 X162.577 Y166.211
G01 X162.625 Y168.866
G01 X162.720 Y170.187
G01 X162.720 Y171.500
G01 X160.816 Y170.533
G01 X158.941 Y169.455
G01 X157.104 Y168.265
G01 X157.037 Y168.219
G01 X155.900 Y167.563
G01 X162.720 Y163.625
G01 X162.570 Y161.493
G01 X162.561 Y159.405
G01 X162.689 Y157.370
G01 X162.720 Y157.062
G01 X162.720 Y155.750
G01 X155.900 Y159.688
G01 X155.768 Y162.072
G01 X155.790 Y164.514
G01 X155.900 Y166.250
G01 X155.900 Y167.563
G01 X153.758 Y166.463
G01 X151.644 Y165.218
G01 X150.217 Y164.281
G01 X149.080 Y163.625
G01 X155.900 Y159.688
G01 X162.720 Y155.750
G01 X162.573 Y157.684
G01 X162.551 Y159.669
G01 X162.661 Y161.698
G01 X162.720 Y162.313
G01 X162.575 Y164.774
G01 X162.609 Y167.301
G01 X162.720 Y168.875
G01 X162.720 Y171.500
G01 X162.549 Y175.033
G01 X162.663 Y178.654
G01 X162.720 Y179.375
G01 X160.583 Y178.299
G01 X158.486 Y177.108
G01 X156.435 Y175.802
G01 X155.900 Y175.438
G01 X162.299 Y171.770
G01 X162.720 Y171.500
G01 X162.549 Y175.033
G01 X162.663 Y178.654
G01 X162.720 Y179.375
G01 X162.586 Y184.038
G01 X162.720 Y187.250
G01 X160.330 Y186.017
G01 X157.995 Y184.663
G01 X155.900 Y183.313
G01 X161.431 Y180.200
G01 X162.720 Y179.375
G01 X162.549 Y175.739
G01 X162.664 Y172.187
G01 X162.720 Y171.500
G01 X156.351 Y175.205
G01 X155.900 Y175.438
G01 X155.747 Y179.285
G01 X155.894 Y183.228
G01 X155.900 Y183.313
G01 X153.427 Y182.034
G01 X150.998 Y180.617
G01 X149.080 Y179.375
G01 X155.900 Y175.438
G01 X162.299 Y171.770
G01 X162.720 Y171.500
G01 X162.579 Y168.689
G01 X162.644 Y165.943
G01 X162.720 Y164.938
G01 X162.570 Y162.707
G01 X162.571 Y160.524
G01 X162.718 Y158.398
G01 X162.720 Y158.375
G01 X162.696 Y156.504
G01 X162.720 Y155.750
G01 X149.080 Y163.625
G01 X148.922 Y166.486
G01 X148.948 Y169.417
G01 X149.080 Y171.500
G01 X146.523 Y170.191
G01 X143.998 Y168.705
G01 X142.260 Y167.563
G01 X149.080 Y163.625
G01 X148.922 Y166.486
G01 X148.948 Y169.417
G01 X149.080 Y171.500
G01 X148.928 Y174.957
G01 X149.020 Y178.502
G01 X149.080 Y179.375
G01 X146.424 Y177.994
G01 X143.807 Y176.446
G01 X142.260 Y175.438
G01 X149.080 Y171.500
G01 X148.920 Y168.526
G01 X148.950 Y165.615
G01 X149.080 Y163.625
G01 X142.260 Y167.563
G01 X142.116 Y170.874
G01 X142.186 Y174.263
G01 X142.260 Y175.438
G01 X139.321 Y173.894
G01 X136.421 Y172.145
G01 X135.440 Y171.500
G01 X142.260 Y167.563
G01 X149.080 Y163.625
G01 X162.720 Y155.750
G01 X188.814 Y140.685
G01 X188.886 Y140.718
G01 X188.958 Y140.747
G01 X189.030 Y140.770
G01 X189.102 Y140.787
G01 X189.173 Y140.800
G01 X189.244 Y140.808
G01 X189.313 Y140.810
G01 X189.380 Y140.808
G01 X189.445 Y140.802
G01 X189.508 Y140.791
G01 X189.569 Y140.775
G01 X189.627 Y140.756
G01 X189.682 Y140.733
G01 X189.734 Y140.707
G01 X189.782 Y140.678
G01 X189.827 Y140.645
G01 X189.868 Y140.610
G01 X189.905 Y140.572
G01 X189.939 Y140.533
G01 X189.968 Y140.491
G01 X189.993 Y140.449
G01 X190.013 Y140.405
G01 X190.029 Y140.360
G01 X190.041 Y140.314
G01 X190.049 Y140.269
G01 X190.052 Y140.223
G01 X190.051 Y140.178
G01 X190.046 Y140.134
G01 X190.036 Y140.091
G01 X190.022 Y140.049
G01 X190.005 Y140.009
G01 X190.000 Y140.000
G01 X190.060 Y140.128
G01 X190.107 Y140.262
G01 X190.141 Y140.400
G01 X190.162 Y140.542
G01 X190.168 Y140.687
G01 X190.161 Y140.833
G01 X190.140 Y140.980
G01 X190.105 Y141.127
G01 X190.056 Y141.272
G01 X190.000 Y141.400
G01 X190.000 Y203.000
G01 X190.000 Y210.875
G01 X186.608 Y209.056
G01 X183.393 Y207.078
G01 X183.180 Y206.937
G01 X186.581 Y205.123
G01 X189.788 Y203.141
G01 X190.000 Y203.000
G01 X190.000 Y210.875
G01 X190.000 Y218.750
G01 X186.232 Y216.699
G01 X183.180 Y214.812
G01 X186.955 Y212.765
G01 X190.000 Y210.875
G01 X190.000 Y203.000
G01 X186.807 Y204.993
G01 X183.419 Y206.819
G01 X183.180 Y206.937
G01 X183.180 Y214.812
G01 X179.721 Y212.944
G01 X176.428 Y210.920
G01 X176.360 Y210.875
G01 X180.235 Y208.775
G01 X183.180 Y206.937
G01 X186.581 Y205.123
G01 X189.788 Y203.141
G01 X190.000 Y203.000
G01 X190.000 Y218.750
G01 X190.000 Y226.625
G01 X185.857 Y224.342
G01 X183.180 Y222.687
G01 X187.329 Y220.408
G01 X190.000 Y218.750
G01 X190.000 Y226.625
G01 X190.000 Y234.500
G01 X185.481 Y231.985
G01 X183.180 Y230.563
G01 X187.703 Y228.050
G01 X190.000 Y226.625
G01 X190.000 Y218.750
G01 X186.012 Y221.168
G01 X183.180 Y222.687
G01 X183.180 Y230.563
G01 X178.979 Y228.239
G01 X176.360 Y226.625
G01 X180.962 Y224.069
G01 X183.180 Y222.687
G01 X187.329 Y220.408
G01 X190.000 Y218.750
G01 X190.000 Y203.000
G01 X186.805 Y205.042
G01 X183.409 Y206.916
G01 X182.043 Y207.594
G01 X178.278 Y209.853
G01 X176.360 Y210.875
G01 X176.360 Y218.750
G01 X172.778 Y216.800
G01 X169.540 Y214.812
G01 X173.979 Y212.368
G01 X176.360 Y210.875
G01 X176.360 Y218.750
G01 X176.360 Y226.625
G01 X172.417 Y224.454
G01 X169.540 Y222.688
G01 X174.321 Y220.027
G01 X176.360 Y218.750
G01 X176.360 Y210.875
G01 X172.084 Y213.462
G01 X169.540 Y214.812
G01 X169.540 Y222.688
G01 X165.793 Y220.632
G01 X162.720 Y218.750
G01 X167.814 Y215.899
G01 X169.540 Y214.812
G01 X173.979 Y212.368
G01 X176.360 Y210.875
G01 X180.227 Y208.833
G01 X183.860 Y206.589
G01 X184.317 Y206.281
G01 X187.650 Y204.459
G01 X190.000 Y203.000
G01 X190.000 Y234.500
G01 X190.000 Y242.375
G01 X185.106 Y239.628
G01 X183.180 Y238.438
G01 X188.078 Y235.692
G01 X190.000 Y234.500
G01 X190.000 Y242.375
G01 X190.000 Y250.250
G01 X184.730 Y247.271
G01 X183.180 Y246.313
G01 X188.452 Y243.335
G01 X190.000 Y242.375
G01 X190.000 Y234.500
G01 X185.218 Y237.344
G01 X183.180 Y238.438
G01 X183.180 Y246.313
G01 X178.235 Y243.531
G01 X176.360 Y242.375
G01 X181.697 Y239.360
G01 X183.180 Y238.438
G01 X188.078 Y235.692
G01 X190.000 Y234.500
G01 X190.000 Y250.250
G01 X190.000 Y258.125
G01 X184.355 Y254.914
G01 X183.180 Y254.188
G01 X188.827 Y250.977
G01 X190.000 Y250.250
G01 X190.000 Y258.125
G01 X190.000 Y266.000
G01 X183.979 Y262.557
G01 X183.180 Y262.063
G01 X189.202 Y258.620
G01 X190.000 Y258.125
G01 X190.000 Y250.250
G01 X184.423 Y253.521
G01 X183.180 Y254.188
G01 X183.180 Y262.063
G01 X177.489 Y258.822
G01 X176.360 Y258.125
G01 X182.437 Y254.650
G01 X183.180 Y254.188
G01 X188.827 Y250.977
G01 X190.000 Y250.250
G01 X190.000 Y234.500
G01 X185.213 Y237.441
G01 X180.907 Y239.750
G01 X176.360 Y242.375
G01 X176.360 Y250.250
G01 X171.322 Y247.408
G01 X169.540 Y246.313
G01 X175.378 Y242.989
G01 X176.360 Y242.375
G01 X176.360 Y250.250
G01 X176.360 Y258.125
G01 X170.954 Y255.057
G01 X169.540 Y254.187
G01 X175.737 Y250.639
G01 X176.360 Y250.250
G01 X176.360 Y242.375
G01 X170.587 Y245.755
G01 X169.540 Y246.313
G01 X169.540 Y254.187
G01 X164.372 Y251.264
G01 X162.720 Y250.250
G01 X169.119 Y246.576
G01 X169.540 Y246.313
G01 X175.378 Y242.989
G01 X176.360 Y242.375
G01 X181.688 Y239.468
G01 X185.453 Y237.125
G01 X190.000 Y234.500
G01 X190.000 Y203.000
G01 X186.806 Y205.005
G01 X183.416 Y206.844
G01 X182.884 Y207.109
G01 X179.166 Y209.458
G01 X175.201 Y211.598
G01 X174.581 Y211.902
G01 X170.111 Y214.664
G01 X166.278 Y216.696
G01 X162.720 Y218.750
G01 X162.720 Y226.625
G01 X158.775 Y224.446
G01 X155.900 Y222.688
G01 X161.741 Y219.368
G01 X162.720 Y218.750
G01 X162.720 Y226.625
G01 X162.720 Y234.500
G01 X158.436 Y232.114
G01 X155.900 Y230.562
G01 X162.010 Y227.073
G01 X162.720 Y226.625
G01 X162.720 Y218.750
G01 X156.950 Y222.135
G01 X155.900 Y222.688
G01 X155.900 Y230.562
G01 X151.730 Y228.244
G01 X149.080 Y226.625
G01 X155.759 Y222.777
G01 X155.900 Y222.688
G01 X161.741 Y219.368
G01 X162.720 Y218.750
G01 X162.720 Y233.188
G01 X162.720 Y234.500
G01 X162.720 Y242.375
G01 X158.092 Y239.780
G01 X155.900 Y238.438
G01 X162.299 Y234.765
G01 X162.720 Y234.500
G01 X162.720 Y242.375
G01 X162.720 Y250.250
G01 X157.744 Y247.442
G01 X155.900 Y246.313
G01 X162.604 Y242.448
G01 X162.720 Y242.375
G01 X162.720 Y234.500
G01 X156.351 Y238.200
G01 X155.900 Y238.438
G01 X155.900 Y246.313
G01 X151.070 Y243.592
G01 X149.080 Y242.375
G01 X155.900 Y238.438
G01 X162.299 Y234.765
G01 X162.720 Y234.500
G01 X162.720 Y220.062
G01 X162.720 Y218.750
G01 X156.891 Y222.282
G01 X153.627 Y224.000
G01 X149.080 Y226.625
G01 X149.080 Y234.500
G01 X144.664 Y232.031
G01 X142.260 Y230.562
G01 X149.080 Y226.625
G01 X149.080 Y234.500
G01 X149.080 Y242.375
G01 X144.349 Y239.714
G01 X142.260 Y238.437
G01 X149.080 Y234.500
G01 X149.080 Y226.625
G01 X142.260 Y230.562
G01 X142.260 Y238.437
G01 X137.581 Y235.807
G01 X135.440 Y234.500
G01 X142.260 Y230.562
G01 X149.080 Y226.625
G01 X155.688 Y222.948
G01 X158.174 Y221.375
G01 X162.720 Y218.750
G01 X167.787 Y215.992
G01 X171.023 Y213.957
G01 X175.315 Y211.674
G01 X179.325 Y209.163
G01 X182.982 Y207.209
G01 X186.420 Y205.069
G01 X186.442 Y205.054
G01 X189.649 Y203.218
G01 X190.000 Y203.000
G01 X190.000 Y141.400
G01 X190.066 Y141.345
G01 X190.127 Y141.287
G01 X190.182 Y141.226
G01 X190.231 Y141.163
G01 X190.275 Y141.099
G01 X190.313 Y141.033
G01 X190.346 Y140.966
G01 X190.372 Y140.898
G01 X190.393 Y140.831
G01 X190.408 Y140.763
G01 X190.417 Y140.697
G01 X190.421 Y140.631
G01 X190.420 Y140.566
G01 X190.413 Y140.504
G01 X190.402 Y140.443
G01 X190.385 Y140.385
G01 X190.364 Y140.330
G01 X190.339 Y140.278
G01 X190.309 Y140.229
G01 X190.275 Y140.184
G01 X190.238 Y140.143
G01 X190.198 Y140.106
G01 X190.154 Y140.073
G01 X190.108 Y140.045
G01 X190.060 Y140.022
G01 X190.010 Y140.003
G01 X190.000 Y140.000
G01 X190.028 Y140.010
G01 X190.055 Y140.022
G01 X190.080 Y140.037
G01 X190.104 Y140.055
G01 X190.127 Y140.075
G01 X190.148 Y140.097
G01 X190.167 Y140.121
G01 X190.184 Y140.148
G01 X190.198 Y140.176
G01 X190.210 Y140.206
G01 X190.220 Y140.238
G01 X190.227 Y140.271
G01 X190.231 Y140.305
G01 X190.232 Y140.341
G01 X190.231 Y140.377
G01 X190.226 Y140.414
G01 X190.218 Y140.451
G01 X190.208 Y140.488
G01 X190.194 Y140.525
G01 X190.176 Y140.562
G01 X190.156 Y140.599
G01 X190.132 Y140.634
G01 X190.106 Y140.669
G01 X190.076 Y140.703
G01 X190.043 Y140.735
G01 X190.007 Y140.766
G01 X189.969 Y140.795
G01 X189.927 Y140.822
G01 X189.883 Y140.846
G01 X189.836 Y140.868
G01 X189.787 Y140.888
G01 X189.735 Y140.905
G01 X189.681 Y140.918
G01 X189.626 Y140.929
G01 X189.568 Y140.936
G01 X189.509 Y140.940
G01 X189.449 Y140.940
G01 X189.387 Y140.937
G01 X189.324 Y140.929
G01 X189.261 Y140.918
G01 X189.198 Y140.903
G01 X189.134 Y140.883
G01 X189.070 Y140.860
G01 X189.006 Y140.832
G01 X188.943 Y140.800
G01 X188.881 Y140.764
G01 X188.819 Y140.723
G01 X188.788 Y140.700
G01 X135.440 Y171.500
G01 X135.311 Y175.261
G01 X135.424 Y179.109
G01 X135.440 Y179.375
G01 X132.118 Y177.596
G01 X128.843 Y175.584
G01 X128.620 Y175.438
G01 X135.440 Y171.500
G01 X135.311 Y175.261
G01 X135.424 Y179.109
G01 X135.440 Y179.375
G01 X135.321 Y183.697
G01 X135.440 Y187.250
G01 X132.040 Y185.415
G01 X128.691 Y183.359
G01 X128.620 Y183.313
G01 X135.440 Y179.375
G01 X135.311 Y175.522
G01 X135.424 Y171.754
G01 X135.440 Y171.500
G01 X128.620 Y175.438
G01 X128.506 Y179.649
G01 X128.620 Y183.313
G01 X124.915 Y181.298
G01 X121.800 Y179.375
G01 X128.620 Y175.438
G01 X135.440 Y171.500
G01 X135.270 Y175.288
G01 X135.344 Y179.166
G01 X135.440 Y180.688
G01 X135.367 Y185.078
G01 X135.440 Y187.250
G01 X135.338 Y192.247
G01 X135.440 Y195.125
G01 X131.905 Y193.202
G01 X128.620 Y191.187
G01 X135.440 Y187.250
G01 X135.338 Y192.247
G01 X135.440 Y195.125
G01 X135.362 Y200.912
G01 X135.440 Y203.000
G01 X131.728 Y200.965
G01 X128.620 Y199.063
G01 X135.440 Y195.125
G01 X135.338 Y190.058
G01 X135.440 Y187.250
G01 X128.620 Y191.187
G01 X128.534 Y196.598
G01 X128.620 Y199.063
G01 X124.721 Y196.917
G01 X121.800 Y195.125
G01 X128.620 Y191.187
G01 X135.440 Y187.250
G01 X135.275 Y182.880
G01 X135.403 Y178.612
G01 X135.440 Y178.062
G01 X135.352 Y174.265
G01 X135.440 Y171.500
G01 X121.800 Y179.375
G01 X121.700 Y184.037
G01 X121.800 Y187.250
G01 X117.712 Y184.999
G01 X114.981 Y183.313
G01 X121.800 Y179.375
G01 X121.700 Y184.037
G01 X121.800 Y187.250
G01 X121.712 Y192.451
G01 X121.800 Y195.125
G01 X117.648 Y192.829
G01 X114.981 Y191.188
G01 X121.800 Y187.250
G01 X121.700 Y182.517
G01 X121.800 Y179.375
G01 X114.981 Y183.313
G01 X114.894 Y188.426
G01 X114.981 Y191.188
G01 X110.509 Y188.701
G01 X108.161 Y187.250
G01 X114.981 Y183.313
G01 X121.800 Y179.375
G01 X135.440 Y171.500
G01 X135.300 Y175.268
G01 X135.403 Y179.124
G01 X135.440 Y179.717
G01 X135.264 Y184.112
G01 X135.394 Y188.615
G01 X135.440 Y189.304
G01 X135.283 Y194.557
G01 X135.440 Y198.891
G01 X135.440 Y203.000
G01 X135.394 Y209.689
G01 X135.440 Y210.875
G01 X131.520 Y208.710
G01 X128.620 Y206.938
G01 X135.440 Y203.000
G01 X135.394 Y209.689
G01 X135.440 Y210.875
G01 X135.434 Y218.579
G01 X135.440 Y218.750
G01 X131.286 Y216.441
G01 X128.620 Y214.812
G01 X135.440 Y210.875
G01 X135.395 Y204.158
G01 X135.440 Y203.000
G01 X128.620 Y206.938
G01 X128.588 Y213.952
G01 X128.620 Y214.812
G01 X124.361 Y212.442
G01 X121.800 Y210.875
G01 X128.620 Y206.938
G01 X135.440 Y203.000
G01 X135.296 Y209.814
G01 X135.440 Y213.500
G01 X135.440 Y218.750
G01 X135.440 Y226.625
G01 X131.033 Y224.161
G01 X128.620 Y222.688
G01 X135.440 Y218.750
G01 X135.440 Y226.625
G01 X135.440 Y234.500
G01 X130.764 Y231.872
G01 X128.620 Y230.562
G01 X135.440 Y226.625
G01 X135.440 Y218.750
G01 X128.620 Y222.688
G01 X128.620 Y230.562
G01 X123.900 Y227.908
G01 X121.800 Y226.625
G01 X128.620 Y222.688
G01 X135.440 Y218.750
G01 X135.321 Y211.189
G01 X135.440 Y208.250
G01 X135.440 Y203.000
G01 X122.937 Y210.219
G01 X121.800 Y210.875
G01 X121.781 Y218.241
G01 X121.800 Y218.750
G01 X117.196 Y216.169
G01 X114.981 Y214.812
G01 X121.800 Y210.875
G01 X121.781 Y218.241
G01 X121.800 Y218.750
G01 X121.800 Y226.625
G01 X116.988 Y223.915
G01 X114.981 Y222.687
G01 X121.800 Y218.750
G01 X121.782 Y211.372
G01 X121.800 Y210.875
G01 X114.981 Y214.812
G01 X114.975 Y222.548
G01 X114.981 Y222.687
G01 X110.027 Y219.893
G01 X108.161 Y218.750
G01 X114.981 Y214.812
G01 X121.800 Y210.875
G01 X134.304 Y203.656
G01 X135.440 Y203.000
G01 X135.295 Y197.233
G01 X135.440 Y193.413
G01 X135.271 Y188.555
G01 X135.440 Y183.826
G01 X135.304 Y179.682
G01 X135.439 Y175.634
G01 X135.440 Y175.609
G01 X135.427 Y171.913
G01 X135.440 Y171.500
G01 X108.161 Y187.250
G01 X108.088 Y192.814
G01 X108.161 Y195.125
G01 X103.306 Y192.402
G01 X101.341 Y191.188
G01 X108.161 Y187.250
G01 X108.088 Y192.814
G01 X108.161 Y195.125
G01 X108.102 Y201.213
G01 X108.161 Y203.000
G01 X103.251 Y200.239
G01 X101.341 Y199.063
G01 X108.161 Y195.125
G01 X108.089 Y189.511
G01 X108.161 Y187.250
G01 X101.341 Y191.188
G01 X101.283 Y197.202
G01 X101.341 Y199.063
G01 X96.103 Y196.103
G01 X94.521 Y195.125
G01 X101.341 Y191.188
G01 X108.161 Y187.250
G01 X108.007 Y192.866
G01 X108.161 Y197.750
G01 X108.161 Y203.000
G01 X108.120 Y209.689
G01 X108.161 Y210.875
G01 X103.152 Y208.051
G01 X101.341 Y206.937
G01 X108.161 Y203.000
G01 X108.120 Y209.689
G01 X108.161 Y210.875
G01 X108.143 Y218.241
G01 X108.161 Y218.750
G01 X103.017 Y215.841
G01 X101.341 Y214.812
G01 X108.161 Y210.875
G01 X108.121 Y204.158
G01 X108.161 Y203.000
G01 X101.341 Y206.937
G01 X101.315 Y214.060
G01 X101.341 Y214.812
G01 X95.959 Y211.759
G01 X94.521 Y210.875
G01 X101.341 Y206.937
G01 X108.161 Y203.000
G01 X108.014 Y196.932
G01 X108.161 Y192.500
G01 X108.161 Y187.250
G01 X94.521 Y195.125
G01 X94.477 Y201.590
G01 X94.521 Y203.000
G01 X88.900 Y199.803
G01 X87.701 Y199.063
G01 X94.521 Y195.125
G01 X94.477 Y201.590
G01 X94.521 Y203.000
G01 X94.492 Y209.980
G01 X94.521 Y210.875
G01 X88.852 Y207.647
G01 X87.701 Y206.937
G01 X94.521 Y203.000
G01 X94.477 Y196.504
G01 X94.521 Y195.125
G01 X87.701 Y199.063
G01 X87.671 Y205.978
G01 X87.701 Y206.937
G01 X81.697 Y203.504
G01 X80.881 Y203.000
G01 X87.701 Y199.063
G01 X94.521 Y195.125
G01 X108.161 Y187.250
G01 X135.440 Y171.500
G01 X188.788 Y140.700
G01 X188.851 Y140.741
G01 X188.916 Y140.777
G01 X188.982 Y140.808
G01 X189.048 Y140.835
G01 X189.114 Y140.857
G01 X189.180 Y140.875
G01 X189.246 Y140.889
G01 X189.311 Y140.899
G01 X189.374 Y140.904
G01 X189.437 Y140.905
G01 X189.499 Y140.902
G01 X189.558 Y140.896
G01 X189.616 Y140.886
G01 X189.672 Y140.872
G01 X189.725 Y140.856
G01 X189.776 Y140.836
G01 X189.824 Y140.813
G01 X189.870 Y140.788
G01 X189.913 Y140.760
G01 X189.952 Y140.730
G01 X189.989 Y140.698
G01 X190.022 Y140.664
G01 X190.052 Y140.629
G01 X190.078 Y140.593
G01 X190.101 Y140.555
G01 X190.121 Y140.517
G01 X190.137 Y140.478
G01 X190.149 Y140.439
G01 X190.158 Y140.401
G01 X190.164 Y140.362
G01 X190.166 Y140.324
G01 X190.165 Y140.286
G01 X190.161 Y140.250
G01 X190.154 Y140.214
G01 X190.143 Y140.180
G01 X190.130 Y140.148
G01 X190.114 Y140.117
G01 X190.095 Y140.089
G01 X190.074 Y140.062
G01 X190.050 Y140.038
G01 X190.024 Y140.017
G01 X190.000 Y140.000
G01 X196.820 Y143.938
G01 X196.503 Y144.193
G01 X196.179 Y144.428
G01 X195.847 Y144.640
G01 X195.509 Y144.831
G01 X195.167 Y145.001
G01 X194.822 Y145.148
G01 X194.547 Y145.250
G01 X194.284 Y145.467
G01 X194.010 Y145.670
G01 X193.727 Y145.860
G01 X193.435 Y146.036
G01 X193.135 Y146.197
G01 X192.827 Y146.344
G01 X192.512 Y146.475
G01 X192.273 Y146.563
G01 X191.987 Y146.798
G01 X191.683 Y147.020
G01 X191.362 Y147.229
G01 X191.024 Y147.422
G01 X190.671 Y147.600
G01 X190.302 Y147.760
G01 X190.000 Y147.875
G01 X190.000 Y141.313
G01 X190.061 Y141.247
G01 X190.116 Y141.179
G01 X190.164 Y141.109
G01 X190.206 Y141.037
G01 X190.241 Y140.963
G01 X190.270 Y140.889
G01 X190.291 Y140.815
G01 X190.307 Y140.740
G01 X190.315 Y140.667
G01 X190.318 Y140.594
G01 X190.313 Y140.523
G01 X190.303 Y140.454
G01 X190.287 Y140.387
G01 X190.265 Y140.323
G01 X190.238 Y140.262
G01 X190.205 Y140.205
G01 X190.168 Y140.152
G01 X190.126 Y140.103
G01 X190.079 Y140.059
G01 X190.029 Y140.019
G01 X190.000 Y140.000
G01 X196.820 Y143.938
G01 X203.640 Y147.875
G01 X202.973 Y148.364
G01 X202.291 Y148.808
G01 X201.598 Y149.205
G01 X200.896 Y149.556
G01 X200.230 Y149.844
G01 X199.668 Y150.263
G01 X199.090 Y150.651
G01 X198.496 Y151.007
G01 X197.891 Y151.331
G01 X197.273 Y151.622
G01 X196.820 Y151.813
G01 X196.941 Y150.764
G01 X196.976 Y149.735
G01 X196.928 Y148.729
G01 X196.820 Y147.875
G01 X196.893 Y147.211
G01 X196.917 Y146.560
G01 X196.895 Y145.924
G01 X196.829 Y145.308
G01 X196.820 Y145.250
G01 X196.847 Y144.754
G01 X196.842 Y144.269
G01 X196.820 Y143.938
G01 X190.000 Y140.000
G01 X190.052 Y140.037
G01 X190.101 Y140.080
G01 X190.146 Y140.127
G01 X190.186 Y140.179
G01 X190.221 Y140.235
G01 X190.251 Y140.294
G01 X190.275 Y140.357
G01 X190.294 Y140.423
G01 X190.307 Y140.492
G01 X190.314 Y140.562
G01 X190.315 Y140.635
G01 X190.309 Y140.709
G01 X190.297 Y140.783
G01 X190.278 Y140.858
G01 X190.252 Y140.933
G01 X190.220 Y141.007
G01 X190.181 Y141.080
G01 X190.135 Y141.152
G01 X190.083 Y141.221
G01 X190.024 Y141.288
G01 X190.000 Y141.313
G01 X190.000 Y147.875
G01 X190.402 Y148.187
G01 X190.835 Y148.477
G01 X191.297 Y148.744
G01 X191.787 Y148.986
G01 X192.273 Y149.188
G01 X192.910 Y149.693
G01 X193.601 Y150.157
G01 X194.345 Y150.575
G01 X195.137 Y150.943
G01 X195.683 Y151.156
G01 X196.745 Y151.773
G01 X196.820 Y151.813
G01 X196.277 Y152.219
G01 X195.710 Y152.601
G01 X195.120 Y152.957
G01 X194.509 Y153.285
G01 X193.879 Y153.583
G01 X193.410 Y153.781
G01 X192.790 Y154.240
G01 X192.133 Y154.671
G01 X191.441 Y155.071
G01 X190.714 Y155.438
G01 X190.000 Y155.750
G01 X190.000 Y147.875
G01 X190.000 Y141.313
G01 X190.061 Y141.246
G01 X190.116 Y141.177
G01 X190.164 Y141.106
G01 X190.205 Y141.033
G01 X190.240 Y140.959
G01 X190.268 Y140.884
G01 X190.289 Y140.809
G01 X190.304 Y140.734
G01 X190.312 Y140.659
G01 X190.313 Y140.586
G01 X190.308 Y140.514
G01 X190.297 Y140.445
G01 X190.280 Y140.378
G01 X190.257 Y140.313
G01 X190.229 Y140.252
G01 X190.195 Y140.195
G01 X190.156 Y140.142
G01 X190.113 Y140.093
G01 X190.065 Y140.048
G01 X190.014 Y140.009
G01 X190.000 Y140.000
G01 X200.528 Y146.132
G01 X201.367 Y146.563
G01 X203.640 Y147.875
G01 X210.460 Y151.813
G01 X209.442 Y152.535
G01 X208.403 Y153.188
G01 X207.348 Y153.769
G01 X206.282 Y154.279
G01 X205.913 Y154.437
G01 X204.998 Y155.013
G01 X204.065 Y155.534
G01 X203.640 Y155.750
G01 X203.736 Y154.371
G01 X203.731 Y153.022
G01 X203.640 Y151.812
G01 X203.737 Y150.764
G01 X203.765 Y149.735
G01 X203.726 Y148.730
G01 X203.640 Y147.875
G01 X210.460 Y151.813
G01 X217.280 Y155.750
G01 X215.875 Y156.683
G01 X214.445 Y157.517
G01 X212.998 Y158.252
G01 X212.733 Y158.375
G01 X211.449 Y159.152
G01 X210.460 Y159.688
G01 X210.583 Y157.947
G01 X210.587 Y156.243
G01 X210.475 Y154.584
G01 X210.460 Y154.438
G01 X210.498 Y153.007
G01 X210.460 Y151.813
G01 X203.640 Y147.875
G01 X203.735 Y148.856
G01 X203.765 Y149.864
G01 X203.728 Y150.896
G01 X203.640 Y151.812
G01 X203.735 Y153.128
G01 X203.732 Y154.480
G01 X203.640 Y155.750
G01 X207.216 Y158.012
G01 X210.460 Y159.688
G01 X209.290 Y160.477
G01 X208.091 Y161.200
G01 X206.869 Y161.854
G01 X205.913 Y162.313
G01 X204.764 Y163.012
G01 X203.640 Y163.625
G01 X203.766 Y161.350
G01 X203.703 Y159.123
G01 X203.640 Y158.375
G01 X203.676 Y156.650
G01 X203.640 Y155.750
G01 X203.736 Y154.371
G01 X203.731 Y153.022
G01 X203.640 Y151.812
G01 X203.737 Y150.764
G01 X203.765 Y149.735
G01 X203.726 Y148.730
G01 X203.640 Y147.875
G01 X191.137 Y140.656
G01 X190.583 Y140.376
G01 X190.060 Y140.043
G01 X190.000 Y140.000
G01 X190.053 Y140.043
G01 X190.102 Y140.091
G01 X190.146 Y140.143
G01 X190.186 Y140.201
G01 X190.219 Y140.262
G01 X190.248 Y140.327
G01 X190.270 Y140.395
G01 X190.286 Y140.466
G01 X190.295 Y140.539
G01 X190.299 Y140.614
G01 X190.295 Y140.691
G01 X190.284 Y140.769
G01 X190.267 Y140.847
G01 X190.242 Y140.925
G01 X190.210 Y141.003
G01 X190.172 Y141.079
G01 X190.126 Y141.154
G01 X190.073 Y141.227
G01 X190.014 Y141.298
G01 X190.000 Y141.313
G01 X190.000 Y155.750
G01 X190.802 Y156.323
G01 X191.660 Y156.853
G01 X192.572 Y157.337
G01 X193.410 Y157.719
G01 X194.502 Y158.459
G01 X195.674 Y159.132
G01 X196.820 Y159.687
G01 X195.940 Y160.322
G01 X195.015 Y160.917
G01 X194.045 Y161.469
G01 X193.032 Y161.975
G01 X192.273 Y162.312
G01 X191.206 Y162.975
G01 X190.079 Y163.585
G01 X190.000 Y163.625
G01 X190.000 Y155.750
G01 X190.802 Y156.323
G01 X191.660 Y156.853
G01 X192.572 Y157.337
G01 X193.410 Y157.719
G01 X194.502 Y158.459
G01 X195.674 Y159.132
G01 X196.820 Y159.687
G01 X198.337 Y160.720
G01 X199.971 Y161.648
G01 X201.367 Y162.313
G01 X203.490 Y163.546
G01 X203.640 Y163.625
G01 X202.523 Y164.381
G01 X201.365 Y165.084
G01 X200.168 Y165.731
G01 X199.093 Y166.250
G01 X197.887 Y166.982
G01 X196.820 Y167.563
G01 X196.991 Y163.286
G01 X196.820 Y159.687
G01 X195.578 Y159.081
G01 X194.412 Y158.402
G01 X193.410 Y157.719
G01 X192.453 Y157.278
G01 X191.548 Y156.788
G01 X190.697 Y156.252
G01 X190.000 Y155.750
G01 X190.000 Y163.625
G01 X191.202 Y164.459
G01 X192.485 Y165.229
G01 X193.846 Y165.931
G01 X194.547 Y166.250
G01 X196.094 Y167.177
G01 X196.820 Y167.563
G01 X195.565 Y168.405
G01 X194.244 Y169.189
G01 X192.859 Y169.911
G01 X192.273 Y170.188
G01 X190.810 Y171.064
G01 X190.000 Y171.500
G01 X190.000 Y163.625
G01 X190.000 Y155.750
G01 X190.000 Y141.313
G01 X190.061 Y141.240
G01 X190.115 Y141.164
G01 X190.161 Y141.087
G01 X190.200 Y141.008
G01 X190.232 Y140.928
G01 X190.257 Y140.847
G01 X190.274 Y140.766
G01 X190.284 Y140.686
G01 X190.287 Y140.607
G01 X190.283 Y140.529
G01 X190.272 Y140.454
G01 X190.254 Y140.380
G01 X190.230 Y140.310
G01 X190.200 Y140.243
G01 X190.164 Y140.181
G01 X190.122 Y140.122
G01 X190.075 Y140.068
G01 X190.023 Y140.019
G01 X190.000 Y140.000
G01 X191.150 Y140.817
G01 X192.377 Y141.519
G01 X193.558 Y142.054
G01 X217.280 Y155.750
G01 X224.100 Y159.688
G01 X222.343 Y160.854
G01 X220.556 Y161.896
G01 X218.747 Y162.815
G01 X218.416 Y162.969
G01 X217.280 Y163.625
G01 X217.430 Y161.493
G01 X217.439 Y159.405
G01 X217.311 Y157.370
G01 X217.280 Y157.062
G01 X217.280 Y155.750
G01 X224.100 Y159.688
G01 X230.920 Y163.625
G01 X228.775 Y165.001
G01 X226.597 Y166.225
G01 X225.236 Y166.906
G01 X224.100 Y167.563
G01 X224.233 Y164.996
G01 X224.199 Y162.484
G01 X224.100 Y161.000
G01 X224.100 Y159.688
G01 X217.280 Y155.750
G01 X217.427 Y157.684
G01 X217.449 Y159.669
G01 X217.339 Y161.698
G01 X217.280 Y162.313
G01 X217.280 Y163.625
G01 X224.100 Y167.563
G01 X222.230 Y168.777
G01 X220.324 Y169.875
G01 X218.416 Y170.844
G01 X217.280 Y171.500
G01 X217.421 Y168.689
G01 X217.356 Y165.943
G01 X217.280 Y164.938
G01 X217.280 Y163.625
G01 X217.430 Y161.493
G01 X217.439 Y159.405
G01 X217.311 Y157.370
G01 X217.280 Y157.062
G01 X217.280 Y155.750
G01 X230.920 Y163.625
G01 X237.740 Y167.563
G01 X235.244 Y169.172
G01 X232.708 Y170.604
G01 X230.920 Y171.500
G01 X231.080 Y168.526
G01 X231.050 Y165.615
G01 X230.920 Y163.625
G01 X237.740 Y167.563
G01 X244.560 Y171.500
G01 X241.676 Y173.319
G01 X238.749 Y174.933
G01 X237.740 Y175.438
G01 X237.884 Y172.025
G01 X237.812 Y168.685
G01 X237.740 Y167.563
G01 X230.920 Y163.625
G01 X231.078 Y166.486
G01 X231.052 Y169.417
G01 X230.920 Y171.500
G01 X237.740 Y175.438
G01 X235.150 Y177.086
G01 X232.516 Y178.567
G01 X230.920 Y179.375
G01 X231.073 Y175.812
G01 X230.979 Y172.332
G01 X230.920 Y171.500
G01 X231.080 Y168.526
G01 X231.050 Y165.615
G01 X230.920 Y163.625
G01 X217.280 Y155.750
G01 X217.427 Y157.684
G01 X217.449 Y159.669
G01 X217.339 Y161.698
G01 X217.280 Y162.313
G01 X217.425 Y164.774
G01 X217.391 Y167.301
G01 X217.280 Y168.875
G01 X217.280 Y171.500
G01 X223.649 Y175.205
G01 X224.100 Y175.438
G01 X222.063 Y176.773
G01 X219.977 Y177.995
G01 X217.850 Y179.101
G01 X217.280 Y179.375
G01 X217.451 Y175.739
G01 X217.336 Y172.187
G01 X217.280 Y171.500
G01 X223.649 Y175.205
G01 X224.100 Y175.438
G01 X230.920 Y179.375
G01 X228.532 Y180.904
G01 X226.094 Y182.295
G01 X224.100 Y183.313
G01 X224.253 Y179.368
G01 X224.106 Y175.518
G01 X224.100 Y175.438
G01 X217.701 Y171.770
G01 X217.280 Y171.500
G01 X217.451 Y175.033
G01 X217.337 Y178.654
G01 X217.280 Y179.375
G01 X222.716 Y182.595
G01 X224.100 Y183.313
G01 X221.821 Y184.776
G01 X219.482 Y186.120
G01 X217.280 Y187.250
G01 X217.413 Y182.517
G01 X217.280 Y179.375
G01 X217.451 Y175.739
G01 X217.336 Y172.187
G01 X217.280 Y171.500
G01 X217.421 Y168.689
G01 X217.356 Y165.943
G01 X217.280 Y164.938
G01 X217.430 Y162.707
G01 X217.429 Y160.524
G01 X217.282 Y158.398
G01 X217.280 Y158.375
G01 X217.304 Y156.504
G01 X217.280 Y155.750
G01 X191.186 Y140.685
G01 X191.028 Y140.663
G01 X190.876 Y140.628
G01 X190.730 Y140.579
G01 X190.591 Y140.518
G01 X190.460 Y140.445
G01 X190.338 Y140.361
G01 X190.225 Y140.266
G01 X190.123 Y140.161
G01 X190.032 Y140.047
G01 X190.000 Y140.000
G01 X190.059 Y140.099
G01 X190.108 Y140.203
G01 X190.146 Y140.311
G01 X190.174 Y140.424
G01 X190.192 Y140.540
G01 X190.198 Y140.659
G01 X190.193 Y140.779
G01 X190.176 Y140.900
G01 X190.149 Y141.021
G01 X190.109 Y141.141
G01 X190.058 Y141.260
G01 X190.000 Y141.370
G01 X190.000 Y171.500
G01 X191.601 Y172.595
G01 X193.310 Y173.606
G01 X195.121 Y174.525
G01 X195.683 Y174.781
G01 X196.820 Y175.437
G01 X195.187 Y176.530
G01 X193.462 Y177.545
G01 X191.650 Y178.477
G01 X191.137 Y178.719
G01 X190.000 Y179.375
G01 X190.000 Y171.500
G01 X191.601 Y172.595
G01 X193.310 Y173.606
G01 X195.121 Y174.525
G01 X195.683 Y174.781
G01 X196.820 Y175.437
G01 X198.988 Y176.855
G01 X201.311 Y178.140
G01 X202.503 Y178.719
G01 X203.640 Y179.375
G01 X201.850 Y180.541
G01 X199.979 Y181.625
G01 X198.030 Y182.621
G01 X197.957 Y182.656
G01 X196.820 Y183.313
G01 X196.820 Y175.437
G01 X194.899 Y174.501
G01 X193.086 Y173.465
G01 X191.387 Y172.337
G01 X191.137 Y172.156
G01 X190.000 Y171.500
G01 X190.000 Y179.375
G01 X191.999 Y180.682
G01 X194.125 Y181.884
G01 X195.683 Y182.656
G01 X196.820 Y183.313
G01 X194.796 Y184.618
G01 X192.661 Y185.826
G01 X191.137 Y186.594
G01 X190.000 Y187.250
G01 X190.000 Y179.375
G01 X190.000 Y171.500
G01 X191.601 Y172.595
G01 X193.310 Y173.606
G01 X195.121 Y174.525
G01 X195.683 Y174.781
G01 X197.742 Y176.138
G01 X199.948 Y177.372
G01 X201.367 Y178.063
G01 X203.640 Y179.375
G01 X206.614 Y181.290
G01 X209.807 Y183.001
G01 X210.460 Y183.312
G01 X208.460 Y184.626
G01 X206.379 Y185.846
G01 X204.223 Y186.969
G01 X203.640 Y187.250
G01 X203.663 Y179.874
G01 X203.640 Y179.375
G01 X206.614 Y181.290
G01 X209.807 Y183.001
G01 X210.460 Y183.312
G01 X214.431 Y185.760
G01 X217.280 Y187.250
G01 X215.017 Y188.704
G01 X212.677 Y190.049
G01 X210.460 Y191.187
G01 X210.529 Y184.842
G01 X210.460 Y183.312
G01 X207.226 Y181.643
G01 X204.207 Y179.767
G01 X203.640 Y179.375
G01 X203.664 Y186.743
G01 X203.640 Y187.250
G01 X206.895 Y189.307
G01 X210.383 Y191.151
G01 X210.460 Y191.187
G01 X208.116 Y192.690
G01 X205.674 Y194.085
G01 X203.640 Y195.125
G01 X203.640 Y187.250
G01 X203.663 Y179.874
G01 X203.640 Y179.375
G01 X201.135 Y178.092
G01 X198.789 Y176.662
G01 X197.957 Y176.094
G01 X195.950 Y175.108
G01 X194.060 Y174.016
G01 X192.292 Y172.826
G01 X192.273 Y172.813
G01 X190.641 Y171.897
G01 X190.000 Y171.500
G01 X190.000 Y187.250
G01 X192.398 Y188.818
G01 X194.950 Y190.261
G01 X196.820 Y191.188
G01 X194.408 Y192.748
G01 X191.858 Y194.191
G01 X190.000 Y195.125
G01 X190.000 Y187.250
G01 X192.398 Y188.818
G01 X194.950 Y190.261
G01 X196.820 Y191.188
G01 X199.738 Y193.048
G01 X202.854 Y194.741
G01 X203.640 Y195.125
G01 X201.116 Y196.735
G01 X198.466 Y198.227
G01 X196.820 Y199.063
G01 X196.820 Y191.188
G01 X194.165 Y189.839
G01 X191.658 Y188.358
G01 X190.000 Y187.250
G01 X190.000 Y195.125
G01 X192.796 Y196.905
G01 X195.766 Y198.539
G01 X196.820 Y199.063
G01 X194.013 Y200.836
G01 X191.049 Y202.474
G01 X190.000 Y203.000
G01 X190.000 Y195.125
G01 X190.000 Y187.250
G01 X190.000 Y171.500
G01 X190.000 Y141.370
G01 X190.055 Y141.118
G01 X190.085 Y140.866
G01 X190.091 Y140.613
G01 X190.072 Y140.363
G01 X190.029 Y140.117
G01 X190.000 Y140.000
G01 X190.028 Y140.084
G01 X190.063 Y140.165
G01 X190.107 Y140.242
G01 X190.159 Y140.316
G01 X190.217 Y140.384
G01 X190.283 Y140.448
G01 X190.356 Y140.506
G01 X190.434 Y140.557
G01 X190.519 Y140.602
G01 X190.608 Y140.640
G01 X190.703 Y140.671
G01 X190.802 Y140.693
G01 X190.904 Y140.707
G01 X191.010 Y140.713
G01 X191.119 Y140.710
G01 X191.212 Y140.700
G01 X244.560 Y171.500
G01 X251.380 Y175.438
G01 X248.108 Y177.466
G01 X244.788 Y179.261
G01 X244.560 Y179.375
G01 X244.689 Y175.522
G01 X244.576 Y171.754
G01 X244.560 Y171.500
G01 X251.380 Y175.438
G01 X258.200 Y179.375
G01 X254.539 Y181.613
G01 X251.380 Y183.313
G01 X251.494 Y179.020
G01 X251.380 Y175.438
G01 X244.560 Y171.500
G01 X244.689 Y175.261
G01 X244.576 Y179.109
G01 X244.560 Y179.375
G01 X251.380 Y183.313
G01 X248.032 Y185.374
G01 X244.632 Y187.213
G01 X244.560 Y187.250
G01 X244.679 Y182.844
G01 X244.560 Y179.375
G01 X244.689 Y175.522
G01 X244.576 Y171.754
G01 X244.560 Y171.500
G01 X258.200 Y179.375
G01 X265.019 Y183.313
G01 X260.971 Y185.759
G01 X258.200 Y187.250
G01 X258.300 Y182.517
G01 X258.200 Y179.375
G01 X265.019 Y183.313
G01 X271.839 Y187.250
G01 X267.402 Y189.906
G01 X265.019 Y191.188
G01 X265.105 Y186.014
G01 X265.019 Y183.313
G01 X258.200 Y179.375
G01 X258.300 Y184.037
G01 X258.200 Y187.250
G01 X265.019 Y191.188
G01 X260.907 Y193.664
G01 X258.200 Y195.125
G01 X258.287 Y189.861
G01 X258.200 Y187.250
G01 X258.300 Y182.517
G01 X258.200 Y179.375
G01 X244.560 Y171.500
G01 X244.730 Y175.288
G01 X244.656 Y179.166
G01 X244.560 Y180.688
G01 X244.633 Y185.078
G01 X244.560 Y187.250
G01 X251.380 Y191.187
G01 X247.900 Y193.315
G01 X244.560 Y195.125
G01 X244.662 Y190.058
G01 X244.560 Y187.250
G01 X251.380 Y191.187
G01 X258.200 Y195.125
G01 X254.348 Y197.455
G01 X251.380 Y199.063
G01 X251.466 Y193.592
G01 X251.380 Y191.187
G01 X244.560 Y187.250
G01 X244.662 Y192.247
G01 X244.560 Y195.125
G01 X251.380 Y199.063
G01 X247.726 Y201.280
G01 X244.560 Y203.000
G01 X244.637 Y197.163
G01 X244.560 Y195.125
G01 X244.662 Y190.058
G01 X244.560 Y187.250
G01 X244.725 Y182.880
G01 X244.597 Y178.612
G01 X244.560 Y178.062
G01 X244.648 Y174.265
G01 X244.560 Y171.500
G01 X271.839 Y187.250
G01 X278.659 Y191.188
G01 X273.833 Y194.053
G01 X271.839 Y195.125
G01 X271.911 Y189.511
G01 X271.839 Y187.250
G01 X278.659 Y191.188
G01 X285.479 Y195.125
G01 X280.264 Y198.199
G01 X278.659 Y199.063
G01 X278.717 Y193.008
G01 X278.659 Y191.188
G01 X271.839 Y187.250
G01 X271.912 Y192.814
G01 X271.839 Y195.125
G01 X278.659 Y199.063
G01 X273.778 Y201.954
G01 X271.839 Y203.000
G01 X271.897 Y196.871
G01 X271.839 Y195.125
G01 X271.911 Y189.511
G01 X271.839 Y187.250
G01 X285.479 Y195.125
G01 X292.299 Y199.063
G01 X286.696 Y202.346
G01 X285.479 Y203.000
G01 X285.523 Y196.504
G01 X285.479 Y195.125
G01 X292.299 Y199.063
G01 X299.119 Y203.000
G01 X293.127 Y206.493
G01 X292.299 Y206.937
G01 X292.329 Y200.001
G01 X292.299 Y199.063
G01 X285.479 Y195.125
G01 X285.523 Y201.590
G01 X285.479 Y203.000
G01 X292.299 Y206.937
G01 X286.647 Y210.245
G01 X285.479 Y210.875
G01 X285.508 Y203.875
G01 X285.479 Y203.000
G01 X285.523 Y196.504
G01 X285.479 Y195.125
G01 X271.839 Y187.250
G01 X271.993 Y192.866
G01 X271.839 Y197.750
G01 X271.839 Y203.000
G01 X278.659 Y206.937
G01 X273.679 Y209.880
G01 X271.839 Y210.875
G01 X271.879 Y204.158
G01 X271.839 Y203.000
G01 X278.659 Y206.937
G01 X285.479 Y210.875
G01 X280.120 Y214.023
G01 X278.659 Y214.812
G01 X278.685 Y207.672
G01 X278.659 Y206.937
G01 X271.839 Y203.000
G01 X271.880 Y209.689
G01 X271.839 Y210.875
G01 X278.659 Y214.812
G01 X273.544 Y217.826
G01 X271.839 Y218.750
G01 X271.857 Y211.372
G01 X271.839 Y210.875
G01 X271.879 Y204.158
G01 X271.839 Y203.000
G01 X271.986 Y196.932
G01 X271.839 Y192.500
G01 X271.839 Y187.250
G01 X244.560 Y171.500
G01 X244.700 Y175.268
G01 X244.597 Y179.124
G01 X244.560 Y179.717
G01 X244.736 Y184.112
G01 X244.606 Y188.615
G01 X244.560 Y189.304
G01 X244.717 Y194.557
G01 X244.560 Y198.891
G01 X244.560 Y203.000
G01 X251.380 Y206.938
G01 X247.520 Y209.265
G01 X244.560 Y210.875
G01 X244.605 Y204.158
G01 X244.560 Y203.000
G01 X251.380 Y206.938
G01 X258.200 Y210.875
G01 X253.991 Y213.393
G01 X251.380 Y214.812
G01 X251.412 Y207.777
G01 X251.380 Y206.938
G01 X244.560 Y203.000
G01 X244.606 Y209.689
G01 X244.560 Y210.875
G01 X251.380 Y214.812
G01 X247.287 Y217.265
G01 X244.560 Y218.750
G01 X244.566 Y211.042
G01 X244.560 Y210.875
G01 X244.605 Y204.158
G01 X244.560 Y203.000
G01 X257.063 Y210.219
G01 X258.200 Y210.875
G01 X265.019 Y214.812
G01 X260.458 Y217.523
G01 X258.200 Y218.750
G01 X258.218 Y211.372
G01 X258.200 Y210.875
G01 X265.019 Y214.812
G01 X271.839 Y218.750
G01 X266.920 Y221.655
G01 X265.019 Y222.687
G01 X265.025 Y214.949
G01 X265.019 Y214.812
G01 X258.200 Y210.875
G01 X258.219 Y218.241
G01 X258.200 Y218.750
G01 X265.019 Y222.687
G01 X260.249 Y225.510
G01 X258.200 Y226.625
G01 X258.200 Y218.750
G01 X258.218 Y211.372
G01 X258.200 Y210.875
G01 X245.696 Y203.656
G01 X244.560 Y203.000
G01 X244.704 Y209.814
G01 X244.560 Y213.500
G01 X244.560 Y218.750
G01 X251.380 Y222.688
G01 X247.033 Y225.277
G01 X244.560 Y226.625
G01 X244.560 Y218.750
G01 X251.380 Y222.688
G01 X258.200 Y226.625
G01 X253.529 Y229.392
G01 X251.380 Y230.562
G01 X251.380 Y222.688
G01 X244.560 Y218.750
G01 X244.560 Y226.625
G01 X251.380 Y230.562
G01 X246.761 Y233.300
G01 X244.560 Y234.500
G01 X244.560 Y226.625
G01 X244.560 Y218.750
G01 X244.679 Y211.189
G01 X244.560 Y208.250
G01 X244.560 Y203.000
G01 X244.705 Y197.233
G01 X244.560 Y193.413
G01 X244.729 Y188.555
G01 X244.560 Y183.826
G01 X244.696 Y179.682
G01 X244.561 Y175.634
G01 X244.560 Y175.609
G01 X244.573 Y171.913
G01 X244.560 Y171.500
G01 X191.212 Y140.700
G01 X191.137 Y140.733
G01 X191.061 Y140.760
G01 X190.985 Y140.782
G01 X190.910 Y140.798
G01 X190.836 Y140.809
G01 X190.763 Y140.814
G01 X190.691 Y140.815
G01 X190.622 Y140.810
G01 X190.554 Y140.801
G01 X190.489 Y140.787
G01 X190.427 Y140.768
G01 X190.368 Y140.746
G01 X190.312 Y140.720
G01 X190.260 Y140.690
G01 X190.211 Y140.657
G01 X190.166 Y140.620
G01 X190.126 Y140.581
G01 X190.089 Y140.540
G01 X190.057 Y140.497
G01 X190.030 Y140.452
G01 X190.007 Y140.405
G01 X189.988 Y140.358
G01 X189.975 Y140.310
G01 X189.966 Y140.261
G01 X189.961 Y140.213
G01 X189.962 Y140.164
G01 X189.967 Y140.117
G01 X189.976 Y140.070
G01 X189.990 Y140.025
G01 X190.000 Y140.000
G01 X189.941 Y140.160
G01 X189.898 Y140.325
G01 X189.870 Y140.494
G01 X189.860 Y140.666
G01 X189.866 Y140.840
G01 X189.889 Y141.015
G01 X189.928 Y141.189
G01 X189.985 Y141.361
G01 X190.000 Y141.400
G01 X190.000 Y203.000
G01 X193.193 Y204.993
G01 X196.581 Y206.819
G01 X196.820 Y206.937
G01 X193.618 Y208.925
G01 X190.238 Y210.756
G01 X190.000 Y210.875
G01 X190.000 Y203.000
G01 X193.193 Y204.993
G01 X196.581 Y206.819
G01 X196.820 Y206.937
G01 X200.503 Y209.202
G01 X203.640 Y210.875
G01 X200.351 Y212.903
G01 X196.895 Y214.775
G01 X196.820 Y214.812
G01 X196.820 Y206.937
G01 X193.419 Y205.123
G01 X190.212 Y203.141
G01 X190.000 Y203.000
G01 X190.000 Y210.875
G01 X193.590 Y213.080
G01 X196.820 Y214.812
G01 X193.223 Y217.014
G01 X190.000 Y218.750
G01 X190.000 Y210.875
G01 X190.000 Y203.000
G01 X193.195 Y205.042
G01 X196.591 Y206.916
G01 X197.957 Y207.594
G01 X201.722 Y209.853
G01 X203.640 Y210.875
G01 X207.916 Y213.462
G01 X210.460 Y214.812
G01 X207.027 Y216.913
G01 X203.640 Y218.750
G01 X203.640 Y210.875
G01 X207.916 Y213.462
G01 X210.460 Y214.812
G01 X215.432 Y217.774
G01 X217.280 Y218.750
G01 X213.662 Y220.947
G01 X210.460 Y222.688
G01 X210.460 Y214.812
G01 X206.021 Y212.368
G01 X203.640 Y210.875
G01 X203.640 Y218.750
G01 X208.282 Y221.530
G01 X210.460 Y222.688
G01 X206.652 Y224.992
G01 X203.640 Y226.625
G01 X203.640 Y218.750
G01 X203.640 Y210.875
G01 X199.773 Y208.833
G01 X196.140 Y206.589
G01 X195.683 Y206.281
G01 X192.350 Y204.459
G01 X190.000 Y203.000
G01 X190.000 Y218.750
G01 X193.988 Y221.168
G01 X196.820 Y222.687
G01 X192.827 Y225.103
G01 X190.000 Y226.625
G01 X190.000 Y218.750
G01 X193.988 Y221.168
G01 X196.820 Y222.687
G01 X201.280 Y225.365
G01 X203.640 Y226.625
G01 X199.575 Y229.074
G01 X196.820 Y230.563
G01 X196.820 Y222.687
G01 X192.671 Y220.408
G01 X190.000 Y218.750
G01 X190.000 Y226.625
G01 X194.385 Y229.256
G01 X196.820 Y230.563
G01 X192.431 Y233.191
G01 X190.000 Y234.500
G01 X190.000 Y226.625
G01 X190.000 Y218.750
G01 X190.000 Y203.000
G01 X193.194 Y205.005
G01 X196.584 Y206.844
G01 X197.116 Y207.109
G01 X200.834 Y209.458
G01 X204.799 Y211.598
G01 X205.419 Y211.902
G01 X209.889 Y214.664
G01 X213.722 Y216.696
G01 X217.280 Y218.750
G01 X223.050 Y222.135
G01 X224.100 Y222.688
G01 X220.265 Y225.001
G01 X217.280 Y226.625
G01 X217.280 Y218.750
G01 X223.050 Y222.135
G01 X224.100 Y222.688
G01 X230.768 Y226.546
G01 X230.920 Y226.625
G01 X226.843 Y229.068
G01 X224.100 Y230.562
G01 X224.100 Y222.688
G01 X218.259 Y219.368
G01 X217.280 Y218.750
G01 X217.280 Y226.625
G01 X223.338 Y230.161
G01 X224.100 Y230.562
G01 X219.917 Y233.066
G01 X217.280 Y234.500
G01 X217.280 Y226.625
G01 X217.280 Y218.750
G01 X223.109 Y222.282
G01 X226.373 Y224.000
G01 X230.920 Y226.625
G01 X237.740 Y230.562
G01 X233.402 Y233.147
G01 X230.920 Y234.500
G01 X230.920 Y226.625
G01 X237.740 Y230.562
G01 X244.560 Y234.500
G01 X239.945 Y237.235
G01 X237.740 Y238.437
G01 X237.740 Y230.562
G01 X230.920 Y226.625
G01 X230.920 Y234.500
G01 X237.740 Y238.437
G01 X233.080 Y241.198
G01 X230.920 Y242.375
G01 X230.920 Y234.500
G01 X230.920 Y226.625
G01 X224.312 Y222.948
G01 X221.826 Y221.375
G01 X217.280 Y218.750
G01 X217.280 Y233.188
G01 X217.280 Y234.500
G01 X223.649 Y238.200
G01 X224.100 Y238.438
G01 X219.562 Y241.134
G01 X217.280 Y242.375
G01 X217.280 Y234.500
G01 X223.649 Y238.200
G01 X224.100 Y238.438
G01 X230.920 Y242.375
G01 X226.166 Y245.188
G01 X224.100 Y246.313
G01 X224.100 Y238.438
G01 X217.701 Y234.765
G01 X217.280 Y234.500
G01 X217.280 Y242.375
G01 X223.976 Y246.247
G01 X224.100 Y246.313
G01 X219.203 Y249.205
G01 X217.280 Y250.250
G01 X217.280 Y242.375
G01 X217.280 Y234.500
G01 X217.280 Y220.062
G01 X217.280 Y218.750
G01 X212.213 Y215.992
G01 X208.977 Y213.957
G01 X204.685 Y211.674
G01 X200.675 Y209.163
G01 X197.018 Y207.209
G01 X193.580 Y205.069
G01 X193.558 Y205.054
G01 X190.351 Y203.218
G01 X190.000 Y203.000
G01 X190.000 Y234.500
G01 X194.782 Y237.344
G01 X196.820 Y238.438
G01 X192.034 Y241.280
G01 X190.000 Y242.375
G01 X190.000 Y234.500
G01 X194.782 Y237.344
G01 X196.820 Y238.438
G01 X202.063 Y241.532
G01 X203.640 Y242.375
G01 X198.794 Y245.246
G01 X196.820 Y246.313
G01 X196.820 Y238.438
G01 X191.922 Y235.692
G01 X190.000 Y234.500
G01 X190.000 Y242.375
G01 X195.180 Y245.432
G01 X196.820 Y246.313
G01 X191.638 Y249.368
G01 X190.000 Y250.250
G01 X190.000 Y242.375
G01 X190.000 Y234.500
G01 X194.787 Y237.441
G01 X199.093 Y239.750
G01 X203.640 Y242.375
G01 X209.413 Y245.755
G01 X210.460 Y246.313
G01 X205.510 Y249.238
G01 X203.640 Y250.250
G01 X203.640 Y242.375
G01 X209.413 Y245.755
G01 X210.460 Y246.313
G01 X216.830 Y250.011
G01 X217.280 Y250.250
G01 X212.189 Y253.250
G01 X210.460 Y254.187
G01 X210.460 Y246.313
G01 X204.622 Y242.989
G01 X203.640 Y242.375
G01 X203.640 Y250.250
G01 X209.796 Y253.834
G01 X210.460 Y254.187
G01 X205.125 Y257.322
G01 X203.640 Y258.125
G01 X203.640 Y250.250
G01 X203.640 Y242.375
G01 X198.312 Y239.468
G01 X194.547 Y237.125
G01 X190.000 Y234.500
G01 X190.000 Y250.250
G01 X195.577 Y253.521
G01 X196.820 Y254.188
G01 X191.241 Y257.457
G01 X190.000 Y258.125
G01 X190.000 Y250.250
G01 X195.577 Y253.521
G01 X196.820 Y254.188
G01 X202.850 Y257.702
G01 X203.640 Y258.125
G01 X198.010 Y261.420
G01 X196.820 Y262.063
G01 X196.820 Y254.188
G01 X191.173 Y250.977
G01 X190.000 Y250.250
G01 X190.000 Y258.125
G01 X195.974 Y261.609
G01 X196.820 Y262.063
G01 X190.845 Y265.546
G01 X190.000 Y266.000
G01 X190.000 Y258.125
G01 X190.000 Y250.250
G01 X190.000 Y234.500
G01 X190.000 Y203.000
G01 X190.000 Y141.400
G01 X189.935 Y141.314
G01 X189.879 Y141.226
G01 X189.832 Y141.135
G01 X189.792 Y141.043
G01 X189.762 Y140.950
G01 X189.740 Y140.857
G01 X189.727 Y140.764
G01 X189.722 Y140.672
G01 X189.725 Y140.582
G01 X189.736 Y140.494
G01 X189.755 Y140.408
G01 X189.782 Y140.326
G01 X189.817 Y140.247
G01 X189.858 Y140.173
G01 X189.906 Y140.103
G01 X189.961 Y140.039
G01 X190.000 Y140.000
G01 X189.985 Y140.016
G01 X189.971 Y140.033
G01 X189.959 Y140.052
G01 X189.948 Y140.072
G01 X189.940 Y140.093
G01 X189.934 Y140.115
G01 X189.929 Y140.138
G01 X189.927 Y140.161
G01 X189.927 Y140.185
G01 X189.929 Y140.210
G01 X189.933 Y140.234
G01 X189.940 Y140.259
G01 X189.949 Y140.283
G01 X189.960 Y140.307
G01 X189.973 Y140.331
G01 X189.989 Y140.354
G01 X190.006 Y140.376
G01 X190.026 Y140.397
G01 X190.048 Y140.418
G01 X190.072 Y140.437
G01 X190.098 Y140.454
G01 X190.126 Y140.470
G01 X190.156 Y140.484
G01 X190.187 Y140.497
G01 X190.220 Y140.507
G01 X190.255 Y140.516
G01 X190.290 Y140.522
G01 X190.327 Y140.526
G01 X190.365 Y140.527
G01 X190.404 Y140.526
G01 X190.444 Y140.523
G01 X190.484 Y140.517
G01 X190.525 Y140.508
G01 X190.566 Y140.496
G01 X190.607 Y140.481
G01 X190.648 Y140.464
G01 X190.688 Y140.443
G01 X190.728 Y140.420
G01 X190.768 Y140.394
G01 X190.806 Y140.365
G01 X190.844 Y140.333
G01 X190.880 Y140.298
G01 X190.915 Y140.261
G01 X190.948 Y140.221
G01 X190.980 Y140.178
G01 X191.009 Y140.133
G01 X191.036 Y140.085
G01 X191.061 Y140.034
G01 X191.084 Y139.982
G01 X191.104 Y139.927
G01 X191.121 Y139.871
G01 X191.135 Y139.812
G01 X191.146 Y139.752
G01 X191.154 Y139.690
G01 X191.158 Y139.627
G01 X191.159 Y139.563
G01 X191.157 Y139.498
G01 X191.151 Y139.432
G01 X191.141 Y139.366
G01 X191.137 Y139.344
G01 X196.820 Y136.063
G01 X196.883 Y136.464
G01 X196.924 Y136.863
G01 X196.942 Y137.257
G01 X196.939 Y137.645
G01 X196.914 Y138.026
G01 X196.869 Y138.398
G01 X196.820 Y138.687
G01 X196.876 Y139.024
G01 X196.916 Y139.362
G01 X196.939 Y139.702
G01 X196.945 Y140.043
G01 X196.934 Y140.384
G01 X196.907 Y140.724
G01 X196.863 Y141.062
G01 X196.820 Y141.313
G01 X196.880 Y141.678
G01 X196.921 Y142.052
G01 X196.941 Y142.435
G01 X196.940 Y142.824
G01 X196.917 Y143.219
G01 X196.872 Y143.618
G01 X196.820 Y143.938
G01 X191.137 Y140.656
G01 X191.074 Y140.693
G01 X191.011 Y140.724
G01 X190.947 Y140.751
G01 X190.883 Y140.774
G01 X190.819 Y140.793
G01 X190.755 Y140.807
G01 X190.693 Y140.816
G01 X190.631 Y140.822
G01 X190.570 Y140.823
G01 X190.511 Y140.821
G01 X190.453 Y140.815
G01 X190.397 Y140.805
G01 X190.343 Y140.792
G01 X190.292 Y140.776
G01 X190.243 Y140.756
G01 X190.197 Y140.734
G01 X190.153 Y140.709
G01 X190.112 Y140.681
G01 X190.075 Y140.652
G01 X190.041 Y140.620
G01 X190.010 Y140.587
G01 X189.982 Y140.552
G01 X189.958 Y140.516
G01 X189.937 Y140.479
G01 X189.920 Y140.441
G01 X189.906 Y140.403
G01 X189.896 Y140.365
G01 X189.889 Y140.327
G01 X189.886 Y140.289
G01 X189.886 Y140.251
G01 X189.890 Y140.215
G01 X189.897 Y140.179
G01 X189.907 Y140.145
G01 X189.920 Y140.112
G01 X189.936 Y140.081
G01 X189.955 Y140.051
G01 X189.976 Y140.024
G01 X190.000 Y140.000
G01 X189.985 Y140.016
G01 X189.971 Y140.033
G01 X189.959 Y140.052
G01 X189.949 Y140.072
G01 X189.940 Y140.093
G01 X189.934 Y140.115
G01 X189.929 Y140.138
G01 X189.927 Y140.161
G01 X189.927 Y140.185
G01 X189.929 Y140.210
G01 X189.933 Y140.234
G01 X189.940 Y140.259
G01 X189.949 Y140.283
G01 X189.960 Y140.307
G01 X189.973 Y140.331
G01 X189.989 Y140.354
G01 X190.007 Y140.376
G01 X190.026 Y140.397
G01 X190.048 Y140.418
G01 X190.073 Y140.437
G01 X190.099 Y140.454
G01 X190.126 Y140.470
G01 X190.156 Y140.484
G01 X190.188 Y140.497
G01 X190.221 Y140.507
G01 X190.255 Y140.516
G01 X190.291 Y140.522
G01 X190.328 Y140.526
G01 X190.366 Y140.527
G01 X190.405 Y140.526
G01 X190.444 Y140.523
G01 X190.485 Y140.516
G01 X190.525 Y140.507
G01 X190.566 Y140.496
G01 X190.607 Y140.481
G01 X190.648 Y140.463
G01 X190.689 Y140.443
G01 X190.729 Y140.420
G01 X190.768 Y140.394
G01 X190.807 Y140.365
G01 X190.844 Y140.333
G01 X190.880 Y140.298
G01 X190.915 Y140.260
G01 X190.948 Y140.220
G01 X190.980 Y140.177
G01 X191.009 Y140.132
G01 X191.037 Y140.084
G01 X191.062 Y140.034
G01 X191.084 Y139.981
G01 X191.104 Y139.927
G01 X191.121 Y139.870
G01 X191.135 Y139.811
G01 X191.146 Y139.751
G01 X191.154 Y139.690
G01 X191.158 Y139.627
G01 X191.159 Y139.562
G01 X191.157 Y139.497
G01 X191.151 Y139.431
G01 X191.141 Y139.365
G01 X191.137 Y139.344
G01 X196.820 Y136.063
G01 X203.640 Y132.125
G01 X203.730 Y132.947
G01 X203.774 Y133.759
G01 X203.771 Y134.558
G01 X203.724 Y135.341
G01 X203.640 Y136.062
G01 X203.722 Y136.759
G01 X203.769 Y137.454
G01 X203.781 Y138.145
G01 X203.758 Y138.832
G01 X203.702 Y139.512
G01 X203.640 Y140.000
G01 X202.793 Y139.372
G01 X201.918 Y138.826
G01 X201.023 Y138.365
G01 X200.230 Y138.031
G01 X199.691 Y137.636
G01 X199.140 Y137.289
G01 X198.578 Y136.991
G01 X198.011 Y136.740
G01 X197.957 Y136.719
G01 X197.541 Y136.448
G01 X197.118 Y136.210
G01 X196.820 Y136.063
G01 X191.137 Y139.344
G01 X191.087 Y139.299
G01 X191.036 Y139.258
G01 X190.983 Y139.220
G01 X190.929 Y139.185
G01 X190.874 Y139.154
G01 X190.819 Y139.126
G01 X190.763 Y139.101
G01 X190.706 Y139.080
G01 X190.649 Y139.062
G01 X190.592 Y139.048
G01 X190.535 Y139.037
G01 X190.479 Y139.029
G01 X190.423 Y139.024
G01 X190.368 Y139.022
G01 X190.314 Y139.023
G01 X190.261 Y139.028
G01 X190.208 Y139.035
G01 X190.158 Y139.045
G01 X190.108 Y139.057
G01 X190.061 Y139.072
G01 X190.015 Y139.089
G01 X189.971 Y139.109
G01 X189.929 Y139.130
G01 X189.889 Y139.154
G01 X189.851 Y139.179
G01 X189.815 Y139.206
G01 X189.781 Y139.234
G01 X189.750 Y139.264
G01 X189.721 Y139.295
G01 X189.695 Y139.327
G01 X189.671 Y139.360
G01 X189.650 Y139.393
G01 X189.631 Y139.427
G01 X189.614 Y139.462
G01 X189.600 Y139.496
G01 X189.588 Y139.531
G01 X189.579 Y139.565
G01 X189.572 Y139.599
G01 X189.568 Y139.633
G01 X189.565 Y139.667
G01 X189.565 Y139.699
G01 X189.567 Y139.731
G01 X189.571 Y139.762
G01 X189.577 Y139.792
G01 X189.585 Y139.820
G01 X189.595 Y139.847
G01 X189.606 Y139.873
G01 X189.619 Y139.898
G01 X189.633 Y139.921
G01 X189.648 Y139.942
G01 X189.665 Y139.961
G01 X189.682 Y139.979
G01 X189.701 Y139.995
G01 X189.720 Y140.009
G01 X189.740 Y140.021
G01 X189.760 Y140.032
G01 X189.781 Y140.040
G01 X189.802 Y140.046
G01 X189.823 Y140.051
G01 X189.843 Y140.053
G01 X189.864 Y140.054
G01 X189.884 Y140.052
G01 X189.904 Y140.049
G01 X189.923 Y140.044
G01 X189.941 Y140.038
G01 X189.959 Y140.029
G01 X189.975 Y140.020
G01 X189.991 Y140.008
G01 X190.000 Y140.000
G01 X189.976 Y140.025
G01 X189.954 Y140.052
G01 X189.936 Y140.081
G01 X189.919 Y140.112
G01 X189.906 Y140.145
G01 X189.896 Y140.179
G01 X189.889 Y140.215
G01 X189.886 Y140.251
G01 X189.886 Y140.289
G01 X189.889 Y140.327
G01 X189.895 Y140.365
G01 X189.905 Y140.403
G01 X189.919 Y140.441
G01 X189.936 Y140.479
G01 X189.957 Y140.516
G01 X189.981 Y140.552
G01 X190.009 Y140.587
G01 X190.040 Y140.620
G01 X190.074 Y140.652
G01 X190.112 Y140.681
G01 X190.152 Y140.709
G01 X190.196 Y140.734
G01 X190.242 Y140.756
G01 X190.291 Y140.776
G01 X190.342 Y140.792
G01 X190.396 Y140.805
G01 X190.452 Y140.815
G01 X190.509 Y140.821
G01 X190.569 Y140.824
G01 X190.630 Y140.822
G01 X190.691 Y140.817
G01 X190.754 Y140.807
G01 X190.818 Y140.793
G01 X190.882 Y140.775
G01 X190.946 Y140.752
G01 X191.009 Y140.725
G01 X191.073 Y140.693
G01 X191.135 Y140.657
G01 X191.137 Y140.656
G01 X196.820 Y143.937
G01 X197.291 Y143.745
G01 X197.759 Y143.516
G01 X198.221 Y143.249
G01 X198.676 Y142.945
G01 X199.093 Y142.625
G01 X199.850 Y142.326
G01 X200.597 Y141.960
G01 X201.331 Y141.525
G01 X202.046 Y141.023
G01 X202.503 Y140.656
G01 X203.568 Y140.045
G01 X203.640 Y140.000
G01 X203.721 Y140.674
G01 X203.768 Y141.356
G01 X203.781 Y142.044
G01 X203.759 Y142.737
G01 X203.703 Y143.432
G01 X203.640 Y143.938
G01 X203.728 Y144.704
G01 X203.772 Y145.488
G01 X203.772 Y146.288
G01 X203.726 Y147.100
G01 X203.640 Y147.875
G01 X196.820 Y143.937
G01 X191.137 Y140.656
G01 X191.074 Y140.693
G01 X191.011 Y140.724
G01 X190.947 Y140.752
G01 X190.883 Y140.774
G01 X190.819 Y140.793
G01 X190.756 Y140.807
G01 X190.693 Y140.817
G01 X190.631 Y140.822
G01 X190.570 Y140.824
G01 X190.511 Y140.822
G01 X190.453 Y140.816
G01 X190.397 Y140.806
G01 X190.344 Y140.793
G01 X190.292 Y140.776
G01 X190.243 Y140.757
G01 X190.197 Y140.735
G01 X190.153 Y140.710
G01 X190.113 Y140.682
G01 X190.075 Y140.653
G01 X190.041 Y140.621
G01 X190.010 Y140.588
G01 X189.982 Y140.553
G01 X189.958 Y140.517
G01 X189.937 Y140.480
G01 X189.919 Y140.443
G01 X189.906 Y140.405
G01 X189.895 Y140.366
G01 X189.889 Y140.328
G01 X189.885 Y140.290
G01 X189.885 Y140.253
G01 X189.889 Y140.216
G01 X189.896 Y140.181
G01 X189.906 Y140.146
G01 X189.919 Y140.114
G01 X189.935 Y140.082
G01 X189.953 Y140.053
G01 X189.975 Y140.026
G01 X189.999 Y140.001
G01 X190.000 Y140.000
G01 X189.985 Y140.016
G01 X189.971 Y140.033
G01 X189.959 Y140.052
G01 X189.948 Y140.072
G01 X189.940 Y140.093
G01 X189.933 Y140.115
G01 X189.929 Y140.137
G01 X189.927 Y140.161
G01 X189.926 Y140.185
G01 X189.928 Y140.209
G01 X189.933 Y140.234
G01 X189.939 Y140.258
G01 X189.948 Y140.283
G01 X189.959 Y140.307
G01 X189.972 Y140.330
G01 X189.988 Y140.353
G01 X190.005 Y140.376
G01 X190.025 Y140.397
G01 X190.047 Y140.417
G01 X190.071 Y140.436
G01 X190.097 Y140.454
G01 X190.125 Y140.470
G01 X190.154 Y140.484
G01 X190.186 Y140.497
G01 X190.219 Y140.507
G01 X190.253 Y140.516
G01 X190.289 Y140.522
G01 X190.326 Y140.526
G01 X190.364 Y140.528
G01 X190.402 Y140.527
G01 X190.442 Y140.524
G01 X190.482 Y140.517
G01 X190.523 Y140.508
G01 X190.564 Y140.497
G01 X190.605 Y140.482
G01 X190.646 Y140.465
G01 X190.686 Y140.445
G01 X190.726 Y140.422
G01 X190.766 Y140.396
G01 X190.804 Y140.367
G01 X190.842 Y140.335
G01 X190.878 Y140.300
G01 X190.913 Y140.263
G01 X190.947 Y140.223
G01 X190.978 Y140.180
G01 X191.008 Y140.135
G01 X191.035 Y140.087
G01 X191.060 Y140.037
G01 X191.083 Y139.985
G01 X191.103 Y139.930
G01 X191.120 Y139.874
G01 X191.134 Y139.815
G01 X191.146 Y139.755
G01 X191.154 Y139.694
G01 X191.158 Y139.631
G01 X191.159 Y139.567
G01 X191.157 Y139.502
G01 X191.151 Y139.436
G01 X191.141 Y139.369
G01 X191.137 Y139.344
G01 X203.640 Y132.125
G01 X210.460 Y128.187
G01 X210.577 Y129.431
G01 X210.622 Y130.656
G01 X210.598 Y131.860
G01 X210.506 Y133.039
G01 X210.460 Y133.438
G01 X210.500 Y134.518
G01 X210.485 Y135.586
G01 X210.460 Y136.062
G01 X209.313 Y135.290
G01 X208.143 Y134.620
G01 X207.050 Y134.094
G01 X206.190 Y133.485
G01 X205.313 Y132.947
G01 X204.423 Y132.478
G01 X203.640 Y132.125
G01 X210.460 Y128.187
G01 X217.280 Y124.250
G01 X217.385 Y125.933
G01 X217.393 Y127.588
G01 X217.306 Y129.210
G01 X217.280 Y129.500
G01 X217.310 Y131.000
G01 X217.280 Y132.125
G01 X215.834 Y131.148
G01 X214.360 Y130.293
G01 X212.867 Y129.560
G01 X212.733 Y129.500
G01 X211.513 Y128.751
G01 X210.460 Y128.187
G01 X203.640 Y132.125
G01 X204.537 Y132.533
G01 X205.425 Y133.011
G01 X206.300 Y133.559
G01 X207.050 Y134.094
G01 X208.237 Y134.669
G01 X209.406 Y135.348
G01 X210.460 Y136.062
G01 X214.207 Y134.096
G01 X217.280 Y132.125
G01 X217.378 Y133.533
G01 X217.405 Y134.932
G01 X217.361 Y136.318
G01 X217.280 Y137.375
G01 X217.311 Y138.720
G01 X217.280 Y140.000
G01 X215.372 Y138.754
G01 X213.413 Y137.694
G01 X212.733 Y137.375
G01 X211.257 Y136.481
G01 X210.460 Y136.062
G01 X209.313 Y135.290
G01 X208.143 Y134.620
G01 X207.050 Y134.094
G01 X206.190 Y133.485
G01 X205.313 Y132.947
G01 X204.423 Y132.478
G01 X203.640 Y132.125
G01 X191.137 Y139.344
G01 X191.087 Y139.299
G01 X191.036 Y139.258
G01 X190.983 Y139.220
G01 X190.929 Y139.185
G01 X190.874 Y139.154
G01 X190.818 Y139.126
G01 X190.762 Y139.102
G01 X190.705 Y139.081
G01 X190.649 Y139.063
G01 X190.592 Y139.049
G01 X190.535 Y139.038
G01 X190.479 Y139.030
G01 X190.423 Y139.025
G01 X190.368 Y139.023
G01 X190.313 Y139.025
G01 X190.260 Y139.029
G01 X190.208 Y139.036
G01 X190.157 Y139.046
G01 X190.108 Y139.059
G01 X190.061 Y139.074
G01 X190.015 Y139.091
G01 X189.971 Y139.111
G01 X189.929 Y139.132
G01 X189.889 Y139.156
G01 X189.851 Y139.181
G01 X189.815 Y139.208
G01 X189.782 Y139.237
G01 X189.751 Y139.267
G01 X189.722 Y139.298
G01 X189.696 Y139.330
G01 X189.672 Y139.362
G01 X189.651 Y139.396
G01 X189.632 Y139.430
G01 X189.616 Y139.464
G01 X189.602 Y139.499
G01 X189.591 Y139.533
G01 X189.582 Y139.568
G01 X189.575 Y139.602
G01 X189.571 Y139.636
G01 X189.569 Y139.669
G01 X189.569 Y139.701
G01 X189.571 Y139.733
G01 X189.575 Y139.764
G01 X189.581 Y139.793
G01 X189.589 Y139.822
G01 X189.599 Y139.849
G01 X189.610 Y139.875
G01 X189.623 Y139.899
G01 X189.637 Y139.922
G01 X189.653 Y139.943
G01 X189.670 Y139.962
G01 X189.687 Y139.980
G01 X189.706 Y139.995
G01 X189.725 Y140.009
G01 X189.745 Y140.021
G01 X189.766 Y140.031
G01 X189.786 Y140.039
G01 X189.807 Y140.045
G01 X189.828 Y140.049
G01 X189.849 Y140.051
G01 X189.869 Y140.052
G01 X189.890 Y140.050
G01 X189.909 Y140.047
G01 X189.928 Y140.041
G01 X189.947 Y140.034
G01 X189.964 Y140.026
G01 X189.980 Y140.016
G01 X189.996 Y140.004
G01 X190.000 Y140.000
G01 X189.976 Y140.024
G01 X189.954 Y140.051
G01 X189.935 Y140.079
G01 X189.918 Y140.110
G01 X189.905 Y140.142
G01 X189.894 Y140.176
G01 X189.887 Y140.211
G01 X189.883 Y140.247
G01 X189.882 Y140.284
G01 X189.884 Y140.322
G01 X189.890 Y140.360
G01 X189.900 Y140.398
G01 X189.913 Y140.436
G01 X189.929 Y140.474
G01 X189.949 Y140.511
G01 X189.972 Y140.547
G01 X189.999 Y140.582
G01 X190.029 Y140.615
G01 X190.063 Y140.647
G01 X190.099 Y140.677
G01 X190.139 Y140.705
G01 X190.182 Y140.730
G01 X190.227 Y140.753
G01 X190.276 Y140.774
G01 X190.326 Y140.791
G01 X190.379 Y140.805
G01 X190.434 Y140.815
G01 X190.491 Y140.822
G01 X190.550 Y140.826
G01 X190.610 Y140.825
G01 X190.672 Y140.821
G01 X190.734 Y140.812
G01 X190.797 Y140.799
G01 X190.861 Y140.782
G01 X190.925 Y140.761
G01 X190.988 Y140.735
G01 X191.052 Y140.705
G01 X191.114 Y140.670
G01 X191.137 Y140.656
G01 X203.640 Y147.875
G01 X204.537 Y147.467
G01 X205.425 Y146.989
G01 X206.300 Y146.441
G01 X207.050 Y145.906
G01 X208.237 Y145.331
G01 X209.406 Y144.652
G01 X210.460 Y143.937
G01 X210.569 Y145.017
G01 X210.622 Y146.116
G01 X210.615 Y147.232
G01 X210.547 Y148.362
G01 X210.460 Y149.188
G01 X210.500 Y150.443
G01 X210.465 Y151.724
G01 X210.460 Y151.812
G01 X203.640 Y147.875
G01 X204.537 Y147.467
G01 X205.425 Y146.989
G01 X206.300 Y146.441
G01 X207.050 Y145.906
G01 X208.237 Y145.331
G01 X209.406 Y144.652
G01 X210.460 Y143.937
G01 X212.113 Y143.140
G01 X213.733 Y142.188
G01 X215.006 Y141.313
G01 X217.137 Y140.091
G01 X217.280 Y140.000
G01 X217.376 Y141.345
G01 X217.406 Y142.699
G01 X217.368 Y144.060
G01 X217.280 Y145.250
G01 X217.311 Y146.661
G01 X217.280 Y147.875
G01 X213.661 Y145.589
G01 X210.460 Y143.937
G01 X209.313 Y144.710
G01 X208.143 Y145.380
G01 X207.050 Y145.906
G01 X206.190 Y146.515
G01 X205.313 Y147.053
G01 X204.423 Y147.522
G01 X203.640 Y147.875
G01 X210.460 Y151.812
G01 X211.783 Y151.189
G01 X213.092 Y150.463
G01 X214.380 Y149.634
G01 X215.006 Y149.188
G01 X216.583 Y148.311
G01 X217.280 Y147.875
G01 X217.382 Y149.383
G01 X217.400 Y150.919
G01 X217.333 Y152.479
G01 X217.280 Y153.125
G01 X217.307 Y154.830
G01 X217.280 Y155.750
G01 X210.460 Y151.812
G01 X203.640 Y147.875
G01 X191.137 Y140.656
G01 X191.074 Y140.693
G01 X191.011 Y140.725
G01 X190.948 Y140.752
G01 X190.884 Y140.776
G01 X190.821 Y140.794
G01 X190.757 Y140.809
G01 X190.695 Y140.819
G01 X190.633 Y140.825
G01 X190.572 Y140.827
G01 X190.513 Y140.825
G01 X190.456 Y140.820
G01 X190.400 Y140.810
G01 X190.346 Y140.798
G01 X190.294 Y140.782
G01 X190.245 Y140.763
G01 X190.199 Y140.741
G01 X190.155 Y140.717
G01 X190.114 Y140.690
G01 X190.076 Y140.661
G01 X190.041 Y140.630
G01 X190.010 Y140.597
G01 X189.982 Y140.563
G01 X189.957 Y140.527
G01 X189.935 Y140.491
G01 X189.918 Y140.453
G01 X189.903 Y140.416
G01 X189.892 Y140.378
G01 X189.885 Y140.340
G01 X189.881 Y140.302
G01 X189.880 Y140.265
G01 X189.883 Y140.228
G01 X189.889 Y140.193
G01 X189.898 Y140.158
G01 X189.910 Y140.125
G01 X189.925 Y140.094
G01 X189.943 Y140.065
G01 X189.964 Y140.037
G01 X189.987 Y140.012
G01 X190.000 Y140.000
G01 X189.984 Y140.016
G01 X189.969 Y140.034
G01 X189.956 Y140.053
G01 X189.945 Y140.073
G01 X189.936 Y140.095
G01 X189.928 Y140.117
G01 X189.923 Y140.141
G01 X189.920 Y140.165
G01 X189.919 Y140.189
G01 X189.921 Y140.215
G01 X189.925 Y140.240
G01 X189.931 Y140.266
G01 X189.939 Y140.291
G01 X189.950 Y140.316
G01 X189.963 Y140.341
G01 X189.979 Y140.365
G01 X189.996 Y140.389
G01 X190.016 Y140.412
G01 X190.039 Y140.433
G01 X190.063 Y140.453
G01 X190.089 Y140.472
G01 X190.118 Y140.489
G01 X190.148 Y140.505
G01 X190.180 Y140.519
G01 X190.214 Y140.531
G01 X190.249 Y140.540
G01 X190.286 Y140.548
G01 X190.324 Y140.553
G01 X190.363 Y140.555
G01 X190.404 Y140.555
G01 X190.445 Y140.553
G01 X190.487 Y140.547
G01 X190.529 Y140.539
G01 X190.571 Y140.528
G01 X190.614 Y140.514
G01 X190.657 Y140.497
G01 X190.699 Y140.477
G01 X190.741 Y140.454
G01 X190.783 Y140.428
G01 X190.824 Y140.399
G01 X190.863 Y140.367
G01 X190.902 Y140.332
G01 X190.939 Y140.295
G01 X190.974 Y140.254
G01 X191.008 Y140.210
G01 X191.040 Y140.164
G01 X191.069 Y140.116
G01 X191.096 Y140.064
G01 X191.121 Y140.011
G01 X191.143 Y139.955
G01 X191.162 Y139.897
G01 X191.178 Y139.837
G01 X191.192 Y139.775
G01 X191.201 Y139.711
G01 X191.208 Y139.646
G01 X191.210 Y139.580
G01 X191.210 Y139.512
G01 X191.205 Y139.444
G01 X191.196 Y139.375
G01 X191.186 Y139.315
G01 X217.280 Y124.250
G01 X224.100 Y120.312
G01 X224.232 Y122.417
G01 X224.241 Y124.486
G01 X224.132 Y126.512
G01 X224.100 Y126.875
G01 X224.100 Y128.188
G01 X222.328 Y126.992
G01 X220.524 Y125.940
G01 X218.698 Y125.033
G01 X218.416 Y124.906
G01 X217.280 Y124.250
G01 X224.100 Y120.312
G01 X230.920 Y116.375
G01 X231.039 Y118.920
G01 X231.010 Y121.419
G01 X230.920 Y122.938
G01 X230.920 Y124.250
G01 X228.763 Y122.851
G01 X226.571 Y121.625
G01 X225.236 Y120.969
G01 X224.100 Y120.312
G01 X217.280 Y124.250
G01 X219.029 Y125.089
G01 X220.758 Y126.064
G01 X222.460 Y127.173
G01 X222.963 Y127.531
G01 X224.100 Y128.188
G01 X230.920 Y124.250
G01 X231.036 Y126.477
G01 X231.035 Y128.677
G01 X230.920 Y130.812
G01 X230.920 Y132.125
G01 X228.556 Y130.597
G01 X226.145 Y129.281
G01 X225.236 Y128.844
G01 X224.100 Y128.188
G01 X222.328 Y126.992
G01 X220.524 Y125.940
G01 X218.698 Y125.033
G01 X218.416 Y124.906
G01 X217.280 Y124.250
G01 X230.920 Y116.375
G01 X237.740 Y112.437
G01 X237.886 Y115.403
G01 X237.858 Y118.316
G01 X237.740 Y120.312
G01 X235.244 Y118.687
G01 X232.708 Y117.257
G01 X230.920 Y116.375
G01 X237.740 Y112.437
G01 X244.560 Y108.500
G01 X244.693 Y111.907
G01 X244.627 Y115.249
G01 X244.560 Y116.375
G01 X241.676 Y114.543
G01 X238.748 Y112.936
G01 X237.740 Y112.437
G01 X230.920 Y116.375
G01 X233.477 Y117.668
G01 X236.002 Y119.157
G01 X237.740 Y120.312
G01 X244.560 Y116.375
G01 X244.693 Y119.442
G01 X244.658 Y122.464
G01 X244.560 Y124.250
G01 X241.550 Y122.336
G01 X238.490 Y120.677
G01 X237.740 Y120.312
G01 X235.244 Y118.687
G01 X232.708 Y117.257
G01 X230.920 Y116.375
G01 X217.280 Y124.250
G01 X219.029 Y125.089
G01 X220.758 Y126.064
G01 X222.460 Y127.173
G01 X222.963 Y127.531
G01 X225.167 Y128.636
G01 X227.339 Y129.929
G01 X228.646 Y130.812
G01 X230.920 Y132.125
G01 X237.313 Y128.461
G01 X237.740 Y128.187
G01 X237.878 Y130.619
G01 X237.893 Y133.036
G01 X237.788 Y135.432
G01 X237.740 Y136.063
G01 X234.677 Y134.096
G01 X231.543 Y132.420
G01 X230.920 Y132.125
G01 X237.313 Y128.461
G01 X237.740 Y128.187
G01 X244.560 Y124.250
G01 X244.690 Y127.082
G01 X244.675 Y129.889
G01 X244.560 Y132.125
G01 X241.220 Y130.020
G01 X237.813 Y128.222
G01 X237.740 Y128.187
G01 X231.364 Y131.896
G01 X230.920 Y132.125
G01 X234.065 Y133.744
G01 X237.144 Y135.653
G01 X237.740 Y136.063
G01 X243.246 Y132.964
G01 X244.560 Y132.125
G01 X244.688 Y134.830
G01 X244.682 Y137.528
G01 X244.560 Y140.000
G01 X240.527 Y137.518
G01 X237.740 Y136.063
G01 X234.677 Y134.096
G01 X231.543 Y132.420
G01 X230.920 Y132.125
G01 X228.556 Y130.597
G01 X226.145 Y129.281
G01 X225.236 Y128.844
G01 X223.380 Y127.599
G01 X221.489 Y126.508
G01 X219.574 Y125.572
G01 X219.553 Y125.562
G01 X217.944 Y124.606
G01 X217.280 Y124.250
G01 X191.186 Y139.315
G01 X191.134 Y139.269
G01 X191.079 Y139.226
G01 X191.024 Y139.187
G01 X190.967 Y139.152
G01 X190.909 Y139.120
G01 X190.851 Y139.091
G01 X190.792 Y139.067
G01 X190.733 Y139.045
G01 X190.673 Y139.028
G01 X190.613 Y139.013
G01 X190.554 Y139.003
G01 X190.495 Y138.995
G01 X190.437 Y138.991
G01 X190.380 Y138.990
G01 X190.324 Y138.993
G01 X190.268 Y138.998
G01 X190.215 Y139.007
G01 X190.162 Y139.018
G01 X190.111 Y139.032
G01 X190.062 Y139.048
G01 X190.015 Y139.067
G01 X189.970 Y139.088
G01 X189.927 Y139.111
G01 X189.886 Y139.137
G01 X189.848 Y139.164
G01 X189.812 Y139.192
G01 X189.778 Y139.223
G01 X189.747 Y139.254
G01 X189.718 Y139.287
G01 X189.692 Y139.320
G01 X189.669 Y139.355
G01 X189.648 Y139.390
G01 X189.629 Y139.425
G01 X189.614 Y139.461
G01 X189.601 Y139.497
G01 X189.590 Y139.533
G01 X189.582 Y139.568
G01 X189.577 Y139.604
G01 X189.574 Y139.638
G01 X189.573 Y139.672
G01 X189.574 Y139.705
G01 X189.578 Y139.738
G01 X189.584 Y139.769
G01 X189.592 Y139.799
G01 X189.601 Y139.827
G01 X189.613 Y139.854
G01 X189.626 Y139.880
G01 X189.641 Y139.904
G01 X189.657 Y139.926
G01 X189.674 Y139.946
G01 X189.692 Y139.965
G01 X189.712 Y139.981
G01 X189.732 Y139.996
G01 X189.753 Y140.008
G01 X189.774 Y140.019
G01 X189.796 Y140.027
G01 X189.818 Y140.033
G01 X189.840 Y140.037
G01 X189.862 Y140.039
G01 X189.884 Y140.039
G01 X189.905 Y140.037
G01 X189.926 Y140.034
G01 X189.946 Y140.028
G01 X189.966 Y140.020
G01 X189.984 Y140.010
G01 X190.000 Y140.000
G01 X189.974 Y140.021
G01 X189.949 Y140.044
G01 X189.927 Y140.070
G01 X189.908 Y140.098
G01 X189.891 Y140.128
G01 X189.877 Y140.159
G01 X189.865 Y140.193
G01 X189.857 Y140.228
G01 X189.852 Y140.264
G01 X189.850 Y140.301
G01 X189.851 Y140.338
G01 X189.856 Y140.377
G01 X189.865 Y140.415
G01 X189.876 Y140.454
G01 X189.891 Y140.492
G01 X189.910 Y140.530
G01 X189.932 Y140.567
G01 X189.958 Y140.603
G01 X189.987 Y140.638
G01 X190.019 Y140.672
G01 X190.055 Y140.704
G01 X190.093 Y140.733
G01 X190.135 Y140.761
G01 X190.180 Y140.786
G01 X190.227 Y140.809
G01 X190.277 Y140.829
G01 X190.330 Y140.845
G01 X190.384 Y140.859
G01 X190.441 Y140.869
G01 X190.500 Y140.875
G01 X190.561 Y140.878
G01 X190.622 Y140.877
G01 X190.685 Y140.872
G01 X190.749 Y140.862
G01 X190.814 Y140.849
G01 X190.879 Y140.831
G01 X190.944 Y140.809
G01 X191.010 Y140.782
G01 X191.074 Y140.751
G01 X191.138 Y140.715
G01 X191.186 Y140.685
G01 X217.280 Y155.750
G01 X219.029 Y154.911
G01 X220.758 Y153.936
G01 X222.460 Y152.827
G01 X222.963 Y152.469
G01 X224.100 Y151.812
G01 X224.229 Y153.773
G01 X224.246 Y155.774
G01 X224.148 Y157.810
G01 X224.100 Y158.375
G01 X224.100 Y159.688
G01 X217.280 Y155.750
G01 X219.029 Y154.911
G01 X220.758 Y153.936
G01 X222.460 Y152.827
G01 X222.963 Y152.469
G01 X224.100 Y151.812
G01 X226.411 Y150.643
G01 X228.686 Y149.275
G01 X229.783 Y148.531
G01 X230.920 Y147.875
G01 X231.035 Y150.008
G01 X231.038 Y152.170
G01 X230.926 Y154.357
G01 X230.920 Y154.437
G01 X230.920 Y155.750
G01 X224.100 Y151.812
G01 X222.328 Y153.008
G01 X220.524 Y154.060
G01 X218.698 Y154.967
G01 X218.416 Y155.094
G01 X217.280 Y155.750
G01 X224.100 Y159.688
G01 X226.231 Y158.610
G01 X228.335 Y157.369
G01 X229.783 Y156.406
G01 X230.920 Y155.750
G01 X231.038 Y158.155
G01 X231.017 Y160.609
G01 X230.920 Y162.313
G01 X230.920 Y163.625
G01 X224.100 Y159.688
G01 X217.280 Y155.750
G01 X219.029 Y154.911
G01 X220.758 Y153.936
G01 X222.460 Y152.827
G01 X222.963 Y152.469
G01 X225.167 Y151.364
G01 X227.339 Y150.071
G01 X228.646 Y149.188
G01 X230.920 Y147.875
G01 X234.065 Y146.256
G01 X237.144 Y144.347
G01 X237.740 Y143.937
G01 X237.877 Y146.326
G01 X237.894 Y148.738
G01 X237.788 Y151.167
G01 X237.740 Y151.813
G01 X231.364 Y148.104
G01 X230.920 Y147.875
G01 X234.065 Y146.256
G01 X237.144 Y144.347
G01 X237.740 Y143.937
G01 X241.845 Y141.722
G01 X244.560 Y140.000
G01 X244.687 Y142.687
G01 X244.682 Y145.386
G01 X244.560 Y147.875
G01 X239.099 Y144.642
G01 X237.740 Y143.937
G01 X234.677 Y145.904
G01 X231.543 Y147.580
G01 X230.920 Y147.875
G01 X237.313 Y151.539
G01 X237.740 Y151.813
G01 X241.148 Y150.021
G01 X244.490 Y147.923
G01 X244.560 Y147.875
G01 X244.689 Y150.656
G01 X244.676 Y153.468
G01 X244.560 Y155.750
G01 X237.740 Y151.813
G01 X231.364 Y148.104
G01 X230.920 Y147.875
G01 X228.556 Y149.403
G01 X226.145 Y150.719
G01 X225.236 Y151.156
G01 X223.380 Y152.401
G01 X221.489 Y153.492
G01 X219.574 Y154.428
G01 X219.553 Y154.438
G01 X217.944 Y155.394
G01 X217.280 Y155.750
G01 X230.920 Y163.625
G01 X233.477 Y162.332
G01 X236.002 Y160.843
G01 X237.740 Y159.688
G01 X237.885 Y162.557
G01 X237.860 Y165.486
G01 X237.740 Y167.563
G01 X230.920 Y163.625
G01 X233.477 Y162.332
G01 X236.002 Y160.843
G01 X237.740 Y159.688
G01 X240.810 Y158.091
G01 X243.834 Y156.239
G01 X244.560 Y155.750
G01 X244.692 Y158.741
G01 X244.660 Y161.782
G01 X244.560 Y163.625
G01 X237.740 Y159.688
G01 X235.244 Y161.313
G01 X232.708 Y162.743
G01 X230.920 Y163.625
G01 X237.740 Y167.563
G01 X240.679 Y166.032
G01 X243.579 Y164.277
G01 X244.560 Y163.625
G01 X244.693 Y166.943
G01 X244.628 Y170.329
G01 X244.560 Y171.500
G01 X237.740 Y167.563
G01 X230.920 Y163.625
G01 X217.280 Y155.750
G01 X191.186 Y140.685
G01 X191.124 Y140.725
G01 X191.061 Y140.760
G01 X190.997 Y140.791
G01 X190.932 Y140.818
G01 X190.868 Y140.840
G01 X190.803 Y140.858
G01 X190.739 Y140.871
G01 X190.676 Y140.881
G01 X190.613 Y140.886
G01 X190.552 Y140.888
G01 X190.492 Y140.885
G01 X190.434 Y140.879
G01 X190.377 Y140.870
G01 X190.323 Y140.857
G01 X190.270 Y140.841
G01 X190.220 Y140.822
G01 X190.173 Y140.800
G01 X190.128 Y140.775
G01 X190.086 Y140.749
G01 X190.047 Y140.720
G01 X190.011 Y140.689
G01 X189.979 Y140.656
G01 X189.949 Y140.622
G01 X189.923 Y140.586
G01 X189.900 Y140.550
G01 X189.880 Y140.513
G01 X189.864 Y140.475
G01 X189.852 Y140.437
G01 X189.842 Y140.399
G01 X189.836 Y140.362
G01 X189.833 Y140.324
G01 X189.834 Y140.288
G01 X189.838 Y140.252
G01 X189.844 Y140.217
G01 X189.854 Y140.184
G01 X189.867 Y140.152
G01 X189.882 Y140.122
G01 X189.900 Y140.094
G01 X189.920 Y140.068
G01 X189.942 Y140.044
G01 X189.967 Y140.023
G01 X189.993 Y140.004
G01 X190.000 Y140.000
G01 X189.982 Y140.012
G01 X189.965 Y140.026
G01 X189.949 Y140.042
G01 X189.935 Y140.059
G01 X189.922 Y140.078
G01 X189.912 Y140.098
G01 X189.903 Y140.120
G01 X189.896 Y140.142
G01 X189.891 Y140.165
G01 X189.888 Y140.189
G01 X189.887 Y140.214
G01 X189.888 Y140.239
G01 X189.892 Y140.265
G01 X189.897 Y140.291
G01 X189.906 Y140.317
G01 X189.916 Y140.342
G01 X189.929 Y140.367
G01 X189.944 Y140.392
G01 X189.961 Y140.417
G01 X189.980 Y140.440
G01 X190.002 Y140.462
G01 X190.026 Y140.484
G01 X190.052 Y140.504
G01 X190.080 Y140.522
G01 X190.110 Y140.539
G01 X190.142 Y140.555
G01 X190.175 Y140.568
G01 X190.210 Y140.580
G01 X190.247 Y140.589
G01 X190.285 Y140.596
G01 X190.324 Y140.601
G01 X190.365 Y140.603
G01 X190.406 Y140.602
G01 X190.449 Y140.599
G01 X190.492 Y140.594
G01 X190.535 Y140.585
G01 X190.579 Y140.574
G01 X190.622 Y140.559
G01 X190.666 Y140.542
G01 X190.710 Y140.522
G01 X190.753 Y140.498
G01 X190.795 Y140.472
G01 X190.837 Y140.443
G01 X190.878 Y140.410
G01 X190.917 Y140.375
G01 X190.955 Y140.337
G01 X190.992 Y140.296
G01 X191.026 Y140.252
G01 X191.059 Y140.206
G01 X191.090 Y140.157
G01 X191.118 Y140.105
G01 X191.144 Y140.051
G01 X191.167 Y139.995
G01 X191.187 Y139.936
G01 X191.205 Y139.876
G01 X191.219 Y139.814
G01 X191.230 Y139.750
G01 X191.238 Y139.684
G01 X191.242 Y139.617
G01 X191.242 Y139.549
G01 X191.239 Y139.481
G01 X191.232 Y139.411
G01 X191.221 Y139.341
G01 X191.212 Y139.300
G01 X244.560 Y108.500
G01 X251.380 Y104.563
G01 X251.500 Y108.410
G01 X251.395 Y112.182
G01 X251.380 Y112.437
G01 X248.108 Y110.399
G01 X244.788 Y108.613
G01 X244.560 Y108.500
G01 X251.380 Y104.563
G01 X258.200 Y100.625
G01 X258.307 Y104.914
G01 X258.200 Y108.500
G01 X254.539 Y106.254
G01 X251.380 Y104.563
G01 X244.560 Y108.500
G01 X247.882 Y110.269
G01 X251.157 Y112.290
G01 X251.380 Y112.437
G01 X258.200 Y108.500
G01 X258.311 Y112.430
G01 X258.204 Y116.294
G01 X258.200 Y116.375
G01 X254.444 Y114.069
G01 X251.380 Y112.437
G01 X248.108 Y110.399
G01 X244.788 Y108.613
G01 X244.560 Y108.500
G01 X258.200 Y100.625
G01 X265.019 Y96.688
G01 X265.114 Y101.417
G01 X265.019 Y104.563
G01 X260.971 Y102.109
G01 X258.200 Y100.625
G01 X265.019 Y96.688
G01 X271.839 Y92.750
G01 X271.921 Y97.921
G01 X271.839 Y100.625
G01 X267.402 Y97.964
G01 X265.019 Y96.688
G01 X258.200 Y100.625
G01 X262.288 Y102.869
G01 X265.019 Y104.563
G01 X271.839 Y100.625
G01 X271.927 Y105.425
G01 X271.839 Y108.500
G01 X267.325 Y105.792
G01 X265.019 Y104.563
G01 X260.971 Y102.109
G01 X258.200 Y100.625
G01 X244.560 Y108.500
G01 X247.925 Y110.246
G01 X251.246 Y112.250
G01 X252.516 Y113.094
G01 X256.355 Y115.225
G01 X258.200 Y116.375
G01 X265.019 Y112.438
G01 X265.122 Y116.514
G01 X265.019 Y120.312
G01 X260.683 Y117.691
G01 X258.200 Y116.375
G01 X265.019 Y112.438
G01 X271.839 Y108.500
G01 X271.931 Y113.000
G01 X271.839 Y116.375
G01 X267.145 Y113.565
G01 X265.019 Y112.438
G01 X258.200 Y116.375
G01 X262.578 Y118.785
G01 X265.019 Y120.312
G01 X271.839 Y116.375
G01 X271.933 Y120.648
G01 X271.839 Y124.250
G01 X266.823 Y121.264
G01 X265.019 Y120.312
G01 X260.683 Y117.691
G01 X258.200 Y116.375
G01 X254.498 Y114.047
G01 X250.737 Y112.023
G01 X250.243 Y111.781
G01 X246.998 Y109.806
G01 X244.560 Y108.500
G01 X271.839 Y92.750
G01 X278.659 Y88.813
G01 X278.728 Y94.425
G01 X278.659 Y96.688
G01 X273.833 Y93.818
G01 X271.839 Y92.750
G01 X278.659 Y88.813
G01 X285.479 Y84.875
G01 X285.534 Y90.928
G01 X285.479 Y92.750
G01 X280.264 Y89.673
G01 X278.659 Y88.813
G01 X271.839 Y92.750
G01 X276.694 Y95.469
G01 X278.659 Y96.688
G01 X285.479 Y92.750
G01 X285.543 Y98.423
G01 X285.479 Y100.625
G01 X280.200 Y97.510
G01 X278.659 Y96.688
G01 X273.833 Y93.818
G01 X271.839 Y92.750
G01 X285.479 Y84.875
G01 X292.299 Y80.938
G01 X292.341 Y87.432
G01 X292.299 Y88.812
G01 X286.696 Y85.527
G01 X285.479 Y84.875
G01 X292.299 Y80.938
G01 X299.119 Y77.000
G01 X299.148 Y83.936
G01 X299.119 Y84.875
G01 X293.127 Y81.381
G01 X292.299 Y80.938
G01 X285.479 Y84.875
G01 X291.100 Y88.069
G01 X292.299 Y88.812
G01 X299.119 Y84.875
G01 X299.158 Y91.424
G01 X299.119 Y92.750
G01 X293.071 Y89.225
G01 X292.299 Y88.812
G01 X286.696 Y85.527
G01 X285.479 Y84.875
G01 X271.839 Y92.750
G01 X276.780 Y95.425
G01 X280.933 Y98.000
G01 X285.479 Y100.625
G01 X292.299 Y96.687
G01 X292.357 Y102.472
G01 X292.299 Y104.562
G01 X286.502 Y101.169
G01 X285.479 Y100.625
G01 X292.299 Y96.687
G01 X299.119 Y92.750
G01 X299.166 Y98.966
G01 X299.119 Y100.625
G01 X292.948 Y97.033
G01 X292.299 Y96.687
G01 X285.479 Y100.625
G01 X291.293 Y103.935
G01 X292.299 Y104.562
G01 X299.119 Y100.625
G01 X299.172 Y106.562
G01 X299.119 Y108.500
G01 X292.739 Y104.795
G01 X292.299 Y104.562
G01 X286.502 Y101.169
G01 X285.479 Y100.625
G01 X280.297 Y97.464
G01 X276.386 Y95.375
G01 X271.839 Y92.750
G01 X244.560 Y108.500
G01 X247.893 Y110.263
G01 X251.181 Y112.279
G01 X251.676 Y112.609
G01 X255.570 Y114.654
G01 X259.405 Y117.017
G01 X259.979 Y117.402
G01 X264.606 Y119.892
G01 X268.281 Y122.196
G01 X271.839 Y124.250
G01 X278.659 Y120.312
G01 X278.745 Y124.819
G01 X278.659 Y128.187
G01 X272.865 Y124.789
G01 X271.839 Y124.250
G01 X278.659 Y120.312
G01 X285.479 Y116.375
G01 X285.556 Y121.278
G01 X285.479 Y124.250
G01 X279.403 Y120.704
G01 X278.659 Y120.312
G01 X271.839 Y124.250
G01 X277.656 Y127.555
G01 X278.659 Y128.187
G01 X285.479 Y124.250
G01 X285.557 Y129.021
G01 X285.479 Y132.125
G01 X278.807 Y128.265
G01 X278.659 Y128.187
G01 X272.865 Y124.789
G01 X271.839 Y124.250
G01 X284.343 Y117.031
G01 X285.479 Y116.375
G01 X292.299 Y112.438
G01 X292.366 Y117.743
G01 X292.299 Y120.313
G01 X285.919 Y116.607
G01 X285.479 Y116.375
G01 X292.299 Y112.438
G01 X299.119 Y108.500
G01 X299.176 Y114.213
G01 X299.119 Y116.375
G01 X292.420 Y112.501
G01 X292.299 Y112.438
G01 X285.479 Y116.375
G01 X291.868 Y120.041
G01 X292.299 Y120.313
G01 X299.119 Y116.375
G01 X299.178 Y121.918
G01 X299.119 Y124.250
G01 X292.299 Y120.313
G01 X285.919 Y116.607
G01 X285.479 Y116.375
G01 X272.976 Y123.594
G01 X271.839 Y124.250
G01 X277.813 Y127.532
G01 X280.933 Y129.500
G01 X285.479 Y132.125
G01 X292.299 Y128.187
G01 X292.369 Y133.247
G01 X292.299 Y136.062
G01 X285.479 Y132.125
G01 X292.299 Y128.187
G01 X299.119 Y124.250
G01 X299.180 Y129.678
G01 X299.119 Y132.125
G01 X292.299 Y128.187
G01 X285.479 Y132.125
G01 X292.299 Y136.062
G01 X299.119 Y132.125
G01 X299.181 Y137.493
G01 X299.119 Y140.000
G01 X292.299 Y136.062
G01 X285.479 Y132.125
G01 X278.991 Y128.241
G01 X276.386 Y126.875
G01 X271.839 Y124.250
G01 X266.918 Y121.241
G01 X263.537 Y119.457
G01 X259.414 Y116.881
G01 X255.234 Y114.663
G01 X251.714 Y112.473
G01 X248.141 Y110.566
G01 X248.118 Y110.554
G01 X244.924 Y108.695
G01 X244.560 Y108.500
G01 X191.212 Y139.300
G01 X191.153 Y139.257
G01 X191.091 Y139.218
G01 X191.029 Y139.183
G01 X190.966 Y139.152
G01 X190.903 Y139.126
G01 X190.840 Y139.104
G01 X190.776 Y139.085
G01 X190.713 Y139.071
G01 X190.650 Y139.061
G01 X190.588 Y139.054
G01 X190.527 Y139.052
G01 X190.467 Y139.053
G01 X190.409 Y139.057
G01 X190.352 Y139.065
G01 X190.297 Y139.076
G01 X190.244 Y139.091
G01 X190.193 Y139.108
G01 X190.144 Y139.128
G01 X190.098 Y139.150
G01 X190.054 Y139.175
G01 X190.013 Y139.202
G01 X189.975 Y139.231
G01 X189.939 Y139.261
G01 X189.907 Y139.294
G01 X189.878 Y139.327
G01 X189.851 Y139.362
G01 X189.828 Y139.398
G01 X189.808 Y139.434
G01 X189.791 Y139.471
G01 X189.777 Y139.508
G01 X189.766 Y139.545
G01 X189.758 Y139.582
G01 X189.754 Y139.618
G01 X189.752 Y139.654
G01 X189.753 Y139.689
G01 X189.757 Y139.723
G01 X189.764 Y139.756
G01 X189.773 Y139.787
G01 X189.785 Y139.817
G01 X189.799 Y139.845
G01 X189.815 Y139.872
G01 X189.833 Y139.896
G01 X189.853 Y139.918
G01 X189.875 Y139.938
G01 X189.898 Y139.956
G01 X189.923 Y139.971
G01 X189.949 Y139.984
G01 X189.976 Y139.994
G01 X190.000 Y140.000
G01 X189.981 Y139.995
G01 X189.962 Y139.988
G01 X189.944 Y139.979
G01 X189.927 Y139.968
G01 X189.911 Y139.955
G01 X189.896 Y139.941
G01 X189.882 Y139.925
G01 X189.869 Y139.908
G01 X189.858 Y139.890
G01 X189.849 Y139.870
G01 X189.841 Y139.849
G01 X189.835 Y139.827
G01 X189.830 Y139.804
G01 X189.828 Y139.780
G01 X189.827 Y139.756
G01 X189.829 Y139.731
G01 X189.832 Y139.705
G01 X189.838 Y139.680
G01 X189.846 Y139.654
G01 X189.856 Y139.628
G01 X189.868 Y139.602
G01 X189.882 Y139.577
G01 X189.899 Y139.553
G01 X189.918 Y139.528
G01 X189.938 Y139.505
G01 X189.961 Y139.483
G01 X189.986 Y139.462
G01 X190.013 Y139.442
G01 X190.042 Y139.423
G01 X190.072 Y139.406
G01 X190.105 Y139.391
G01 X190.139 Y139.377
G01 X190.175 Y139.365
G01 X190.212 Y139.356
G01 X190.250 Y139.348
G01 X190.290 Y139.343
G01 X190.331 Y139.340
G01 X190.373 Y139.340
G01 X190.415 Y139.342
G01 X190.458 Y139.347
G01 X190.502 Y139.355
G01 X190.546 Y139.365
G01 X190.591 Y139.378
G01 X190.635 Y139.394
G01 X190.679 Y139.413
G01 X190.723 Y139.435
G01 X190.766 Y139.459
G01 X190.808 Y139.487
G01 X190.850 Y139.517
G01 X190.890 Y139.550
G01 X190.929 Y139.587
G01 X190.967 Y139.625
G01 X191.003 Y139.667
G01 X191.038 Y139.711
G01 X191.070 Y139.758
G01 X191.100 Y139.808
G01 X191.128 Y139.859
G01 X191.154 Y139.913
G01 X191.176 Y139.970
G01 X191.196 Y140.028
G01 X191.213 Y140.088
G01 X191.227 Y140.150
G01 X191.238 Y140.213
G01 X191.246 Y140.278
G01 X191.250 Y140.344
G01 X191.250 Y140.411
G01 X191.247 Y140.479
G01 X191.241 Y140.548
G01 X191.230 Y140.617
G01 X191.216 Y140.686
G01 X191.212 Y140.700
G01 X244.560 Y171.500
G01 X247.882 Y169.731
G01 X251.157 Y167.710
G01 X251.380 Y167.562
G01 X251.500 Y171.329
G01 X251.395 Y175.172
G01 X251.380 Y175.438
G01 X244.560 Y171.500
G01 X247.882 Y169.731
G01 X251.157 Y167.710
G01 X251.380 Y167.562
G01 X255.182 Y165.505
G01 X258.200 Y163.625
G01 X258.311 Y167.487
G01 X258.204 Y171.416
G01 X258.200 Y171.500
G01 X251.380 Y167.562
G01 X248.108 Y169.601
G01 X244.788 Y171.387
G01 X244.560 Y171.500
G01 X251.380 Y175.438
G01 X255.085 Y173.431
G01 X258.200 Y171.500
G01 X258.307 Y175.716
G01 X258.200 Y179.375
G01 X251.380 Y175.438
G01 X244.560 Y171.500
G01 X247.925 Y169.754
G01 X251.246 Y167.750
G01 X252.516 Y166.906
G01 X256.355 Y164.775
G01 X258.200 Y163.625
G01 X262.578 Y161.215
G01 X265.019 Y159.688
G01 X265.122 Y163.711
G01 X265.019 Y167.562
G01 X258.200 Y163.625
G01 X262.578 Y161.215
G01 X265.019 Y159.688
G01 X270.070 Y156.862
G01 X271.839 Y155.750
G01 X271.933 Y159.982
G01 X271.839 Y163.625
G01 X265.019 Y159.688
G01 X260.683 Y162.309
G01 X258.200 Y163.625
G01 X265.019 Y167.562
G01 X269.749 Y164.932
G01 X271.839 Y163.625
G01 X271.931 Y168.075
G01 X271.839 Y171.500
G01 X265.019 Y167.562
G01 X258.200 Y163.625
G01 X254.498 Y165.953
G01 X250.737 Y167.977
G01 X250.243 Y168.219
G01 X246.998 Y170.194
G01 X244.560 Y171.500
G01 X258.200 Y179.375
G01 X262.288 Y177.131
G01 X265.019 Y175.437
G01 X265.114 Y180.103
G01 X265.019 Y183.313
G01 X258.200 Y179.375
G01 X262.288 Y177.131
G01 X265.019 Y175.437
G01 X269.568 Y172.913
G01 X271.839 Y171.500
G01 X271.928 Y176.244
G01 X271.839 Y179.375
G01 X265.019 Y175.437
G01 X260.971 Y177.891
G01 X258.200 Y179.375
G01 X265.019 Y183.313
G01 X269.491 Y180.831
G01 X271.839 Y179.375
G01 X271.921 Y184.491
G01 X271.839 Y187.250
G01 X265.019 Y183.313
G01 X258.200 Y179.375
G01 X244.560 Y171.500
G01 X247.893 Y169.737
G01 X251.181 Y167.721
G01 X251.676 Y167.391
G01 X255.570 Y165.346
G01 X259.405 Y162.983
G01 X259.979 Y162.598
G01 X264.606 Y160.108
G01 X268.281 Y157.804
G01 X271.839 Y155.750
G01 X277.656 Y152.445
G01 X278.659 Y151.813
G01 X278.745 Y156.290
G01 X278.659 Y159.687
G01 X271.839 Y155.750
G01 X277.656 Y152.445
G01 X278.659 Y151.813
G01 X285.335 Y147.966
G01 X285.479 Y147.875
G01 X285.557 Y152.627
G01 X285.479 Y155.750
G01 X278.659 Y151.813
G01 X272.865 Y155.211
G01 X271.839 Y155.750
G01 X278.659 Y159.687
G01 X284.751 Y156.209
G01 X285.479 Y155.750
G01 X285.556 Y160.624
G01 X285.479 Y163.625
G01 X278.659 Y159.687
G01 X271.839 Y155.750
G01 X277.813 Y152.468
G01 X280.933 Y150.500
G01 X285.479 Y147.875
G01 X292.299 Y143.938
G01 X292.369 Y148.986
G01 X292.299 Y151.812
G01 X285.479 Y147.875
G01 X292.299 Y143.938
G01 X299.119 Y140.000
G01 X299.181 Y145.364
G01 X299.119 Y147.875
G01 X292.299 Y143.938
G01 X285.479 Y147.875
G01 X292.299 Y151.812
G01 X299.119 Y147.875
G01 X299.180 Y153.290
G01 X299.119 Y155.750
G01 X292.299 Y151.812
G01 X285.479 Y147.875
G01 X278.991 Y151.759
G01 X276.386 Y153.125
G01 X271.839 Y155.750
G01 X284.343 Y162.969
G01 X285.479 Y163.625
G01 X291.868 Y159.959
G01 X292.299 Y159.688
G01 X292.366 Y164.965
G01 X292.299 Y167.563
G01 X285.479 Y163.625
G01 X291.868 Y159.959
G01 X292.299 Y159.688
G01 X299.119 Y155.750
G01 X299.179 Y161.273
G01 X299.119 Y163.625
G01 X292.299 Y159.688
G01 X285.919 Y163.393
G01 X285.479 Y163.625
G01 X292.299 Y167.563
G01 X299.001 Y163.699
G01 X299.119 Y163.625
G01 X299.176 Y169.313
G01 X299.119 Y171.500
G01 X292.299 Y167.563
G01 X285.479 Y163.625
G01 X272.976 Y156.406
G01 X271.839 Y155.750
G01 X266.918 Y158.759
G01 X263.537 Y160.543
G01 X259.414 Y163.119
G01 X255.234 Y165.337
G01 X251.714 Y167.527
G01 X248.141 Y169.434
G01 X248.118 Y169.446
G01 X244.924 Y171.305
G01 X244.560 Y171.500
G01 X271.839 Y187.250
G01 X276.694 Y184.531
G01 X278.659 Y183.313
G01 X278.728 Y188.878
G01 X278.659 Y191.188
G01 X271.839 Y187.250
G01 X276.694 Y184.531
G01 X278.659 Y183.313
G01 X283.961 Y180.319
G01 X285.479 Y179.375
G01 X285.543 Y185.007
G01 X285.479 Y187.250
G01 X278.659 Y183.313
G01 X273.833 Y186.182
G01 X271.839 Y187.250
G01 X278.659 Y191.188
G01 X283.897 Y188.231
G01 X285.479 Y187.250
G01 X285.535 Y193.266
G01 X285.479 Y195.125
G01 X278.659 Y191.188
G01 X271.839 Y187.250
G01 X276.780 Y184.575
G01 X280.933 Y182.000
G01 X285.479 Y179.375
G01 X291.293 Y176.065
G01 X292.299 Y175.437
G01 X292.358 Y181.187
G01 X292.299 Y183.312
G01 X285.479 Y179.375
G01 X291.293 Y176.065
G01 X292.299 Y175.437
G01 X298.687 Y171.770
G01 X299.119 Y171.500
G01 X299.172 Y177.409
G01 X299.119 Y179.375
G01 X292.299 Y175.437
G01 X286.502 Y178.831
G01 X285.479 Y179.375
G01 X292.299 Y183.312
G01 X298.481 Y179.773
G01 X299.119 Y179.375
G01 X299.166 Y185.563
G01 X299.119 Y187.250
G01 X292.299 Y183.312
G01 X285.479 Y179.375
G01 X280.297 Y182.536
G01 X276.386 Y184.625
G01 X271.839 Y187.250
G01 X285.479 Y195.125
G01 X291.100 Y191.931
G01 X292.299 Y191.187
G01 X292.341 Y197.653
G01 X292.299 Y199.063
G01 X285.479 Y195.125
G01 X291.100 Y191.931
G01 X292.299 Y191.187
G01 X298.358 Y187.723
G01 X299.119 Y187.250
G01 X299.158 Y193.773
G01 X299.119 Y195.125
G01 X292.299 Y191.187
G01 X286.696 Y194.473
G01 X285.479 Y195.125
G01 X292.299 Y199.063
G01 X298.303 Y195.630
G01 X299.119 Y195.125
G01 X299.148 Y202.041
G01 X299.119 Y203.000
G01 X292.299 Y199.063
G01 X285.479 Y195.125
G01 X271.839 Y187.250
G01 X244.560 Y171.500
G01 X191.212 Y140.700
G01 X191.160 Y140.748
G01 X191.106 Y140.793
G01 X191.050 Y140.834
G01 X190.993 Y140.871
G01 X190.935 Y140.905
G01 X190.876 Y140.936
G01 X190.817 Y140.963
G01 X190.756 Y140.986
G01 X190.696 Y141.006
G01 X190.635 Y141.022
G01 X190.575 Y141.035
G01 X190.515 Y141.044
G01 X190.455 Y141.050
G01 X190.396 Y141.052
G01 X190.338 Y141.052
G01 X190.281 Y141.048
G01 X190.225 Y141.042
G01 X190.170 Y141.032
G01 X190.117 Y141.019
G01 X190.066 Y141.004
G01 X190.016 Y140.987
G01 X189.968 Y140.967
G01 X189.923 Y140.944
G01 X189.879 Y140.920
G01 X189.837 Y140.893
G01 X189.798 Y140.865
G01 X189.761 Y140.835
G01 X189.727 Y140.804
G01 X189.695 Y140.771
G01 X189.666 Y140.738
G01 X189.639 Y140.703
G01 X189.615 Y140.667
G01 X189.593 Y140.631
G01 X189.574 Y140.594
G01 X189.558 Y140.557
G01 X189.544 Y140.520
G01 X189.533 Y140.483
G01 X189.524 Y140.446
G01 X189.518 Y140.409
G01 X189.514 Y140.373
G01 X189.512 Y140.338
G01 X189.513 Y140.303
G01 X189.516 Y140.269
G01 X189.521 Y140.236
G01 X189.528 Y140.205
G01 X189.537 Y140.174
G01 X189.547 Y140.145
G01 X189.560 Y140.118
G01 X189.574 Y140.092
G01 X189.589 Y140.068
G01 X189.606 Y140.045
G01 X189.624 Y140.025
G01 X189.643 Y140.006
G01 X189.663 Y139.989
G01 X189.683 Y139.974
G01 X189.704 Y139.961
G01 X189.726 Y139.950
G01 X189.748 Y139.941
G01 X189.770 Y139.934
G01 X189.792 Y139.929
G01 X189.814 Y139.927
G01 X189.836 Y139.926
G01 X189.857 Y139.927
G01 X189.878 Y139.930
G01 X189.898 Y139.934
G01 X189.917 Y139.941
G01 X189.936 Y139.949
G01 X189.953 Y139.959
G01 X189.969 Y139.970
G01 X189.984 Y139.983
G01 X189.998 Y139.998
G01 X190.000 Y140.000
G01 X189.944 Y139.926
G01 X189.896 Y139.847
G01 X189.855 Y139.763
G01 X189.823 Y139.675
G01 X189.798 Y139.583
G01 X189.783 Y139.488
G01 X189.776 Y139.391
G01 X189.779 Y139.293
G01 X189.791 Y139.193
G01 X189.812 Y139.093
G01 X189.842 Y138.993
G01 X189.882 Y138.895
