;  Created by Sandify
;  https://sandify.org
;  Version: 0.2.4
;
;  Machine type: Rectangular
;    Min X (mm): 0
;    Max X (mm): 380
;    Min Y (mm): 0
;    Max Y (mm): 280
;  Content type: shape
;  Layer:
;    Shape: FileImport
;    Name: SierpinskiTriangle2.thr
;    From file:: SierpinskiTriangle2.thr
;    Aspect Ratio: true
;    Comments: 
;    Visible: true
;    Initial width: 10
;    Initial height: 10
;    X offset: 0
;    Y offset: 0
;    Rotate (degrees): 0
;    Reverse path: false
;    Fine tuning:
;      Connect to next layer: line
;      Draw portion of path (%): 100
;      Backtrack at end (%): 0
;      Rotate starting point (%): 0
;  Reverse export path: false
;
; File name: 'SierpinskiTriangle2'
;

G01 X190.000 Y140.000
G01 X189.997 Y140.065
G01 X189.987 Y140.130
G01 X189.971 Y140.194
G01 X189.949 Y140.256
G01 X189.921 Y140.316
G01 X189.886 Y140.374
G01 X189.846 Y140.430
G01 X189.800 Y140.482
G01 X189.749 Y140.531
G01 X189.693 Y140.575
G01 X189.631 Y140.615
G01 X189.565 Y140.651
G01 X189.495 Y140.681
G01 X189.421 Y140.706
G01 X189.343 Y140.725
G01 X189.262 Y140.738
G01 X189.178 Y140.745
G01 X189.092 Y140.745
G01 X189.005 Y140.738
G01 X188.915 Y140.725
G01 X188.825 Y140.704
G01 X188.810 Y140.700
G01 X130.500 Y175.000
G01 X136.586 Y175.057
G01 X137.937 Y175.000
G01 X134.219 Y181.441
G01 X132.427 Y178.537
G01 X130.786 Y175.557
G01 X130.500 Y175.000
G01 X136.586 Y175.057
G01 X137.937 Y175.000
G01 X142.952 Y175.099
G01 X145.375 Y175.000
G01 X141.656 Y181.441
G01 X139.994 Y178.777
G01 X138.475 Y176.049
G01 X137.937 Y175.000
G01 X131.882 Y175.058
G01 X130.500 Y175.000
G01 X132.113 Y177.993
G01 X133.877 Y180.911
G01 X134.219 Y181.441
G01 X139.483 Y181.528
G01 X141.656 Y181.441
G01 X137.937 Y187.882
G01 X136.099 Y184.897
G01 X134.427 Y181.847
G01 X134.219 Y181.441
G01 X132.427 Y178.537
G01 X130.786 Y175.557
G01 X130.500 Y175.000
G01 X136.446 Y175.149
G01 X139.966 Y175.000
G01 X144.827 Y175.022
G01 X145.375 Y175.000
G01 X149.473 Y175.131
G01 X152.812 Y175.000
G01 X149.094 Y181.441
G01 X147.542 Y178.987
G01 X146.132 Y176.481
G01 X145.375 Y175.000
G01 X149.473 Y175.131
G01 X152.812 Y175.000
G01 X156.146 Y175.151
G01 X159.402 Y175.062
G01 X160.250 Y175.000
G01 X156.531 Y181.441
G01 X155.066 Y179.158
G01 X153.742 Y176.832
G01 X152.812 Y175.000
G01 X148.797 Y175.131
G01 X145.375 Y175.000
G01 X146.703 Y177.532
G01 X148.172 Y180.017
G01 X149.094 Y181.441
G01 X152.808 Y181.575
G01 X156.432 Y181.448
G01 X156.531 Y181.441
G01 X152.812 Y187.882
G01 X151.154 Y185.247
G01 X149.664 Y182.566
G01 X149.094 Y181.441
G01 X147.542 Y178.987
G01 X146.132 Y176.481
G01 X145.375 Y175.000
G01 X140.381 Y175.126
G01 X137.261 Y175.000
G01 X131.143 Y175.027
G01 X130.500 Y175.000
G01 X132.071 Y178.020
G01 X133.796 Y180.970
G01 X135.233 Y183.198
G01 X136.940 Y186.250
G01 X137.937 Y187.882
G01 X142.713 Y187.981
G01 X145.375 Y187.882
G01 X141.656 Y194.323
G01 X139.732 Y191.190
G01 X137.998 Y188.000
G01 X137.937 Y187.882
G01 X142.713 Y187.981
G01 X145.375 Y187.882
G01 X149.479 Y188.000
G01 X152.812 Y187.882
G01 X149.094 Y194.323
G01 X147.242 Y191.333
G01 X145.583 Y188.294
G01 X145.375 Y187.882
G01 X140.666 Y187.982
G01 X137.937 Y187.882
G01 X139.665 Y191.074
G01 X141.582 Y194.209
G01 X141.656 Y194.323
G01 X146.156 Y194.425
G01 X149.094 Y194.323
G01 X145.375 Y200.764
G01 X143.329 Y197.417
G01 X141.656 Y194.323
G01 X139.732 Y191.190
G01 X137.998 Y188.000
G01 X137.937 Y187.882
G01 X136.059 Y184.930
G01 X134.344 Y181.909
G01 X133.205 Y179.684
G01 X131.462 Y176.764
G01 X130.500 Y175.000
G01 X136.446 Y175.149
G01 X139.966 Y175.000
G01 X144.678 Y175.138
G01 X148.080 Y175.000
G01 X151.853 Y175.166
G01 X155.537 Y175.050
G01 X156.193 Y175.000
G01 X159.338 Y175.033
G01 X160.250 Y175.000
G01 X162.971 Y175.159
G01 X165.633 Y175.139
G01 X167.688 Y175.000
G01 X163.969 Y181.441
G01 X162.555 Y179.273
G01 X161.289 Y177.067
G01 X160.250 Y175.000
G01 X162.971 Y175.159
G01 X165.633 Y175.139
G01 X167.688 Y175.000
G01 X169.964 Y175.120
G01 X172.197 Y175.103
G01 X173.885 Y175.000
G01 X175.125 Y175.000
G01 X171.406 Y181.441
G01 X169.993 Y179.304
G01 X168.743 Y177.131
G01 X167.688 Y175.000
G01 X165.079 Y175.158
G01 X162.404 Y175.141
G01 X160.250 Y175.000
G01 X161.378 Y177.231
G01 X162.654 Y179.434
G01 X163.969 Y181.441
G01 X166.641 Y181.586
G01 X169.264 Y181.572
G01 X171.406 Y181.441
G01 X167.687 Y187.882
G01 X166.078 Y185.377
G01 X164.659 Y182.833
G01 X163.969 Y181.441
G01 X162.555 Y179.273
G01 X161.289 Y177.067
G01 X160.250 Y175.000
G01 X162.988 Y175.136
G01 X165.666 Y175.091
G01 X167.011 Y175.000
G01 X169.315 Y175.138
G01 X171.575 Y175.136
G01 X173.773 Y175.000
G01 X175.125 Y175.000
G01 X177.071 Y175.116
G01 X178.991 Y175.128
G01 X180.882 Y175.036
G01 X181.323 Y175.000
G01 X182.563 Y175.000
G01 X179.184 Y180.912
G01 X178.844 Y181.441
G01 X177.373 Y179.142
G01 X176.099 Y176.803
G01 X175.745 Y176.074
G01 X175.125 Y175.000
G01 X177.071 Y175.116
G01 X178.991 Y175.128
G01 X180.882 Y175.036
G01 X181.323 Y175.000
G01 X182.563 Y175.000
G01 X184.323 Y175.111
G01 X186.076 Y175.135
G01 X187.818 Y175.071
G01 X188.760 Y175.000
G01 X190.000 Y175.000
G01 X188.105 Y178.578
G01 X186.281 Y181.441
G01 X184.593 Y178.763
G01 X183.182 Y176.074
G01 X182.563 Y175.000
G01 X180.716 Y175.114
G01 X178.841 Y175.130
G01 X176.943 Y175.046
G01 X176.365 Y175.000
G01 X175.125 Y175.000
G01 X176.283 Y177.257
G01 X177.627 Y179.481
G01 X178.224 Y180.368
G01 X178.844 Y181.441
G01 X180.969 Y181.577
G01 X183.081 Y181.604
G01 X185.173 Y181.526
G01 X186.281 Y181.441
G01 X183.533 Y186.363
G01 X182.563 Y187.882
G01 X180.726 Y185.013
G01 X179.152 Y182.085
G01 X178.844 Y181.441
G01 X177.373 Y179.142
G01 X176.099 Y176.803
G01 X175.745 Y176.074
G01 X175.125 Y175.000
G01 X172.986 Y175.135
G01 X170.799 Y175.143
G01 X168.572 Y175.018
G01 X168.364 Y175.000
G01 X165.819 Y175.136
G01 X163.211 Y175.104
G01 X161.602 Y175.000
G01 X160.250 Y175.000
G01 X161.390 Y177.215
G01 X162.678 Y179.400
G01 X163.631 Y180.856
G01 X164.939 Y183.361
G01 X166.430 Y185.833
G01 X167.011 Y186.711
G01 X167.687 Y187.882
G01 X170.433 Y188.014
G01 X173.136 Y187.994
G01 X175.125 Y187.882
G01 X171.406 Y194.323
G01 X169.547 Y191.375
G01 X167.931 Y188.381
G01 X167.687 Y187.882
G01 X170.433 Y188.014
G01 X173.136 Y187.994
G01 X175.125 Y187.882
G01 X177.632 Y188.010
G01 X180.116 Y188.009
G01 X182.563 Y187.882
G01 X178.844 Y194.323
G01 X176.850 Y191.148
G01 X175.140 Y187.914
G01 X175.125 Y187.882
G01 X172.458 Y188.013
G01 X169.743 Y187.995
G01 X167.687 Y187.882
G01 X169.264 Y190.883
G01 X171.082 Y193.840
G01 X171.406 Y194.323
G01 X174.304 Y194.443
G01 X177.168 Y194.412
G01 X178.844 Y194.323
G01 X175.125 Y200.764
G01 X172.964 Y197.265
G01 X171.406 Y194.323
G01 X169.547 Y191.375
G01 X167.931 Y188.381
G01 X167.687 Y187.882
G01 X166.090 Y185.355
G01 X164.685 Y182.789
G01 X164.307 Y182.027
G01 X162.889 Y179.814
G01 X161.626 Y177.565
G01 X160.926 Y176.171
G01 X160.250 Y175.000
G01 X157.040 Y175.127
G01 X153.750 Y175.019
G01 X153.489 Y175.000
G01 X149.522 Y175.158
G01 X145.458 Y175.006
G01 X145.375 Y175.000
G01 X140.381 Y175.126
G01 X137.261 Y175.000
G01 X131.143 Y175.027
G01 X130.500 Y175.000
G01 X132.071 Y178.020
G01 X133.796 Y180.970
G01 X135.233 Y183.198
G01 X136.861 Y186.319
G01 X138.664 Y189.384
G01 X139.966 Y191.395
G01 X141.715 Y194.733
G01 X143.673 Y198.020
G01 X144.699 Y199.593
G01 X145.375 Y200.764
G01 X149.744 Y200.864
G01 X152.812 Y200.764
G01 X149.094 Y207.205
G01 X146.890 Y203.577
G01 X145.375 Y200.764
G01 X149.744 Y200.864
G01 X152.812 Y200.764
G01 X156.737 Y200.872
G01 X160.250 Y200.764
G01 X156.531 Y207.205
G01 X154.331 Y203.597
G01 X152.812 Y200.764
G01 X148.514 Y200.864
G01 X145.375 Y200.764
G01 X147.384 Y204.433
G01 X149.094 Y207.205
G01 X153.436 Y207.300
G01 X156.531 Y207.205
G01 X152.813 Y213.646
G01 X150.416 Y209.670
G01 X149.094 Y207.205
G01 X146.890 Y203.577
G01 X145.375 Y200.764
G01 X149.700 Y200.930
G01 X153.931 Y200.823
G01 X154.841 Y200.764
G01 X158.691 Y200.811
G01 X160.250 Y200.764
G01 X163.816 Y200.875
G01 X167.320 Y200.785
G01 X167.687 Y200.764
G01 X163.969 Y207.205
G01 X161.730 Y203.538
G01 X160.250 Y200.764
G01 X163.816 Y200.875
G01 X167.320 Y200.785
G01 X167.687 Y200.764
G01 X170.980 Y200.876
G01 X174.230 Y200.812
G01 X175.125 Y200.764
G01 X171.406 Y207.205
G01 X169.070 Y203.370
G01 X167.687 Y200.764
G01 X164.191 Y200.875
G01 X160.631 Y200.786
G01 X160.250 Y200.764
G01 X162.269 Y204.472
G01 X163.969 Y207.205
G01 X167.661 Y207.307
G01 X171.300 Y207.211
G01 X171.406 Y207.205
G01 X167.688 Y213.646
G01 X165.171 Y209.469
G01 X163.969 Y207.205
G01 X161.730 Y203.538
G01 X160.250 Y200.764
G01 X156.365 Y200.932
G01 X152.395 Y200.861
G01 X150.784 Y200.764
G01 X146.394 Y200.797
G01 X145.375 Y200.764
G01 X147.347 Y204.488
G01 X149.580 Y208.160
G01 X150.108 Y208.962
G01 X152.420 Y213.012
G01 X152.813 Y213.646
G01 X157.204 Y213.735
G01 X160.250 Y213.646
G01 X156.531 Y220.087
G01 X153.907 Y215.695
G01 X152.813 Y213.646
G01 X157.204 Y213.735
G01 X160.250 Y213.646
G01 X164.345 Y213.738
G01 X167.688 Y213.646
G01 X163.969 Y220.087
G01 X161.269 Y215.562
G01 X160.250 Y213.646
G01 X155.915 Y213.735
G01 X152.813 Y213.646
G01 X155.276 Y218.068
G01 X156.531 Y220.087
G01 X161.030 Y220.169
G01 X163.969 Y220.087
G01 X160.250 Y226.529
G01 X157.364 Y221.652
G01 X156.531 Y220.087
G01 X153.907 Y215.695
G01 X152.813 Y213.646
G01 X150.379 Y209.734
G01 X148.237 Y205.766
G01 X148.080 Y205.449
G01 X145.960 Y201.850
G01 X145.375 Y200.764
G01 X143.291 Y197.464
G01 X141.421 Y194.107
G01 X140.642 Y192.567
G01 X138.706 Y189.518
G01 X136.949 Y186.407
G01 X135.909 Y184.369
G01 X134.060 Y181.466
G01 X132.365 Y178.490
G01 X131.176 Y176.171
G01 X130.500 Y175.000
G01 X136.431 Y175.159
G01 X140.186 Y175.000
G01 X144.860 Y175.147
G01 X148.488 Y175.000
G01 X152.270 Y175.120
G01 X155.407 Y175.000
G01 X158.527 Y175.136
G01 X161.573 Y175.054
G01 X162.326 Y175.000
G01 X164.914 Y175.143
G01 X167.447 Y175.119
G01 X169.244 Y175.000
G01 X171.428 Y175.141
G01 X173.574 Y175.154
G01 X175.677 Y175.043
G01 X176.163 Y175.000
G01 X178.067 Y175.135
G01 X179.951 Y175.168
G01 X181.810 Y175.102
G01 X183.081 Y175.000
G01 X184.832 Y175.129
G01 X186.578 Y175.171
G01 X188.316 Y175.126
G01 X190.000 Y175.000
G01 X191.725 Y175.110
G01 X193.460 Y175.135
G01 X195.203 Y175.074
G01 X196.198 Y175.000
G01 X197.437 Y175.000
G01 X196.080 Y177.605
G01 X194.484 Y180.155
G01 X194.339 Y180.368
G01 X193.719 Y181.441
G01 X191.534 Y177.952
G01 X190.000 Y175.000
G01 X191.725 Y175.110
G01 X193.460 Y175.135
G01 X195.203 Y175.074
G01 X196.198 Y175.000
G01 X197.437 Y175.000
G01 X199.284 Y175.114
G01 X201.159 Y175.130
G01 X203.057 Y175.046
G01 X203.635 Y175.000
G01 X204.875 Y175.000
G01 X203.717 Y177.257
G01 X202.373 Y179.481
G01 X201.776 Y180.368
G01 X201.156 Y181.441
G01 X197.722 Y175.552
G01 X197.437 Y175.000
G01 X195.677 Y175.111
G01 X193.924 Y175.135
G01 X192.182 Y175.071
G01 X191.240 Y175.000
G01 X190.000 Y175.000
G01 X191.895 Y178.578
G01 X193.719 Y181.441
G01 X195.799 Y181.575
G01 X197.901 Y181.605
G01 X200.020 Y181.527
G01 X201.156 Y181.441
G01 X199.640 Y184.379
G01 X197.860 Y187.263
G01 X197.437 Y187.882
G01 X194.534 Y183.014
G01 X193.719 Y181.441
G01 X191.534 Y177.952
G01 X190.000 Y175.000
G01 X191.726 Y175.124
G01 X193.463 Y175.163
G01 X195.209 Y175.115
G01 X196.761 Y175.000
G01 X198.594 Y175.129
G01 X200.454 Y175.160
G01 X202.338 Y175.093
G01 X203.523 Y175.000
G01 X204.875 Y175.000
G01 X207.006 Y175.119
G01 X209.183 Y175.111
G01 X211.073 Y175.000
G01 X212.312 Y175.000
G01 X211.221 Y177.197
G01 X209.967 Y179.369
G01 X208.594 Y181.441
G01 X204.875 Y175.000
G01 X207.006 Y175.119
G01 X209.183 Y175.111
G01 X211.073 Y175.000
G01 X212.312 Y175.000
G01 X214.921 Y175.158
G01 X217.596 Y175.141
G01 X219.750 Y175.000
G01 X218.622 Y177.231
G01 X217.346 Y179.434
G01 X216.031 Y181.441
G01 X212.312 Y175.000
G01 X210.036 Y175.120
G01 X207.803 Y175.103
G01 X206.115 Y175.000
G01 X204.875 Y175.000
G01 X208.594 Y181.441
G01 X211.168 Y181.585
G01 X213.799 Y181.573
G01 X216.031 Y181.441
G01 X214.715 Y184.002
G01 X213.209 Y186.529
G01 X212.313 Y187.882
G01 X208.594 Y181.441
G01 X204.875 Y175.000
G01 X202.935 Y175.132
G01 X201.018 Y175.158
G01 X199.131 Y175.083
G01 X198.114 Y175.000
G01 X196.345 Y175.126
G01 X194.583 Y175.163
G01 X192.834 Y175.112
G01 X191.352 Y175.000
G01 X190.000 Y175.000
G01 X191.892 Y178.518
G01 X193.381 Y180.856
G01 X196.053 Y185.716
G01 X197.437 Y187.882
G01 X199.891 Y188.010
G01 X202.375 Y188.010
G01 X204.875 Y187.882
G01 X203.168 Y191.116
G01 X201.177 Y194.292
G01 X201.156 Y194.323
G01 X197.437 Y187.882
G01 X199.891 Y188.010
G01 X202.375 Y188.010
G01 X204.875 Y187.882
G01 X207.542 Y188.013
G01 X210.257 Y187.995
G01 X212.313 Y187.882
G01 X210.736 Y190.883
G01 X208.918 Y193.840
G01 X208.594 Y194.323
G01 X204.875 Y187.882
G01 X202.368 Y188.010
G01 X199.884 Y188.009
G01 X197.437 Y187.882
G01 X201.156 Y194.323
G01 X203.997 Y194.443
G01 X206.875 Y194.413
G01 X208.594 Y194.323
G01 X206.685 Y197.873
G01 X204.875 Y200.764
G01 X201.156 Y194.323
G01 X197.437 Y187.882
G01 X194.542 Y183.098
G01 X193.381 Y180.856
G01 X191.253 Y177.410
G01 X190.000 Y175.000
G01 X191.726 Y175.124
G01 X193.463 Y175.163
G01 X195.209 Y175.115
G01 X196.761 Y175.000
G01 X198.594 Y175.129
G01 X200.454 Y175.160
G01 X202.338 Y175.093
G01 X203.523 Y175.000
G01 X205.597 Y175.134
G01 X207.716 Y175.148
G01 X209.872 Y175.036
G01 X210.284 Y175.000
G01 X212.737 Y175.137
G01 X215.250 Y175.114
G01 X217.045 Y175.000
G01 X219.750 Y175.000
G01 X222.982 Y175.150
G01 X226.296 Y175.064
G01 X227.188 Y175.000
G01 X225.975 Y177.353
G01 X224.620 Y179.671
G01 X223.469 Y181.441
G01 X219.750 Y175.000
G01 X222.982 Y175.150
G01 X226.296 Y175.064
G01 X227.188 Y175.000
G01 X231.203 Y175.131
G01 X234.625 Y175.000
G01 X233.297 Y177.532
G01 X231.828 Y180.017
G01 X230.906 Y181.441
G01 X227.188 Y175.000
G01 X223.854 Y175.151
G01 X220.598 Y175.062
G01 X219.750 Y175.000
G01 X223.469 Y181.441
G01 X227.091 Y181.575
G01 X230.803 Y181.448
G01 X230.906 Y181.441
G01 X229.485 Y184.138
G01 X227.897 Y186.794
G01 X227.188 Y187.882
G01 X223.469 Y181.441
G01 X219.750 Y175.000
G01 X222.960 Y175.127
G01 X226.250 Y175.019
G01 X226.511 Y175.000
G01 X230.478 Y175.158
G01 X234.542 Y175.006
G01 X234.625 Y175.000
G01 X239.582 Y175.100
G01 X242.063 Y175.000
G01 X240.599 Y177.749
G01 X238.991 Y180.438
G01 X238.344 Y181.441
G01 X234.625 Y175.000
G01 X239.582 Y175.100
G01 X242.063 Y175.000
G01 X248.118 Y175.058
G01 X249.500 Y175.000
G01 X247.887 Y177.993
G01 X246.123 Y180.911
G01 X245.781 Y181.441
G01 X242.063 Y175.000
G01 X237.048 Y175.099
G01 X234.625 Y175.000
G01 X238.344 Y181.441
G01 X243.555 Y181.528
G01 X245.781 Y181.441
G01 X244.131 Y184.498
G01 X242.314 Y187.493
G01 X242.063 Y187.882
G01 X238.344 Y181.441
G01 X234.625 Y175.000
G01 X230.559 Y175.158
G01 X226.590 Y175.006
G01 X226.511 Y175.000
G01 X223.216 Y175.127
G01 X219.999 Y175.018
G01 X219.750 Y175.000
G01 X227.188 Y187.882
G01 X231.209 Y188.000
G01 X234.625 Y187.882
G01 X232.992 Y190.927
G01 X231.166 Y193.924
G01 X230.906 Y194.323
G01 X227.188 Y187.882
G01 X231.209 Y188.000
G01 X234.625 Y187.882
G01 X239.334 Y187.982
G01 X242.063 Y187.882
G01 X240.335 Y191.074
G01 X238.418 Y194.209
G01 X238.344 Y194.323
G01 X234.625 Y187.882
G01 X230.521 Y188.000
G01 X227.188 Y187.882
G01 X230.906 Y194.323
G01 X235.334 Y194.426
G01 X238.344 Y194.323
G01 X236.497 Y197.718
G01 X234.625 Y200.764
G01 X230.906 Y194.323
G01 X227.188 Y187.882
G01 X219.750 Y175.000
G01 X217.012 Y175.136
G01 X214.334 Y175.091
G01 X212.989 Y175.000
G01 X210.685 Y175.138
G01 X208.425 Y175.136
G01 X206.227 Y175.000
G01 X204.239 Y175.133
G01 X202.277 Y175.156
G01 X200.347 Y175.074
G01 X199.466 Y175.000
G01 X197.673 Y175.127
G01 X195.890 Y175.162
G01 X194.122 Y175.108
G01 X192.705 Y175.000
G01 X190.982 Y175.024
G01 X190.000 Y175.000
G01 X191.892 Y178.518
G01 X193.381 Y180.856
G01 X196.053 Y185.716
G01 X197.437 Y187.882
G01 X201.297 Y194.832
G01 X202.847 Y197.251
G01 X204.875 Y200.764
G01 X208.111 Y200.875
G01 X211.392 Y200.813
G01 X212.313 Y200.764
G01 X210.197 Y204.642
G01 X208.594 Y207.205
G01 X204.875 Y200.764
G01 X208.111 Y200.875
G01 X211.392 Y200.813
G01 X212.313 Y200.764
G01 X215.809 Y200.875
G01 X219.369 Y200.786
G01 X219.750 Y200.764
G01 X217.731 Y204.472
G01 X216.031 Y207.205
G01 X212.313 Y200.764
G01 X209.020 Y200.876
G01 X205.770 Y200.812
G01 X204.875 Y200.764
G01 X208.594 Y207.205
G01 X212.231 Y207.307
G01 X215.921 Y207.211
G01 X216.031 Y207.205
G01 X213.704 Y211.419
G01 X212.312 Y213.646
G01 X208.594 Y207.205
G01 X204.875 Y200.764
G01 X208.116 Y200.893
G01 X211.405 Y200.848
G01 X212.989 Y200.764
G01 X216.506 Y200.856
G01 X219.750 Y200.764
G01 X223.601 Y200.872
G01 X227.188 Y200.764
G01 X225.198 Y204.413
G01 X223.469 Y207.205
G01 X219.750 Y200.764
G01 X223.601 Y200.872
G01 X227.188 Y200.764
G01 X231.486 Y200.864
G01 X234.625 Y200.764
G01 X232.616 Y204.433
G01 X230.906 Y207.205
G01 X227.188 Y200.764
G01 X223.263 Y200.872
G01 X219.750 Y200.764
G01 X223.469 Y207.205
G01 X227.746 Y207.300
G01 X230.906 Y207.205
G01 X228.692 Y211.216
G01 X227.187 Y213.646
G01 X223.469 Y207.205
G01 X219.750 Y200.764
G01 X216.192 Y200.894
G01 X212.695 Y200.825
G01 X211.636 Y200.764
G01 X208.359 Y200.857
G01 X205.125 Y200.778
G01 X204.875 Y200.764
G01 X211.497 Y212.258
G01 X211.636 Y212.475
G01 X212.312 Y213.646
G01 X216.355 Y213.738
G01 X219.750 Y213.646
G01 X217.208 Y218.202
G01 X216.031 Y220.087
G01 X212.312 Y213.646
G01 X216.355 Y213.738
G01 X219.750 Y213.646
G01 X224.085 Y213.735
G01 X227.187 Y213.646
G01 X224.724 Y218.068
G01 X223.469 Y220.087
G01 X219.750 Y213.646
G01 X215.655 Y213.738
G01 X212.312 Y213.646
G01 X216.031 Y220.087
G01 X220.483 Y220.169
G01 X223.469 Y220.087
G01 X220.711 Y224.988
G01 X219.750 Y226.529
G01 X216.031 Y220.087
G01 X212.312 Y213.646
G01 X205.551 Y201.935
G01 X204.875 Y200.764
G01 X200.219 Y192.855
G01 X199.466 Y191.395
G01 X196.147 Y185.931
G01 X194.733 Y183.198
G01 X192.371 Y179.434
G01 X190.676 Y176.171
G01 X190.000 Y175.000
G01 X188.274 Y175.128
G01 X186.536 Y175.171
G01 X184.789 Y175.127
G01 X183.081 Y175.000
G01 X181.244 Y175.133
G01 X179.377 Y175.169
G01 X177.487 Y175.104
G01 X176.163 Y175.000
G01 X174.072 Y175.139
G01 X171.935 Y175.156
G01 X169.760 Y175.045
G01 X169.244 Y175.000
G01 X166.757 Y175.142
G01 X164.207 Y175.120
G01 X162.326 Y175.000
G01 X159.300 Y175.136
G01 X156.197 Y175.055
G01 X155.407 Y175.000
G01 X151.649 Y175.170
G01 X147.795 Y175.052
G01 X147.105 Y175.000
G01 X142.336 Y175.141
G01 X138.802 Y175.000
G01 X132.828 Y175.097
G01 X130.500 Y175.000
G01 X132.067 Y178.023
G01 X133.787 Y180.977
G01 X135.343 Y183.388
G01 X136.968 Y186.518
G01 X138.770 Y189.590
G01 X140.186 Y191.777
G01 X141.938 Y195.132
G01 X143.902 Y198.437
G01 X145.029 Y200.165
G01 X146.980 Y203.865
G01 X149.189 Y207.515
G01 X149.872 Y208.553
G01 X152.097 Y212.718
G01 X154.636 Y216.823
G01 X154.715 Y216.942
G01 X157.289 Y221.687
G01 X159.558 Y225.330
G01 X160.250 Y226.529
G01 X164.903 Y226.603
G01 X167.687 Y226.529
G01 X163.969 Y232.970
G01 X160.786 Y227.540
G01 X160.250 Y226.529
G01 X164.903 Y226.603
G01 X167.687 Y226.529
G01 X172.149 Y226.605
G01 X175.125 Y226.529
G01 X171.406 Y232.970
G01 X168.055 Y227.224
G01 X167.687 Y226.529
G01 X163.073 Y226.603
G01 X160.250 Y226.529
G01 X163.346 Y231.975
G01 X163.969 Y232.970
G01 X168.812 Y233.037
G01 X171.406 Y232.970
G01 X167.688 Y239.411
G01 X164.175 Y233.359
G01 X163.969 Y232.970
G01 X160.786 Y227.540
G01 X160.250 Y226.529
G01 X164.877 Y226.693
G01 X169.447 Y226.615
G01 X171.068 Y226.529
G01 X175.125 Y226.529
G01 X179.455 Y226.606
G01 X182.562 Y226.529
G01 X178.844 Y232.970
G01 X175.241 Y226.750
G01 X175.125 Y226.529
G01 X179.455 Y226.606
G01 X182.562 Y226.529
G01 X186.824 Y226.607
G01 X190.000 Y226.529
G01 X186.281 Y232.970
G01 X182.562 Y226.529
G01 X178.252 Y226.606
G01 X175.125 Y226.529
G01 X178.707 Y232.753
G01 X178.844 Y232.970
G01 X183.445 Y233.040
G01 X186.281 Y232.970
G01 X182.563 Y239.411
G01 X178.844 Y232.970
G01 X175.241 Y226.750
G01 X175.125 Y226.529
G01 X170.675 Y226.692
G01 X166.173 Y226.624
G01 X164.307 Y226.529
G01 X160.250 Y226.529
G01 X163.301 Y232.131
G01 X165.659 Y235.897
G01 X167.688 Y239.411
G01 X172.751 Y239.471
G01 X175.125 Y239.411
G01 X171.406 Y245.852
G01 X167.688 Y239.411
G01 X172.751 Y239.471
G01 X175.125 Y239.411
G01 X180.075 Y239.473
G01 X182.563 Y239.411
G01 X178.844 Y245.852
G01 X175.125 Y239.411
G01 X170.083 Y239.471
G01 X167.688 Y239.411
G01 X171.406 Y245.852
G01 X176.714 Y245.905
G01 X178.844 Y245.852
G01 X175.125 Y252.293
G01 X171.406 Y245.852
G01 X167.688 Y239.411
G01 X164.126 Y233.536
G01 X162.278 Y230.042
G01 X160.250 Y226.529
G01 X164.877 Y226.693
G01 X169.447 Y226.615
G01 X171.068 Y226.529
G01 X175.448 Y226.691
G01 X179.798 Y226.634
G01 X181.886 Y226.529
G01 X186.151 Y226.623
G01 X190.000 Y226.529
G01 X194.255 Y226.607
G01 X197.438 Y226.529
G01 X193.719 Y232.970
G01 X190.000 Y226.529
G01 X194.255 Y226.607
G01 X197.438 Y226.529
G01 X201.748 Y226.606
G01 X204.875 Y226.529
G01 X201.293 Y232.753
G01 X201.156 Y232.970
G01 X197.438 Y226.529
G01 X193.176 Y226.607
G01 X190.000 Y226.529
G01 X193.719 Y232.970
G01 X198.309 Y233.040
G01 X201.156 Y232.970
G01 X197.437 Y239.411
G01 X193.719 Y232.970
G01 X190.000 Y226.529
G01 X194.259 Y226.690
G01 X198.533 Y226.641
G01 X200.818 Y226.529
G01 X204.875 Y226.529
G01 X209.306 Y226.605
G01 X212.313 Y226.529
G01 X209.023 Y232.287
G01 X208.594 Y232.970
G01 X204.875 Y226.529
G01 X209.306 Y226.605
G01 X212.313 Y226.529
G01 X216.927 Y226.603
G01 X219.750 Y226.529
G01 X216.654 Y231.975
G01 X216.031 Y232.970
G01 X212.313 Y226.529
G01 X207.851 Y226.605
G01 X204.875 Y226.529
G01 X208.594 Y232.970
G01 X213.408 Y233.037
G01 X216.031 Y232.970
G01 X212.553 Y239.028
G01 X212.312 Y239.411
G01 X208.594 Y232.970
G01 X204.875 Y226.529
G01 X200.555 Y226.690
G01 X196.255 Y226.638
G01 X194.057 Y226.529
G01 X190.000 Y226.529
G01 X194.659 Y234.827
G01 X196.085 Y237.068
G01 X197.437 Y239.411
G01 X202.374 Y239.473
G01 X204.875 Y239.411
G01 X201.156 Y245.852
G01 X197.437 Y239.411
G01 X202.374 Y239.473
G01 X204.875 Y239.411
G01 X209.917 Y239.471
G01 X212.312 Y239.411
G01 X208.594 Y245.852
G01 X204.875 Y239.411
G01 X199.925 Y239.473
G01 X197.437 Y239.411
G01 X201.156 Y245.852
G01 X206.450 Y245.905
G01 X208.594 Y245.852
G01 X204.875 Y252.293
G01 X201.156 Y245.852
G01 X197.437 Y239.411
G01 X192.322 Y230.737
G01 X191.352 Y228.871
G01 X190.000 Y226.529
G01 X185.741 Y226.690
G01 X181.467 Y226.641
G01 X179.182 Y226.529
G01 X174.809 Y226.691
G01 X170.395 Y226.631
G01 X168.364 Y226.529
G01 X163.763 Y226.621
G01 X160.250 Y226.529
G01 X163.301 Y232.131
G01 X165.659 Y235.897
G01 X169.290 Y242.437
G01 X171.068 Y245.266
G01 X175.125 Y252.293
G01 X180.698 Y252.339
G01 X182.562 Y252.293
G01 X178.844 Y258.734
G01 X175.125 Y252.293
G01 X180.698 Y252.339
G01 X182.562 Y252.293
G01 X188.085 Y252.340
G01 X190.000 Y252.293
G01 X186.281 Y258.734
G01 X182.562 Y252.293
G01 X176.998 Y252.339
G01 X175.125 Y252.293
G01 X178.844 Y258.734
G01 X184.699 Y258.773
G01 X186.281 Y258.734
G01 X182.563 Y265.175
G01 X178.844 Y258.734
G01 X175.125 Y252.293
G01 X180.689 Y252.456
G01 X186.232 Y252.345
G01 X187.295 Y252.293
G01 X190.000 Y252.293
G01 X195.519 Y252.340
G01 X197.438 Y252.293
G01 X193.719 Y258.734
G01 X190.000 Y252.293
G01 X195.519 Y252.340
G01 X197.438 Y252.293
G01 X203.002 Y252.339
G01 X204.875 Y252.293
G01 X201.156 Y258.734
G01 X197.438 Y252.293
G01 X191.915 Y252.340
G01 X190.000 Y252.293
G01 X193.719 Y258.734
G01 X199.570 Y258.773
G01 X201.156 Y258.734
G01 X197.437 Y265.175
G01 X193.719 Y258.734
G01 X190.000 Y252.293
G01 X184.475 Y252.456
G01 X178.935 Y252.347
G01 X177.830 Y252.293
G01 X175.125 Y252.293
G01 X179.989 Y260.902
G01 X181.210 Y262.833
G01 X182.563 Y265.175
G01 X188.715 Y265.206
G01 X190.000 Y265.175
G01 X186.281 Y271.616
G01 X182.563 Y265.175
G01 X188.715 Y265.206
G01 X190.000 Y265.175
G01 X196.151 Y265.206
G01 X197.437 Y265.175
G01 X193.719 Y271.616
G01 X190.000 Y265.175
G01 X183.849 Y265.206
G01 X182.563 Y265.175
G01 X186.281 Y271.616
G01 X192.744 Y271.640
G01 X193.719 Y271.616
G01 X190.000 Y278.057
G01 X186.281 Y271.616
G01 X182.563 Y265.175
G01 X177.341 Y256.285
G01 X176.477 Y254.635
G01 X175.125 Y252.293
G01 X170.792 Y245.085
G01 X169.040 Y241.753
G01 X165.351 Y235.641
G01 X163.631 Y232.384
G01 X160.487 Y226.976
G01 X160.250 Y226.529
G01 X157.326 Y221.746
G01 X155.407 Y218.140
G01 X152.815 Y213.960
G01 X150.564 Y209.752
G01 X148.247 Y206.059
G01 X146.194 Y202.311
G01 X145.721 Y201.363
G01 X143.620 Y198.045
G01 X141.735 Y194.671
G01 X140.878 Y192.975
G01 X138.932 Y189.920
G01 X137.165 Y186.804
G01 X136.035 Y184.587
G01 X134.180 Y181.685
G01 X132.480 Y178.709
G01 X131.192 Y176.198
G01 X130.500 Y175.000
G01 X136.423 Y175.164
G01 X140.300 Y175.000
G01 X144.955 Y175.151
G01 X148.700 Y175.000
G01 X152.456 Y175.124
G01 X155.700 Y175.000
G01 X158.792 Y175.140
G01 X161.812 Y175.064
G01 X162.700 Y175.000
G01 X165.261 Y175.145
G01 X167.769 Y175.127
G01 X169.700 Y175.000
G01 X171.860 Y175.143
G01 X173.985 Y175.161
G01 X176.066 Y175.056
G01 X176.700 Y175.000
G01 X178.587 Y175.136
G01 X180.456 Y175.173
G01 X182.300 Y175.112
G01 X183.700 Y175.000
G01 X185.443 Y175.130
G01 X187.183 Y175.175
G01 X188.916 Y175.133
G01 X190.639 Y175.006
G01 X190.700 Y175.000
G01 X192.431 Y175.130
G01 X194.176 Y175.175
G01 X195.932 Y175.132
G01 X197.693 Y175.001
G01 X197.700 Y175.000
G01 X199.559 Y175.136
G01 X201.450 Y175.172
G01 X203.367 Y175.106
G01 X204.700 Y175.000
G01 X206.834 Y175.142
G01 X209.015 Y175.157
G01 X211.238 Y175.041
G01 X211.700 Y175.000
G01 X214.254 Y175.144
G01 X216.873 Y175.118
G01 X218.700 Y175.000
G01 X221.820 Y175.137
G01 X225.020 Y175.048
G01 X225.700 Y175.000
G01 X229.586 Y175.171
G01 X233.569 Y175.040
G01 X234.100 Y175.000
G01 X239.037 Y175.139
G01 X242.500 Y175.000
G01 X248.596 Y175.038
G01 X249.500 Y175.000
G01 X246.419 Y169.562
G01 X245.781 Y168.559
G01 X253.219 Y168.559
G01 X251.603 Y171.556
G01 X249.846 Y174.463
G01 X249.500 Y175.000
G01 X246.419 Y169.562
G01 X245.781 Y168.559
G01 X243.296 Y164.063
G01 X242.062 Y162.118
G01 X249.500 Y162.118
G01 X248.031 Y164.877
G01 X246.436 Y167.546
G01 X245.781 Y168.559
G01 X248.938 Y173.924
G01 X249.500 Y175.000
G01 X251.283 Y172.110
G01 X252.926 Y169.130
G01 X253.219 Y168.559
G01 X250.610 Y163.873
G01 X249.500 Y162.118
G01 X256.938 Y162.118
G01 X255.281 Y165.186
G01 X253.486 Y168.146
G01 X253.219 Y168.559
G01 X251.603 Y171.556
G01 X249.846 Y174.463
G01 X249.500 Y175.000
G01 X246.572 Y169.642
G01 X244.767 Y166.802
G01 X242.293 Y162.482
G01 X242.062 Y162.118
G01 X240.083 Y158.432
G01 X238.344 Y155.677
G01 X245.781 Y155.677
G01 X244.443 Y158.227
G01 X242.991 Y160.684
G01 X242.062 Y162.118
G01 X240.083 Y158.432
G01 X238.344 Y155.677
G01 X236.782 Y152.670
G01 X235.048 Y149.856
G01 X234.625 Y149.236
G01 X242.063 Y149.236
G01 X240.835 Y151.617
G01 X239.500 Y153.899
G01 X238.344 Y155.677
G01 X240.507 Y159.165
G01 X242.062 Y162.118
G01 X243.581 Y159.719
G01 X244.989 Y157.225
G01 X245.781 Y155.677
G01 X244.019 Y152.357
G01 X242.072 Y149.250
G01 X242.063 Y149.236
G01 X249.500 Y149.236
G01 X248.065 Y151.957
G01 X246.509 Y154.560
G01 X245.781 Y155.677
G01 X244.443 Y158.227
G01 X242.991 Y160.684
G01 X242.062 Y162.118
G01 X244.813 Y166.533
G01 X246.795 Y170.316
G01 X249.500 Y175.000
G01 X251.327 Y172.133
G01 X253.016 Y169.172
G01 X254.233 Y166.802
G01 X256.014 Y163.814
G01 X256.938 Y162.118
G01 X254.606 Y157.883
G01 X253.219 Y155.677
G01 X260.656 Y155.677
G01 X258.920 Y158.883
G01 X257.042 Y161.958
G01 X256.938 Y162.118
G01 X254.606 Y157.883
G01 X253.219 Y155.677
G01 X251.251 Y152.033
G01 X249.500 Y149.236
G01 X256.937 Y149.236
G01 X255.294 Y152.300
G01 X253.513 Y155.226
G01 X253.219 Y155.677
G01 X255.688 Y159.757
G01 X256.938 Y162.118
G01 X258.823 Y159.051
G01 X260.567 Y155.851
G01 X260.656 Y155.677
G01 X258.479 Y151.702
G01 X256.937 Y149.236
G01 X264.375 Y149.236
G01 X262.520 Y152.645
G01 X260.656 Y155.677
G01 X258.920 Y158.883
G01 X257.042 Y161.958
G01 X256.938 Y162.118
G01 X255.329 Y165.205
G01 X253.580 Y168.188
G01 X252.205 Y170.316
G01 X250.550 Y173.281
G01 X249.500 Y175.000
G01 X246.572 Y169.642
G01 X244.767 Y166.802
G01 X242.473 Y162.559
G01 X240.710 Y159.776
G01 X238.932 Y156.365
G01 X236.948 Y153.178
G01 X236.653 Y152.749
G01 X235.087 Y149.972
G01 X234.625 Y149.236
G01 X233.393 Y146.780
G01 X232.032 Y144.468
G01 X230.906 Y142.795
G01 X238.344 Y142.795
G01 X237.197 Y145.061
G01 X235.946 Y147.222
G01 X234.625 Y149.236
G01 X233.393 Y146.780
G01 X232.032 Y144.468
G01 X230.906 Y142.795
G01 X229.874 Y140.763
G01 X228.744 Y138.839
G01 X227.807 Y137.427
G01 X227.187 Y136.354
G01 X234.625 Y136.354
G01 X233.468 Y138.589
G01 X232.203 Y140.703
G01 X231.526 Y141.721
G01 X230.906 Y142.795
G01 X232.359 Y144.992
G01 X233.691 Y147.338
G01 X234.625 Y149.236
G01 X235.970 Y147.183
G01 X237.219 Y145.020
G01 X238.344 Y142.795
G01 X237.136 Y140.408
G01 X235.814 Y138.147
G01 X234.625 Y136.354
G01 X242.062 Y136.354
G01 X240.731 Y138.943
G01 X239.275 Y141.392
G01 X238.344 Y142.795
G01 X237.197 Y145.061
G01 X235.946 Y147.222
G01 X234.625 Y149.236
G01 X233.364 Y146.775
G01 X231.973 Y144.462
G01 X231.244 Y143.380
G01 X230.213 Y141.315
G01 X229.082 Y139.359
G01 X227.864 Y137.525
G01 X227.187 Y136.354
G01 X226.328 Y134.627
G01 X225.390 Y132.976
G01 X224.379 Y131.404
G01 X224.089 Y130.986
G01 X223.469 Y129.913
G01 X230.631 Y129.900
G01 X230.906 Y129.913
G01 X229.700 Y132.254
G01 X228.367 Y134.452
G01 X227.807 Y135.280
G01 X227.187 Y136.354
G01 X226.328 Y134.627
G01 X225.390 Y132.976
G01 X224.379 Y131.404
G01 X224.089 Y130.986
G01 X223.469 Y129.913
G01 X222.705 Y128.364
G01 X221.870 Y126.866
G01 X220.968 Y125.421
G01 X220.370 Y124.545
G01 X219.750 Y123.471
G01 X223.825 Y123.324
G01 X227.187 Y123.471
G01 X225.784 Y126.156
G01 X224.212 Y128.660
G01 X224.089 Y128.839
G01 X223.469 Y129.913
G01 X224.478 Y131.429
G01 X225.419 Y133.020
G01 X226.284 Y134.684
G01 X226.568 Y135.280
G01 X227.187 Y136.354
G01 X228.518 Y134.303
G01 X229.733 Y132.115
G01 X230.286 Y130.986
G01 X230.906 Y129.913
G01 X229.979 Y128.032
G01 X228.967 Y126.218
G01 X227.874 Y124.474
G01 X227.187 Y123.471
G01 X232.921 Y123.394
G01 X234.625 Y123.471
G01 X233.121 Y126.395
G01 X231.443 Y129.128
G01 X230.906 Y129.913
G01 X229.700 Y132.254
G01 X228.367 Y134.452
G01 X227.807 Y135.280
G01 X227.187 Y136.354
G01 X228.373 Y138.132
G01 X229.471 Y140.017
G01 X230.474 Y142.006
G01 X230.568 Y142.209
G01 X231.969 Y144.359
G01 X233.252 Y146.651
G01 X233.949 Y148.065
G01 X234.625 Y149.236
G01 X235.950 Y147.180
G01 X237.179 Y145.015
G01 X238.006 Y143.380
G01 X239.490 Y141.050
G01 X240.858 Y138.582
G01 X241.386 Y137.525
G01 X242.062 Y136.354
G01 X240.814 Y133.924
G01 X239.455 Y131.607
G01 X238.344 Y129.913
G01 X245.781 Y129.913
G01 X244.201 Y132.924
G01 X242.464 Y135.755
G01 X242.062 Y136.354
G01 X240.814 Y133.924
G01 X239.455 Y131.607
G01 X238.344 Y129.913
G01 X237.218 Y127.702
G01 X235.992 Y125.577
G01 X234.674 Y123.542
G01 X234.625 Y123.471
G01 X242.063 Y123.471
G01 X240.366 Y126.692
G01 X238.486 Y129.704
G01 X238.344 Y129.913
G01 X239.782 Y132.139
G01 X241.116 Y134.482
G01 X242.062 Y136.354
G01 X243.832 Y133.563
G01 X245.447 Y130.591
G01 X245.781 Y129.913
G01 X244.452 Y127.366
G01 X243.008 Y124.925
G01 X242.063 Y123.471
G01 X249.500 Y123.471
G01 X247.604 Y127.006
G01 X245.781 Y129.913
G01 X244.201 Y132.924
G01 X242.464 Y135.755
G01 X242.062 Y136.354
G01 X240.706 Y138.943
G01 X239.225 Y141.391
G01 X238.682 Y142.209
G01 X237.499 Y144.499
G01 X236.212 Y146.678
G01 X235.301 Y148.065
G01 X234.625 Y149.236
G01 X236.365 Y151.996
G01 X237.936 Y154.947
G01 X238.006 Y155.091
G01 X240.167 Y158.521
G01 X242.062 Y162.118
G01 X244.813 Y166.533
G01 X246.795 Y170.316
G01 X249.500 Y175.000
G01 X251.327 Y172.133
G01 X253.016 Y169.172
G01 X254.233 Y166.802
G01 X256.112 Y163.850
G01 X257.855 Y160.777
G01 X258.966 Y158.605
G01 X260.963 Y155.452
G01 X262.814 Y152.148
G01 X263.699 Y150.407
G01 X264.375 Y149.236
G01 X262.271 Y145.391
G01 X260.656 Y142.795
G01 X268.094 Y142.795
G01 X266.081 Y146.472
G01 X264.375 Y149.236
G01 X262.271 Y145.391
G01 X260.656 Y142.795
G01 X258.788 Y139.343
G01 X256.937 Y136.354
G01 X264.375 Y136.354
G01 X262.383 Y140.007
G01 X260.656 Y142.795
G01 X262.899 Y146.477
G01 X264.375 Y149.236
G01 X266.522 Y145.708
G01 X268.094 Y142.795
G01 X266.006 Y138.988
G01 X264.375 Y136.354
G01 X271.813 Y136.354
G01 X269.601 Y140.362
G01 X268.094 Y142.795
G01 X266.081 Y146.472
G01 X264.375 Y149.236
G01 X262.352 Y145.397
G01 X260.137 Y141.780
G01 X259.642 Y141.038
G01 X257.760 Y137.683
G01 X256.937 Y136.354
G01 X255.258 Y133.221
G01 X253.437 Y130.244
G01 X253.219 Y129.913
G01 X260.656 Y129.913
G01 X258.641 Y133.617
G01 X256.937 Y136.354
G01 X255.258 Y133.221
G01 X253.437 Y130.244
G01 X253.219 Y129.913
G01 X251.682 Y127.026
G01 X250.017 Y124.265
G01 X249.500 Y123.471
G01 X256.938 Y123.471
G01 X254.836 Y127.329
G01 X253.219 Y129.913
G01 X255.056 Y132.871
G01 X256.752 Y135.986
G01 X256.937 Y136.354
G01 X259.100 Y132.822
G01 X260.656 Y129.913
G01 X258.911 Y126.683
G01 X257.021 Y123.600
G01 X256.938 Y123.471
G01 X264.375 Y123.471
G01 X262.065 Y127.660
G01 X260.656 Y129.913
G01 X258.641 Y133.617
G01 X256.937 Y136.354
G01 X259.026 Y139.632
G01 X260.950 Y143.106
G01 X261.670 Y144.551
G01 X263.901 Y148.350
G01 X264.375 Y149.236
G01 X266.586 Y145.713
G01 X268.627 Y141.995
G01 X269.108 Y141.038
G01 X271.428 Y137.070
G01 X271.813 Y136.354
G01 X269.700 Y132.516
G01 X268.094 Y129.913
G01 X275.531 Y129.913
G01 X273.080 Y134.316
G01 X271.813 Y136.354
G01 X269.700 Y132.516
G01 X268.094 Y129.913
G01 X266.137 Y126.338
G01 X264.375 Y123.471
G01 X271.812 Y123.471
G01 X269.291 Y127.995
G01 X268.094 Y129.913
G01 X270.332 Y133.610
G01 X271.813 Y136.354
G01 X274.373 Y132.077
G01 X275.531 Y129.913
G01 X273.363 Y125.992
G01 X271.812 Y123.471
G01 X279.250 Y123.471
G01 X276.516 Y128.334
G01 X275.531 Y129.913
G01 X273.080 Y134.316
G01 X271.813 Y136.354
G01 X269.674 Y140.362
G01 X267.344 Y144.152
G01 X267.080 Y144.551
G01 X265.050 Y148.142
G01 X264.375 Y149.236
G01 X262.579 Y152.655
G01 X260.629 Y155.922
G01 X259.642 Y157.433
G01 X257.983 Y160.611
G01 X256.181 Y163.669
G01 X254.909 Y165.631
G01 X253.326 Y168.673
G01 X251.601 Y171.622
G01 X250.176 Y173.829
G01 X249.500 Y175.000
G01 X246.589 Y169.651
G01 X244.657 Y166.612
G01 X242.391 Y162.399
G01 X240.506 Y159.422
G01 X238.683 Y156.026
G01 X237.047 Y153.430
G01 X235.585 Y150.624
G01 X233.965 Y147.995
G01 X233.587 Y147.438
G01 X232.411 Y145.111
G01 X231.114 Y142.918
G01 X230.128 Y141.447
G01 X229.163 Y139.489
G01 X228.106 Y137.629
G01 X226.963 Y135.872
G01 X226.669 Y135.455
G01 X225.847 Y133.758
G01 X224.949 Y132.130
G01 X223.978 Y130.575
G01 X223.209 Y129.463
G01 X222.466 Y127.916
G01 X221.652 Y126.415
G01 X220.769 Y124.966
G01 X219.821 Y123.570
G01 X219.750 Y123.471
G01 X219.009 Y121.966
G01 X218.192 Y120.493
G01 X217.300 Y119.057
G01 X216.651 Y118.104
G01 X216.031 Y117.030
G01 X218.923 Y116.901
G01 X221.886 Y117.004
G01 X222.229 Y117.030
G01 X223.469 Y117.030
G01 X221.650 Y120.491
G01 X219.750 Y123.471
G01 X219.009 Y121.966
G01 X218.192 Y120.493
G01 X217.300 Y119.057
G01 X216.651 Y118.104
G01 X216.031 Y117.030
G01 X215.238 Y115.425
G01 X214.349 Y113.844
G01 X213.364 Y112.291
G01 X212.932 Y111.663
G01 X212.313 Y110.589
G01 X214.785 Y110.461
G01 X217.321 Y110.507
G01 X218.510 Y110.589
G01 X219.750 Y110.589
G01 X216.565 Y116.199
G01 X216.031 Y117.030
G01 X216.981 Y118.452
G01 X217.855 Y119.910
G01 X218.651 Y121.403
G01 X219.130 Y122.398
G01 X219.750 Y123.471
G01 X221.801 Y120.230
G01 X223.469 Y117.030
G01 X222.573 Y115.209
G01 X221.579 Y113.420
G01 X220.487 Y111.670
G01 X219.750 Y110.589
G01 X223.003 Y110.431
G01 X226.338 Y110.525
G01 X227.187 Y110.589
G01 X224.561 Y115.324
G01 X223.469 Y117.030
G01 X221.650 Y120.491
G01 X219.750 Y123.471
G01 X219.021 Y121.958
G01 X218.215 Y120.477
G01 X217.333 Y119.032
G01 X216.377 Y117.626
G01 X216.369 Y117.616
G01 X215.595 Y116.016
G01 X214.726 Y114.438
G01 X213.764 Y112.889
G01 X212.989 Y111.760
G01 X212.313 Y110.589
G01 X211.383 Y108.739
G01 X210.325 Y106.911
G01 X209.214 Y105.222
G01 X208.594 Y104.148
G01 X210.956 Y104.031
G01 X213.372 Y104.061
G01 X214.792 Y104.148
G01 X216.031 Y104.148
G01 X212.313 Y110.589
G01 X211.383 Y108.739
G01 X210.325 Y106.911
G01 X209.214 Y105.222
G01 X208.594 Y104.148
G01 X207.439 Y101.909
G01 X206.109 Y99.700
G01 X205.495 Y98.781
G01 X204.875 Y97.707
G01 X207.308 Y97.567
G01 X209.790 Y97.565
G01 X212.313 Y97.707
G01 X208.594 Y104.148
G01 X209.806 Y106.004
G01 X210.882 Y107.890
G01 X211.693 Y109.516
G01 X212.313 Y110.589
G01 X216.031 Y104.148
G01 X214.902 Y101.902
G01 X213.614 Y99.682
G01 X212.313 Y97.707
G01 X215.124 Y97.565
G01 X218.001 Y97.599
G01 X219.750 Y97.707
G01 X216.031 Y104.148
G01 X212.313 Y110.589
G01 X213.367 Y112.151
G01 X214.323 Y113.743
G01 X215.180 Y115.362
G01 X215.693 Y116.445
G01 X216.660 Y117.866
G01 X217.549 Y119.324
G01 X218.360 Y120.816
G01 X219.074 Y122.300
G01 X219.750 Y123.471
G01 X221.752 Y120.260
G01 X223.131 Y117.616
G01 X225.884 Y113.100
G01 X227.187 Y110.589
G01 X226.101 Y108.450
G01 X224.892 Y106.347
G01 X223.564 Y104.287
G01 X223.469 Y104.148
G01 X227.069 Y104.007
G01 X230.759 Y104.137
G01 X230.906 Y104.148
G01 X227.298 Y110.417
G01 X227.187 Y110.589
G01 X226.101 Y108.450
G01 X224.892 Y106.347
G01 X223.564 Y104.287
G01 X223.469 Y104.148
G01 X222.281 Y101.826
G01 X220.944 Y99.536
G01 X219.750 Y97.707
G01 X223.074 Y97.569
G01 X226.481 Y97.660
G01 X227.187 Y97.707
G01 X223.469 Y104.148
G01 X224.806 Y106.205
G01 X226.022 Y108.305
G01 X227.117 Y110.442
G01 X227.187 Y110.589
G01 X230.810 Y104.333
G01 X230.906 Y104.148
G01 X229.620 Y101.679
G01 X228.189 Y99.251
G01 X227.187 Y97.707
G01 X231.159 Y97.583
G01 X234.625 Y97.707
G01 X230.906 Y104.148
G01 X227.298 Y110.417
G01 X227.187 Y110.589
G01 X224.627 Y115.276
G01 X223.131 Y117.616
G01 X221.320 Y121.008
G01 X219.750 Y123.471
G01 X219.021 Y121.958
G01 X218.215 Y120.477
G01 X217.333 Y119.032
G01 X216.377 Y117.626
G01 X216.369 Y117.616
G01 X215.595 Y116.016
G01 X214.726 Y114.438
G01 X213.764 Y112.889
G01 X212.989 Y111.760
G01 X212.101 Y109.951
G01 X211.090 Y108.163
G01 X209.956 Y106.403
G01 X209.608 Y105.905
G01 X208.534 Y103.767
G01 X207.296 Y101.655
G01 X206.227 Y100.049
G01 X204.875 Y97.707
G01 X203.420 Y94.882
G01 X201.723 Y92.103
G01 X201.156 Y91.266
G01 X203.740 Y91.138
G01 X206.364 Y91.148
G01 X208.594 Y91.266
G01 X204.875 Y97.707
G01 X203.420 Y94.882
G01 X201.723 Y92.103
G01 X201.156 Y91.266
G01 X199.288 Y87.763
G01 X197.438 Y84.825
G01 X200.237 Y84.708
G01 X203.067 Y84.733
G01 X204.875 Y84.825
G01 X201.156 Y91.266
G01 X202.928 Y94.028
G01 X204.457 Y96.841
G01 X204.875 Y97.707
G01 X208.594 Y91.266
G01 X206.930 Y88.113
G01 X205.001 Y85.011
G01 X204.875 Y84.825
G01 X207.860 Y84.706
G01 X210.892 Y84.749
G01 X212.313 Y84.825
G01 X208.594 Y91.266
G01 X204.875 Y97.707
G01 X203.411 Y94.913
G01 X201.707 Y92.166
G01 X201.494 Y91.852
G01 X199.674 Y88.378
G01 X197.539 Y84.974
G01 X197.438 Y84.825
G01 X195.063 Y80.509
G01 X193.719 Y78.384
G01 X196.778 Y78.275
G01 X199.856 Y78.319
G01 X201.156 Y78.384
G01 X197.438 Y84.825
G01 X195.063 Y80.509
G01 X193.719 Y78.384
G01 X190.749 Y73.122
G01 X190.000 Y71.943
G01 X193.348 Y71.842
G01 X196.707 Y71.907
G01 X197.437 Y71.943
G01 X193.719 Y78.384
G01 X196.298 Y82.648
G01 X197.438 Y84.825
G01 X201.156 Y78.384
G01 X198.649 Y73.863
G01 X197.437 Y71.943
G01 X200.855 Y71.842
G01 X204.300 Y71.914
G01 X204.875 Y71.943
G01 X201.156 Y78.384
G01 X197.438 Y84.825
G01 X199.586 Y88.225
G01 X201.420 Y91.697
G01 X201.494 Y91.852
G01 X203.226 Y94.592
G01 X204.718 Y97.382
G01 X204.875 Y97.707
G01 X212.313 Y84.825
G01 X210.436 Y81.335
G01 X208.594 Y78.384
G01 X211.985 Y78.274
G01 X215.431 Y78.351
G01 X216.031 Y78.384
G01 X212.313 Y84.825
G01 X210.436 Y81.335
G01 X208.594 Y78.384
G01 X206.355 Y74.303
G01 X204.875 Y71.943
G01 X208.443 Y71.842
G01 X212.057 Y71.930
G01 X212.313 Y71.943
G01 X208.594 Y78.384
G01 X210.720 Y81.827
G01 X212.313 Y84.825
G01 X216.031 Y78.384
G01 X213.939 Y74.550
G01 X212.313 Y71.943
G01 X216.114 Y71.843
G01 X219.750 Y71.943
G01 X216.031 Y78.384
G01 X212.313 Y84.825
G01 X204.875 Y97.707
G01 X206.334 Y99.956
G01 X207.609 Y102.242
G01 X208.256 Y103.563
G01 X209.497 Y105.433
G01 X210.599 Y107.335
G01 X211.564 Y109.260
G01 X211.636 Y109.418
G01 X212.716 Y111.020
G01 X213.692 Y112.653
G01 X214.563 Y114.311
G01 X215.017 Y115.274
G01 X215.996 Y116.714
G01 X216.894 Y118.190
G01 X217.711 Y119.698
G01 X218.398 Y121.129
G01 X219.256 Y122.565
G01 X219.750 Y123.471
G01 X221.752 Y120.260
G01 X223.131 Y117.616
G01 X225.884 Y113.100
G01 X227.187 Y110.589
G01 X231.002 Y104.166
G01 X231.920 Y102.392
G01 X234.625 Y97.707
G01 X233.135 Y94.901
G01 X231.475 Y92.141
G01 X230.906 Y91.266
G01 X235.264 Y91.157
G01 X238.344 Y91.266
G01 X234.625 Y97.707
G01 X233.135 Y94.901
G01 X231.475 Y92.141
G01 X230.906 Y91.266
G01 X229.287 Y88.236
G01 X227.466 Y85.250
G01 X227.187 Y84.825
G01 X231.345 Y84.717
G01 X234.625 Y84.825
G01 X230.906 Y91.266
G01 X232.620 Y94.010
G01 X234.165 Y96.802
G01 X234.625 Y97.707
G01 X238.344 Y91.266
G01 X236.645 Y88.118
G01 X234.752 Y85.020
G01 X234.625 Y84.825
G01 X239.378 Y84.732
G01 X242.062 Y84.825
G01 X238.344 Y91.266
G01 X234.625 Y97.707
G01 X233.147 Y94.887
G01 X231.499 Y92.112
G01 X230.568 Y90.681
G01 X228.922 Y87.643
G01 X227.187 Y84.825
G01 X225.389 Y81.491
G01 X223.469 Y78.384
G01 X227.559 Y78.281
G01 X230.906 Y78.384
G01 X227.187 Y84.825
G01 X225.389 Y81.491
G01 X223.469 Y78.384
G01 X221.440 Y74.666
G01 X219.750 Y71.943
G01 X223.868 Y71.846
G01 X227.187 Y71.943
G01 X223.469 Y78.384
G01 X225.494 Y81.674
G01 X227.187 Y84.825
G01 X230.906 Y78.384
G01 X228.884 Y74.687
G01 X227.187 Y71.943
G01 X231.704 Y71.853
G01 X234.625 Y71.943
G01 X230.906 Y78.384
G01 X227.187 Y84.825
G01 X229.049 Y87.787
G01 X230.712 Y90.796
G01 X231.244 Y91.852
G01 X232.935 Y94.591
G01 X234.458 Y97.379
G01 X234.625 Y97.707
G01 X241.076 Y86.598
G01 X241.386 Y85.996
G01 X242.062 Y84.825
G01 X240.153 Y81.331
G01 X238.344 Y78.384
G01 X243.498 Y78.305
G01 X245.781 Y78.384
G01 X242.062 Y84.825
G01 X240.153 Y81.331
G01 X238.344 Y78.384
G01 X236.286 Y74.640
G01 X234.625 Y71.943
G01 X239.623 Y71.864
G01 X242.062 Y71.943
G01 X238.344 Y78.384
G01 X240.441 Y81.831
G01 X242.062 Y84.825
G01 X245.781 Y78.384
G01 X243.658 Y74.541
G01 X242.062 Y71.943
G01 X247.624 Y71.879
G01 X249.500 Y71.943
G01 X245.781 Y78.384
G01 X242.062 Y84.825
G01 X235.392 Y96.394
G01 X235.301 Y96.536
G01 X234.625 Y97.707
G01 X230.285 Y105.410
G01 X229.216 Y107.076
G01 X226.290 Y112.452
G01 X224.483 Y115.274
G01 X222.522 Y119.017
G01 X220.426 Y122.300
G01 X219.750 Y123.471
G01 X220.703 Y124.863
G01 X221.591 Y126.309
G01 X222.410 Y127.806
G01 X223.158 Y129.350
G01 X223.209 Y129.463
G01 X224.230 Y130.962
G01 X225.183 Y132.535
G01 X226.063 Y134.181
G01 X226.669 Y135.455
G01 X227.832 Y137.186
G01 X228.911 Y139.021
G01 X229.899 Y140.955
G01 X230.128 Y141.447
G01 X231.503 Y143.541
G01 X232.766 Y145.774
G01 X233.587 Y147.438
G01 X235.239 Y150.027
G01 X236.737 Y152.794
G01 X237.047 Y153.430
G01 X239.111 Y156.666
G01 X240.964 Y160.134
G01 X241.198 Y160.620
G01 X243.761 Y164.784
G01 X245.349 Y167.810
G01 X248.498 Y173.083
G01 X249.500 Y175.000
G01 X251.332 Y172.136
G01 X253.026 Y169.176
G01 X254.343 Y166.612
G01 X256.229 Y163.658
G01 X257.979 Y160.582
G01 X259.186 Y158.223
G01 X261.196 Y155.060
G01 X263.060 Y151.743
G01 X264.029 Y149.835
G01 X266.231 Y146.341
G01 X268.265 Y142.654
G01 X268.872 Y141.447
G01 X271.332 Y137.498
G01 X273.589 Y133.312
G01 X273.715 Y133.058
G01 X276.496 Y128.532
G01 X278.558 Y124.670
G01 X279.250 Y123.471
G01 X277.002 Y119.427
G01 X275.531 Y117.030
G01 X282.969 Y117.030
G01 X279.911 Y122.416
G01 X279.250 Y123.471
G01 X277.002 Y119.427
G01 X275.531 Y117.030
G01 X273.384 Y113.156
G01 X271.812 Y110.589
G01 X279.250 Y110.589
G01 X276.012 Y116.266
G01 X275.531 Y117.030
G01 X277.891 Y120.966
G01 X279.250 Y123.471
G01 X282.370 Y118.157
G01 X282.969 Y117.030
G01 X280.622 Y112.829
G01 X279.250 Y110.589
G01 X286.687 Y110.589
G01 X283.262 Y116.563
G01 X282.969 Y117.030
G01 X279.911 Y122.416
G01 X279.250 Y123.471
G01 X277.094 Y119.405
G01 X274.756 Y115.509
G01 X273.841 Y114.103
G01 X271.812 Y110.589
G01 X269.735 Y106.833
G01 X268.094 Y104.148
G01 X275.531 Y104.148
G01 X272.019 Y110.262
G01 X271.812 Y110.589
G01 X269.735 Y106.833
G01 X268.094 Y104.148
G01 X266.054 Y100.457
G01 X264.375 Y97.707
G01 X271.812 Y97.707
G01 X268.094 Y104.148
G01 X270.298 Y107.807
G01 X271.812 Y110.589
G01 X275.347 Y104.499
G01 X275.531 Y104.148
G01 X273.314 Y100.165
G01 X271.812 Y97.707
G01 X279.250 Y97.707
G01 X275.531 Y104.148
G01 X272.019 Y110.262
G01 X271.812 Y110.589
G01 X274.164 Y114.332
G01 X276.342 Y118.236
G01 X277.222 Y119.958
G01 X279.250 Y123.471
G01 X282.526 Y118.120
G01 X284.659 Y114.103
G01 X286.687 Y110.589
G01 X284.227 Y106.204
G01 X282.969 Y104.148
G01 X290.406 Y104.148
G01 X286.687 Y110.589
G01 X284.227 Y106.204
G01 X282.969 Y104.148
G01 X280.568 Y99.864
G01 X279.250 Y97.707
G01 X286.687 Y97.707
G01 X282.969 Y104.148
G01 X285.525 Y108.453
G01 X286.687 Y110.589
G01 X290.406 Y104.148
G01 X287.819 Y99.557
G01 X286.687 Y97.707
G01 X294.125 Y97.707
G01 X290.406 Y104.148
G01 X286.687 Y110.589
G01 X283.438 Y116.519
G01 X281.278 Y119.958
G01 X279.250 Y123.471
G01 X277.094 Y119.405
G01 X274.756 Y115.509
G01 X273.841 Y114.103
G01 X271.811 Y110.259
G01 X269.608 Y106.552
G01 X268.432 Y104.734
G01 X266.405 Y101.031
G01 X264.375 Y97.707
G01 X262.341 Y94.026
G01 X260.656 Y91.266
G01 X268.094 Y91.266
G01 X264.375 Y97.707
G01 X262.341 Y94.026
G01 X260.656 Y91.266
G01 X258.596 Y87.540
G01 X256.938 Y84.825
G01 X264.078 Y84.813
G01 X264.375 Y84.825
G01 X260.656 Y91.266
G01 X262.831 Y94.873
G01 X264.375 Y97.707
G01 X268.094 Y91.266
G01 X265.886 Y87.300
G01 X264.375 Y84.825
G01 X271.812 Y84.825
G01 X268.094 Y91.266
G01 X264.375 Y97.707
G01 X262.411 Y93.981
G01 X260.261 Y90.346
G01 X258.966 Y88.338
G01 X256.938 Y84.825
G01 X254.818 Y80.998
G01 X253.219 Y78.384
G01 X259.799 Y78.352
G01 X260.656 Y78.384
G01 X256.938 Y84.825
G01 X254.818 Y80.998
G01 X253.219 Y78.384
G01 X251.007 Y74.401
G01 X249.500 Y71.943
G01 X255.706 Y71.899
G01 X256.937 Y71.943
G01 X253.219 Y78.384
G01 X255.488 Y82.159
G01 X256.938 Y84.825
G01 X260.656 Y78.384
G01 X258.338 Y74.231
G01 X256.937 Y71.943
G01 X263.870 Y71.924
G01 X264.375 Y71.943
G01 X260.656 Y78.384
G01 X256.938 Y84.825
G01 X259.212 Y88.438
G01 X261.294 Y92.141
G01 X262.347 Y94.194
G01 X264.375 Y97.707
G01 X269.137 Y89.707
G01 X270.460 Y87.167
G01 X271.812 Y84.825
G01 X269.425 Y80.564
G01 X268.094 Y78.384
G01 X275.531 Y78.384
G01 X271.812 Y84.825
G01 X269.425 Y80.564
G01 X268.094 Y78.384
G01 X265.654 Y74.035
G01 X264.375 Y71.943
G01 X271.813 Y71.943
G01 X268.094 Y78.384
G01 X270.597 Y82.594
G01 X271.812 Y84.825
G01 X275.531 Y78.384
G01 X272.959 Y73.819
G01 X271.813 Y71.943
G01 X279.250 Y71.943
G01 X275.531 Y78.384
G01 X271.812 Y84.825
G01 X266.971 Y93.415
G01 X265.727 Y95.365
G01 X264.375 Y97.707
G01 X266.623 Y101.275
G01 X268.699 Y104.962
G01 X269.784 Y107.076
G01 X272.094 Y110.749
G01 X274.234 Y114.570
G01 X275.193 Y116.445
G01 X277.561 Y120.359
G01 X279.250 Y123.471
G01 X282.526 Y118.120
G01 X284.659 Y114.103
G01 X288.450 Y107.796
G01 X290.068 Y104.734
G01 X294.125 Y97.707
G01 X291.400 Y92.893
G01 X290.406 Y91.266
G01 X297.844 Y91.266
G01 X294.125 Y97.707
G01 X291.400 Y92.893
G01 X290.406 Y91.266
G01 X287.710 Y86.499
G01 X286.687 Y84.825
G01 X294.125 Y84.825
G01 X290.406 Y91.266
G01 X293.209 Y96.025
G01 X294.125 Y97.707
G01 X297.844 Y91.266
G01 X294.972 Y86.213
G01 X294.125 Y84.825
G01 X301.563 Y84.825
G01 X297.844 Y91.266
G01 X294.125 Y97.707
G01 X291.507 Y92.843
G01 X288.663 Y88.133
G01 X288.040 Y87.167
G01 X286.687 Y84.825
G01 X283.994 Y80.064
G01 X282.969 Y78.384
G01 X290.406 Y78.384
G01 X286.687 Y84.825
G01 X283.994 Y80.064
G01 X282.969 Y78.384
G01 X280.254 Y73.587
G01 X279.250 Y71.943
G01 X286.688 Y71.943
G01 X282.969 Y78.384
G01 X285.747 Y83.099
G01 X286.687 Y84.825
G01 X290.406 Y78.384
G01 X287.541 Y73.341
G01 X286.688 Y71.943
G01 X294.125 Y71.943
G01 X290.406 Y78.384
G01 X286.687 Y84.825
G01 X289.570 Y89.488
G01 X292.226 Y94.301
G01 X292.773 Y95.365
G01 X294.125 Y97.707
G01 X299.077 Y89.326
G01 X300.210 Y87.167
G01 X301.563 Y84.825
G01 X298.537 Y79.520
G01 X297.844 Y78.384
G01 X305.281 Y78.384
G01 X301.563 Y84.825
G01 X298.537 Y79.520
G01 X297.844 Y78.384
G01 X294.821 Y73.083
G01 X294.125 Y71.943
G01 X301.562 Y71.943
G01 X297.844 Y78.384
G01 X300.925 Y83.655
G01 X301.563 Y84.825
G01 X305.281 Y78.384
G01 X302.095 Y72.816
G01 X301.562 Y71.943
G01 X309.000 Y71.943
G01 X305.281 Y78.384
G01 X301.563 Y84.825
G01 X296.557 Y93.661
G01 X295.477 Y95.365
G01 X294.125 Y97.707
G01 X290.119 Y104.952
G01 X288.040 Y108.247
G01 X284.651 Y114.402
G01 X282.631 Y117.616
G01 X279.572 Y122.958
G01 X279.250 Y123.471
G01 X276.615 Y128.321
G01 X274.407 Y131.860
G01 X272.119 Y136.133
G01 X269.621 Y140.162
G01 X269.564 Y140.248
G01 X267.553 Y144.052
G01 X265.365 Y147.660
G01 X264.721 Y148.637
G01 X262.919 Y152.079
G01 X260.962 Y155.366
G01 X259.878 Y157.025
G01 X258.219 Y160.214
G01 X256.417 Y163.282
G01 X255.035 Y165.413
G01 X253.455 Y168.460
G01 X251.734 Y171.413
G01 X250.192 Y173.802
G01 X249.500 Y175.000
G01 X246.598 Y169.655
G01 X244.600 Y166.513
G01 X242.348 Y162.315
G01 X240.400 Y159.238
G01 X238.594 Y155.864
G01 X236.900 Y153.176
G01 X235.456 Y150.394
G01 X233.856 Y147.786
G01 X233.400 Y147.114
G01 X232.240 Y144.810
G01 X230.962 Y142.637
G01 X229.900 Y141.052
G01 X228.950 Y139.114
G01 X227.908 Y137.273
G01 X226.781 Y135.531
G01 X226.400 Y134.990
G01 X225.589 Y133.308
G01 X224.702 Y131.693
G01 X223.743 Y130.149
G01 X222.900 Y128.927
G01 X222.163 Y127.387
G01 X221.354 Y125.892
G01 X220.477 Y124.446
G01 X219.534 Y123.051
G01 X219.400 Y122.865
G01 X218.674 Y121.346
G01 X217.870 Y119.856
G01 X216.988 Y118.401
G01 X216.030 Y116.984
G01 X215.900 Y116.803
G01 X215.119 Y115.176
G01 X214.240 Y113.572
G01 X213.262 Y111.994
G01 X212.400 Y110.741
G01 X211.490 Y108.877
G01 X210.450 Y107.033
G01 X209.279 Y105.219
G01 X208.900 Y104.679
G01 X207.781 Y102.449
G01 X206.487 Y100.246
G01 X205.400 Y98.617
G01 X203.990 Y95.896
G01 X202.349 Y93.218
G01 X201.900 Y92.554
G01 X200.132 Y89.145
G01 X198.057 Y85.802
G01 X197.700 Y85.280
G01 X195.370 Y80.962
G01 X193.500 Y78.005
G01 X190.492 Y72.718
G01 X190.000 Y71.943
G01 X186.913 Y77.173
G01 X186.281 Y78.384
G01 X182.563 Y71.943
G01 X185.922 Y71.842
G01 X189.273 Y71.907
G01 X190.000 Y71.943
G01 X186.913 Y77.173
G01 X186.281 Y78.384
G01 X183.702 Y82.648
G01 X182.562 Y84.825
G01 X178.844 Y78.384
G01 X181.928 Y78.275
G01 X184.996 Y78.320
G01 X186.281 Y78.384
G01 X189.251 Y73.122
G01 X190.000 Y71.943
G01 X186.652 Y71.842
G01 X183.293 Y71.907
G01 X182.563 Y71.943
G01 X179.874 Y76.422
G01 X178.844 Y78.384
G01 X175.125 Y71.943
G01 X178.574 Y71.842
G01 X181.997 Y71.914
G01 X182.563 Y71.943
G01 X185.922 Y71.842
G01 X189.273 Y71.907
G01 X190.000 Y71.943
G01 X186.905 Y77.003
G01 X185.267 Y80.141
G01 X182.833 Y84.309
G01 X182.562 Y84.825
G01 X180.422 Y88.267
G01 X178.844 Y91.266
G01 X175.125 Y84.825
G01 X177.969 Y84.707
G01 X180.788 Y84.734
G01 X182.562 Y84.825
G01 X180.422 Y88.267
G01 X178.844 Y91.266
G01 X177.072 Y94.028
G01 X175.543 Y96.841
G01 X175.125 Y97.707
G01 X171.406 Y91.266
G01 X174.056 Y91.137
G01 X176.674 Y91.150
G01 X178.844 Y91.266
G01 X180.712 Y87.763
G01 X182.562 Y84.825
G01 X179.763 Y84.708
G01 X176.933 Y84.733
G01 X175.125 Y84.825
G01 X173.179 Y87.923
G01 X171.500 Y91.074
G01 X171.406 Y91.266
G01 X167.688 Y84.825
G01 X170.738 Y84.705
G01 X173.746 Y84.750
G01 X175.125 Y84.825
G01 X177.969 Y84.707
G01 X180.788 Y84.734
G01 X182.562 Y84.825
G01 X184.933 Y80.464
G01 X186.619 Y77.798
G01 X189.648 Y72.497
G01 X190.000 Y71.943
G01 X186.649 Y71.793
G01 X183.284 Y71.808
G01 X180.534 Y71.943
G01 X177.093 Y71.893
G01 X175.125 Y71.943
G01 X172.676 Y75.981
G01 X171.406 Y78.384
G01 X167.688 Y71.943
G01 X171.304 Y71.842
G01 X174.876 Y71.930
G01 X175.125 Y71.943
G01 X172.676 Y75.981
G01 X171.406 Y78.384
G01 X169.280 Y81.827
G01 X167.688 Y84.825
G01 X163.969 Y78.384
G01 X167.423 Y78.274
G01 X170.825 Y78.352
G01 X171.406 Y78.384
G01 X173.645 Y74.303
G01 X175.125 Y71.943
G01 X171.557 Y71.842
G01 X167.943 Y71.930
G01 X167.688 Y71.943
G01 X165.377 Y75.736
G01 X163.969 Y78.384
G01 X160.250 Y71.943
G01 X164.111 Y71.843
G01 X167.688 Y71.943
G01 X171.304 Y71.842
G01 X174.876 Y71.930
G01 X175.125 Y71.943
G01 X178.565 Y71.791
G01 X181.985 Y71.812
G01 X184.591 Y71.943
G01 X187.941 Y71.892
G01 X190.000 Y71.943
G01 X186.905 Y77.003
G01 X185.267 Y80.141
G01 X182.808 Y84.119
G01 X181.210 Y87.167
G01 X179.203 Y90.307
G01 X177.481 Y93.509
G01 X177.153 Y94.194
G01 X175.580 Y96.850
G01 X175.125 Y97.707
G01 X173.676 Y99.979
G01 X172.412 Y102.287
G01 X172.026 Y103.075
G01 X171.406 Y104.148
G01 X167.687 Y97.707
G01 X170.210 Y97.565
G01 X172.692 Y97.567
G01 X175.125 Y97.707
G01 X173.676 Y99.979
G01 X172.412 Y102.287
G01 X172.026 Y103.075
G01 X171.406 Y104.148
G01 X170.194 Y106.004
G01 X169.118 Y107.890
G01 X168.307 Y109.516
G01 X167.687 Y110.589
G01 X163.969 Y104.148
G01 X166.489 Y104.030
G01 X168.956 Y104.071
G01 X170.167 Y104.148
G01 X171.406 Y104.148
G01 X172.561 Y101.909
G01 X173.891 Y99.700
G01 X174.505 Y98.781
G01 X175.125 Y97.707
G01 X172.692 Y97.567
G01 X170.210 Y97.565
G01 X167.687 Y97.707
G01 X166.255 Y99.894
G01 X164.982 Y102.116
G01 X163.969 Y104.148
G01 X160.250 Y97.707
G01 X163.161 Y97.564
G01 X166.013 Y97.601
G01 X167.687 Y97.707
G01 X170.210 Y97.565
G01 X172.692 Y97.567
G01 X175.125 Y97.707
G01 X173.666 Y99.956
G01 X172.391 Y102.242
G01 X171.744 Y103.563
G01 X170.503 Y105.433
G01 X169.401 Y107.335
G01 X168.436 Y109.260
G01 X168.364 Y109.418
G01 X167.687 Y110.589
G01 X166.643 Y112.163
G01 X165.699 Y113.767
G01 X164.854 Y115.396
G01 X164.589 Y115.957
G01 X163.969 Y117.030
G01 X160.710 Y111.480
G01 X160.250 Y110.589
G01 X162.918 Y110.462
G01 X165.524 Y110.523
G01 X166.448 Y110.589
G01 X167.687 Y110.589
G01 X166.643 Y112.163
G01 X165.699 Y113.767
G01 X164.854 Y115.396
G01 X164.589 Y115.957
G01 X163.969 Y117.030
G01 X163.019 Y118.452
G01 X162.145 Y119.910
G01 X161.349 Y121.403
G01 X160.870 Y122.398
G01 X160.250 Y123.471
G01 X158.199 Y120.230
G01 X156.531 Y117.030
G01 X159.656 Y116.906
G01 X162.708 Y117.029
G01 X162.729 Y117.030
G01 X163.969 Y117.030
G01 X164.762 Y115.425
G01 X165.651 Y113.844
G01 X166.636 Y112.291
G01 X167.068 Y111.663
G01 X167.687 Y110.589
G01 X165.215 Y110.461
G01 X162.679 Y110.507
G01 X161.490 Y110.589
G01 X160.250 Y110.589
G01 X159.097 Y112.313
G01 X158.042 Y114.078
G01 X157.084 Y115.879
G01 X156.531 Y117.030
G01 X153.763 Y112.420
G01 X152.813 Y110.589
G01 X156.166 Y110.431
G01 X159.441 Y110.526
G01 X160.250 Y110.589
G01 X162.918 Y110.462
G01 X165.524 Y110.523
G01 X166.448 Y110.589
G01 X167.687 Y110.589
G01 X168.606 Y108.724
G01 X169.656 Y106.880
G01 X170.836 Y105.066
G01 X171.068 Y104.734
G01 X172.189 Y102.516
G01 X173.483 Y100.326
G01 X174.449 Y98.878
G01 X175.125 Y97.707
G01 X172.700 Y97.586
G01 X170.227 Y97.603
G01 X168.364 Y97.707
G01 X165.604 Y97.585
G01 X162.783 Y97.635
G01 X161.602 Y97.707
G01 X160.250 Y97.707
G01 X158.793 Y99.965
G01 X157.484 Y102.262
G01 X156.531 Y104.148
G01 X152.812 Y97.707
G01 X156.234 Y97.569
G01 X159.576 Y97.661
G01 X160.250 Y97.707
G01 X158.793 Y99.965
G01 X157.484 Y102.262
G01 X156.531 Y104.148
G01 X155.194 Y106.205
G01 X153.978 Y108.305
G01 X152.883 Y110.442
G01 X152.813 Y110.589
G01 X149.190 Y104.333
G01 X149.094 Y104.148
G01 X152.787 Y104.007
G01 X156.391 Y104.138
G01 X156.531 Y104.148
G01 X157.719 Y101.826
G01 X159.056 Y99.536
G01 X160.250 Y97.707
G01 X156.926 Y97.569
G01 X153.519 Y97.660
G01 X152.812 Y97.707
G01 X151.288 Y100.104
G01 X149.908 Y102.548
G01 X149.094 Y104.148
G01 X145.375 Y97.707
G01 X149.430 Y97.583
G01 X152.812 Y97.707
G01 X156.234 Y97.569
G01 X159.576 Y97.661
G01 X160.250 Y97.707
G01 X163.175 Y97.585
G01 X166.038 Y97.645
G01 X167.011 Y97.707
G01 X169.574 Y97.584
G01 X172.092 Y97.609
G01 X173.773 Y97.707
G01 X175.125 Y97.707
G01 X176.589 Y94.913
G01 X178.293 Y92.166
G01 X178.506 Y91.852
G01 X180.326 Y88.378
G01 X182.461 Y84.974
G01 X182.562 Y84.825
G01 X184.933 Y80.464
G01 X186.619 Y77.798
G01 X189.648 Y72.497
G01 X190.000 Y71.943
G01 X186.649 Y71.793
G01 X183.284 Y71.808
G01 X180.534 Y71.943
G01 X177.074 Y71.791
G01 X173.576 Y71.815
G01 X171.068 Y71.943
G01 X167.365 Y71.788
G01 X163.601 Y71.835
G01 X161.602 Y71.943
G01 X160.250 Y71.943
G01 X158.008 Y75.622
G01 X156.531 Y78.384
G01 X152.813 Y71.943
G01 X156.994 Y71.847
G01 X160.250 Y71.943
G01 X158.008 Y75.622
G01 X156.531 Y78.384
G01 X154.506 Y81.674
G01 X152.813 Y84.825
G01 X149.094 Y78.384
G01 X153.256 Y78.281
G01 X156.531 Y78.384
G01 X158.560 Y74.666
G01 X160.250 Y71.943
G01 X156.132 Y71.846
G01 X152.813 Y71.943
G01 X150.589 Y75.601
G01 X149.094 Y78.384
G01 X145.375 Y71.943
G01 X149.954 Y71.853
G01 X152.813 Y71.943
G01 X156.994 Y71.847
G01 X160.250 Y71.943
G01 X157.973 Y75.550
G01 X155.976 Y79.212
G01 X155.517 Y80.141
G01 X153.581 Y83.396
G01 X152.813 Y84.825
G01 X150.963 Y87.804
G01 X149.314 Y90.828
G01 X149.094 Y91.266
G01 X145.375 Y84.825
G01 X149.609 Y84.718
G01 X152.813 Y84.825
G01 X150.963 Y87.804
G01 X149.314 Y90.828
G01 X149.094 Y91.266
G01 X147.380 Y94.010
G01 X145.835 Y96.802
G01 X145.375 Y97.707
G01 X141.656 Y91.266
G01 X146.088 Y91.158
G01 X149.094 Y91.266
G01 X150.713 Y88.236
G01 X152.534 Y85.250
G01 X152.813 Y84.825
G01 X148.655 Y84.717
G01 X145.375 Y84.825
G01 X143.470 Y87.919
G01 X141.759 Y91.064
G01 X141.656 Y91.266
G01 X137.938 Y84.825
G01 X142.755 Y84.732
G01 X145.375 Y84.825
G01 X149.609 Y84.718
G01 X152.813 Y84.825
G01 X154.576 Y81.432
G01 X156.584 Y78.082
G01 X157.545 Y76.627
G01 X159.679 Y72.863
G01 X160.250 Y71.943
G01 X156.103 Y71.788
G01 X151.871 Y71.879
G01 X150.784 Y71.943
G01 X146.185 Y71.918
G01 X145.375 Y71.943
G01 X143.133 Y75.647
G01 X141.656 Y78.384
G01 X137.938 Y71.943
G01 X142.991 Y71.864
G01 X145.375 Y71.943
G01 X143.133 Y75.647
G01 X141.656 Y78.384
G01 X139.559 Y81.831
G01 X137.938 Y84.825
G01 X134.219 Y78.384
G01 X139.428 Y78.306
G01 X141.656 Y78.384
G01 X143.714 Y74.640
G01 X145.375 Y71.943
G01 X140.377 Y71.864
G01 X137.938 Y71.943
G01 X135.647 Y75.745
G01 X134.219 Y78.384
G01 X130.500 Y71.943
G01 X136.106 Y71.879
G01 X137.938 Y71.943
G01 X142.991 Y71.864
G01 X145.375 Y71.943
G01 X149.917 Y71.790
G01 X154.363 Y71.913
G01 X154.841 Y71.943
G01 X158.955 Y71.905
G01 X160.250 Y71.943
G01 X164.089 Y71.787
G01 X167.871 Y71.841
G01 X169.716 Y71.943
G01 X173.266 Y71.789
G01 X176.782 Y71.818
G01 X179.182 Y71.943
G01 X182.567 Y71.792
G01 X185.940 Y71.809
G01 X188.648 Y71.943
G01 X190.000 Y71.943
G01 X186.904 Y76.984
G01 X185.157 Y80.331
G01 X182.710 Y84.272
G01 X181.006 Y87.521
G01 X179.034 Y90.691
G01 X177.547 Y93.513
G01 X175.896 Y96.095
G01 X174.467 Y98.722
G01 X174.087 Y99.505
G01 X172.699 Y101.620
G01 X171.478 Y103.770
G01 X170.628 Y105.496
G01 X169.444 Y107.262
G01 X168.385 Y109.058
G01 X167.452 Y110.878
G01 X167.169 Y111.488
G01 X166.129 Y113.018
G01 X165.183 Y114.579
G01 X164.332 Y116.168
G01 X163.709 Y117.480
G01 X162.749 Y118.884
G01 X161.862 Y120.329
G01 X161.052 Y121.809
G01 X160.318 Y123.321
G01 X160.250 Y123.471
G01 X159.313 Y124.871
G01 X158.442 Y126.324
G01 X157.640 Y127.825
G01 X157.151 Y128.839
G01 X156.531 Y129.913
G01 X155.019 Y127.554
G01 X153.662 Y125.024
G01 X153.432 Y124.545
G01 X152.813 Y123.471
G01 X156.953 Y123.324
G01 X160.250 Y123.471
G01 X159.313 Y124.871
G01 X158.442 Y126.324
G01 X157.640 Y127.825
G01 X157.151 Y128.839
G01 X156.531 Y129.913
G01 X155.522 Y131.429
G01 X154.581 Y133.020
G01 X153.716 Y134.684
G01 X153.432 Y135.280
G01 X152.813 Y136.354
G01 X151.482 Y134.303
G01 X150.267 Y132.115
G01 X149.714 Y130.986
G01 X149.094 Y129.913
G01 X156.259 Y129.900
G01 X156.531 Y129.913
G01 X157.295 Y128.364
G01 X158.130 Y126.866
G01 X159.032 Y125.421
G01 X159.630 Y124.545
G01 X160.250 Y123.471
G01 X156.175 Y123.324
G01 X152.813 Y123.471
G01 X151.674 Y125.172
G01 X150.613 Y126.945
G01 X149.635 Y128.786
G01 X149.094 Y129.913
G01 X147.366 Y127.238
G01 X145.808 Y124.370
G01 X145.375 Y123.471
G01 X151.138 Y123.395
G01 X152.813 Y123.471
G01 X156.953 Y123.324
G01 X160.250 Y123.471
G01 X159.300 Y124.865
G01 X158.416 Y126.312
G01 X157.601 Y127.810
G01 X156.869 Y129.327
G01 X155.855 Y130.823
G01 X154.909 Y132.393
G01 X154.035 Y134.034
G01 X153.489 Y135.183
G01 X152.813 Y136.354
G01 X151.646 Y138.132
G01 X150.567 Y140.017
G01 X149.714 Y141.721
G01 X149.094 Y142.795
G01 X147.813 Y140.807
G01 X146.631 Y138.700
G01 X145.995 Y137.427
G01 X145.375 Y136.354
G01 X152.813 Y136.354
G01 X151.646 Y138.132
G01 X150.567 Y140.017
G01 X149.714 Y141.721
G01 X149.094 Y142.795
G01 X147.641 Y144.992
G01 X146.309 Y147.338
G01 X145.375 Y149.236
G01 X144.030 Y147.183
G01 X142.781 Y145.020
G01 X141.656 Y142.795
G01 X149.094 Y142.795
G01 X150.126 Y140.763
G01 X151.256 Y138.839
G01 X152.193 Y137.427
G01 X152.813 Y136.354
G01 X145.375 Y136.354
G01 X143.964 Y138.506
G01 X142.659 Y140.788
G01 X141.656 Y142.795
G01 X140.130 Y140.432
G01 X138.722 Y137.926
G01 X137.938 Y136.354
G01 X145.375 Y136.354
G01 X152.813 Y136.354
G01 X153.656 Y134.625
G01 X154.578 Y132.970
G01 X155.573 Y131.392
G01 X156.193 Y130.498
G01 X156.949 Y128.934
G01 X157.776 Y127.421
G01 X158.672 Y125.962
G01 X159.574 Y124.643
G01 X160.250 Y123.471
G01 X156.230 Y123.351
G01 X153.489 Y123.471
G01 X147.850 Y123.359
G01 X145.375 Y123.471
G01 X144.053 Y125.503
G01 X142.824 Y127.625
G01 X141.695 Y129.832
G01 X141.656 Y129.913
G01 X139.763 Y126.915
G01 X138.053 Y123.710
G01 X137.938 Y123.471
G01 X145.375 Y123.471
G01 X144.053 Y125.503
G01 X142.824 Y127.625
G01 X141.695 Y129.832
G01 X141.656 Y129.913
G01 X140.218 Y132.139
G01 X138.884 Y134.482
G01 X137.938 Y136.354
G01 X136.168 Y133.563
G01 X134.553 Y130.591
G01 X134.219 Y129.913
G01 X141.656 Y129.913
G01 X142.782 Y127.702
G01 X144.008 Y125.577
G01 X145.326 Y123.542
G01 X145.375 Y123.471
G01 X137.938 Y123.471
G01 X136.427 Y125.845
G01 X135.027 Y128.327
G01 X134.219 Y129.913
G01 X132.149 Y126.577
G01 X130.500 Y123.471
G01 X137.938 Y123.471
G01 X145.375 Y123.471
G01 X151.056 Y123.360
G01 X153.489 Y123.471
G01 X157.562 Y123.352
G01 X160.250 Y123.471
G01 X159.300 Y124.865
G01 X158.416 Y126.312
G01 X157.601 Y127.810
G01 X156.869 Y129.327
G01 X155.855 Y130.823
G01 X154.909 Y132.393
G01 X154.035 Y134.034
G01 X153.489 Y135.183
G01 X152.338 Y136.901
G01 X151.271 Y138.721
G01 X150.294 Y140.638
G01 X150.108 Y141.038
G01 X148.756 Y143.103
G01 X147.513 Y145.304
G01 X146.727 Y146.894
G01 X145.375 Y149.236
G01 X143.603 Y152.004
G01 X142.000 Y154.967
G01 X141.656 Y155.677
G01 X140.240 Y153.477
G01 X138.926 Y151.175
G01 X137.937 Y149.236
G01 X145.375 Y149.236
G01 X143.603 Y152.004
G01 X142.000 Y154.967
G01 X141.656 Y155.677
G01 X139.493 Y159.165
G01 X137.937 Y162.118
G01 X136.419 Y159.719
G01 X135.011 Y157.225
G01 X134.219 Y155.677
G01 X141.656 Y155.677
G01 X143.218 Y152.670
G01 X144.952 Y149.856
G01 X145.375 Y149.236
G01 X137.937 Y149.236
G01 X135.989 Y152.342
G01 X134.226 Y155.661
G01 X134.219 Y155.677
G01 X132.611 Y153.128
G01 X131.122 Y150.459
G01 X130.500 Y149.236
G01 X137.937 Y149.236
G01 X145.375 Y149.236
G01 X143.635 Y151.996
G01 X142.064 Y154.947
G01 X141.994 Y155.091
G01 X139.833 Y158.521
G01 X137.937 Y162.118
G01 X135.313 Y166.472
G01 X134.219 Y168.559
G01 X132.575 Y165.927
G01 X131.057 Y163.203
G01 X130.500 Y162.118
G01 X137.937 Y162.118
G01 X135.313 Y166.472
G01 X134.219 Y168.559
G01 X131.062 Y173.924
G01 X130.500 Y175.000
G01 X128.717 Y172.110
G01 X127.074 Y169.130
G01 X126.781 Y168.559
G01 X134.219 Y168.559
G01 X136.704 Y164.063
G01 X137.937 Y162.118
G01 X130.500 Y162.118
G01 X127.771 Y166.677
G01 X126.781 Y168.559
G01 X124.967 Y165.615
G01 X123.290 Y162.562
G01 X123.062 Y162.118
G01 X130.500 Y162.118
G01 X137.937 Y162.118
G01 X139.876 Y158.447
G01 X141.994 Y155.091
G01 X143.557 Y152.131
G01 X145.289 Y149.362
G01 X145.375 Y149.236
G01 X131.852 Y149.236
G01 X130.500 Y149.236
G01 X128.369 Y152.691
G01 X126.781 Y155.677
G01 X124.980 Y152.774
G01 X123.314 Y149.731
G01 X123.063 Y149.236
G01 X130.500 Y149.236
G01 X128.369 Y152.691
G01 X126.781 Y155.677
G01 X124.312 Y159.757
G01 X123.062 Y162.118
G01 X121.177 Y159.051
G01 X119.433 Y155.851
G01 X119.344 Y155.677
G01 X126.781 Y155.677
G01 X128.749 Y152.033
G01 X130.500 Y149.236
G01 X123.063 Y149.236
G01 X120.744 Y153.046
G01 X119.344 Y155.677
G01 X117.347 Y152.415
G01 X115.625 Y149.236
G01 X123.063 Y149.236
G01 X130.500 Y149.236
G01 X144.023 Y149.236
G01 X145.375 Y149.236
G01 X146.636 Y146.775
G01 X148.027 Y144.462
G01 X148.756 Y143.380
G01 X149.787 Y141.315
G01 X150.918 Y139.359
G01 X152.136 Y137.525
G01 X153.005 Y135.750
G01 X153.954 Y134.055
G01 X154.979 Y132.442
G01 X155.517 Y131.669
G01 X156.286 Y130.081
G01 X157.126 Y128.548
G01 X158.035 Y127.073
G01 X158.898 Y125.814
G01 X159.715 Y124.348
G01 X160.250 Y123.471
G01 X156.230 Y123.351
G01 X153.489 Y123.471
G01 X147.710 Y123.304
G01 X144.023 Y123.471
G01 X135.460 Y123.367
G01 X133.205 Y123.471
G01 X130.500 Y123.471
G01 X128.798 Y126.194
G01 X127.223 Y129.044
G01 X126.781 Y129.913
G01 X124.528 Y126.229
G01 X123.062 Y123.471
G01 X130.500 Y123.471
G01 X128.798 Y126.194
G01 X127.223 Y129.044
G01 X126.781 Y129.913
G01 X124.944 Y132.871
G01 X123.248 Y135.986
G01 X123.063 Y136.354
G01 X120.900 Y132.822
G01 X119.344 Y129.913
G01 X126.781 Y129.913
G01 X128.318 Y127.026
G01 X129.983 Y124.265
G01 X130.500 Y123.471
G01 X123.062 Y123.471
G01 X121.167 Y126.548
G01 X119.415 Y129.772
G01 X119.344 Y129.913
G01 X116.904 Y125.874
G01 X115.625 Y123.471
G01 X123.062 Y123.471
G01 X130.500 Y123.471
G01 X128.780 Y126.190
G01 X127.186 Y129.037
G01 X126.443 Y130.498
G01 X124.612 Y133.484
G01 X123.063 Y136.354
G01 X121.044 Y139.632
G01 X119.344 Y142.795
G01 X117.211 Y139.304
G01 X115.625 Y136.354
G01 X123.063 Y136.354
G01 X121.044 Y139.632
G01 X119.344 Y142.795
G01 X117.101 Y146.477
G01 X115.625 Y149.236
G01 X113.478 Y145.708
G01 X111.906 Y142.795
G01 X119.344 Y142.795
G01 X121.212 Y139.343
G01 X123.063 Y136.354
G01 X115.625 Y136.354
G01 X113.405 Y140.008
G01 X111.906 Y142.795
G01 X109.571 Y138.929
G01 X108.187 Y136.354
G01 X115.625 Y136.354
G01 X123.063 Y136.354
G01 X124.720 Y133.219
G01 X126.521 Y130.238
G01 X127.119 Y129.327
G01 X128.664 Y126.463
G01 X130.335 Y123.724
G01 X130.500 Y123.471
G01 X116.977 Y123.471
G01 X115.625 Y123.471
G01 X113.534 Y126.906
G01 X111.906 Y129.913
G01 X109.276 Y125.515
G01 X108.188 Y123.471
G01 X115.625 Y123.471
G01 X113.534 Y126.906
G01 X111.906 Y129.913
G01 X109.668 Y133.610
G01 X108.187 Y136.354
G01 X105.627 Y132.077
G01 X104.469 Y129.913
G01 X111.906 Y129.913
G01 X113.863 Y126.338
G01 X115.625 Y123.471
G01 X108.188 Y123.471
G01 X105.900 Y127.267
G01 X104.469 Y129.913
G01 X101.646 Y125.153
G01 X100.750 Y123.471
G01 X108.188 Y123.471
G01 X115.625 Y123.471
G01 X129.148 Y123.471
G01 X130.500 Y123.471
G01 X139.934 Y123.406
G01 X141.318 Y123.471
G01 X147.836 Y123.335
G01 X150.784 Y123.471
G01 X155.265 Y123.308
G01 X158.898 Y123.471
G01 X160.250 Y123.471
G01 X160.976 Y121.956
G01 X161.779 Y120.473
G01 X162.658 Y119.025
G01 X163.611 Y117.616
G01 X163.709 Y117.480
G01 X164.482 Y115.873
G01 X165.351 Y114.289
G01 X166.314 Y112.732
G01 X167.169 Y111.488
G01 X168.060 Y109.662
G01 X169.077 Y107.857
G01 X170.219 Y106.081
G01 X170.628 Y105.496
G01 X171.715 Y103.326
G01 X172.970 Y101.182
G01 X174.087 Y99.505
G01 X175.451 Y96.867
G01 X177.036 Y94.270
G01 X177.547 Y93.513
G01 X179.250 Y90.216
G01 X181.249 Y86.980
G01 X181.698 Y86.323
G01 X183.940 Y82.152
G01 X185.849 Y79.133
G01 X188.744 Y73.922
G01 X190.000 Y71.943
G01 X186.649 Y71.787
G01 X183.283 Y71.797
G01 X180.314 Y71.943
G01 X176.848 Y71.785
G01 X173.344 Y71.805
G01 X170.628 Y71.943
G01 X166.908 Y71.782
G01 X163.126 Y71.825
G01 X160.942 Y71.943
G01 X156.825 Y71.781
G01 X152.625 Y71.863
G01 X151.256 Y71.943
G01 X146.601 Y71.785
G01 X141.841 Y71.926
G01 X141.570 Y71.943
G01 X136.236 Y71.797
G01 X131.884 Y71.943
G01 X130.500 Y71.943
G01 X128.138 Y75.883
G01 X126.781 Y78.384
G01 X123.062 Y71.943
G01 X129.298 Y71.899
G01 X130.500 Y71.943
G01 X128.138 Y75.883
G01 X126.781 Y78.384
G01 X124.512 Y82.159
G01 X123.062 Y84.825
G01 X119.344 Y78.384
G01 X125.944 Y78.352
G01 X126.781 Y78.384
G01 X128.993 Y74.401
G01 X130.500 Y71.943
G01 X124.294 Y71.899
G01 X123.062 Y71.943
G01 X120.610 Y76.053
G01 X119.344 Y78.384
G01 X115.625 Y71.943
G01 X122.569 Y71.924
G01 X123.062 Y71.943
G01 X129.298 Y71.899
G01 X130.500 Y71.943
G01 X128.073 Y75.816
G01 X125.880 Y79.760
G01 X125.091 Y81.312
G01 X123.062 Y84.825
G01 X120.856 Y88.489
G01 X119.344 Y91.266
G01 X115.625 Y84.825
G01 X122.772 Y84.813
G01 X123.062 Y84.825
G01 X120.856 Y88.489
G01 X119.344 Y91.266
G01 X117.169 Y94.873
G01 X115.625 Y97.707
G01 X111.906 Y91.266
G01 X119.344 Y91.266
G01 X121.404 Y87.540
G01 X123.062 Y84.825
G01 X115.922 Y84.813
G01 X115.625 Y84.825
G01 X113.289 Y88.729
G01 X111.906 Y91.266
G01 X108.188 Y84.825
G01 X115.625 Y84.825
G01 X122.772 Y84.813
G01 X123.062 Y84.825
G01 X125.116 Y80.939
G01 X127.392 Y77.123
G01 X128.472 Y75.456
G01 X130.500 Y71.943
G01 X124.181 Y71.782
G01 X119.682 Y71.943
G01 X115.625 Y71.943
G01 X113.068 Y76.248
G01 X111.906 Y78.384
G01 X108.187 Y71.943
G01 X115.625 Y71.943
G01 X113.068 Y76.248
G01 X111.906 Y78.384
G01 X109.403 Y82.594
G01 X108.188 Y84.825
G01 X104.469 Y78.384
G01 X111.906 Y78.384
G01 X114.346 Y74.035
G01 X115.625 Y71.943
G01 X108.187 Y71.943
G01 X105.513 Y76.465
G01 X104.469 Y78.384
G01 X100.750 Y71.943
G01 X108.187 Y71.943
G01 X115.625 Y71.943
G01 X122.440 Y71.793
G01 X126.443 Y71.943
G01 X130.500 Y71.943
G01 X128.073 Y75.816
G01 X125.880 Y79.760
G01 X125.091 Y81.312
G01 X122.787 Y84.975
G01 X120.685 Y88.721
G01 X119.682 Y90.681
G01 X117.492 Y94.282
G01 X115.625 Y97.707
G01 X113.452 Y101.313
G01 X111.906 Y104.148
G01 X108.188 Y97.707
G01 X115.625 Y97.707
G01 X113.452 Y101.313
G01 X111.906 Y104.148
G01 X109.702 Y107.807
G01 X108.188 Y110.589
G01 X104.653 Y104.499
G01 X104.469 Y104.148
G01 X111.906 Y104.148
G01 X113.946 Y100.457
G01 X115.625 Y97.707
G01 X108.188 Y97.707
G01 X105.852 Y101.609
G01 X104.469 Y104.148
G01 X100.750 Y97.707
G01 X108.188 Y97.707
G01 X115.625 Y97.707
G01 X113.377 Y101.275
G01 X111.301 Y104.962
G01 X110.216 Y107.076
G01 X108.188 Y110.589
G01 X105.922 Y114.358
G01 X104.469 Y117.030
G01 X101.182 Y111.407
G01 X100.750 Y110.589
G01 X108.188 Y110.589
G01 X105.922 Y114.358
G01 X104.469 Y117.030
G01 X102.109 Y120.966
G01 X100.750 Y123.471
G01 X97.630 Y118.157
G01 X97.031 Y117.030
G01 X104.469 Y117.030
G01 X106.616 Y113.156
G01 X108.188 Y110.589
G01 X100.750 Y110.589
G01 X98.299 Y114.696
G01 X97.031 Y117.030
G01 X93.577 Y111.089
G01 X93.313 Y110.589
G01 X100.750 Y110.589
G01 X108.188 Y110.589
G01 X110.186 Y106.801
G01 X112.359 Y103.137
G01 X113.597 Y101.221
G01 X115.625 Y97.707
G01 X106.091 Y97.593
G01 X103.455 Y97.707
G01 X100.750 Y97.707
G01 X98.247 Y101.915
G01 X97.031 Y104.148
G01 X93.313 Y97.707
G01 X100.750 Y97.707
G01 X98.247 Y101.915
G01 X97.031 Y104.148
G01 X94.475 Y108.453
G01 X93.313 Y110.589
G01 X89.594 Y104.148
G01 X97.031 Y104.148
G01 X99.432 Y99.864
G01 X100.750 Y97.707
G01 X93.313 Y97.707
G01 X90.638 Y102.230
G01 X89.594 Y104.148
G01 X85.875 Y97.707
G01 X93.313 Y97.707
G01 X100.750 Y97.707
G01 X110.844 Y97.615
G01 X112.920 Y97.707
G01 X115.625 Y97.707
G01 X117.589 Y93.981
G01 X119.739 Y90.346
G01 X121.034 Y88.338
G01 X123.051 Y84.518
G01 X125.277 Y80.773
G01 X126.443 Y78.970
G01 X128.632 Y74.990
G01 X130.500 Y71.943
G01 X124.181 Y71.782
G01 X119.682 Y71.943
G01 X112.254 Y71.815
G01 X108.864 Y71.943
G01 X100.750 Y71.943
G01 X97.949 Y76.700
G01 X97.031 Y78.384
G01 X93.312 Y71.943
G01 X100.750 Y71.943
G01 X97.949 Y76.700
G01 X97.031 Y78.384
G01 X94.253 Y83.099
G01 X93.313 Y84.825
G01 X89.594 Y78.384
G01 X97.031 Y78.384
G01 X99.746 Y73.587
G01 X100.750 Y71.943
G01 X93.312 Y71.943
G01 X90.375 Y76.950
G01 X89.594 Y78.384
G01 X85.875 Y71.943
G01 X93.312 Y71.943
G01 X100.750 Y71.943
G01 X97.852 Y76.634
G01 X95.198 Y81.444
G01 X94.665 Y82.483
G01 X93.313 Y84.825
G01 X90.534 Y89.541
G01 X89.594 Y91.266
G01 X85.875 Y84.825
G01 X93.313 Y84.825
G01 X90.534 Y89.541
G01 X89.594 Y91.266
G01 X86.791 Y96.025
G01 X85.875 Y97.707
G01 X82.156 Y91.266
G01 X89.594 Y91.266
G01 X92.290 Y86.499
G01 X93.313 Y84.825
G01 X85.875 Y84.825
G01 X82.937 Y89.834
G01 X82.156 Y91.266
G01 X78.437 Y84.825
G01 X85.875 Y84.825
G01 X93.313 Y84.825
G01 X95.907 Y80.001
G01 X98.743 Y75.300
G01 X99.398 Y74.285
G01 X100.750 Y71.943
G01 X90.894 Y71.849
G01 X88.580 Y71.943
G01 X85.875 Y71.943
G01 X82.795 Y77.212
G01 X82.156 Y78.384
G01 X78.437 Y71.943
G01 X85.875 Y71.943
G01 X82.795 Y77.212
G01 X82.156 Y78.384
G01 X79.075 Y83.655
G01 X78.437 Y84.825
G01 X74.719 Y78.384
G01 X82.156 Y78.384
G01 X85.179 Y73.083
G01 X85.875 Y71.943
G01 X78.437 Y71.943
G01 X75.208 Y77.486
G01 X74.719 Y78.384
G01 X71.000 Y71.943
G01 X78.437 Y71.943
G01 X85.875 Y71.943
G01 X96.156 Y71.865
G01 X98.045 Y71.943
G01 X100.750 Y71.943
G01 X109.114 Y71.792
G01 X112.920 Y71.943
G01 X120.005 Y71.802
G01 X123.739 Y71.943
G01 X129.936 Y71.923
G01 X130.500 Y71.943
G01 X136.043 Y71.800
G01 X140.186 Y71.943
G01 X145.039 Y71.787
G01 X149.785 Y71.937
G01 X149.872 Y71.943
G01 X154.166 Y71.781
G01 X158.377 Y71.872
G01 X159.558 Y71.943
G01 X163.421 Y71.781
G01 X167.225 Y71.831
G01 X169.244 Y71.943
G01 X172.804 Y71.784
G01 X176.330 Y71.808
G01 X178.930 Y71.943
G01 X182.317 Y71.787
G01 X185.693 Y71.798
G01 X188.616 Y71.943
G01 X190.000 Y71.943
G01 X190.000 Y140.000

