;  Created by Sandify
;  https://sandify.org
;  Version: 0.2.4
;
;  Machine type: Rectangular
;    Min X (mm): 0
;    Max X (mm): 380
;    Min Y (mm): 0
;    Max Y (mm): 280
;  Content type: shape
;  Layer:
;    Shape: FileImport
;    Name: Spiral1.thr
;    From file:: Spiral1.thr
;    Aspect Ratio: true
;    Comments: 
;    Visible: true
;    Initial width: 10
;    Initial height: 10
;    X offset: 0
;    Y offset: 0
;    Rotate (degrees): 0
;    Reverse path: false
;    Fine tuning:
;      Connect to next layer: line
;      Draw portion of path (%): 100
;      Backtrack at end (%): 0
;      Rotate starting point (%): 0
;  Reverse export path: false
;
; File name: 'Spiral1'
;

G01 X190.000 Y140.000
G01 X190.000 Y140.007
G01 X190.001 Y140.014
G01 X190.003 Y140.020
G01 X190.005 Y140.027
G01 X190.008 Y140.034
G01 X190.012 Y140.040
G01 X190.016 Y140.046
G01 X190.021 Y140.051
G01 X190.027 Y140.056
G01 X190.033 Y140.061
G01 X190.039 Y140.065
G01 X190.046 Y140.069
G01 X190.053 Y140.072
G01 X190.061 Y140.075
G01 X190.070 Y140.077
G01 X190.078 Y140.078
G01 X190.087 Y140.079
G01 X190.096 Y140.079
G01 X190.105 Y140.078
G01 X190.115 Y140.077
G01 X190.117 Y140.076
G01 X190.136 Y140.079
G01 X190.155 Y140.080
G01 X190.174 Y140.079
G01 X190.193 Y140.077
G01 X190.213 Y140.073
G01 X190.233 Y140.067
G01 X190.252 Y140.060
G01 X190.272 Y140.050
G01 X190.291 Y140.039
G01 X190.309 Y140.026
G01 X190.327 Y140.012
G01 X190.345 Y139.995
G01 X190.361 Y139.978
G01 X190.373 Y139.962
G01 X190.389 Y139.941
G01 X190.403 Y139.919
G01 X190.416 Y139.895
G01 X190.427 Y139.869
G01 X190.437 Y139.842
G01 X190.445 Y139.814
G01 X190.452 Y139.785
G01 X190.457 Y139.755
G01 X190.459 Y139.723
G01 X190.460 Y139.691
G01 X190.459 Y139.658
G01 X190.455 Y139.625
G01 X190.449 Y139.591
G01 X190.441 Y139.557
G01 X190.439 Y139.548
G01 X190.425 Y139.517
G01 X190.409 Y139.486
G01 X190.391 Y139.456
G01 X190.370 Y139.427
G01 X190.348 Y139.398
G01 X190.324 Y139.370
G01 X190.299 Y139.343
G01 X190.271 Y139.317
G01 X190.241 Y139.292
G01 X190.210 Y139.269
G01 X190.177 Y139.247
G01 X190.142 Y139.226
G01 X190.105 Y139.207
G01 X190.067 Y139.190
G01 X190.028 Y139.175
G01 X190.023 Y139.173
G01 X189.982 Y139.167
G01 X189.941 Y139.164
G01 X189.899 Y139.162
G01 X189.857 Y139.163
G01 X189.815 Y139.165
G01 X189.773 Y139.170
G01 X189.731 Y139.177
G01 X189.689 Y139.186
G01 X189.647 Y139.197
G01 X189.606 Y139.211
G01 X189.565 Y139.226
G01 X189.524 Y139.244
G01 X189.485 Y139.264
G01 X189.446 Y139.286
G01 X189.408 Y139.309
G01 X189.371 Y139.335
G01 X189.347 Y139.354
G01 X189.315 Y139.387
G01 X189.286 Y139.421
G01 X189.258 Y139.456
G01 X189.232 Y139.493
G01 X189.208 Y139.531
G01 X189.185 Y139.570
G01 X189.165 Y139.611
G01 X189.146 Y139.652
G01 X189.130 Y139.694
G01 X189.116 Y139.737
G01 X189.104 Y139.781
G01 X189.094 Y139.825
G01 X189.086 Y139.870
G01 X189.080 Y139.915
G01 X189.077 Y139.960
G01 X189.075 Y140.005
G01 X189.077 Y140.051
G01 X189.080 Y140.096
G01 X189.085 Y140.141
G01 X189.087 Y140.153
G01 X189.094 Y140.198
G01 X189.103 Y140.242
G01 X189.115 Y140.287
G01 X189.128 Y140.330
G01 X189.144 Y140.373
G01 X189.162 Y140.416
G01 X189.182 Y140.457
G01 X189.204 Y140.497
G01 X189.228 Y140.537
G01 X189.254 Y140.575
G01 X189.282 Y140.612
G01 X189.312 Y140.647
G01 X189.343 Y140.682
G01 X189.377 Y140.714
G01 X189.411 Y140.745
G01 X189.448 Y140.775
G01 X189.485 Y140.802
G01 X189.525 Y140.828
G01 X189.565 Y140.851
G01 X189.607 Y140.873
G01 X189.649 Y140.893
G01 X189.693 Y140.911
G01 X189.704 Y140.914
G01 X189.747 Y140.936
G01 X189.791 Y140.955
G01 X189.837 Y140.972
G01 X189.884 Y140.986
G01 X189.932 Y140.999
G01 X189.981 Y141.009
G01 X190.031 Y141.017
G01 X190.081 Y141.022
G01 X190.132 Y141.025
G01 X190.184 Y141.025
G01 X190.236 Y141.022
G01 X190.288 Y141.017
G01 X190.340 Y141.009
G01 X190.392 Y140.999
G01 X190.444 Y140.986
G01 X190.495 Y140.970
G01 X190.546 Y140.951
G01 X190.597 Y140.930
G01 X190.646 Y140.906
G01 X190.695 Y140.880
G01 X190.742 Y140.851
G01 X190.789 Y140.819
G01 X190.818 Y140.797
G01 X190.866 Y140.766
G01 X190.914 Y140.731
G01 X190.960 Y140.693
G01 X191.004 Y140.653
G01 X191.047 Y140.610
G01 X191.088 Y140.564
G01 X191.127 Y140.516
G01 X191.164 Y140.465
G01 X191.199 Y140.412
G01 X191.231 Y140.357
G01 X191.261 Y140.299
G01 X191.288 Y140.239
G01 X191.312 Y140.178
G01 X191.333 Y140.114
G01 X191.351 Y140.049
G01 X191.365 Y139.983
G01 X191.377 Y139.915
G01 X191.385 Y139.846
G01 X191.389 Y139.776
G01 X191.390 Y139.705
G01 X191.390 Y139.675
G01 X191.385 Y139.603
G01 X191.377 Y139.531
G01 X191.365 Y139.459
G01 X191.350 Y139.387
G01 X191.330 Y139.315
G01 X191.307 Y139.244
G01 X191.280 Y139.173
G01 X191.249 Y139.103
G01 X191.214 Y139.035
G01 X191.176 Y138.967
G01 X191.134 Y138.901
G01 X191.088 Y138.837
G01 X191.038 Y138.774
G01 X190.985 Y138.714
G01 X190.929 Y138.656
G01 X190.869 Y138.600
G01 X190.806 Y138.547
G01 X190.740 Y138.497
G01 X190.690 Y138.462
G01 X190.609 Y138.441
G01 X190.529 Y138.423
G01 X190.448 Y138.409
G01 X190.367 Y138.400
G01 X190.286 Y138.395
G01 X190.205 Y138.394
G01 X190.125 Y138.396
G01 X190.046 Y138.403
G01 X189.968 Y138.414
G01 X189.921 Y138.422
G01 X189.841 Y138.400
G01 X189.758 Y138.382
G01 X189.674 Y138.368
G01 X189.587 Y138.359
G01 X189.499 Y138.354
G01 X189.409 Y138.355
G01 X189.318 Y138.360
G01 X189.227 Y138.370
G01 X189.152 Y138.382
G01 X189.083 Y138.442
G01 X189.019 Y138.505
G01 X188.958 Y138.571
G01 X188.901 Y138.639
G01 X188.849 Y138.709
G01 X188.800 Y138.781
G01 X188.756 Y138.854
G01 X188.717 Y138.929
G01 X188.681 Y139.005
G01 X188.658 Y139.061
G01 X188.594 Y139.116
G01 X188.533 Y139.175
G01 X188.474 Y139.238
G01 X188.418 Y139.305
G01 X188.365 Y139.375
G01 X188.315 Y139.449
G01 X188.268 Y139.527
G01 X188.225 Y139.607
G01 X188.185 Y139.691
G01 X188.164 Y139.741
G01 X188.176 Y139.833
G01 X188.192 Y139.924
G01 X188.213 Y140.013
G01 X188.238 Y140.099
G01 X188.267 Y140.183
G01 X188.300 Y140.264
G01 X188.337 Y140.343
G01 X188.378 Y140.419
G01 X188.421 Y140.491
G01 X188.468 Y140.560
G01 X188.490 Y140.590
G01 X188.500 Y140.673
G01 X188.514 Y140.757
G01 X188.532 Y140.840
G01 X188.556 Y140.924
G01 X188.584 Y141.007
G01 X188.617 Y141.090
G01 X188.654 Y141.172
G01 X188.696 Y141.253
G01 X188.743 Y141.332
G01 X188.795 Y141.410
G01 X188.817 Y141.440
G01 X188.899 Y141.482
G01 X188.984 Y141.519
G01 X189.069 Y141.551
G01 X189.155 Y141.579
G01 X189.241 Y141.602
G01 X189.327 Y141.621
G01 X189.414 Y141.634
G01 X189.500 Y141.644
G01 X189.586 Y141.649
G01 X189.671 Y141.649
G01 X189.755 Y141.645
G01 X189.775 Y141.644
G01 X189.853 Y141.684
G01 X189.935 Y141.721
G01 X190.020 Y141.753
G01 X190.108 Y141.781
G01 X190.198 Y141.805
G01 X190.292 Y141.824
G01 X190.387 Y141.838
G01 X190.485 Y141.848
G01 X190.585 Y141.852
G01 X190.686 Y141.850
G01 X190.734 Y141.847
G01 X190.818 Y141.798
G01 X190.899 Y141.744
G01 X190.978 Y141.687
G01 X191.052 Y141.626
G01 X191.123 Y141.562
G01 X191.190 Y141.495
G01 X191.254 Y141.425
G01 X191.313 Y141.352
G01 X191.369 Y141.278
G01 X191.420 Y141.201
G01 X191.467 Y141.122
G01 X191.476 Y141.105
G01 X191.563 Y141.054
G01 X191.648 Y140.998
G01 X191.731 Y140.935
G01 X191.812 Y140.867
G01 X191.891 Y140.793
G01 X191.966 Y140.713
G01 X192.038 Y140.628
G01 X192.107 Y140.538
G01 X192.171 Y140.442
G01 X192.219 Y140.363
G01 X192.221 Y140.252
G01 X192.219 Y140.142
G01 X192.210 Y140.033
G01 X192.197 Y139.924
G01 X192.178 Y139.818
G01 X192.154 Y139.713
G01 X192.125 Y139.610
G01 X192.091 Y139.509
G01 X192.052 Y139.410
G01 X192.009 Y139.314
G01 X191.986 Y139.267
G01 X191.989 Y139.153
G01 X191.986 Y139.037
G01 X191.975 Y138.919
G01 X191.958 Y138.799
G01 X191.934 Y138.679
G01 X191.903 Y138.559
G01 X191.865 Y138.438
G01 X191.819 Y138.318
G01 X191.766 Y138.198
G01 X191.753 Y138.172
G01 X191.649 Y138.102
G01 X191.542 Y138.038
G01 X191.433 Y137.981
G01 X191.322 Y137.929
G01 X191.209 Y137.883
G01 X191.095 Y137.843
G01 X190.980 Y137.809
G01 X190.865 Y137.781
G01 X190.749 Y137.760
G01 X190.642 Y137.745
G01 X190.540 Y137.676
G01 X190.432 Y137.612
G01 X190.320 Y137.553
G01 X190.203 Y137.499
G01 X190.081 Y137.451
G01 X189.955 Y137.409
G01 X189.826 Y137.373
G01 X189.692 Y137.344
G01 X189.556 Y137.322
G01 X189.531 Y137.319
G01 X189.406 Y137.372
G01 X189.286 Y137.432
G01 X189.169 Y137.497
G01 X189.058 Y137.567
G01 X188.951 Y137.642
G01 X188.849 Y137.721
G01 X188.753 Y137.805
G01 X188.661 Y137.893
G01 X188.576 Y137.984
G01 X188.512 Y138.059
G01 X188.396 Y138.108
G01 X188.281 Y138.163
G01 X188.168 Y138.226
G01 X188.057 Y138.295
G01 X187.948 Y138.370
G01 X187.842 Y138.453
G01 X187.739 Y138.542
G01 X187.640 Y138.637
G01 X187.545 Y138.738
G01 X187.492 Y138.800
G01 X187.467 Y138.937
G01 X187.449 Y139.074
G01 X187.439 Y139.210
G01 X187.435 Y139.345
G01 X187.439 Y139.478
G01 X187.449 Y139.610
G01 X187.467 Y139.739
G01 X187.490 Y139.865
G01 X187.520 Y139.989
G01 X187.556 Y140.109
G01 X187.562 Y140.128
G01 X187.538 Y140.251
G01 X187.520 Y140.376
G01 X187.509 Y140.504
G01 X187.504 Y140.634
G01 X187.507 Y140.766
G01 X187.516 Y140.898
G01 X187.532 Y141.032
G01 X187.556 Y141.166
G01 X187.586 Y141.301
G01 X187.625 Y141.435
G01 X187.631 Y141.456
G01 X187.721 Y141.560
G01 X187.816 Y141.658
G01 X187.914 Y141.751
G01 X188.017 Y141.839
G01 X188.122 Y141.920
G01 X188.231 Y141.996
G01 X188.343 Y142.066
G01 X188.458 Y142.129
G01 X188.574 Y142.186
G01 X188.693 Y142.237
G01 X188.813 Y142.282
G01 X188.934 Y142.320
G01 X189.057 Y142.352
G01 X189.179 Y142.378
G01 X189.248 Y142.389
G01 X189.353 Y142.475
G01 X189.464 Y142.556
G01 X189.582 Y142.632
G01 X189.706 Y142.702
G01 X189.835 Y142.766
G01 X189.971 Y142.824
G01 X190.056 Y142.856
G01 X190.194 Y142.812
G01 X190.327 Y142.761
G01 X190.456 Y142.703
G01 X190.580 Y142.640
G01 X190.698 Y142.572
G01 X190.812 Y142.498
G01 X190.920 Y142.419
G01 X190.930 Y142.411
G01 X191.051 Y142.373
G01 X191.171 Y142.328
G01 X191.289 Y142.277
G01 X191.405 Y142.221
G01 X191.519 Y142.158
G01 X191.630 Y142.089
G01 X191.738 Y142.015
G01 X191.803 Y141.966
G01 X191.943 Y141.921
G01 X192.083 Y141.866
G01 X192.222 Y141.803
G01 X192.360 Y141.730
G01 X192.496 Y141.647
G01 X192.630 Y141.556
G01 X192.676 Y141.521
G01 X192.715 Y141.372
G01 X192.746 Y141.222
G01 X192.769 Y141.073
G01 X192.784 Y140.924
G01 X192.791 Y140.777
G01 X192.790 Y140.631
G01 X192.783 Y140.500
G01 X192.819 Y140.365
G01 X192.849 Y140.228
G01 X192.872 Y140.088
G01 X192.888 Y139.947
G01 X192.896 Y139.804
G01 X192.898 Y139.660
G01 X192.893 Y139.516
G01 X192.891 Y139.479
G01 X192.931 Y139.322
G01 X192.964 Y139.159
G01 X192.987 Y138.992
G01 X193.001 Y138.820
G01 X193.005 Y138.645
G01 X192.998 Y138.467
G01 X192.998 Y138.458
G01 X192.883 Y138.334
G01 X192.762 Y138.217
G01 X192.638 Y138.108
G01 X192.509 Y138.006
G01 X192.377 Y137.913
G01 X192.242 Y137.828
G01 X192.164 Y137.783
G01 X192.060 Y137.670
G01 X191.951 Y137.562
G01 X191.837 Y137.460
G01 X191.716 Y137.362
G01 X191.591 Y137.271
G01 X191.461 Y137.185
G01 X191.330 Y137.107
G01 X191.212 Y136.980
G01 X191.085 Y136.858
G01 X190.950 Y136.741
G01 X190.805 Y136.630
G01 X190.652 Y136.526
G01 X190.495 Y136.432
G01 X190.315 Y136.463
G01 X190.139 Y136.504
G01 X189.968 Y136.553
G01 X189.802 Y136.611
G01 X189.641 Y136.676
G01 X189.487 Y136.749
G01 X189.430 Y136.778
G01 X189.272 Y136.805
G01 X189.114 Y136.839
G01 X188.959 Y136.882
G01 X188.805 Y136.932
G01 X188.654 Y136.989
G01 X188.505 Y137.054
G01 X188.365 Y137.124
G01 X188.192 Y137.154
G01 X188.017 Y137.194
G01 X187.843 Y137.244
G01 X187.668 Y137.305
G01 X187.495 Y137.376
G01 X187.322 Y137.459
G01 X187.300 Y137.470
G01 X187.225 Y137.645
G01 X187.160 Y137.820
G01 X187.106 Y137.996
G01 X187.062 Y138.173
G01 X187.029 Y138.348
G01 X187.005 Y138.522
G01 X186.998 Y138.597
G01 X186.932 Y138.746
G01 X186.874 Y138.898
G01 X186.824 Y139.053
G01 X186.781 Y139.209
G01 X186.746 Y139.368
G01 X186.718 Y139.529
G01 X186.699 Y139.690
G01 X186.696 Y139.724
G01 X186.626 Y139.884
G01 X186.563 Y140.051
G01 X186.510 Y140.223
G01 X186.464 Y140.401
G01 X186.428 Y140.584
G01 X186.402 Y140.771
G01 X186.394 Y140.851
G01 X186.499 Y141.010
G01 X186.610 Y141.161
G01 X186.727 Y141.303
G01 X186.850 Y141.437
G01 X186.979 Y141.562
G01 X187.112 Y141.678
G01 X187.206 Y141.753
G01 X187.294 Y141.889
G01 X187.388 Y142.020
G01 X187.489 Y142.147
G01 X187.596 Y142.269
G01 X187.709 Y142.386
G01 X187.827 Y142.497
G01 X187.951 Y142.602
G01 X188.018 Y142.654
G01 X188.114 Y142.803
G01 X188.220 Y142.948
G01 X188.336 Y143.089
G01 X188.461 Y143.226
G01 X188.596 Y143.358
G01 X188.740 Y143.484
G01 X188.830 Y143.556
G01 X189.020 Y143.556
G01 X189.208 Y143.545
G01 X189.392 Y143.525
G01 X189.573 Y143.496
G01 X189.749 Y143.457
G01 X189.920 Y143.410
G01 X190.074 Y143.359
G01 X190.239 Y143.360
G01 X190.405 Y143.353
G01 X190.571 Y143.337
G01 X190.736 Y143.314
G01 X190.900 Y143.282
G01 X191.062 Y143.242
G01 X191.223 Y143.194
G01 X191.319 Y143.162
G01 X191.505 Y143.162
G01 X191.694 Y143.152
G01 X191.886 Y143.130
G01 X192.080 Y143.097
G01 X192.275 Y143.052
G01 X192.471 Y142.996
G01 X192.563 Y142.965
G01 X192.670 Y142.798
G01 X192.767 Y142.628
G01 X192.854 Y142.456
G01 X192.930 Y142.282
G01 X192.997 Y142.105
G01 X193.053 Y141.929
G01 X193.095 Y141.771
G01 X193.191 Y141.624
G01 X193.280 Y141.471
G01 X193.361 Y141.313
G01 X193.435 Y141.152
G01 X193.501 Y140.985
G01 X193.560 Y140.816
G01 X193.610 Y140.643
G01 X193.626 Y140.577
G01 X193.735 Y140.408
G01 X193.836 Y140.229
G01 X193.928 Y140.042
G01 X194.011 Y139.846
G01 X194.083 Y139.642
G01 X194.146 Y139.430
G01 X194.158 Y139.384
G01 X194.069 Y139.191
G01 X193.972 Y139.005
G01 X193.866 Y138.827
G01 X193.753 Y138.657
G01 X193.633 Y138.496
G01 X193.505 Y138.342
G01 X193.420 Y138.249
G01 X193.342 Y138.076
G01 X193.256 Y137.907
G01 X193.160 Y137.741
G01 X193.056 Y137.581
G01 X192.944 Y137.424
G01 X192.824 Y137.273
G01 X192.697 Y137.128
G01 X192.683 Y137.114
G01 X192.594 Y136.919
G01 X192.493 Y136.727
G01 X192.378 Y136.537
G01 X192.251 Y136.350
G01 X192.111 Y136.168
G01 X191.958 Y135.992
G01 X191.946 Y135.979
G01 X191.729 Y135.929
G01 X191.512 Y135.891
G01 X191.295 Y135.864
G01 X191.080 Y135.848
G01 X190.865 Y135.844
G01 X190.654 Y135.851
G01 X190.444 Y135.868
G01 X190.239 Y135.895
G01 X190.036 Y135.933
G01 X189.846 Y135.979
G01 X189.644 Y135.930
G01 X189.436 Y135.892
G01 X189.224 Y135.865
G01 X189.008 Y135.849
G01 X188.789 Y135.844
G01 X188.566 Y135.851
G01 X188.342 Y135.870
G01 X188.116 Y135.901
G01 X187.889 Y135.945
G01 X187.746 Y135.979
G01 X187.580 Y136.139
G01 X187.424 Y136.306
G01 X187.278 Y136.479
G01 X187.143 Y136.657
G01 X187.019 Y136.840
G01 X186.905 Y137.026
G01 X186.803 Y137.217
G01 X186.712 Y137.410
G01 X186.632 Y137.605
G01 X186.564 Y137.798
G01 X186.412 Y137.942
G01 X186.266 Y138.095
G01 X186.126 Y138.258
G01 X185.994 Y138.430
G01 X185.869 Y138.611
G01 X185.752 Y138.800
G01 X185.644 Y138.997
G01 X185.545 Y139.202
G01 X185.456 Y139.415
G01 X185.383 Y139.618
G01 X185.425 Y139.847
G01 X185.478 Y140.071
G01 X185.543 Y140.289
G01 X185.617 Y140.501
G01 X185.702 Y140.707
G01 X185.796 Y140.905
G01 X185.899 Y141.096
G01 X186.011 Y141.279
G01 X186.130 Y141.454
G01 X186.257 Y141.620
G01 X186.294 Y141.665
G01 X186.329 Y141.870
G01 X186.376 Y142.077
G01 X186.434 Y142.283
G01 X186.504 Y142.488
G01 X186.586 Y142.691
G01 X186.679 Y142.893
G01 X186.784 Y143.092
G01 X186.901 Y143.287
G01 X187.029 Y143.479
G01 X187.168 Y143.665
G01 X187.205 Y143.711
G01 X187.419 Y143.801
G01 X187.635 Y143.880
G01 X187.853 Y143.946
G01 X188.071 Y144.001
G01 X188.290 Y144.044
G01 X188.508 Y144.075
G01 X188.725 Y144.094
G01 X188.940 Y144.103
G01 X189.153 Y144.100
G01 X189.363 Y144.086
G01 X189.486 Y144.072
G01 X189.682 Y144.158
G01 X189.884 Y144.233
G01 X190.094 Y144.299
G01 X190.309 Y144.354
G01 X190.530 Y144.398
G01 X190.756 Y144.431
G01 X190.987 Y144.452
G01 X191.221 Y144.461
G01 X191.459 Y144.457
G01 X191.699 Y144.441
G01 X191.768 Y144.434
G01 X191.964 Y144.300
G01 X192.152 Y144.158
G01 X192.330 Y144.008
G01 X192.499 Y143.851
G01 X192.659 Y143.686
G01 X192.808 Y143.516
G01 X192.947 Y143.339
G01 X193.075 Y143.158
G01 X193.193 Y142.972
G01 X193.300 Y142.783
G01 X193.360 Y142.665
G01 X193.548 Y142.540
G01 X193.730 Y142.403
G01 X193.908 Y142.255
G01 X194.080 Y142.094
G01 X194.246 Y141.922
G01 X194.404 Y141.739
G01 X194.555 Y141.544
G01 X194.697 Y141.339
G01 X194.829 Y141.124
G01 X194.951 Y140.899
G01 X194.953 Y140.896
G01 X194.946 Y140.646
G01 X194.926 Y140.399
G01 X194.894 Y140.156
G01 X194.850 Y139.916
G01 X194.795 Y139.681
G01 X194.728 Y139.452
G01 X194.650 Y139.228
G01 X194.562 Y139.010
G01 X194.464 Y138.799
G01 X194.357 Y138.596
G01 X194.319 Y138.530
G01 X194.314 Y138.291
G01 X194.296 Y138.049
G01 X194.264 Y137.805
G01 X194.219 Y137.560
G01 X194.159 Y137.313
G01 X194.086 Y137.067
G01 X193.998 Y136.822
G01 X193.895 Y136.578
G01 X193.779 Y136.337
G01 X193.685 Y136.163
G01 X193.458 Y136.027
G01 X193.226 Y135.903
G01 X192.991 Y135.793
G01 X192.752 Y135.695
G01 X192.512 Y135.611
G01 X192.269 Y135.540
G01 X192.026 Y135.482
G01 X191.783 Y135.437
G01 X191.540 Y135.405
G01 X191.299 Y135.385
G01 X191.288 Y135.385
G01 X191.076 Y135.255
G01 X190.855 Y135.135
G01 X190.625 Y135.026
G01 X190.385 Y134.927
G01 X190.138 Y134.841
G01 X189.883 Y134.766
G01 X189.621 Y134.704
G01 X189.353 Y134.656
G01 X189.079 Y134.621
G01 X188.891 Y134.606
G01 X188.643 Y134.727
G01 X188.405 Y134.859
G01 X188.176 Y135.001
G01 X187.956 Y135.154
G01 X187.748 Y135.316
G01 X187.550 Y135.486
G01 X187.364 Y135.665
G01 X187.189 Y135.850
G01 X187.026 Y136.043
G01 X186.879 Y136.236
G01 X186.652 Y136.344
G01 X186.428 Y136.464
G01 X186.208 Y136.599
G01 X185.993 Y136.746
G01 X185.784 Y136.906
G01 X185.580 Y137.079
G01 X185.384 Y137.265
G01 X185.195 Y137.463
G01 X185.015 Y137.673
G01 X184.866 Y137.866
G01 X184.866 Y138.156
G01 X184.883 Y138.441
G01 X184.914 Y138.719
G01 X184.961 Y138.991
G01 X185.005 Y139.189
G01 X185.004 Y139.438
G01 X185.015 Y139.686
G01 X185.038 Y139.932
G01 X185.074 Y140.174
G01 X185.121 Y140.413
G01 X185.144 Y140.511
G01 X185.142 Y140.754
G01 X185.153 Y140.998
G01 X185.176 Y141.243
G01 X185.211 Y141.488
G01 X185.259 Y141.732
G01 X185.283 Y141.834
G01 X185.282 Y142.106
G01 X185.297 Y142.383
G01 X185.328 Y142.663
G01 X185.376 Y142.945
G01 X185.422 Y143.157
G01 X185.664 Y143.315
G01 X185.911 Y143.457
G01 X186.161 Y143.583
G01 X186.414 Y143.693
G01 X186.638 Y143.776
G01 X186.846 Y143.914
G01 X187.059 Y144.040
G01 X187.277 Y144.155
G01 X187.499 Y144.258
G01 X187.725 Y144.349
G01 X187.854 Y144.396
G01 X188.058 Y144.531
G01 X188.269 Y144.656
G01 X188.488 Y144.772
G01 X188.714 Y144.877
G01 X188.947 Y144.971
G01 X189.071 Y145.016
G01 X189.303 Y145.168
G01 X189.547 Y145.309
G01 X189.804 Y145.438
G01 X190.073 Y145.555
G01 X190.287 Y145.635
G01 X190.556 Y145.542
G01 X190.816 Y145.435
G01 X191.067 Y145.317
G01 X191.309 Y145.187
G01 X191.540 Y145.046
G01 X191.761 Y144.896
G01 X191.971 Y144.736
G01 X192.170 Y144.567
G01 X192.227 Y144.515
G01 X192.464 Y144.435
G01 X192.700 Y144.342
G01 X192.932 Y144.236
G01 X193.160 Y144.118
G01 X193.383 Y143.988
G01 X193.601 Y143.845
G01 X193.814 Y143.691
G01 X194.019 Y143.525
G01 X194.167 Y143.395
G01 X194.437 Y143.267
G01 X194.704 Y143.120
G01 X194.967 Y142.954
G01 X195.136 Y142.835
G01 X195.205 Y142.549
G01 X195.259 Y142.262
G01 X195.297 Y141.976
G01 X195.319 Y141.693
G01 X195.327 Y141.411
G01 X195.320 Y141.133
G01 X195.299 Y140.859
G01 X195.264 Y140.590
G01 X195.257 Y140.543
G01 X195.320 Y140.286
G01 X195.371 Y140.025
G01 X195.410 Y139.760
G01 X195.435 Y139.490
G01 X195.446 Y139.218
G01 X195.444 Y138.944
G01 X195.428 Y138.667
G01 X195.398 Y138.390
G01 X195.377 Y138.250
G01 X195.417 Y137.938
G01 X195.440 Y137.617
G01 X195.443 Y137.290
G01 X195.437 Y137.103
G01 X195.222 Y136.879
G01 X194.999 Y136.669
G01 X194.768 Y136.474
G01 X194.530 Y136.293
G01 X194.286 Y136.126
G01 X194.036 Y135.975
G01 X193.782 Y135.838
G01 X193.534 Y135.721
G01 X193.344 Y135.520
G01 X193.143 Y135.327
G01 X192.931 Y135.143
G01 X192.709 Y134.969
G01 X192.477 Y134.805
G01 X192.235 Y134.652
G01 X191.983 Y134.511
G01 X191.724 Y134.381
G01 X191.631 Y134.338
G01 X191.384 Y134.129
G01 X191.119 Y133.930
G01 X190.839 Y133.743
G01 X190.680 Y133.647
G01 X190.362 Y133.708
G01 X190.052 Y133.784
G01 X189.751 Y133.876
G01 X189.459 Y133.982
G01 X189.176 Y134.102
G01 X188.904 Y134.234
G01 X188.642 Y134.379
G01 X188.432 Y134.510
G01 X188.153 Y134.561
G01 X187.876 Y134.626
G01 X187.601 Y134.706
G01 X187.328 Y134.799
G01 X187.059 Y134.907
G01 X186.794 Y135.028
G01 X186.534 Y135.164
G01 X186.279 Y135.313
G01 X186.184 Y135.373
G01 X185.871 Y135.467
G01 X185.559 Y135.580
G01 X185.247 Y135.714
G01 X185.060 Y135.805
G01 X184.935 Y136.109
G01 X184.827 Y136.416
G01 X184.738 Y136.724
G01 X184.665 Y137.032
G01 X184.611 Y137.339
G01 X184.573 Y137.644
G01 X184.552 Y137.947
G01 X184.547 Y138.215
G01 X184.437 Y138.476
G01 X184.339 Y138.745
G01 X184.255 Y139.019
G01 X184.183 Y139.298
G01 X184.126 Y139.582
G01 X184.082 Y139.870
G01 X184.052 Y140.162
G01 X184.037 Y140.456
G01 X184.035 Y140.625
G01 X183.943 Y140.937
G01 X183.867 Y141.259
G01 X183.809 Y141.592
G01 X183.779 Y141.830
G01 X183.965 Y142.102
G01 X184.163 Y142.360
G01 X184.371 Y142.604
G01 X184.589 Y142.834
G01 X184.816 Y143.048
G01 X185.051 Y143.247
G01 X185.292 Y143.430
G01 X185.539 Y143.598
G01 X185.561 Y143.612
G01 X185.719 Y143.847
G01 X185.889 Y144.076
G01 X186.072 Y144.297
G01 X186.266 Y144.510
G01 X186.472 Y144.715
G01 X186.689 Y144.910
G01 X186.917 Y145.094
G01 X187.155 Y145.269
G01 X187.343 Y145.394
G01 X187.556 Y145.644
G01 X187.787 Y145.886
G01 X188.037 Y146.119
G01 X188.234 Y146.285
G01 X188.564 Y146.277
G01 X188.889 Y146.253
G01 X189.209 Y146.212
G01 X189.521 Y146.155
G01 X189.826 Y146.083
G01 X190.123 Y145.995
G01 X190.411 Y145.894
G01 X190.689 Y145.778
G01 X190.753 Y145.749
G01 X191.042 Y145.745
G01 X191.332 Y145.727
G01 X191.622 Y145.694
G01 X191.913 Y145.646
G01 X192.203 Y145.583
G01 X192.491 Y145.506
G01 X192.777 Y145.413
G01 X193.059 Y145.306
G01 X193.273 Y145.214
G01 X193.611 Y145.169
G01 X193.952 Y145.104
G01 X194.295 Y145.018
G01 X194.533 Y144.946
G01 X194.710 Y144.658
G01 X194.870 Y144.365
G01 X195.013 Y144.067
G01 X195.138 Y143.766
G01 X195.246 Y143.463
G01 X195.337 Y143.158
G01 X195.410 Y142.853
G01 X195.467 Y142.549
G01 X195.476 Y142.489
G01 X195.636 Y142.234
G01 X195.783 Y141.970
G01 X195.918 Y141.697
G01 X196.040 Y141.415
G01 X196.148 Y141.126
G01 X196.243 Y140.829
G01 X196.323 Y140.525
G01 X196.388 Y140.216
G01 X196.419 Y140.031
G01 X196.573 Y139.709
G01 X196.709 Y139.372
G01 X196.828 Y139.021
G01 X196.891 Y138.803
G01 X196.738 Y138.485
G01 X196.572 Y138.180
G01 X196.391 Y137.887
G01 X196.198 Y137.608
G01 X195.993 Y137.342
G01 X195.777 Y137.091
G01 X195.551 Y136.854
G01 X195.316 Y136.632
G01 X195.311 Y136.628
G01 X195.177 Y136.345
G01 X195.029 Y136.066
G01 X194.865 Y135.794
G01 X194.687 Y135.528
G01 X194.494 Y135.269
G01 X194.287 Y135.019
G01 X194.066 Y134.778
G01 X193.832 Y134.546
G01 X193.731 Y134.454
G01 X193.537 Y134.140
G01 X193.322 Y133.832
G01 X193.084 Y133.531
G01 X192.941 Y133.366
G01 X192.577 Y133.320
G01 X192.216 Y133.294
G01 X191.858 Y133.287
G01 X191.505 Y133.298
G01 X191.158 Y133.328
G01 X190.818 Y133.376
G01 X190.484 Y133.440
G01 X190.201 Y133.510
G01 X189.881 Y133.467
G01 X189.558 Y133.440
G01 X189.232 Y133.429
G01 X188.904 Y133.434
G01 X188.574 Y133.456
G01 X188.244 Y133.494
G01 X187.915 Y133.549
G01 X187.586 Y133.621
G01 X187.461 Y133.653
G01 X187.088 Y133.645
G01 X186.708 Y133.658
G01 X186.323 Y133.693
G01 X186.091 Y133.725
G01 X185.856 Y134.023
G01 X185.640 Y134.328
G01 X185.445 Y134.640
G01 X185.269 Y134.957
G01 X185.113 Y135.279
G01 X184.977 Y135.603
G01 X184.924 Y135.746
G01 X184.720 Y136.000
G01 X184.530 Y136.263
G01 X184.352 Y136.535
G01 X184.188 Y136.816
G01 X184.038 Y137.105
G01 X183.902 Y137.400
G01 X183.781 Y137.702
G01 X183.757 Y137.767
G01 X183.538 Y138.040
G01 X183.332 Y138.330
G01 X183.138 Y138.635
G01 X182.959 Y138.956
G01 X182.795 Y139.291
G01 X182.647 Y139.639
G01 X182.591 Y139.787
G01 X182.712 Y140.149
G01 X182.850 Y140.498
G01 X183.004 Y140.833
G01 X183.175 Y141.155
G01 X183.359 Y141.462
G01 X183.557 Y141.754
G01 X183.671 Y141.908
G01 X183.772 Y142.217
G01 X183.887 Y142.520
G01 X184.017 Y142.817
G01 X184.162 Y143.108
G01 X184.321 Y143.391
G01 X184.493 Y143.666
G01 X184.679 Y143.932
G01 X184.752 Y144.029
G01 X184.861 Y144.362
G01 X184.990 Y144.694
G01 X185.140 Y145.023
G01 X185.310 Y145.349
G01 X185.501 Y145.670
G01 X185.712 Y145.986
G01 X185.832 Y146.149
G01 X186.200 Y146.245
G01 X186.568 Y146.321
G01 X186.933 Y146.375
G01 X187.295 Y146.409
G01 X187.654 Y146.423
G01 X188.007 Y146.418
G01 X188.245 Y146.403
G01 X188.560 Y146.488
G01 X188.879 Y146.557
G01 X189.201 Y146.611
G01 X189.526 Y146.649
G01 X189.853 Y146.671
G01 X190.181 Y146.677
G01 X190.509 Y146.667
G01 X190.659 Y146.656
G01 X191.004 Y146.749
G01 X191.361 Y146.823
G01 X191.726 Y146.878
G01 X192.101 Y146.913
G01 X192.483 Y146.928
G01 X192.871 Y146.922
G01 X193.072 Y146.910
G01 X193.357 Y146.650
G01 X193.623 Y146.380
G01 X193.872 Y146.099
G01 X194.101 Y145.809
G01 X194.312 Y145.512
G01 X194.503 Y145.209
G01 X194.629 Y144.988
G01 X194.877 Y144.764
G01 X195.115 Y144.528
G01 X195.342 Y144.280
G01 X195.556 Y144.020
G01 X195.758 Y143.750
G01 X195.946 Y143.470
G01 X196.121 Y143.180
G01 X196.185 Y143.066
G01 X196.461 Y142.816
G01 X196.726 Y142.547
G01 X196.980 Y142.259
G01 X197.222 Y141.951
G01 X197.450 Y141.625
G01 X197.664 Y141.281
G01 X197.742 Y141.144
G01 X197.676 Y140.751
G01 X197.590 Y140.368
G01 X197.485 Y139.996
G01 X197.363 Y139.634
G01 X197.223 Y139.284
G01 X197.067 Y138.948
G01 X196.963 Y138.747
G01 X196.907 Y138.404
G01 X196.835 Y138.063
G01 X196.745 Y137.725
G01 X196.639 Y137.391
G01 X196.517 Y137.063
G01 X196.378 Y136.740
G01 X196.223 Y136.423
G01 X196.184 Y136.350
G01 X196.121 Y135.970
G01 X196.036 Y135.587
G01 X195.927 Y135.203
G01 X195.795 Y134.819
G01 X195.639 Y134.437
G01 X195.460 Y134.058
G01 X195.406 Y133.954
G01 X195.026 Y133.790
G01 X194.643 Y133.650
G01 X194.259 Y133.531
G01 X193.875 Y133.435
G01 X193.491 Y133.360
G01 X193.110 Y133.307
G01 X192.926 Y133.289
G01 X192.597 Y133.145
G01 X192.260 Y133.017
G01 X191.917 Y132.905
G01 X191.569 Y132.811
G01 X191.216 Y132.733
G01 X190.859 Y132.673
G01 X190.499 Y132.630
G01 X190.447 Y132.625
G01 X190.086 Y132.468
G01 X189.711 Y132.329
G01 X189.323 Y132.209
G01 X188.922 Y132.109
G01 X188.509 Y132.030
G01 X188.087 Y131.973
G01 X187.968 Y131.961
G01 X187.615 Y132.197
G01 X187.279 Y132.448
G01 X186.963 Y132.712
G01 X186.666 Y132.990
G01 X186.389 Y133.278
G01 X186.131 Y133.577
G01 X186.026 Y133.709
G01 X185.721 Y133.910
G01 X185.425 Y134.125
G01 X185.141 Y134.355
G01 X184.868 Y134.598
G01 X184.607 Y134.855
G01 X184.360 Y135.124
G01 X184.125 Y135.405
G01 X184.084 Y135.458
G01 X183.754 Y135.675
G01 X183.433 Y135.914
G01 X183.119 Y136.174
G01 X182.816 Y136.455
G01 X182.524 Y136.757
G01 X182.244 Y137.079
G01 X182.142 Y137.207
G01 X182.146 Y137.635
G01 X182.173 Y138.057
G01 X182.222 Y138.470
G01 X182.293 Y138.873
G01 X182.384 Y139.266
G01 X182.495 Y139.647
G01 X182.558 Y139.834
G01 X182.559 Y140.199
G01 X182.577 Y140.564
G01 X182.614 Y140.928
G01 X182.668 Y141.289
G01 X182.740 Y141.647
G01 X182.830 Y142.002
G01 X182.936 Y142.351
G01 X182.974 Y142.461
G01 X182.975 Y142.855
G01 X182.999 Y143.254
G01 X183.045 Y143.658
G01 X183.114 Y144.065
G01 X183.206 Y144.474
G01 X183.323 Y144.884
G01 X183.390 Y145.089
G01 X183.751 Y145.319
G01 X184.118 Y145.527
G01 X184.490 Y145.711
G01 X184.866 Y145.873
G01 X185.244 Y146.012
G01 X185.623 Y146.128
G01 X185.863 Y146.189
G01 X186.169 Y146.389
G01 X186.485 Y146.573
G01 X186.810 Y146.742
G01 X187.143 Y146.894
G01 X187.483 Y147.030
G01 X187.830 Y147.150
G01 X188.182 Y147.252
G01 X188.335 Y147.290
G01 X188.670 Y147.507
G01 X189.021 Y147.708
G01 X189.389 Y147.892
G01 X189.773 Y148.058
G01 X190.172 Y148.205
G01 X190.585 Y148.332
G01 X190.808 Y148.391
G01 X191.200 Y148.214
G01 X191.577 Y148.018
G01 X191.937 Y147.805
G01 X192.280 Y147.577
G01 X192.606 Y147.334
G01 X192.914 Y147.078
G01 X193.117 Y146.892
G01 X193.457 Y146.741
G01 X193.789 Y146.573
G01 X194.113 Y146.389
G01 X194.429 Y146.189
G01 X194.734 Y145.973
G01 X195.029 Y145.742
G01 X195.313 Y145.497
G01 X195.426 Y145.392
G01 X195.801 Y145.224
G01 X196.172 Y145.033
G01 X196.538 Y144.817
G01 X196.897 Y144.577
G01 X197.248 Y144.313
G01 X197.589 Y144.026
G01 X197.735 Y143.893
G01 X197.790 Y143.452
G01 X197.820 Y143.015
G01 X197.826 Y142.584
G01 X197.810 Y142.160
G01 X197.770 Y141.744
G01 X197.735 Y141.493
G01 X197.785 Y141.109
G01 X197.816 Y140.725
G01 X197.828 Y140.340
G01 X197.821 Y139.955
G01 X197.795 Y139.572
G01 X197.750 Y139.192
G01 X197.735 Y139.093
G01 X197.787 Y138.696
G01 X197.818 Y138.293
G01 X197.828 Y137.884
G01 X197.816 Y137.469
G01 X197.782 Y137.051
G01 X197.735 Y136.693
G01 X197.757 Y136.223
G01 X197.750 Y135.744
G01 X197.735 Y135.493
G01 X197.383 Y135.198
G01 X197.020 Y134.927
G01 X196.649 Y134.679
G01 X196.271 Y134.456
G01 X195.887 Y134.256
G01 X195.689 Y134.164
G01 X195.384 Y133.905
G01 X195.067 Y133.663
G01 X194.739 Y133.436
G01 X194.401 Y133.227
G01 X194.055 Y133.035
G01 X193.700 Y132.861
G01 X193.643 Y132.835
G01 X193.329 Y132.569
G01 X192.999 Y132.318
G01 X192.651 Y132.081
G01 X192.288 Y131.860
G01 X191.909 Y131.656
G01 X191.596 Y131.506
G01 X191.207 Y131.227
G01 X190.793 Y130.967
G01 X190.573 Y130.841
G01 X190.121 Y130.981
G01 X189.684 Y131.142
G01 X189.263 Y131.325
G01 X188.859 Y131.526
G01 X188.473 Y131.747
G01 X188.308 Y131.850
G01 X187.916 Y131.968
G01 X187.532 Y132.105
G01 X187.157 Y132.260
G01 X186.791 Y132.432
G01 X186.434 Y132.622
G01 X186.089 Y132.829
G01 X186.042 Y132.859
G01 X185.645 Y132.978
G01 X185.250 Y133.120
G01 X184.858 Y133.283
G01 X184.471 Y133.469
G01 X184.091 Y133.676
G01 X183.776 Y133.867
G01 X183.329 Y134.043
G01 X182.884 Y134.248
G01 X182.644 Y134.372
G01 X182.512 Y134.833
G01 X182.407 Y135.294
G01 X182.330 Y135.752
G01 X182.278 Y136.206
G01 X182.253 Y136.654
G01 X182.249 Y136.861
G01 X182.134 Y137.255
G01 X182.038 Y137.653
G01 X181.962 Y138.054
G01 X181.907 Y138.456
G01 X181.871 Y138.860
G01 X181.856 Y139.263
G01 X181.855 Y139.350
G01 X181.738 Y139.747
G01 X181.641 Y140.155
G01 X181.564 Y140.571
G01 X181.508 Y140.995
G01 X181.473 Y141.427
G01 X181.461 Y141.839
G01 X181.364 Y142.308
G01 X181.293 Y142.792
G01 X181.264 Y143.083
G01 X181.578 Y143.446
G01 X181.907 Y143.785
G01 X182.248 Y144.101
G01 X182.600 Y144.392
G01 X182.962 Y144.659
G01 X183.166 Y144.796
G01 X183.433 Y145.108
G01 X183.713 Y145.405
G01 X184.007 Y145.687
G01 X184.313 Y145.954
G01 X184.631 Y146.204
G01 X184.960 Y146.437
G01 X185.069 Y146.509
G01 X185.338 Y146.825
G01 X185.627 Y147.130
G01 X185.934 Y147.423
G01 X186.260 Y147.703
G01 X186.604 Y147.968
G01 X186.965 Y148.218
G01 X186.971 Y148.222
G01 X187.315 Y148.563
G01 X187.685 Y148.889
G01 X187.922 Y149.079
G01 X188.398 Y149.013
G01 X188.863 Y148.923
G01 X189.314 Y148.809
G01 X189.752 Y148.673
G01 X190.174 Y148.516
G01 X190.434 Y148.406
G01 X190.844 Y148.352
G01 X191.249 Y148.279
G01 X191.649 Y148.185
G01 X192.043 Y148.073
G01 X192.431 Y147.942
G01 X192.810 Y147.792
G01 X192.945 Y147.733
G01 X193.365 Y147.678
G01 X193.785 Y147.601
G01 X194.207 Y147.500
G01 X194.627 Y147.376
G01 X195.045 Y147.229
G01 X195.457 Y147.060
G01 X195.942 Y146.954
G01 X196.430 Y146.817
G01 X196.712 Y146.723
G01 X196.919 Y146.281
G01 X197.099 Y145.836
G01 X197.252 Y145.388
G01 X197.379 Y144.939
G01 X197.479 Y144.491
G01 X197.528 Y144.213
G01 X197.710 Y143.830
G01 X197.873 Y143.440
G01 X198.015 Y143.044
G01 X198.138 Y142.641
G01 X198.241 Y142.234
G01 X198.324 Y141.823
G01 X198.344 Y141.702
G01 X198.531 Y141.308
G01 X198.700 Y140.899
G01 X198.849 Y140.478
G01 X198.977 Y140.044
G01 X199.084 Y139.598
G01 X199.160 Y139.191
G01 X199.341 Y138.711
G01 X199.496 Y138.211
G01 X199.568 Y137.936
G01 X199.301 Y137.510
G01 X199.016 Y137.105
G01 X198.714 Y136.722
G01 X198.397 Y136.362
G01 X198.065 Y136.025
G01 X197.881 Y135.853
G01 X197.651 Y135.481
G01 X197.404 Y135.122
G01 X197.140 Y134.776
G01 X196.860 Y134.444
G01 X196.565 Y134.127
G01 X196.255 Y133.826
G01 X196.195 Y133.770
G01 X195.959 Y133.388
G01 X195.700 Y133.014
G01 X195.419 Y132.650
G01 X195.115 Y132.297
G01 X194.790 Y131.956
G01 X194.508 Y131.687
G01 X194.196 Y131.265
G01 X193.854 Y130.853
G01 X193.665 Y130.646
G01 X193.147 Y130.638
G01 X192.638 Y130.658
G01 X192.138 Y130.705
G01 X191.650 Y130.779
G01 X191.174 Y130.877
G01 X190.960 Y130.930
G01 X190.512 Y130.921
G01 X190.066 Y130.933
G01 X189.622 Y130.967
G01 X189.181 Y131.023
G01 X188.746 Y131.100
G01 X188.315 Y131.199
G01 X188.254 Y131.215
G01 X187.799 Y131.205
G01 X187.338 Y131.218
G01 X186.874 Y131.256
G01 X186.406 Y131.319
G01 X185.938 Y131.407
G01 X185.549 Y131.499
G01 X185.022 Y131.530
G01 X184.487 Y131.594
G01 X184.197 Y131.641
G01 X183.903 Y132.078
G01 X183.638 Y132.524
G01 X183.402 Y132.975
G01 X183.194 Y133.432
G01 X183.015 Y133.892
G01 X182.944 Y134.100
G01 X182.689 Y134.474
G01 X182.454 Y134.857
G01 X182.239 Y135.251
G01 X182.044 Y135.654
G01 X181.870 Y136.064
G01 X181.717 Y136.480
G01 X181.691 Y136.559
G01 X181.433 Y136.936
G01 X181.193 Y137.330
G01 X180.971 Y137.740
G01 X180.769 Y138.165
G01 X180.586 Y138.605
G01 X180.438 Y139.019
G01 X180.177 Y139.477
G01 X179.938 Y139.959
G01 X179.811 Y140.248
G01 X179.992 Y140.736
G01 X180.195 Y141.207
G01 X180.420 Y141.660
G01 X180.665 Y142.094
G01 X180.930 Y142.508
G01 X181.212 Y142.901
G01 X181.511 Y143.273
G01 X181.649 Y143.431
G01 X181.799 Y143.850
G01 X181.971 Y144.262
G01 X182.163 Y144.667
G01 X182.375 Y145.063
G01 X182.608 Y145.449
G01 X182.860 Y145.825
G01 X183.132 Y146.189
G01 X183.422 Y146.540
G01 X183.486 Y146.614
G01 X183.689 Y147.071
G01 X183.920 Y147.524
G01 X184.182 Y147.971
G01 X184.472 Y148.410
G01 X184.711 Y148.735
G01 X185.218 Y148.851
G01 X185.724 Y148.938
G01 X186.226 Y148.997
G01 X186.724 Y149.029
G01 X187.215 Y149.034
G01 X187.700 Y149.013
G01 X188.175 Y148.967
G01 X188.434 Y148.930
G01 X188.869 Y149.034
G01 X189.311 Y149.116
G01 X189.758 Y149.176
G01 X190.209 Y149.214
G01 X190.664 Y149.230
G01 X191.121 Y149.224
G01 X191.578 Y149.195
G01 X192.036 Y149.143
G01 X192.156 Y149.125
G01 X192.658 Y149.207
G01 X193.174 Y149.260
G01 X193.701 Y149.284
G01 X194.237 Y149.279
G01 X194.638 Y149.255
G01 X195.014 Y148.889
G01 X195.366 Y148.509
G01 X195.693 Y148.115
G01 X195.995 Y147.711
G01 X196.271 Y147.296
G01 X196.520 Y146.874
G01 X196.744 Y146.444
G01 X196.859 Y146.197
G01 X197.190 Y145.882
G01 X197.505 Y145.548
G01 X197.806 Y145.198
G01 X198.089 Y144.831
G01 X198.356 Y144.449
G01 X198.605 Y144.053
G01 X198.834 Y143.643
G01 X199.044 Y143.220
G01 X199.081 Y143.139
G01 X199.432 Y142.751
G01 X199.767 Y142.335
G01 X200.083 Y141.893
G01 X200.378 Y141.425
G01 X200.563 Y141.101
G01 X200.457 Y140.573
G01 X200.325 Y140.058
G01 X200.168 Y139.558
G01 X199.987 Y139.073
G01 X199.784 Y138.605
G01 X199.559 Y138.155
G01 X199.314 Y137.723
G01 X199.189 Y137.523
G01 X199.100 Y137.061
G01 X198.988 Y136.601
G01 X198.852 Y136.146
G01 X198.694 Y135.696
G01 X198.512 Y135.252
G01 X198.308 Y134.816
G01 X198.081 Y134.389
G01 X197.832 Y133.971
G01 X197.816 Y133.945
G01 X197.676 Y133.425
G01 X197.504 Y132.905
G01 X197.300 Y132.387
G01 X197.062 Y131.871
G01 X196.900 Y131.559
G01 X196.385 Y131.356
G01 X195.867 Y131.183
G01 X195.347 Y131.039
G01 X194.828 Y130.925
G01 X194.311 Y130.840
G01 X193.797 Y130.784
G01 X193.288 Y130.755
G01 X193.100 Y130.752
G01 X192.653 Y130.571
G01 X192.197 Y130.413
G01 X191.731 Y130.276
G01 X191.257 Y130.163
G01 X190.776 Y130.072
G01 X190.289 Y130.005
G01 X189.797 Y129.963
G01 X189.302 Y129.944
G01 X189.300 Y129.944
G01 X188.782 Y129.776
G01 X188.245 Y129.635
G01 X187.693 Y129.523
G01 X187.125 Y129.441
G01 X186.766 Y129.405
G01 X186.307 Y129.733
G01 X185.871 Y130.080
G01 X185.460 Y130.444
G01 X185.075 Y130.824
G01 X184.717 Y131.219
G01 X184.384 Y131.627
G01 X184.079 Y132.045
G01 X183.982 Y132.190
G01 X183.584 Y132.468
G01 X183.199 Y132.767
G01 X182.827 Y133.086
G01 X182.471 Y133.424
G01 X182.130 Y133.780
G01 X181.807 Y134.153
G01 X181.501 Y134.544
G01 X181.214 Y134.950
G01 X181.198 Y134.974
G01 X180.775 Y135.317
G01 X180.364 Y135.689
G01 X179.968 Y136.091
G01 X179.589 Y136.521
G01 X179.342 Y136.830
G01 X179.403 Y137.407
G01 X179.496 Y137.970
G01 X179.617 Y138.517
G01 X179.766 Y139.048
G01 X179.895 Y139.432
G01 X179.945 Y139.929
G01 X180.019 Y140.420
G01 X180.117 Y140.903
G01 X180.238 Y141.378
G01 X180.381 Y141.843
G01 X180.448 Y142.034
G01 X180.496 Y142.517
G01 X180.568 Y143.000
G01 X180.665 Y143.482
G01 X180.786 Y143.962
G01 X180.933 Y144.439
G01 X181.001 Y144.636
G01 X181.057 Y145.177
G01 X181.144 Y145.724
G01 X181.265 Y146.275
G01 X181.418 Y146.827
G01 X181.554 Y147.238
G01 X182.070 Y147.500
G01 X182.592 Y147.731
G01 X183.116 Y147.928
G01 X183.642 Y148.093
G01 X184.070 Y148.203
G01 X184.513 Y148.433
G01 X184.965 Y148.639
G01 X185.423 Y148.821
G01 X185.887 Y148.979
G01 X186.355 Y149.112
G01 X186.586 Y149.169
G01 X187.018 Y149.394
G01 X187.465 Y149.598
G01 X187.924 Y149.781
G01 X188.395 Y149.941
G01 X188.877 Y150.079
G01 X189.102 Y150.135
G01 X189.592 Y150.386
G01 X190.104 Y150.614
G01 X190.638 Y150.815
G01 X191.191 Y150.989
G01 X191.618 Y151.101
G01 X192.122 Y150.810
G01 X192.601 Y150.497
G01 X193.055 Y150.163
G01 X193.482 Y149.811
G01 X193.827 Y149.496
G01 X194.265 Y149.247
G01 X194.688 Y148.977
G01 X195.095 Y148.689
G01 X195.485 Y148.382
G01 X195.857 Y148.059
G01 X196.035 Y147.891
G01 X196.467 Y147.647
G01 X196.888 Y147.378
G01 X197.299 Y147.087
G01 X197.698 Y146.773
G01 X198.084 Y146.437
G01 X198.244 Y146.287
G01 X198.733 Y146.006
G01 X199.214 Y145.692
G01 X199.685 Y145.344
G01 X200.143 Y144.965
G01 X200.452 Y144.682
G01 X200.483 Y144.091
G01 X200.481 Y143.508
G01 X200.447 Y142.935
G01 X200.383 Y142.374
G01 X200.308 Y141.921
G01 X200.337 Y141.406
G01 X200.341 Y140.892
G01 X200.319 Y140.382
G01 X200.273 Y139.876
G01 X200.201 Y139.375
G01 X200.163 Y139.160
G01 X200.193 Y138.651
G01 X200.197 Y138.138
G01 X200.174 Y137.620
G01 X200.126 Y137.101
G01 X200.051 Y136.581
G01 X200.018 Y136.399
G01 X200.049 Y135.820
G01 X200.046 Y135.230
G01 X200.009 Y134.631
G01 X199.937 Y134.024
G01 X199.874 Y133.637
G01 X199.403 Y133.265
G01 X198.920 Y132.924
G01 X198.427 Y132.614
G01 X197.925 Y132.334
G01 X197.416 Y132.086
G01 X196.902 Y131.869
G01 X196.640 Y131.771
G01 X196.235 Y131.446
G01 X195.814 Y131.141
G01 X195.378 Y130.856
G01 X194.928 Y130.593
G01 X194.465 Y130.353
G01 X193.991 Y130.135
G01 X193.506 Y129.940
G01 X193.407 Y129.904
G01 X192.964 Y129.550
G01 X192.494 Y129.216
G01 X191.999 Y128.903
G01 X191.479 Y128.614
G01 X190.935 Y128.349
G01 X190.368 Y128.111
G01 X190.174 Y128.037
G01 X189.593 Y128.234
G01 X189.033 Y128.458
G01 X188.493 Y128.709
G01 X187.975 Y128.984
G01 X187.480 Y129.282
G01 X187.010 Y129.602
G01 X186.806 Y129.753
G01 X186.306 Y129.919
G01 X185.814 Y130.108
G01 X185.332 Y130.322
G01 X184.861 Y130.559
G01 X184.401 Y130.819
G01 X183.955 Y131.101
G01 X183.524 Y131.405
G01 X183.438 Y131.469
G01 X182.898 Y131.649
G01 X182.359 Y131.861
G01 X181.825 Y132.107
G01 X181.296 Y132.386
G01 X180.776 Y132.697
G01 X180.266 Y133.042
G01 X180.070 Y133.186
G01 X179.916 Y133.785
G01 X179.797 Y134.383
G01 X179.712 Y134.977
G01 X179.660 Y135.566
G01 X179.641 Y136.148
G01 X179.653 Y136.721
G01 X179.670 Y136.991
G01 X179.535 Y137.502
G01 X179.425 Y138.018
G01 X179.340 Y138.540
G01 X179.281 Y139.064
G01 X179.248 Y139.591
G01 X179.241 Y140.119
G01 X179.260 Y140.647
G01 X179.270 Y140.797
G01 X179.125 Y141.347
G01 X179.009 Y141.913
G01 X178.923 Y142.493
G01 X178.867 Y143.087
G01 X178.844 Y143.692
G01 X178.854 Y144.306
G01 X178.870 Y144.603
G01 X179.288 Y145.059
G01 X179.724 Y145.485
G01 X180.175 Y145.881
G01 X180.639 Y146.247
G01 X181.116 Y146.581
G01 X181.602 Y146.884
G01 X181.880 Y147.040
G01 X182.233 Y147.432
G01 X182.606 Y147.806
G01 X182.996 Y148.162
G01 X183.403 Y148.498
G01 X183.826 Y148.814
G01 X184.265 Y149.108
G01 X184.717 Y149.381
G01 X184.890 Y149.478
G01 X185.274 Y149.901
G01 X185.686 Y150.310
G01 X186.128 Y150.701
G01 X186.598 Y151.073
G01 X187.095 Y151.425
G01 X187.618 Y151.754
G01 X187.901 Y151.915
G01 X188.512 Y151.814
G01 X189.108 Y151.681
G01 X189.687 Y151.519
G01 X190.249 Y151.329
G01 X190.791 Y151.112
G01 X191.312 Y150.869
G01 X191.629 Y150.704
G01 X192.154 Y150.621
G01 X192.675 Y150.512
G01 X193.190 Y150.377
G01 X193.699 Y150.218
G01 X194.200 Y150.033
G01 X194.691 Y149.824
G01 X195.172 Y149.590
G01 X195.357 Y149.493
G01 X195.931 Y149.400
G01 X196.509 Y149.274
G01 X197.088 Y149.113
G01 X197.667 Y148.918
G01 X198.243 Y148.687
G01 X198.815 Y148.421
G01 X199.085 Y148.281
G01 X199.335 Y147.706
G01 X199.551 Y147.126
G01 X199.733 Y146.543
G01 X199.881 Y145.961
G01 X199.996 Y145.379
G01 X200.077 Y144.801
G01 X200.112 Y144.450
G01 X200.332 Y143.954
G01 X200.527 Y143.446
G01 X200.698 Y142.930
G01 X200.843 Y142.404
G01 X200.963 Y141.872
G01 X201.056 Y141.334
G01 X201.123 Y140.791
G01 X201.138 Y140.618
G01 X201.378 Y140.072
G01 X201.591 Y139.505
G01 X201.775 Y138.916
G01 X201.929 Y138.308
G01 X202.051 Y137.683
G01 X202.140 Y137.041
G01 X202.165 Y136.787
G01 X201.809 Y136.252
G01 X201.431 Y135.744
G01 X201.031 Y135.264
G01 X200.612 Y134.813
G01 X200.177 Y134.392
G01 X199.725 Y134.000
G01 X199.479 Y133.804
G01 X199.175 Y133.339
G01 X198.847 Y132.889
G01 X198.497 Y132.454
G01 X198.126 Y132.037
G01 X197.734 Y131.639
G01 X197.323 Y131.259
G01 X196.893 Y130.900
G01 X196.794 Y130.822
G01 X196.459 Y130.314
G01 X196.091 Y129.817
G01 X195.689 Y129.333
G01 X195.254 Y128.865
G01 X194.787 Y128.414
G01 X194.287 Y127.983
G01 X194.109 Y127.839
G01 X193.452 Y127.847
G01 X192.805 Y127.890
G01 X192.172 Y127.966
G01 X191.553 Y128.075
G01 X190.949 Y128.216
G01 X190.364 Y128.386
G01 X190.099 Y128.474
G01 X189.533 Y128.477
G01 X188.967 Y128.508
G01 X188.404 Y128.566
G01 X187.843 Y128.652
G01 X187.288 Y128.765
G01 X186.738 Y128.906
G01 X186.195 Y129.073
G01 X186.089 Y129.110
G01 X185.475 Y129.114
G01 X184.853 Y129.152
G01 X184.225 Y129.226
G01 X183.591 Y129.336
G01 X182.954 Y129.483
G01 X182.317 Y129.666
G01 X182.079 Y129.745
G01 X181.722 Y130.307
G01 X181.402 Y130.879
G01 X181.118 Y131.459
G01 X180.869 Y132.044
G01 X180.656 Y132.633
G01 X180.479 Y133.223
G01 X180.408 Y133.496
G01 X180.100 Y133.974
G01 X179.816 Y134.467
G01 X179.556 Y134.973
G01 X179.321 Y135.492
G01 X179.112 Y136.021
G01 X178.930 Y136.560
G01 X178.773 Y137.107
G01 X178.738 Y137.248
G01 X178.407 Y137.763
G01 X178.100 Y138.305
G01 X177.818 Y138.871
G01 X177.564 Y139.461
G01 X177.339 Y140.073
G01 X177.145 Y140.706
G01 X177.068 Y141.000
G01 X177.344 Y141.606
G01 X177.649 Y142.188
G01 X177.980 Y142.744
G01 X178.335 Y143.272
G01 X178.712 Y143.773
G01 X179.111 Y144.244
G01 X179.330 Y144.483
G01 X179.561 Y145.002
G01 X179.818 Y145.508
G01 X180.100 Y146.002
G01 X180.405 Y146.481
G01 X180.734 Y146.945
G01 X181.085 Y147.392
G01 X181.457 Y147.821
G01 X181.592 Y147.966
G01 X181.843 Y148.526
G01 X182.129 Y149.080
G01 X182.450 Y149.625
G01 X182.806 Y150.161
G01 X183.197 Y150.685
G01 X183.622 Y151.194
G01 X183.854 Y151.449
G01 X184.518 Y151.537
G01 X185.176 Y151.588
G01 X185.825 Y151.602
G01 X186.464 Y151.581
G01 X187.091 Y151.526
G01 X187.634 Y151.449
G01 X188.202 Y151.529
G01 X188.772 Y151.580
G01 X189.343 Y151.603
G01 X189.914 Y151.598
G01 X190.482 Y151.565
G01 X191.047 Y151.504
G01 X191.414 Y151.449
G01 X192.003 Y151.532
G01 X192.603 Y151.583
G01 X193.213 Y151.603
G01 X193.831 Y151.591
G01 X194.455 Y151.546
G01 X195.085 Y151.467
G01 X195.194 Y151.449
G01 X195.896 Y151.466
G01 X196.454 Y151.449
G01 X196.892 Y150.936
G01 X197.296 Y150.407
G01 X197.665 Y149.866
G01 X197.999 Y149.314
G01 X198.298 Y148.753
G01 X198.535 Y148.244
G01 X198.917 Y147.804
G01 X199.275 Y147.346
G01 X199.610 Y146.872
G01 X199.921 Y146.383
G01 X200.208 Y145.880
G01 X200.468 Y145.364
G01 X200.617 Y145.039
G01 X201.014 Y144.579
G01 X201.392 Y144.093
G01 X201.748 Y143.581
G01 X202.081 Y143.043
G01 X202.389 Y142.481
G01 X202.670 Y141.897
G01 X202.699 Y141.833
G01 X203.104 Y141.239
G01 X203.392 Y140.765
G01 X203.196 Y140.105
G01 X202.967 Y139.466
G01 X202.708 Y138.850
G01 X202.420 Y138.258
G01 X202.106 Y137.692
G01 X201.821 Y137.235
G01 X201.654 Y136.663
G01 X201.460 Y136.101
G01 X201.239 Y135.549
G01 X200.992 Y135.010
G01 X200.719 Y134.485
G01 X200.420 Y133.974
G01 X200.249 Y133.705
G01 X200.076 Y133.109
G01 X199.868 Y132.514
G01 X199.626 Y131.924
G01 X199.349 Y131.340
G01 X199.038 Y130.764
G01 X198.692 Y130.198
G01 X198.678 Y130.175
G01 X198.394 Y129.499
G01 X198.154 Y128.998
G01 X197.478 Y128.800
G01 X196.803 Y128.642
G01 X196.130 Y128.522
G01 X195.462 Y128.441
G01 X194.802 Y128.396
G01 X194.296 Y128.387
G01 X193.714 Y128.213
G01 X193.125 Y128.067
G01 X192.531 Y127.951
G01 X191.933 Y127.864
G01 X191.333 Y127.807
G01 X190.731 Y127.779
G01 X190.438 Y127.776
G01 X189.835 Y127.595
G01 X189.216 Y127.445
G01 X188.581 Y127.325
G01 X187.933 Y127.238
G01 X187.273 Y127.184
G01 X186.603 Y127.165
G01 X186.580 Y127.165
G01 X185.854 Y127.034
G01 X185.294 Y126.962
G01 X184.751 Y127.428
G01 X184.243 Y127.915
G01 X183.770 Y128.422
G01 X183.332 Y128.945
G01 X182.930 Y129.483
G01 X182.652 Y129.895
G01 X182.184 Y130.292
G01 X181.737 Y130.710
G01 X181.313 Y131.148
G01 X180.911 Y131.605
G01 X180.533 Y132.081
G01 X180.180 Y132.573
G01 X180.011 Y132.829
G01 X179.529 Y133.237
G01 X179.064 Y133.674
G01 X178.617 Y134.141
G01 X178.190 Y134.637
G01 X177.784 Y135.161
G01 X177.402 Y135.712
G01 X177.369 Y135.763
G01 X176.863 Y136.300
G01 X176.488 Y136.741
G01 X176.583 Y137.453
G01 X176.715 Y138.148
G01 X176.882 Y138.824
G01 X177.082 Y139.479
G01 X177.315 Y140.111
G01 X177.521 Y140.595
G01 X177.597 Y141.204
G01 X177.703 Y141.806
G01 X177.838 Y142.401
G01 X178.002 Y142.987
G01 X178.194 Y143.563
G01 X178.414 Y144.127
G01 X178.554 Y144.449
G01 X178.632 Y145.074
G01 X178.744 Y145.702
G01 X178.891 Y146.331
G01 X179.073 Y146.959
G01 X179.290 Y147.584
G01 X179.543 Y148.205
G01 X179.586 Y148.303
G01 X179.761 Y149.021
G01 X179.930 Y149.588
G01 X180.578 Y149.897
G01 X181.232 Y150.166
G01 X181.889 Y150.395
G01 X182.546 Y150.585
G01 X183.203 Y150.735
G01 X183.765 Y150.834
G01 X184.317 Y151.102
G01 X184.880 Y151.343
G01 X185.453 Y151.554
G01 X186.034 Y151.737
G01 X186.622 Y151.891
G01 X187.216 Y152.016
G01 X187.600 Y152.080
G01 X188.170 Y152.357
G01 X188.761 Y152.607
G01 X189.373 Y152.828
G01 X190.003 Y153.020
G01 X190.650 Y153.179
G01 X191.313 Y153.307
G01 X191.434 Y153.326
G01 X192.139 Y153.573
G01 X192.713 Y153.741
G01 X193.327 Y153.365
G01 X193.911 Y152.962
G01 X194.464 Y152.534
G01 X194.985 Y152.084
G01 X195.472 Y151.613
G01 X195.879 Y151.177
G01 X196.410 Y150.857
G01 X196.923 Y150.512
G01 X197.418 Y150.143
G01 X197.894 Y149.751
G01 X198.349 Y149.336
G01 X198.782 Y148.900
G01 X199.045 Y148.614
G01 X199.597 Y148.281
G01 X200.138 Y147.914
G01 X200.666 Y147.514
G01 X201.178 Y147.081
G01 X201.674 Y146.615
G01 X202.150 Y146.118
G01 X202.211 Y146.050
G01 X202.815 Y145.583
G01 X203.266 Y145.195
G01 X203.285 Y144.464
G01 X203.264 Y143.743
G01 X203.204 Y143.036
G01 X203.108 Y142.343
G01 X202.977 Y141.668
G01 X202.836 Y141.102
G01 X202.856 Y140.470
G01 X202.845 Y139.839
G01 X202.803 Y139.210
G01 X202.731 Y138.585
G01 X202.628 Y137.965
G01 X202.494 Y137.351
G01 X202.406 Y137.008
G01 X202.427 Y136.350
G01 X202.412 Y135.682
G01 X202.362 Y135.007
G01 X202.274 Y134.326
G01 X202.150 Y133.643
G01 X201.987 Y132.958
G01 X201.976 Y132.915
G01 X201.912 Y132.139
G01 X201.832 Y131.550
G01 X201.215 Y131.129
G01 X200.586 Y130.747
G01 X199.946 Y130.405
G01 X199.299 Y130.104
G01 X198.647 Y129.842
G01 X198.127 Y129.663
G01 X197.597 Y129.295
G01 X197.050 Y128.954
G01 X196.488 Y128.642
G01 X195.913 Y128.358
G01 X195.325 Y128.102
G01 X194.727 Y127.877
G01 X194.423 Y127.775
G01 X193.872 Y127.394
G01 X193.295 Y127.037
G01 X192.692 Y126.708
G01 X192.065 Y126.406
G01 X191.415 Y126.135
G01 X190.742 Y125.895
G01 X190.718 Y125.887
G01 X190.025 Y125.515
G01 X189.483 Y125.258
G01 X188.782 Y125.563
G01 X188.110 Y125.900
G01 X187.468 Y126.268
G01 X186.857 Y126.664
G01 X186.280 Y127.086
G01 X186.176 Y127.167
G01 X185.571 Y127.426
G01 X184.981 Y127.712
G01 X184.409 Y128.027
G01 X183.856 Y128.367
G01 X183.322 Y128.733
G01 X182.870 Y129.076
G01 X182.265 Y129.333
G01 X181.669 Y129.624
G01 X181.084 Y129.947
G01 X180.510 Y130.303
G01 X179.949 Y130.692
G01 X179.563 Y130.985
G01 X178.888 Y131.317
G01 X178.221 Y131.693
G01 X177.565 Y132.114
G01 X177.358 Y132.258
G01 X177.231 Y133.017
G01 X177.146 Y133.770
G01 X177.104 Y134.514
G01 X177.104 Y135.246
G01 X177.144 Y135.966
G01 X177.157 Y136.109
G01 X177.042 Y136.759
G01 X176.961 Y137.411
G01 X176.912 Y138.063
G01 X176.896 Y138.714
G01 X176.912 Y139.362
G01 X176.955 Y139.960
G01 X176.841 Y140.606
G01 X176.759 Y141.263
G01 X176.710 Y141.930
G01 X176.695 Y142.604
G01 X176.714 Y143.285
G01 X176.753 Y143.811
G01 X176.663 Y144.557
G01 X176.614 Y145.320
G01 X176.609 Y146.099
G01 X176.618 Y146.379
G01 X177.185 Y146.900
G01 X177.769 Y147.381
G01 X178.369 Y147.822
G01 X178.983 Y148.223
G01 X179.607 Y148.582
G01 X179.769 Y148.668
G01 X180.251 Y149.118
G01 X180.752 Y149.542
G01 X181.272 Y149.938
G01 X181.808 Y150.307
G01 X182.359 Y150.647
G01 X182.920 Y150.957
G01 X183.400 Y151.406
G01 X183.907 Y151.834
G01 X184.440 Y152.240
G01 X184.998 Y152.621
G01 X185.581 Y152.977
G01 X186.071 Y153.246
G01 X186.650 Y153.731
G01 X187.268 Y154.191
G01 X187.923 Y154.622
G01 X188.171 Y154.772
G01 X188.918 Y154.582
G01 X189.641 Y154.354
G01 X190.340 Y154.091
G01 X191.011 Y153.795
G01 X191.655 Y153.467
G01 X191.843 Y153.363
G01 X192.486 Y153.203
G01 X193.118 Y153.013
G01 X193.738 Y152.792
G01 X194.344 Y152.542
G01 X194.933 Y152.264
G01 X195.507 Y151.958
G01 X195.514 Y151.953
G01 X196.160 Y151.794
G01 X196.803 Y151.600
G01 X197.441 Y151.370
G01 X198.073 Y151.106
G01 X198.697 Y150.807
G01 X199.186 Y150.544
G01 X199.921 Y150.318
G01 X200.655 Y150.045
G01 X201.386 Y149.725
G01 X201.633 Y149.605
G01 X201.882 Y148.867
G01 X202.087 Y148.128
G01 X202.249 Y147.390
G01 X202.367 Y146.657
G01 X202.444 Y145.930
G01 X202.459 Y145.720
G01 X202.678 Y145.084
G01 X202.865 Y144.439
G01 X203.020 Y143.788
G01 X203.141 Y143.133
G01 X203.230 Y142.476
G01 X203.285 Y141.836
G01 X203.506 Y141.195
G01 X203.696 Y140.537
G01 X203.853 Y139.863
G01 X203.978 Y139.174
G01 X204.067 Y138.474
G01 X204.110 Y137.952
G01 X204.325 Y137.197
G01 X204.499 Y136.417
G01 X204.630 Y135.612
G01 X204.661 Y135.363
G01 X204.167 Y134.741
G01 X203.648 Y134.157
G01 X203.107 Y133.610
G01 X202.546 Y133.102
G01 X201.966 Y132.634
G01 X201.826 Y132.528
G01 X201.402 Y131.987
G01 X200.953 Y131.469
G01 X200.482 Y130.977
G01 X199.988 Y130.509
G01 X199.474 Y130.069
G01 X198.991 Y129.693
G01 X198.565 Y129.149
G01 X198.108 Y128.622
G01 X197.619 Y128.115
G01 X197.100 Y127.628
G01 X196.551 Y127.164
G01 X196.156 Y126.858
G01 X195.632 Y126.259
G01 X195.064 Y125.680
G01 X194.452 Y125.125
G01 X194.266 Y124.968
G01 X193.461 Y125.046
G01 X192.674 Y125.165
G01 X191.908 Y125.325
G01 X191.163 Y125.524
G01 X190.443 Y125.760
G01 X190.307 Y125.810
G01 X189.612 Y125.872
G01 X188.924 Y125.968
G01 X188.245 Y126.098
G01 X187.575 Y126.260
G01 X186.917 Y126.454
G01 X186.349 Y126.651
G01 X185.654 Y126.713
G01 X184.957 Y126.811
G01 X184.259 Y126.945
G01 X183.563 Y127.117
G01 X182.870 Y127.325
G01 X182.390 Y127.493
G01 X181.599 Y127.606
G01 X180.801 Y127.768
G01 X179.999 Y127.978
G01 X179.750 Y128.054
G01 X179.373 Y128.778
G01 X179.041 Y129.510
G01 X178.755 Y130.248
G01 X178.514 Y130.987
G01 X178.319 Y131.726
G01 X178.286 Y131.868
G01 X177.958 Y132.487
G01 X177.662 Y133.120
G01 X177.398 Y133.763
G01 X177.169 Y134.415
G01 X176.972 Y135.075
G01 X176.822 Y135.682
G01 X176.495 Y136.298
G01 X176.196 Y136.935
G01 X175.928 Y137.593
G01 X175.692 Y138.270
G01 X175.489 Y138.965
G01 X175.358 Y139.496
G01 X175.022 Y140.220
G01 X174.723 Y140.975
G01 X174.463 Y141.761
G01 X174.382 Y142.039
G01 X174.784 Y142.751
G01 X175.217 Y143.430
G01 X175.679 Y144.073
G01 X176.168 Y144.678
G01 X176.681 Y145.246
G01 X176.806 Y145.375
G01 X177.145 Y145.988
G01 X177.513 Y146.580
G01 X177.908 Y147.152
G01 X178.329 Y147.700
G01 X178.774 Y148.224
G01 X179.230 Y148.711
G01 X179.567 Y149.321
G01 X179.938 Y149.919
G01 X180.343 Y150.503
G01 X180.782 Y151.070
G01 X181.253 Y151.620
G01 X181.654 Y152.047
G01 X182.078 Y152.725
G01 X182.550 Y153.390
G01 X183.068 Y154.039
G01 X183.269 Y154.271
G01 X184.085 Y154.323
G01 X184.890 Y154.331
G01 X185.681 Y154.294
G01 X186.456 Y154.215
G01 X187.212 Y154.095
G01 X187.426 Y154.053
G01 X188.126 Y154.103
G01 X188.825 Y154.118
G01 X189.522 Y154.098
G01 X190.213 Y154.045
G01 X190.898 Y153.957
G01 X191.575 Y153.837
G01 X191.582 Y153.835
G01 X192.282 Y153.886
G01 X192.992 Y153.901
G01 X193.708 Y153.879
G01 X194.430 Y153.820
G01 X195.154 Y153.723
G01 X195.738 Y153.618
G01 X196.549 Y153.631
G01 X197.374 Y153.597
G01 X198.212 Y153.513
G01 X198.509 Y153.472
G01 X198.994 Y152.803
G01 X199.434 Y152.119
G01 X199.830 Y151.424
G01 X200.181 Y150.719
G01 X200.434 Y150.138
G01 X200.858 Y149.561
G01 X201.251 Y148.966
G01 X201.612 Y148.356
G01 X201.940 Y147.732
G01 X202.235 Y147.097
G01 X202.359 Y146.804
G01 X202.776 Y146.237
G01 X203.167 Y145.646
G01 X203.531 Y145.031
G01 X203.866 Y144.395
G01 X204.171 Y143.737
G01 X204.284 Y143.470
G01 X204.753 Y142.825
G01 X205.193 Y142.143
G01 X205.601 Y141.424
G01 X205.974 Y140.671
G01 X206.209 Y140.136
G01 X205.906 Y139.352
G01 X205.566 Y138.598
G01 X205.191 Y137.876
G01 X204.784 Y137.188
G01 X204.445 Y136.674
G01 X204.186 Y135.991
G01 X203.895 Y135.326
G01 X203.573 Y134.680
G01 X203.222 Y134.053
G01 X202.841 Y133.449
G01 X202.681 Y133.212
G01 X202.427 Y132.541
G01 X202.138 Y131.879
G01 X201.814 Y131.227
G01 X201.455 Y130.588
G01 X201.061 Y129.963
G01 X200.917 Y129.751
G01 X200.627 Y128.994
G01 X200.288 Y128.241
G01 X199.900 Y127.496
G01 X199.464 Y126.761
G01 X199.154 Y126.289
G01 X198.316 Y126.114
G01 X197.483 Y125.987
G01 X196.659 Y125.908
G01 X195.844 Y125.875
G01 X195.255 Y125.880
G01 X194.529 Y125.723
G01 X193.801 Y125.603
G01 X193.071 Y125.520
G01 X192.343 Y125.474
G01 X191.618 Y125.464
G01 X191.356 Y125.470
G01 X190.646 Y125.316
G01 X189.925 Y125.196
G01 X189.193 Y125.113
G01 X188.452 Y125.065
G01 X187.705 Y125.055
G01 X187.458 Y125.060
G01 X186.659 Y124.890
G01 X185.837 Y124.764
G01 X184.995 Y124.682
G01 X184.135 Y124.647
G01 X183.559 Y124.650
G01 X182.948 Y125.265
G01 X182.381 Y125.902
G01 X181.860 Y126.559
G01 X181.384 Y127.232
G01 X181.070 Y127.724
G01 X180.539 Y128.252
G01 X180.038 Y128.802
G01 X179.567 Y129.372
G01 X179.129 Y129.962
G01 X178.723 Y130.569
G01 X178.581 Y130.798
G01 X178.063 Y131.310
G01 X177.568 Y131.852
G01 X177.098 Y132.422
G01 X176.653 Y133.018
G01 X176.237 Y133.639
G01 X176.093 Y133.871
G01 X175.515 Y134.448
G01 X174.960 Y135.068
G01 X174.433 Y135.728
G01 X173.935 Y136.429
G01 X173.604 Y136.945
G01 X173.786 Y137.795
G01 X174.012 Y138.621
G01 X174.279 Y139.419
G01 X174.584 Y140.187
G01 X174.837 Y140.739
G01 X174.989 Y141.473
G01 X175.176 Y142.193
G01 X175.398 Y142.899
G01 X175.653 Y143.588
G01 X175.940 Y144.259
G01 X176.070 Y144.534
G01 X176.216 Y145.247
G01 X176.400 Y145.957
G01 X176.620 Y146.661
G01 X176.877 Y147.358
G01 X177.170 Y148.046
G01 X177.302 Y148.329
G01 X177.471 Y149.128
G01 X177.687 Y149.931
G01 X177.953 Y150.733
G01 X178.269 Y151.533
G01 X178.535 Y152.124
G01 X179.347 Y152.435
G01 X180.161 Y152.696
G01 X180.975 Y152.907
G01 X181.785 Y153.070
G01 X182.423 Y153.165
G01 X183.121 Y153.438
G01 X183.827 Y153.674
G01 X184.540 Y153.873
G01 X185.257 Y154.036
G01 X185.977 Y154.161
G01 X186.311 Y154.207
G01 X186.991 Y154.474
G01 X187.689 Y154.708
G01 X188.402 Y154.908
G01 X189.129 Y155.074
G01 X189.869 Y155.203
G01 X190.199 Y155.249
G01 X190.967 Y155.546
G01 X191.765 Y155.804
G01 X192.590 Y156.020
G01 X193.441 Y156.192
G01 X194.087 Y156.291
G01 X194.792 Y155.777
G01 X195.457 Y155.235
G01 X196.081 Y154.666
G01 X196.662 Y154.073
G01 X197.104 Y153.574
G01 X197.717 Y153.134
G01 X198.304 Y152.666
G01 X198.865 Y152.173
G01 X199.396 Y151.655
G01 X199.899 Y151.115
G01 X200.121 Y150.857
G01 X200.723 Y150.426
G01 X201.307 Y149.963
G01 X201.870 Y149.466
G01 X202.412 Y148.939
G01 X202.931 Y148.380
G01 X203.138 Y148.141
G01 X203.817 Y147.649
G01 X204.478 Y147.111
G01 X205.120 Y146.526
G01 X205.737 Y145.894
G01 X206.156 Y145.424
G01 X206.108 Y144.542
G01 X206.013 Y143.677
G01 X205.873 Y142.833
G01 X205.690 Y142.012
G01 X205.515 Y141.379
G01 X205.478 Y140.613
G01 X205.404 Y139.854
G01 X205.292 Y139.103
G01 X205.145 Y138.363
G01 X204.961 Y137.635
G01 X204.874 Y137.335
G01 X204.839 Y136.582
G01 X204.766 Y135.826
G01 X204.654 Y135.070
G01 X204.502 Y134.314
G01 X204.312 Y133.561
G01 X204.234 Y133.290
G01 X204.190 Y132.439
G01 X204.096 Y131.576
G01 X203.950 Y130.704
G01 X203.753 Y129.827
G01 X203.593 Y129.246
G01 X202.813 Y128.798
G01 X202.022 Y128.401
G01 X201.224 Y128.053
G01 X200.421 Y127.756
G01 X199.820 Y127.566
G01 X199.145 Y127.173
G01 X198.456 Y126.817
G01 X197.753 Y126.496
G01 X197.040 Y126.213
G01 X196.318 Y125.968
G01 X196.047 Y125.886
G01 X195.387 Y125.500
G01 X194.703 Y125.146
G01 X193.997 Y124.824
G01 X193.271 Y124.536
G01 X192.526 Y124.282
G01 X192.274 Y124.206
G01 X191.528 Y123.776
G01 X190.746 Y123.381
G01 X189.928 Y123.025
G01 X189.077 Y122.710
G01 X188.501 Y122.526
G01 X187.689 Y122.943
G01 X186.915 Y123.397
G01 X186.179 Y123.884
G01 X185.483 Y124.404
G01 X185.008 Y124.795
G01 X184.304 Y125.151
G01 X183.622 Y125.539
G01 X182.965 Y125.958
G01 X182.333 Y126.407
G01 X181.728 Y126.883
G01 X181.515 Y127.063
G01 X180.828 Y127.409
G01 X180.155 Y127.792
G01 X179.497 Y128.210
G01 X178.856 Y128.664
G01 X178.235 Y129.152
G01 X178.022 Y129.332
G01 X177.254 Y129.723
G01 X176.495 Y130.164
G01 X175.750 Y130.656
G01 X175.021 Y131.197
G01 X174.529 Y131.600
G01 X174.444 Y132.518
G01 X174.411 Y133.423
G01 X174.429 Y134.313
G01 X174.496 Y135.186
G01 X174.529 Y135.477
G01 X174.451 Y136.271
G01 X174.412 Y137.063
G01 X174.414 Y137.849
G01 X174.455 Y138.627
G01 X174.529 Y139.354
G01 X174.453 Y140.114
G01 X174.414 Y140.881
G01 X174.412 Y141.651
G01 X174.449 Y142.424
G01 X174.525 Y143.197
G01 X174.529 Y143.231
G01 X174.448 Y144.053
G01 X174.412 Y144.891
G01 X174.420 Y145.742
G01 X174.475 Y146.604
G01 X174.529 Y147.108
G01 X174.519 Y148.055
G01 X174.529 Y148.400
G01 X175.252 Y148.972
G01 X175.992 Y149.493
G01 X176.748 Y149.964
G01 X177.515 Y150.384
G01 X177.808 Y150.529
G01 X178.430 Y151.028
G01 X179.072 Y151.491
G01 X179.731 Y151.918
G01 X180.405 Y152.309
G01 X181.086 Y152.658
G01 X181.682 Y153.137
G01 X182.303 Y153.588
G01 X182.949 Y154.010
G01 X183.618 Y154.401
G01 X184.308 Y154.760
G01 X184.365 Y154.787
G01 X185.013 Y155.306
G01 X185.698 Y155.795
G01 X186.419 Y156.254
G01 X187.176 Y156.679
G01 X187.643 Y156.916
G01 X188.437 Y157.444
G01 X188.736 Y157.626
G01 X189.610 Y157.332
G01 X190.452 Y156.995
G01 X191.260 Y156.617
G01 X192.032 Y156.203
G01 X192.337 Y156.023
G01 X193.097 Y155.772
G01 X193.839 Y155.485
G01 X194.560 Y155.164
G01 X195.258 Y154.809
G01 X195.933 Y154.423
G01 X195.938 Y154.420
G01 X196.670 Y154.179
G01 X197.393 Y153.901
G01 X198.105 Y153.586
G01 X198.804 Y153.235
G01 X199.487 Y152.848
G01 X199.539 Y152.817
G01 X200.336 Y152.552
G01 X201.130 Y152.240
G01 X201.919 Y151.879
G01 X202.698 Y151.470
G01 X203.139 Y151.214
G01 X204.028 Y150.829
G01 X204.340 Y150.679
G01 X204.570 Y149.777
G01 X204.747 Y148.879
G01 X204.872 Y147.987
G01 X204.946 Y147.105
G01 X204.961 Y146.754
G01 X205.167 Y145.969
G01 X205.331 Y145.181
G01 X205.456 Y144.391
G01 X205.539 Y143.601
G01 X205.583 Y142.829
G01 X205.782 Y142.072
G01 X205.945 Y141.301
G01 X206.070 Y140.520
G01 X206.156 Y139.729
G01 X206.204 Y138.932
G01 X206.205 Y138.904
G01 X206.420 Y138.077
G01 X206.593 Y137.225
G01 X206.721 Y136.353
G01 X206.802 Y135.461
G01 X206.826 Y134.979
G01 X206.990 Y134.008
G01 X207.033 Y133.671
G01 X206.392 Y132.976
G01 X205.723 Y132.328
G01 X205.032 Y131.729
G01 X204.320 Y131.179
G01 X204.056 Y130.990
G01 X203.500 Y130.381
G01 X202.918 Y129.804
G01 X202.312 Y129.261
G01 X201.684 Y128.753
G01 X201.079 Y128.310
G01 X200.543 Y127.721
G01 X199.976 Y127.156
G01 X199.379 Y126.618
G01 X198.753 Y126.108
G01 X198.102 Y125.629
G01 X197.517 Y124.990
G01 X196.888 Y124.374
G01 X196.217 Y123.784
G01 X195.504 Y123.223
G01 X195.125 Y122.949
G01 X194.392 Y122.275
G01 X194.132 Y122.055
G01 X193.185 Y122.218
G01 X192.264 Y122.429
G01 X191.372 Y122.688
G01 X190.510 Y122.990
G01 X190.232 Y123.100
G01 X189.407 Y123.237
G01 X188.595 Y123.414
G01 X187.800 Y123.629
G01 X187.023 Y123.882
G01 X186.331 Y124.145
G01 X185.538 Y124.276
G01 X184.748 Y124.445
G01 X183.965 Y124.655
G01 X183.190 Y124.904
G01 X182.430 Y125.191
G01 X181.571 Y125.334
G01 X180.708 Y125.526
G01 X179.844 Y125.768
G01 X178.982 Y126.061
G01 X178.529 Y126.236
G01 X177.563 Y126.484
G01 X177.229 Y126.584
G01 X176.846 Y127.475
G01 X176.519 Y128.370
G01 X176.247 Y129.266
G01 X176.031 Y130.160
G01 X175.971 Y130.456
G01 X175.634 Y131.226
G01 X175.339 Y132.006
G01 X175.085 Y132.793
G01 X174.873 Y133.586
G01 X174.713 Y134.327
G01 X174.389 Y135.064
G01 X174.101 Y135.819
G01 X173.849 Y136.590
G01 X173.635 Y137.376
G01 X173.459 Y138.175
G01 X173.455 Y138.199
G01 X173.107 Y138.996
G01 X172.797 Y139.824
G01 X172.529 Y140.679
G01 X172.305 Y141.560
G01 X172.197 Y142.070
G01 X171.879 Y143.015
G01 X171.778 Y143.361
G01 X172.315 Y144.168
G01 X172.888 Y144.931
G01 X173.492 Y145.648
G01 X174.124 Y146.318
G01 X174.360 Y146.550
G01 X174.821 Y147.251
G01 X175.313 Y147.924
G01 X175.834 Y148.566
G01 X176.383 Y149.176
G01 X176.942 Y149.738
G01 X177.382 Y150.411
G01 X177.857 Y151.064
G01 X178.366 Y151.696
G01 X178.908 Y152.303
G01 X179.482 Y152.886
G01 X179.524 Y152.927
G01 X180.003 Y153.655
G01 X180.529 Y154.366
G01 X181.100 Y155.058
G01 X181.718 Y155.728
G01 X182.106 Y156.116
G01 X182.727 Y156.900
G01 X182.967 Y157.179
G01 X183.937 Y157.168
G01 X184.888 Y157.104
G01 X185.818 Y156.989
G01 X186.725 Y156.825
G01 X187.080 Y156.746
G01 X187.921 Y156.742
G01 X188.754 Y156.696
G01 X189.578 Y156.609
G01 X190.391 Y156.482
G01 X191.190 Y156.315
G01 X191.192 Y156.314
G01 X192.001 Y156.312
G01 X192.812 Y156.269
G01 X193.623 Y156.185
G01 X194.433 Y156.062
G01 X195.240 Y155.897
G01 X195.305 Y155.882
G01 X196.185 Y155.877
G01 X197.077 Y155.823
G01 X197.978 Y155.719
G01 X198.885 Y155.564
G01 X199.418 Y155.450
G01 X200.426 Y155.354
G01 X200.789 Y155.305
G01 X201.311 Y154.481
G01 X201.779 Y153.643
G01 X202.192 Y152.795
G01 X202.551 Y151.940
G01 X202.681 Y151.592
G01 X203.140 Y150.877
G01 X203.559 Y150.146
G01 X203.938 Y149.399
G01 X204.277 Y148.640
G01 X204.573 Y147.879
G01 X205.017 Y147.190
G01 X205.427 Y146.476
G01 X205.804 Y145.740
G01 X206.146 Y144.982
G01 X206.451 Y144.204
G01 X206.465 Y144.165
G01 X206.947 Y143.412
G01 X207.394 Y142.622
G01 X207.803 Y141.795
G01 X208.173 Y140.935
G01 X208.357 Y140.452
G01 X208.834 Y139.539
G01 X208.988 Y139.214
G01 X208.565 Y138.316
G01 X208.101 Y137.457
G01 X207.598 Y136.640
G01 X207.060 Y135.866
G01 X207.038 Y135.836
G01 X206.672 Y135.047
G01 X206.270 Y134.284
G01 X205.833 Y133.548
G01 X205.364 Y132.841
G01 X205.088 Y132.459
G01 X204.740 Y131.705
G01 X204.354 Y130.967
G01 X203.931 Y130.248
G01 X203.472 Y129.548
G01 X203.138 Y129.081
G01 X202.768 Y128.283
G01 X202.351 Y127.496
G01 X201.886 Y126.721
G01 X201.376 Y125.963
G01 X201.188 Y125.704
G01 X200.727 Y124.813
G01 X200.204 Y123.934
G01 X199.888 Y123.452
G01 X198.889 Y123.316
G01 X197.900 Y123.237
G01 X196.926 Y123.215
G01 X195.969 Y123.246
G01 X195.963 Y123.247
G01 X195.089 Y123.123
G01 X194.218 Y123.044
G01 X193.350 Y123.009
G01 X192.490 Y123.018
G01 X192.039 Y123.041
G01 X191.207 Y122.921
G01 X190.368 Y122.843
G01 X189.525 Y122.805
G01 X188.679 Y122.809
G01 X188.114 Y122.835
G01 X187.236 Y122.710
G01 X186.341 Y122.631
G01 X185.432 Y122.598
G01 X184.511 Y122.613
G01 X184.189 Y122.630
G01 X183.186 Y122.531
G01 X182.160 Y122.490
G01 X181.573 Y122.492
G01 X180.907 Y123.264
G01 X180.297 Y124.059
G01 X179.742 Y124.872
G01 X179.245 Y125.696
G01 X178.661 Y126.366
G01 X178.116 Y127.059
G01 X177.611 Y127.773
G01 X177.148 Y128.504
G01 X176.918 Y128.900
G01 X176.362 Y129.535
G01 X175.837 Y130.197
G01 X175.344 Y130.886
G01 X174.885 Y131.600
G01 X174.590 Y132.104
G01 X174.006 Y132.772
G01 X173.451 Y133.479
G01 X172.928 Y134.223
G01 X172.438 Y135.003
G01 X172.262 Y135.307
G01 X171.633 Y136.094
G01 X171.040 Y136.931
G01 X170.711 Y137.443
G01 X170.996 Y138.425
G01 X171.330 Y139.372
G01 X171.710 Y140.283
G01 X172.134 Y141.155
G01 X172.141 Y141.168
G01 X172.384 Y142.024
G01 X172.667 Y142.859
G01 X172.990 Y143.671
G01 X173.350 Y144.459
G01 X173.570 Y144.893
G01 X173.799 Y145.704
G01 X174.068 Y146.505
G01 X174.376 Y147.293
G01 X174.724 Y148.066
G01 X175.000 Y148.618
G01 X175.242 Y149.471
G01 X175.532 Y150.322
G01 X175.870 Y151.166
G01 X176.257 Y152.002
G01 X176.430 Y152.343
G01 X176.747 Y153.300
G01 X177.126 Y154.255
G01 X177.383 Y154.826
G01 X178.361 Y155.122
G01 X179.337 Y155.359
G01 X180.307 Y155.537
G01 X181.269 Y155.658
G01 X181.316 Y155.662
G01 X182.166 Y155.925
G01 X183.020 Y156.143
G01 X183.877 Y156.315
G01 X184.734 Y156.443
G01 X185.248 Y156.498
G01 X186.054 Y156.749
G01 X186.874 Y156.961
G01 X187.705 Y157.132
G01 X188.545 Y157.263
G01 X189.180 Y157.334
G01 X190.032 Y157.598
G01 X190.908 Y157.819
G01 X191.805 Y157.997
G01 X192.723 Y158.128
G01 X193.112 Y158.170
G01 X194.096 Y158.427
G01 X195.113 Y158.632
G01 X195.734 Y158.727
G01 X196.517 Y158.066
G01 X197.249 Y157.375
G01 X197.930 Y156.655
G01 X198.558 Y155.912
G01 X198.597 Y155.863
G01 X199.285 Y155.290
G01 X199.937 Y154.687
G01 X200.553 Y154.058
G01 X201.131 Y153.404
G01 X201.461 Y152.999
G01 X202.117 Y152.454
G01 X202.747 Y151.876
G01 X203.350 Y151.266
G01 X203.923 Y150.625
G01 X204.325 Y150.135
G01 X205.019 Y149.557
G01 X205.691 Y148.934
G01 X206.337 Y148.268
G01 X206.955 Y147.560
G01 X207.189 Y147.272
G01 X207.952 Y146.576
G01 X208.688 Y145.823
G01 X209.098 Y145.362
G01 X208.968 Y144.334
G01 X208.785 Y143.332
G01 X208.549 Y142.359
G01 X208.265 Y141.416
G01 X208.250 Y141.372
G01 X208.141 Y140.470
G01 X207.988 Y139.583
G01 X207.793 Y138.712
G01 X207.555 Y137.859
G01 X207.401 Y137.381
G01 X207.299 Y136.521
G01 X207.154 Y135.664
G01 X206.967 Y134.813
G01 X206.738 Y133.971
G01 X206.553 Y133.390
G01 X206.443 Y132.478
G01 X206.284 Y131.562
G01 X206.073 Y130.643
G01 X205.811 Y129.725
G01 X205.705 Y129.399
G01 X205.534 Y128.365
G01 X205.299 Y127.323
G01 X205.139 Y126.738
G01 X204.192 Y126.281
G01 X203.236 Y125.884
G01 X202.277 Y125.547
G01 X201.317 Y125.269
G01 X201.302 Y125.266
G01 X200.475 Y124.860
G01 X199.635 Y124.501
G01 X198.785 Y124.186
G01 X197.927 Y123.918
G01 X197.465 Y123.793
G01 X196.677 Y123.405
G01 X195.869 Y123.056
G01 X195.043 Y122.747
G01 X194.201 Y122.477
G01 X193.628 Y122.320
G01 X192.795 Y121.912
G01 X191.931 Y121.543
G01 X191.037 Y121.217
G01 X190.115 Y120.934
G01 X189.791 Y120.847
G01 X188.824 Y120.424
G01 X187.815 Y120.051
G01 X187.233 Y119.865
G01 X186.322 Y120.418
G01 X185.459 Y121.010
G01 X184.644 Y121.639
G01 X183.884 Y122.298
G01 X183.085 Y122.776
G01 X182.319 Y123.290
G01 X181.586 Y123.837
G01 X180.889 Y124.415
G01 X180.534 Y124.732
G01 X179.776 Y125.184
G01 X179.039 Y125.674
G01 X178.325 Y126.201
G01 X177.637 Y126.764
G01 X177.185 Y127.165
G01 X176.387 Y127.643
G01 X175.605 Y128.168
G01 X174.843 Y128.740
G01 X174.102 Y129.359
G01 X173.836 Y129.599
G01 X172.954 Y130.179
G01 X172.091 Y130.822
G01 X171.603 Y131.221
G01 X171.569 Y132.291
G01 X171.596 Y133.343
G01 X171.680 Y134.374
G01 X171.820 Y135.379
G01 X171.821 Y135.385
G01 X171.787 Y136.317
G01 X171.799 Y137.241
G01 X171.858 Y138.155
G01 X171.962 Y139.057
G01 X172.039 Y139.550
G01 X172.005 Y140.432
G01 X172.014 Y141.317
G01 X172.066 Y142.202
G01 X172.162 Y143.085
G01 X172.258 Y143.714
G01 X172.222 Y144.642
G01 X172.236 Y145.583
G01 X172.300 Y146.533
G01 X172.415 Y147.491
G01 X172.476 Y147.878
G01 X172.482 Y148.933
G01 X172.550 Y150.006
G01 X172.621 Y150.654
G01 X173.507 Y151.261
G01 X174.410 Y151.806
G01 X175.325 Y152.291
G01 X176.016 Y152.614
G01 X176.788 Y153.149
G01 X177.579 Y153.640
G01 X178.386 Y154.084
G01 X179.206 Y154.483
G01 X179.411 Y154.574
G01 X180.137 Y155.080
G01 X180.887 Y155.549
G01 X181.659 Y155.980
G01 X182.452 Y156.374
G01 X182.806 Y156.534
G01 X183.555 Y157.055
G01 X184.338 Y157.542
G01 X185.153 Y157.992
G01 X185.999 Y158.404
G01 X186.201 Y158.494
G01 X187.048 Y159.077
G01 X187.943 Y159.620
G01 X188.885 Y160.120
G01 X189.596 Y160.454
G01 X190.588 Y160.042
G01 X191.538 Y159.582
G01 X192.446 Y159.078
G01 X193.113 Y158.662
G01 X193.986 Y158.305
G01 X194.830 Y157.907
G01 X195.646 Y157.472
G01 X196.431 Y156.999
G01 X196.631 Y156.870
G01 X197.455 Y156.534
G01 X198.262 Y156.158
G01 X199.051 Y155.743
G01 X199.818 Y155.289
G01 X200.149 Y155.077
G01 X201.002 Y154.729
G01 X201.845 Y154.333
G01 X202.675 Y153.890
G01 X203.490 Y153.399
G01 X203.666 Y153.285
G01 X204.629 Y152.886
G01 X205.584 Y152.425
G01 X206.529 Y151.900
G01 X207.184 Y151.493
G01 X207.379 Y150.427
G01 X207.512 Y149.370
G01 X207.585 Y148.326
G01 X207.600 Y147.538
G01 X207.776 Y146.602
G01 X207.904 Y145.666
G01 X207.983 Y144.734
G01 X208.015 Y143.808
G01 X208.015 Y143.584
G01 X208.184 Y142.698
G01 X208.310 Y141.804
G01 X208.391 Y140.904
G01 X208.428 Y140.001
G01 X208.431 Y139.630
G01 X208.605 Y138.711
G01 X208.734 Y137.774
G01 X208.814 Y136.822
G01 X208.846 Y135.856
G01 X208.846 Y135.676
G01 X209.038 Y134.636
G01 X209.173 Y133.567
G01 X209.247 Y132.473
G01 X209.262 Y131.721
G01 X208.463 Y130.967
G01 X207.637 Y130.271
G01 X206.788 Y129.633
G01 X206.150 Y129.202
G01 X205.450 Y128.534
G01 X204.724 Y127.909
G01 X203.974 Y127.327
G01 X203.203 Y126.789
G01 X203.039 Y126.682
G01 X202.378 Y126.049
G01 X201.686 Y125.449
G01 X200.965 Y124.883
G01 X200.217 Y124.353
G01 X199.927 Y124.162
G01 X199.242 Y123.508
G01 X198.517 Y122.883
G01 X197.753 Y122.289
G01 X196.950 Y121.731
G01 X196.815 Y121.642
G01 X196.040 Y120.908
G01 X195.208 Y120.207
G01 X194.322 Y119.542
G01 X193.704 Y119.122
G01 X192.621 Y119.386
G01 X191.574 Y119.704
G01 X190.564 Y120.074
G01 X189.869 Y120.368
G01 X188.917 Y120.595
G01 X187.986 Y120.867
G01 X187.080 Y121.183
G01 X186.200 Y121.541
G01 X186.034 Y121.614
G01 X185.136 Y121.826
G01 X184.248 Y122.082
G01 X183.374 Y122.381
G01 X182.515 Y122.722
G01 X182.200 Y122.860
G01 X181.273 Y123.079
G01 X180.349 Y123.348
G01 X179.431 Y123.668
G01 X178.521 Y124.037
G01 X178.365 Y124.106
G01 X177.324 Y124.357
G01 X176.281 Y124.673
G01 X175.239 Y125.054
G01 X174.530 Y125.352
G01 X174.159 Y126.411
G01 X173.853 Y127.470
G01 X173.612 Y128.525
G01 X173.479 Y129.274
G01 X173.149 Y130.200
G01 X172.869 Y131.132
G01 X172.639 Y132.067
G01 X172.459 Y133.004
G01 X172.429 Y133.196
G01 X172.116 Y134.066
G01 X171.846 Y134.950
G01 X171.620 Y135.847
G01 X171.438 Y136.754
G01 X171.378 Y137.117
G01 X171.056 Y138.013
G01 X170.778 Y138.934
G01 X170.545 Y139.877
G01 X170.359 Y140.840
G01 X170.327 Y141.039
G01 X169.970 Y142.047
G01 X169.666 Y143.093
G01 X169.418 Y144.173
G01 X169.276 Y144.961
G01 X169.961 Y145.850
G01 X170.683 Y146.684
G01 X171.437 Y147.462
G01 X172.012 Y147.999
G01 X172.607 Y148.780
G01 X173.235 Y149.523
G01 X173.894 Y150.225
G01 X174.581 Y150.886
G01 X174.747 Y151.037
G01 X175.305 Y151.773
G01 X175.899 Y152.481
G01 X176.527 Y153.159
G01 X177.188 Y153.806
G01 X177.482 Y154.074
G01 X178.058 Y154.833
G01 X178.679 Y155.568
G01 X179.343 Y156.278
G01 X180.050 Y156.960
G01 X180.218 Y157.112
G01 X180.870 Y157.963
G01 X181.583 Y158.790
G01 X182.356 Y159.590
G01 X182.953 Y160.150
G01 X184.072 Y160.061
G01 X185.165 Y159.911
G01 X186.228 Y159.703
G01 X187.019 Y159.507
G01 X187.999 Y159.433
G01 X188.966 Y159.311
G01 X189.916 Y159.142
G01 X190.846 Y158.926
G01 X191.084 Y158.863
G01 X192.009 Y158.795
G01 X192.930 Y158.683
G01 X193.845 Y158.525
G01 X194.752 Y158.322
G01 X195.149 Y158.219
G01 X196.106 Y158.149
G01 X197.068 Y158.028
G01 X198.032 Y157.856
G01 X198.997 Y157.633
G01 X199.215 Y157.575
G01 X200.294 Y157.490
G01 X201.388 Y157.341
G01 X202.491 Y157.125
G01 X203.280 Y156.931
G01 X203.817 Y155.938
G01 X204.289 Y154.935
G01 X204.696 Y153.924
G01 X204.965 Y153.145
G01 X205.442 Y152.275
G01 X205.869 Y151.391
G01 X206.247 Y150.494
G01 X206.576 Y149.588
G01 X206.651 Y149.360
G01 X207.103 Y148.538
G01 X207.515 Y147.694
G01 X207.884 Y146.830
G01 X208.212 Y145.949
G01 X208.336 Y145.574
G01 X208.804 Y144.722
G01 X209.232 Y143.837
G01 X209.618 Y142.922
G01 X209.960 Y141.977
G01 X210.022 Y141.788
G01 X210.546 Y140.822
G01 X211.022 Y139.809
G01 X211.448 Y138.751
G01 X211.707 Y138.002
G01 X211.160 Y137.000
G01 X210.567 Y136.046
G01 X209.933 Y135.143
G01 X209.435 Y134.503
G01 X208.958 Y133.618
G01 X208.441 Y132.767
G01 X207.887 Y131.950
G01 X207.297 Y131.171
G01 X207.163 Y131.004
G01 X206.713 Y130.166
G01 X206.222 Y129.350
G01 X205.691 Y128.559
G01 X205.121 Y127.794
G01 X204.891 Y127.506
G01 X204.424 Y126.638
G01 X203.908 Y125.786
G01 X203.342 Y124.953
G01 X202.728 Y124.142
G01 X202.619 Y124.007
G01 X202.087 Y123.030
G01 X201.489 Y122.068
G01 X200.826 Y121.125
G01 X200.346 Y120.508
G01 X199.205 Y120.391
G01 X198.077 Y120.338
G01 X196.967 Y120.348
G01 X195.878 Y120.419
G01 X195.096 Y120.508
G01 X194.102 Y120.433
G01 X193.112 Y120.409
G01 X192.131 Y120.434
G01 X191.159 Y120.508
G01 X190.201 Y120.435
G01 X189.240 Y120.409
G01 X188.276 Y120.430
G01 X187.312 Y120.499
G01 X187.221 Y120.508
G01 X186.223 Y120.432
G01 X185.210 Y120.409
G01 X184.187 Y120.438
G01 X183.284 Y120.508
G01 X182.162 Y120.429
G01 X181.017 Y120.414
G01 X179.853 Y120.465
G01 X179.346 Y120.508
G01 X178.620 Y121.409
G01 X177.956 Y122.334
G01 X177.355 Y123.279
G01 X176.817 Y124.239
G01 X176.468 Y124.940
G01 X175.860 Y125.738
G01 X175.297 Y126.559
G01 X174.781 Y127.400
G01 X174.311 Y128.260
G01 X174.309 Y128.264
G01 X173.724 Y129.030
G01 X173.177 Y129.824
G01 X172.668 Y130.646
G01 X172.200 Y131.493
G01 X172.150 Y131.589
G01 X171.543 Y132.385
G01 X170.971 Y133.222
G01 X170.437 Y134.096
G01 X169.991 Y134.913
G01 X169.314 Y135.809
G01 X168.678 Y136.760
G01 X168.086 Y137.763
G01 X167.833 Y138.237
G01 X168.235 Y139.341
G01 X168.690 Y140.401
G01 X169.197 Y141.415
G01 X169.455 Y141.882
G01 X169.804 Y142.855
G01 X170.198 Y143.799
G01 X170.635 Y144.711
G01 X171.078 Y145.527
G01 X171.403 Y146.439
G01 X171.771 Y147.331
G01 X172.181 Y148.204
G01 X172.634 Y149.053
G01 X172.701 Y149.172
G01 X173.030 Y150.095
G01 X173.407 Y151.007
G01 X173.834 Y151.906
G01 X174.309 Y152.790
G01 X174.324 Y152.817
G01 X174.687 Y153.828
G01 X175.113 Y154.833
G01 X175.601 Y155.829
G01 X175.947 Y156.462
G01 X176.435 Y157.568
G01 X176.488 Y157.677
G01 X177.632 Y157.942
G01 X178.768 Y158.138
G01 X179.893 Y158.266
G01 X180.455 Y158.306
G01 X181.460 Y158.544
G01 X182.466 Y158.728
G01 X183.469 Y158.859
G01 X184.422 Y158.934
G01 X185.364 Y159.159
G01 X186.314 Y159.338
G01 X187.271 Y159.469
G01 X188.232 Y159.553
G01 X188.388 Y159.562
G01 X189.344 Y159.791
G01 X190.319 Y159.972
G01 X191.310 Y160.105
G01 X192.315 Y160.188
G01 X192.355 Y160.191
G01 X193.408 Y160.438
G01 X194.490 Y160.630
G01 X195.599 Y160.764
G01 X196.322 Y160.819
G01 X197.526 Y161.013
G01 X197.644 Y161.028
G01 X198.492 Y160.211
G01 X199.278 Y159.362
G01 X200.001 Y158.485
G01 X200.349 Y158.024
G01 X201.101 Y157.307
G01 X201.807 Y156.559
G01 X202.467 Y155.785
G01 X203.054 Y155.020
G01 X203.762 Y154.347
G01 X204.435 Y153.641
G01 X205.071 Y152.903
G01 X205.671 Y152.136
G01 X205.759 Y152.016
G01 X206.479 Y151.331
G01 X207.169 Y150.604
G01 X207.828 Y149.836
G01 X208.451 Y149.029
G01 X208.464 Y149.012
G01 X209.255 Y148.254
G01 X210.015 Y147.440
G01 X210.740 Y146.570
G01 X211.169 Y146.007
G01 X211.999 Y145.091
G01 X212.071 Y145.006
G01 X211.844 Y143.839
G01 X211.556 Y142.706
G01 X211.211 Y141.611
G01 X211.018 Y141.076
G01 X210.822 Y140.043
G01 X210.576 Y139.032
G01 X210.282 Y138.045
G01 X209.965 Y137.146
G01 X209.782 Y136.173
G01 X209.553 Y135.211
G01 X209.277 Y134.263
G01 X208.955 Y133.330
G01 X208.911 Y133.216
G01 X208.726 Y132.225
G01 X208.488 Y131.237
G01 X208.198 Y130.254
G01 X207.858 Y129.286
G01 X207.650 Y128.196
G01 X207.377 Y127.101
G01 X207.038 Y126.005
G01 X206.805 Y125.355
G01 X206.485 Y124.146
G01 X206.454 Y124.045
G01 X205.336 Y123.595
G01 X204.214 Y123.214
G01 X203.093 Y122.904
G01 X202.560 Y122.780
G01 X201.574 Y122.377
G01 X200.578 Y122.028
G01 X199.577 Y121.734
G01 X198.665 Y121.515
G01 X197.739 Y121.134
G01 X196.796 Y120.799
G01 X195.839 Y120.511
G01 X194.870 Y120.271
G01 X194.771 Y120.249
G01 X193.829 Y119.862
G01 X192.861 Y119.520
G01 X191.869 Y119.226
G01 X190.876 Y118.984
G01 X189.841 Y118.562
G01 X188.766 Y118.193
G01 X187.655 Y117.878
G01 X186.981 Y117.718
G01 X185.786 Y117.327
G01 X185.683 Y117.297
G01 X184.686 Y117.996
G01 X183.746 Y118.738
G01 X182.866 Y119.518
G01 X182.480 Y119.890
G01 X181.597 Y120.503
G01 X180.756 Y121.153
G01 X179.958 Y121.839
G01 X179.278 Y122.484
G01 X178.448 Y123.056
G01 X177.650 Y123.668
G01 X176.883 Y124.318
G01 X176.150 Y125.003
G01 X176.075 Y125.077
G01 X175.235 Y125.658
G01 X174.419 Y126.285
G01 X173.629 Y126.958
G01 X172.872 Y127.671
G01 X171.954 Y128.310
G01 X171.058 Y129.010
G01 X170.187 Y129.770
G01 X169.669 Y130.264
G01 X168.690 Y131.053
G01 X168.602 Y131.129
G01 X168.645 Y132.352
G01 X168.755 Y133.549
G01 X168.931 Y134.716
G01 X169.035 Y135.254
G01 X169.067 Y136.330
G01 X169.154 Y137.392
G01 X169.294 Y138.436
G01 X169.469 Y139.379
G01 X169.497 Y140.386
G01 X169.574 Y141.389
G01 X169.701 Y142.386
G01 X169.875 Y143.374
G01 X169.902 Y143.503
G01 X169.931 Y144.523
G01 X170.011 Y145.548
G01 X170.144 Y146.576
G01 X170.331 Y147.605
G01 X170.336 Y147.628
G01 X170.371 Y148.746
G01 X170.469 Y149.878
G01 X170.631 Y151.021
G01 X170.769 Y151.753
G01 X170.897 Y153.004
G01 X170.914 Y153.128
G01 X171.962 Y153.758
G01 X173.025 Y154.317
G01 X174.099 Y154.807
G01 X174.633 Y155.023
G01 X175.552 Y155.582
G01 X176.489 Y156.088
G01 X177.440 Y156.540
G01 X178.351 Y156.917
G01 X179.211 Y157.443
G01 X180.095 Y157.925
G01 X180.999 Y158.363
G01 X181.923 Y158.755
G01 X182.070 Y158.812
G01 X182.942 Y159.345
G01 X183.847 Y159.837
G01 X184.784 Y160.287
G01 X185.750 Y160.692
G01 X185.789 Y160.707
G01 X186.749 Y161.289
G01 X187.756 Y161.826
G01 X188.808 Y162.315
G01 X189.508 Y162.602
G01 X190.633 Y163.180
G01 X190.748 Y163.234
G01 X191.851 Y162.731
G01 X192.907 Y162.176
G01 X193.913 Y161.574
G01 X194.867 Y160.928
G01 X195.312 Y160.598
G01 X196.271 Y160.168
G01 X197.201 Y159.694
G01 X198.100 Y159.177
G01 X198.965 Y158.620
G01 X199.796 Y158.024
G01 X199.876 Y157.963
G01 X200.803 Y157.549
G01 X201.712 Y157.088
G01 X202.603 Y156.579
G01 X203.471 Y156.024
G01 X204.315 Y155.423
G01 X204.441 Y155.328
G01 X205.456 Y154.871
G01 X206.461 Y154.350
G01 X207.450 Y153.766
G01 X208.422 Y153.119
G01 X209.005 Y152.692
G01 X210.118 Y152.052
G01 X210.147 Y152.034
G01 X210.326 Y150.825
G01 X210.437 Y149.628
G01 X210.480 Y148.447
G01 X210.458 Y147.285
G01 X210.424 Y146.737
G01 X210.587 Y145.687
G01 X210.696 Y144.638
G01 X210.752 Y143.592
G01 X210.756 Y142.551
G01 X210.707 Y141.518
G01 X210.702 Y141.441
G01 X210.860 Y140.426
G01 X210.969 Y139.399
G01 X211.027 Y138.362
G01 X211.034 Y137.318
G01 X210.988 Y136.269
G01 X210.979 Y136.145
G01 X211.150 Y135.030
G01 X211.261 Y133.888
G01 X211.310 Y132.725
G01 X211.295 Y131.542
G01 X211.257 Y130.849
G01 X211.326 Y129.550
G01 X211.326 Y129.525
G01 X210.398 Y128.706
G01 X209.442 Y127.952
G01 X208.462 Y127.265
G01 X207.462 Y126.644
G01 X207.009 Y126.388
G01 X206.206 Y125.671
G01 X205.374 Y125.000
G01 X204.515 Y124.376
G01 X203.633 Y123.799
G01 X202.729 Y123.271
G01 X202.692 Y123.251
G01 X201.917 Y122.557
G01 X201.104 Y121.899
G01 X200.256 Y121.279
G01 X199.373 Y120.699
G01 X198.458 Y120.161
G01 X198.374 Y120.114
G01 X197.523 Y119.357
G01 X196.618 Y118.636
G01 X195.660 Y117.955
G01 X194.651 Y117.318
G01 X194.057 Y116.978
G01 X192.998 Y116.207
G01 X192.978 Y116.194
G01 X191.772 Y116.530
G01 X190.606 Y116.927
G01 X189.484 Y117.381
G01 X188.407 Y117.887
G01 X187.965 Y118.118
G01 X186.916 Y118.404
G01 X185.891 Y118.739
G01 X184.891 Y119.123
G01 X183.919 Y119.554
G01 X182.977 Y120.029
G01 X182.952 Y120.042
G01 X181.942 Y120.316
G01 X180.942 Y120.641
G01 X179.954 Y121.017
G01 X178.982 Y121.443
G01 X178.027 Y121.919
G01 X177.939 Y121.966
G01 X176.838 Y122.268
G01 X175.737 Y122.635
G01 X174.642 Y123.069
G01 X173.555 Y123.568
G01 X172.927 Y123.890
G01 X171.702 Y124.359
G01 X171.673 Y124.372
G01 X171.296 Y125.573
G01 X170.992 Y126.774
G01 X170.760 Y127.968
G01 X170.598 Y129.154
G01 X170.550 Y129.656
G01 X170.217 Y130.694
G01 X169.939 Y131.739
G01 X169.715 Y132.790
G01 X169.546 Y133.842
G01 X169.431 Y134.893
G01 X169.427 Y134.940
G01 X169.105 Y135.937
G01 X168.833 Y136.953
G01 X168.609 Y137.986
G01 X168.436 Y139.033
G01 X168.315 Y140.093
G01 X168.304 Y140.224
G01 X167.956 Y141.312
G01 X167.664 Y142.433
G01 X167.430 Y143.587
G01 X167.256 Y144.769
G01 X167.181 Y145.509
G01 X166.907 Y146.790
G01 X166.900 Y146.830
G01 X167.702 Y147.801
G01 X168.542 Y148.711
G01 X169.418 Y149.558
G01 X170.323 Y150.340
G01 X170.743 Y150.673
G01 X171.431 Y151.518
G01 X172.155 Y152.320
G01 X172.913 Y153.080
G01 X173.702 Y153.796
G01 X174.520 Y154.465
G01 X174.586 Y154.516
G01 X175.246 Y155.329
G01 X175.949 Y156.112
G01 X176.693 Y156.862
G01 X177.477 Y157.578
G01 X178.299 Y158.258
G01 X178.430 Y158.360
G01 X179.153 Y159.245
G01 X179.936 Y160.103
G01 X180.777 Y160.930
G01 X181.675 Y161.722
G01 X182.273 Y162.203
G01 X183.202 Y163.134
G01 X183.234 Y163.164
G01 X184.486 Y163.021
G01 X185.707 Y162.812
G01 X186.894 Y162.540
G01 X188.044 Y162.207
G01 X188.583 Y162.027
G01 X189.668 Y161.875
G01 X190.735 Y161.670
G01 X191.781 Y161.413
G01 X192.594 Y161.174
G01 X193.632 Y161.031
G01 X194.661 Y160.836
G01 X195.680 Y160.591
G01 X196.606 Y160.322
G01 X197.684 Y160.207
G01 X198.766 Y160.034
G01 X199.850 Y159.803
G01 X200.932 Y159.514
G01 X201.954 Y159.185
G01 X203.181 Y159.007
G01 X204.418 Y158.754
G01 X205.661 Y158.425
G01 X205.966 Y158.332
G01 X206.531 Y157.198
G01 X207.023 Y156.054
G01 X207.444 Y154.903
G01 X207.794 Y153.751
G01 X207.937 Y153.196
G01 X208.405 Y152.195
G01 X208.817 Y151.180
G01 X209.174 Y150.154
G01 X209.416 Y149.344
G01 X209.865 Y148.386
G01 X210.266 Y147.406
G01 X210.619 Y146.407
G01 X210.895 Y145.493
G01 X211.390 Y144.514
G01 X211.840 Y143.499
G01 X212.241 Y142.452
G01 X212.591 Y141.373
G01 X212.866 Y140.357
G01 X213.391 Y139.216
G01 X213.858 Y138.026
G01 X214.263 Y136.787
G01 X214.345 Y136.505
G01 X213.693 Y135.402
G01 X212.993 Y134.355
G01 X212.249 Y133.364
G01 X211.463 Y132.433
G01 X211.092 Y132.028
G01 X210.498 Y131.079
G01 X209.863 Y130.170
G01 X209.189 Y129.301
G01 X208.652 Y128.670
G01 X208.085 Y127.761
G01 X207.474 Y126.880
G01 X206.819 Y126.030
G01 X206.212 Y125.312
G01 X205.654 Y124.352
G01 X205.041 Y123.412
G01 X204.372 Y122.495
G01 X203.649 Y121.604
G01 X202.960 Y120.835
G01 X202.282 Y119.763
G01 X201.530 Y118.713
G01 X200.704 Y117.689
G01 X200.520 Y117.477
G01 X199.225 Y117.423
G01 X197.949 Y117.440
G01 X196.699 Y117.527
G01 X195.476 Y117.682
G01 X194.961 Y117.768
G01 X193.830 Y117.749
G01 X192.709 Y117.788
G01 X191.601 Y117.882
G01 X190.791 Y117.987
G01 X189.710 Y117.967
G01 X188.629 Y118.001
G01 X187.550 Y118.088
G01 X186.621 Y118.205
G01 X185.513 Y118.186
G01 X184.394 Y118.223
G01 X183.268 Y118.319
G01 X182.452 Y118.424
G01 X181.219 Y118.369
G01 X179.963 Y118.384
G01 X178.688 Y118.471
G01 X177.397 Y118.632
G01 X176.892 Y118.715
G01 X176.141 Y119.788
G01 X175.462 Y120.882
G01 X174.857 Y121.994
G01 X174.325 Y123.117
G01 X174.248 Y123.295
G01 X173.589 Y124.225
G01 X172.982 Y125.178
G01 X172.430 Y126.152
G01 X171.931 Y127.145
G01 X171.604 Y127.876
G01 X170.974 Y128.760
G01 X170.387 Y129.676
G01 X169.844 Y130.623
G01 X169.348 Y131.598
G01 X168.959 Y132.456
G01 X168.290 Y133.399
G01 X167.663 Y134.390
G01 X167.083 Y135.426
G01 X166.551 Y136.506
G01 X166.315 Y137.036
G01 X165.622 Y138.159
G01 X164.992 Y139.327
G01 X165.483 Y140.544
G01 X166.031 Y141.711
G01 X166.634 Y142.826
G01 X167.287 Y143.885
G01 X167.408 Y144.067
G01 X167.827 Y145.126
G01 X168.295 Y146.154
G01 X168.811 Y147.148
G01 X169.371 Y148.107
G01 X169.823 Y148.807
G01 X170.220 Y149.816
G01 X170.668 Y150.807
G01 X171.165 Y151.777
G01 X171.712 Y152.725
G01 X172.238 Y153.547
G01 X172.664 Y154.622
G01 X173.152 Y155.687
G01 X173.705 Y156.739
G01 X174.320 Y157.775
G01 X174.653 Y158.287
G01 X175.218 Y159.481
G01 X175.861 Y160.657
G01 X177.148 Y160.909
G01 X178.425 Y161.086
G01 X179.687 Y161.188
G01 X180.932 Y161.219
G01 X181.183 Y161.217
G01 X182.300 Y161.442
G01 X183.417 Y161.610
G01 X184.532 Y161.720
G01 X185.643 Y161.774
G01 X186.505 Y161.776
G01 X187.569 Y161.993
G01 X188.647 Y162.158
G01 X189.735 Y162.270
G01 X190.831 Y162.329
G01 X191.826 Y162.335
G01 X192.966 Y162.566
G01 X194.132 Y162.737
G01 X195.322 Y162.847
G01 X196.532 Y162.895
G01 X197.148 Y162.895
G01 X198.467 Y163.073
G01 X199.809 Y163.174
G01 X200.724 Y162.229
G01 X201.571 Y161.251
G01 X202.348 Y160.245
G01 X203.054 Y159.215
G01 X203.196 Y158.992
G01 X203.998 Y158.173
G01 X204.752 Y157.322
G01 X205.456 Y156.441
G01 X206.110 Y155.533
G01 X206.583 Y154.809
G01 X207.352 Y154.027
G01 X208.083 Y153.206
G01 X208.776 Y152.346
G01 X209.428 Y151.450
G01 X209.970 Y150.626
G01 X210.793 Y149.786
G01 X211.580 Y148.891
G01 X212.329 Y147.942
G01 X213.035 Y146.940
G01 X213.358 Y146.443
G01 X214.235 Y145.421
G01 X215.051 Y144.352
G01 X214.754 Y143.058
G01 X214.390 Y141.804
G01 X213.965 Y140.593
G01 X213.481 Y139.428
G01 X213.378 Y139.203
G01 X213.125 Y138.073
G01 X212.818 Y136.965
G01 X212.458 Y135.883
G01 X212.047 Y134.828
G01 X211.706 Y134.055
G01 X211.465 Y132.972
G01 X211.170 Y131.898
G01 X210.821 Y130.836
G01 X210.419 Y129.790
G01 X210.033 Y128.907
G01 X209.772 Y127.746
G01 X209.446 Y126.585
G01 X209.052 Y125.427
G01 X208.591 Y124.275
G01 X208.360 Y123.758
G01 X207.977 Y122.452
G01 X207.524 Y121.184
G01 X206.261 Y120.724
G01 X204.996 Y120.342
G01 X203.734 Y120.037
G01 X202.478 Y119.807
G01 X202.265 Y119.775
G01 X201.165 Y119.367
G01 X200.056 Y119.019
G01 X198.940 Y118.729
G01 X197.819 Y118.497
G01 X197.006 Y118.366
G01 X195.956 Y117.974
G01 X194.884 Y117.634
G01 X193.793 Y117.346
G01 X192.686 Y117.112
G01 X191.747 Y116.957
G01 X190.623 Y116.541
G01 X189.464 Y116.180
G01 X188.270 Y115.877
G01 X187.045 Y115.636
G01 X186.488 Y115.548
G01 X185.177 Y115.156
G01 X183.858 Y114.843
G01 X182.775 Y115.659
G01 X181.757 Y116.520
G01 X180.805 Y117.420
G01 X179.922 Y118.357
G01 X179.789 Y118.507
G01 X178.842 Y119.212
G01 X177.940 Y119.957
G01 X177.083 Y120.740
G01 X176.274 Y121.559
G01 X175.720 Y122.171
G01 X174.816 Y122.841
G01 X173.944 Y123.557
G01 X173.105 Y124.317
G01 X172.303 Y125.120
G01 X171.651 Y125.835
G01 X170.689 Y126.551
G01 X169.753 Y127.327
G01 X168.848 Y128.164
G01 X167.977 Y129.059
G01 X167.582 Y129.498
G01 X166.539 Y130.384
G01 X165.547 Y131.330
G01 X165.641 Y132.688
G01 X165.808 Y134.015
G01 X166.046 Y135.307
G01 X166.351 Y136.562
G01 X166.409 Y136.769
G01 X166.483 Y137.949
G01 X166.616 Y139.113
G01 X166.806 Y140.259
G01 X167.052 Y141.384
G01 X167.270 Y142.208
G01 X167.339 Y143.331
G01 X167.463 Y144.452
G01 X167.643 Y145.568
G01 X167.879 Y146.678
G01 X168.132 Y147.647
G01 X168.207 Y148.843
G01 X168.348 Y150.050
G01 X168.556 Y151.264
G01 X168.831 Y152.481
G01 X168.993 Y153.086
G01 X169.167 Y154.443
G01 X169.424 Y155.805
G01 X170.612 Y156.466
G01 X171.815 Y157.049
G01 X173.028 Y157.555
G01 X174.245 Y157.983
G01 X174.483 Y158.058
G01 X175.511 Y158.638
G01 X176.559 Y159.161
G01 X177.623 Y159.627
G01 X178.701 Y160.034
G01 X179.542 Y160.310
G01 X180.521 Y160.865
G01 X181.529 Y161.372
G01 X182.565 Y161.831
G01 X183.625 Y162.239
G01 X184.601 Y162.563
G01 X185.648 Y163.153
G01 X186.740 Y163.695
G01 X187.876 Y164.184
G01 X189.051 Y164.617
G01 X189.660 Y164.815
G01 X190.899 Y165.411
G01 X192.189 Y165.941
G01 X193.393 Y165.304
G01 X194.539 Y164.612
G01 X195.625 Y163.869
G01 X196.651 Y163.081
G01 X196.860 Y162.908
G01 X197.910 Y162.360
G01 X198.924 Y161.763
G01 X199.898 Y161.122
G01 X200.831 Y160.438
G01 X201.530 Y159.875
G01 X202.535 Y159.353
G01 X203.516 Y158.779
G01 X204.471 Y158.156
G01 X205.398 Y157.484
G01 X206.201 Y156.842
G01 X207.276 Y156.280
G01 X208.335 Y155.652
G01 X209.373 Y154.960
G01 X210.387 Y154.202
G01 X210.871 Y153.809
G01 X212.059 Y153.086
G01 X213.206 Y152.293
G01 X213.319 Y150.922
G01 X213.354 Y149.571
G01 X213.314 Y148.244
G01 X213.206 Y146.987
G01 X213.312 Y145.788
G01 X213.356 Y144.596
G01 X213.339 Y143.413
G01 X213.264 Y142.243
G01 X213.206 Y141.682
G01 X213.308 Y140.542
G01 X213.355 Y139.397
G01 X213.344 Y138.248
G01 X213.277 Y137.099
G01 X213.206 Y136.377
G01 X213.312 Y135.178
G01 X213.356 Y133.960
G01 X213.335 Y132.727
G01 X213.249 Y131.481
G01 X213.206 Y131.071
G01 X213.281 Y129.704
G01 X213.276 Y128.309
G01 X213.206 Y127.093
G01 X212.106 Y126.243
G01 X210.978 Y125.469
G01 X209.830 Y124.773
G01 X208.732 Y124.187
G01 X207.772 Y123.437
G01 X206.784 Y122.744
G01 X205.771 Y122.107
G01 X204.737 Y121.527
G01 X204.258 Y121.282
G01 X203.348 Y120.568
G01 X202.401 Y119.899
G01 X201.421 Y119.276
G01 X200.410 Y118.700
G01 X199.784 Y118.376
G01 X198.827 Y117.628
G01 X197.820 Y116.922
G01 X196.765 Y116.263
G01 X195.664 Y115.651
G01 X195.310 Y115.471
G01 X194.196 Y114.658
G01 X193.015 Y113.897
G01 X191.954 Y113.291
G01 X190.629 Y113.757
G01 X189.354 Y114.287
G01 X188.132 Y114.877
G01 X187.054 Y115.473
G01 X185.893 Y115.874
G01 X184.763 Y116.328
G01 X183.669 Y116.835
G01 X182.611 Y117.392
G01 X182.154 Y117.655
G01 X181.052 Y118.032
G01 X179.970 Y118.464
G01 X178.908 Y118.949
G01 X177.869 Y119.487
G01 X177.253 Y119.837
G01 X176.101 Y120.233
G01 X174.957 Y120.695
G01 X173.826 Y121.221
G01 X172.710 Y121.813
G01 X172.353 Y122.019
G01 X171.063 Y122.511
G01 X169.781 Y123.087
G01 X168.677 Y123.655
G01 X168.344 Y125.027
G01 X168.092 Y126.392
G01 X167.921 Y127.744
G01 X167.834 Y128.982
G01 X167.535 Y130.178
G01 X167.301 Y131.375
G01 X167.129 Y132.572
G01 X167.019 Y133.765
G01 X166.990 Y134.310
G01 X166.706 Y135.439
G01 X166.477 Y136.583
G01 X166.305 Y137.738
G01 X166.189 Y138.902
G01 X166.146 Y139.637
G01 X165.850 Y140.818
G01 X165.614 Y142.028
G01 X165.438 Y143.262
G01 X165.326 Y144.519
G01 X165.302 Y144.964
G01 X165.012 Y146.312
G01 X164.796 Y147.701
G01 X164.669 Y148.960
G01 X165.638 Y149.987
G01 X166.645 Y150.942
G01 X167.686 Y151.823
G01 X168.700 Y152.588
G01 X169.539 Y153.489
G01 X170.414 Y154.339
G01 X171.323 Y155.135
G01 X172.263 Y155.877
G01 X172.730 Y156.217
G01 X173.522 Y157.071
G01 X174.355 Y157.886
G01 X175.230 Y158.660
G01 X176.142 Y159.391
G01 X176.760 Y159.846
G01 X177.590 Y160.739
G01 X178.476 Y161.597
G01 X179.417 Y162.418
G01 X180.411 Y163.198
G01 X180.790 Y163.475
G01 X181.765 Y164.456
G01 X182.815 Y165.396
G01 X183.813 Y166.196
G01 X185.203 Y165.944
G01 X186.552 Y165.620
G01 X187.859 Y165.228
G01 X189.080 Y164.785
G01 X190.294 Y164.572
G01 X191.486 Y164.300
G01 X192.651 Y163.971
G01 X193.788 Y163.587
G01 X194.346 Y163.374
G01 X195.498 Y163.174
G01 X196.640 Y162.918
G01 X197.771 Y162.605
G01 X198.887 Y162.236
G01 X199.613 Y161.963
G01 X200.822 Y161.752
G01 X202.033 Y161.474
G01 X203.243 Y161.129
G01 X204.447 Y160.717
G01 X204.880 Y160.551
G01 X206.246 Y160.265
G01 X207.619 Y159.893
G01 X208.830 Y159.493
G01 X209.378 Y158.184
G01 X209.844 Y156.868
G01 X210.229 Y155.552
G01 X210.524 Y154.279
G01 X211.010 Y153.136
G01 X211.434 Y151.980
G01 X211.795 Y150.814
G01 X212.094 Y149.642
G01 X212.218 Y149.065
G01 X212.682 Y147.980
G01 X213.093 Y146.872
G01 X213.449 Y145.742
G01 X213.750 Y144.593
G01 X213.912 Y143.852
G01 X214.399 Y142.710
G01 X214.830 Y141.530
G01 X215.203 Y140.313
G01 X215.515 Y139.064
G01 X215.607 Y138.638
G01 X216.116 Y137.321
G01 X216.556 Y135.951
G01 X216.877 Y134.728
G01 X216.069 Y133.543
G01 X215.210 Y132.425
G01 X214.305 Y131.376
G01 X213.409 Y130.444
G01 X212.706 Y129.403
G01 X211.958 Y128.407
G01 X211.168 Y127.459
G01 X210.338 Y126.561
G01 X209.940 Y126.161
G01 X209.274 Y125.170
G01 X208.559 Y124.212
G01 X207.797 Y123.288
G01 X206.988 Y122.401
G01 X206.471 Y121.878
G01 X205.771 Y120.838
G01 X205.007 Y119.824
G01 X204.182 Y118.839
G01 X203.296 Y117.888
G01 X203.003 Y117.594
G01 X202.168 Y116.441
G01 X201.251 Y115.316
G01 X200.401 Y114.382
G01 X198.952 Y114.416
G01 X197.532 Y114.529
G01 X196.144 Y114.719
G01 X194.891 Y114.961
G01 X193.623 Y114.984
G01 X192.369 Y115.070
G01 X191.132 Y115.218
G01 X189.915 Y115.428
G01 X189.380 Y115.540
G01 X188.178 Y115.560
G01 X186.976 Y115.638
G01 X185.777 Y115.776
G01 X184.584 Y115.972
G01 X183.869 Y116.119
G01 X182.610 Y116.141
G01 X181.337 Y116.229
G01 X180.056 Y116.386
G01 X178.770 Y116.612
G01 X178.359 Y116.699
G01 X176.933 Y116.771
G01 X175.486 Y116.927
G01 X174.226 Y117.133
G01 X173.460 Y118.375
G01 X172.777 Y119.636
G01 X172.177 Y120.912
G01 X171.697 Y122.096
G01 X171.022 Y123.177
G01 X170.408 Y124.280
G01 X169.857 Y125.403
G01 X169.368 Y126.541
G01 X169.168 Y127.060
G01 X168.527 Y128.081
G01 X167.937 Y129.133
G01 X167.398 Y130.215
G01 X166.913 Y131.323
G01 X166.639 Y132.023
G01 X165.970 Y133.091
G01 X165.351 Y134.206
G01 X164.784 Y135.365
G01 X164.272 Y136.566
G01 X164.110 Y136.987
G01 X163.393 Y138.220
G01 X162.737 Y139.517
G01 X162.213 Y140.709
G01 X162.847 Y142.029
G01 X163.541 Y143.289
G01 X164.293 Y144.486
G01 X164.873 Y145.316
G01 X165.421 Y146.475
G01 X166.022 Y147.593
G01 X166.672 Y148.668
G01 X167.369 Y149.698
G01 X167.533 Y149.924
G01 X168.046 Y151.014
G01 X168.612 Y152.079
G01 X169.230 Y153.114
G01 X169.897 Y154.118
G01 X170.193 Y154.531
G01 X170.722 Y155.654
G01 X171.314 Y156.760
G01 X171.969 Y157.845
G01 X172.685 Y158.906
G01 X172.853 Y159.138
G01 X173.454 Y160.399
G01 X174.139 Y161.645
G01 X174.906 Y162.872
G01 X175.513 Y163.745
G01 X176.965 Y163.934
G01 X178.399 Y164.038
G01 X179.812 Y164.061
G01 X180.854 Y164.025
G01 X182.124 Y164.197
G01 X183.389 Y164.303
G01 X184.646 Y164.344
G01 X185.890 Y164.321
G01 X186.194 Y164.305
G01 X187.391 Y164.470
G01 X188.594 Y164.575
G01 X189.802 Y164.622
G01 X191.010 Y164.609
G01 X191.535 Y164.585
G01 X192.770 Y164.754
G01 X194.026 Y164.861
G01 X195.298 Y164.903
G01 X196.584 Y164.879
G01 X196.876 Y164.865
G01 X198.269 Y165.049
G01 X199.697 Y165.154
G01 X201.155 Y165.179
G01 X202.216 Y165.145
G01 X203.168 Y164.027
G01 X204.040 Y162.877
G01 X204.831 Y161.701
G01 X205.376 Y160.796
G01 X206.217 Y159.819
G01 X206.999 Y158.810
G01 X207.721 Y157.773
G01 X208.383 Y156.710
G01 X208.536 Y156.446
G01 X209.332 Y155.525
G01 X210.081 Y154.566
G01 X210.783 Y153.571
G01 X211.436 Y152.541
G01 X211.696 Y152.097
G01 X212.518 Y151.144
G01 X213.298 Y150.139
G01 X214.034 Y149.084
G01 X214.721 Y147.981
G01 X214.856 Y147.748
G01 X215.779 Y146.667
G01 X216.654 Y145.514
G01 X217.477 Y144.290
G01 X218.016 Y143.398
G01 X217.592 Y141.980
G01 X217.098 Y140.611
G01 X216.537 Y139.295
G01 X216.079 Y138.353
G01 X215.714 Y137.104
G01 X215.289 Y135.887
G01 X214.807 Y134.704
G01 X214.270 Y133.559
G01 X214.143 Y133.308
G01 X213.799 Y132.127
G01 X213.398 Y130.964
G01 X212.940 Y129.820
G01 X212.426 Y128.701
G01 X212.206 Y128.263
G01 X211.850 Y127.042
G01 X211.427 Y125.827
G01 X210.936 Y124.623
G01 X210.379 Y123.434
G01 X210.270 Y123.218
G01 X209.861 Y121.842
G01 X209.365 Y120.467
G01 X208.781 Y119.098
G01 X208.333 Y118.173
G01 X206.897 Y117.752
G01 X205.464 Y117.418
G01 X204.040 Y117.170
G01 X203.020 Y117.044
G01 X201.759 Y116.667
G01 X200.494 Y116.358
G01 X199.227 Y116.116
G01 X197.961 Y115.942
G01 X197.706 Y115.914
G01 X196.518 Y115.556
G01 X195.312 Y115.257
G01 X194.093 Y115.017
G01 X192.864 Y114.838
G01 X192.393 Y114.785
G01 X191.166 Y114.416
G01 X189.908 Y114.108
G01 X188.623 Y113.862
G01 X187.313 Y113.681
G01 X187.080 Y113.656
G01 X185.697 Y113.247
G01 X184.267 Y112.913
G01 X182.794 Y112.656
G01 X181.767 Y112.526
G01 X180.622 Y113.510
G01 X179.553 Y114.538
G01 X178.562 Y115.606
G01 X177.906 Y116.387
G01 X176.897 Y117.244
G01 X175.943 Y118.142
G01 X175.045 Y119.079
G01 X174.205 Y120.051
G01 X174.045 Y120.248
G01 X173.093 Y121.053
G01 X172.183 Y121.904
G01 X171.314 Y122.798
G01 X170.491 Y123.734
G01 X170.184 Y124.109
G01 X169.205 Y124.938
G01 X168.260 Y125.826
G01 X167.352 Y126.771
G01 X166.485 Y127.771
G01 X166.323 Y127.969
G01 X165.228 Y128.907
G01 X164.168 Y129.923
G01 X163.150 Y131.017
G01 X162.463 Y131.830
G01 X162.664 Y133.330
G01 X162.944 Y134.790
G01 X163.301 Y136.206
G01 X163.604 Y137.198
G01 X163.772 Y138.512
G01 X164.006 Y139.803
G01 X164.302 Y141.068
G01 X164.659 Y142.302
G01 X164.745 Y142.566
G01 X164.901 Y143.803
G01 X165.117 Y145.030
G01 X165.394 Y146.244
G01 X165.730 Y147.444
G01 X165.886 Y147.934
G01 X166.047 Y149.207
G01 X166.276 Y150.482
G01 X166.573 Y151.757
G01 X166.938 Y153.028
G01 X167.027 Y153.302
G01 X167.215 Y154.732
G01 X167.489 Y156.174
G01 X167.851 Y157.624
G01 X168.168 Y158.671
G01 X169.534 Y159.319
G01 X170.910 Y159.879
G01 X172.292 Y160.352
G01 X173.317 Y160.647
G01 X174.510 Y161.222
G01 X175.719 Y161.730
G01 X176.941 Y162.170
G01 X178.170 Y162.544
G01 X178.467 Y162.624
G01 X179.589 Y163.167
G01 X180.736 Y163.655
G01 X181.907 Y164.085
G01 X183.097 Y164.458
G01 X183.616 Y164.601
G01 X184.774 Y165.160
G01 X185.971 Y165.665
G01 X187.205 Y166.111
G01 X188.474 Y166.498
G01 X188.766 Y166.578
G01 X190.073 Y167.201
G01 X191.439 Y167.760
G01 X192.859 Y168.248
G01 X193.916 Y168.554
G01 X195.206 Y167.761
G01 X196.428 Y166.910
G01 X197.579 Y166.009
G01 X198.401 Y165.296
G01 X199.536 Y164.606
G01 X200.624 Y163.866
G01 X201.663 Y163.079
G01 X202.650 Y162.249
G01 X202.886 Y162.037
G01 X203.958 Y161.388
G01 X204.998 Y160.687
G01 X206.003 Y159.936
G01 X206.969 Y159.135
G01 X207.371 Y158.778
G01 X208.479 Y158.107
G01 X209.563 Y157.371
G01 X210.618 Y156.573
G01 X211.642 Y155.712
G01 X211.857 Y155.520
G01 X213.103 Y154.755
G01 X214.327 Y153.905
G01 X215.521 Y152.970
G01 X216.342 Y152.261
G01 X216.378 Y150.737
G01 X216.330 Y149.239
G01 X216.200 Y147.772
G01 X216.050 Y146.697
G01 X216.089 Y145.357
G01 X216.061 Y144.031
G01 X215.965 Y142.720
G01 X215.805 Y141.428
G01 X215.758 Y141.132
G01 X215.798 Y139.867
G01 X215.775 Y138.600
G01 X215.691 Y137.336
G01 X215.544 Y136.076
G01 X215.467 Y135.568
G01 X215.507 Y134.259
G01 X215.479 Y132.935
G01 X215.382 Y131.601
G01 X215.215 Y130.259
G01 X215.175 Y130.003
G01 X215.213 Y128.526
G01 X215.165 Y127.021
G01 X215.029 Y125.495
G01 X214.884 Y124.439
G01 X213.605 Y123.575
G01 X212.302 Y122.797
G01 X210.981 Y122.108
G01 X210.265 Y121.772
G01 X209.141 Y121.004
G01 X207.990 Y120.302
G01 X206.817 Y119.666
G01 X205.646 Y119.106
G01 X204.590 Y118.381
G01 X203.501 Y117.709
G01 X202.380 Y117.093
G01 X201.232 Y116.532
G01 X201.027 Y116.439
G01 X199.950 Y115.700
G01 X198.827 Y115.011
G01 X197.661 Y114.374
G01 X196.452 Y113.792
G01 X196.408 Y113.772
G01 X195.216 Y112.961
G01 X193.959 Y112.204
G01 X192.640 Y111.507
G01 X191.790 Y111.106
G01 X190.635 Y110.439
G01 X189.200 Y111.047
G01 X187.827 Y111.722
G01 X186.518 Y112.462
G01 X185.859 Y112.873
G01 X184.593 Y113.401
G01 X183.368 Y113.988
G01 X182.187 Y114.630
G01 X181.083 Y115.306
G01 X179.893 Y115.800
G01 X178.731 Y116.351
G01 X177.597 Y116.957
G01 X176.496 Y117.618
G01 X176.308 Y117.739
G01 X175.097 Y118.242
G01 X173.904 Y118.810
G01 X172.731 Y119.443
G01 X171.581 Y120.141
G01 X171.532 Y120.173
G01 X170.200 Y120.731
G01 X168.879 Y121.374
G01 X167.574 Y122.101
G01 X166.756 Y122.606
G01 X165.562 Y123.214
G01 X165.289 Y124.755
G01 X165.106 Y126.281
G01 X165.013 Y127.788
G01 X164.999 Y128.572
G01 X164.751 Y129.925
G01 X164.576 Y131.275
G01 X164.471 Y132.618
G01 X164.436 Y133.929
G01 X164.201 Y135.196
G01 X164.029 Y136.473
G01 X163.920 Y137.754
G01 X163.874 Y139.038
G01 X163.873 Y139.286
G01 X163.635 Y140.574
G01 X163.460 Y141.883
G01 X163.352 Y143.212
G01 X163.310 Y144.555
G01 X163.310 Y144.643
G01 X163.052 Y146.064
G01 X162.871 Y147.520
G01 X162.769 Y149.009
G01 X162.747 Y150.000
G01 X162.606 Y151.340
G01 X163.749 Y152.408
G01 X164.929 Y153.393
G01 X166.141 Y154.293
G01 X166.813 Y154.746
G01 X167.812 Y155.691
G01 X168.847 Y156.574
G01 X169.915 Y157.393
G01 X171.012 Y158.148
G01 X171.020 Y158.153
G01 X171.954 Y159.040
G01 X172.930 Y159.880
G01 X173.945 Y160.669
G01 X174.996 Y161.407
G01 X175.227 Y161.560
G01 X176.177 Y162.462
G01 X177.181 Y163.322
G01 X178.236 Y164.138
G01 X179.341 Y164.906
G01 X179.434 Y164.966
G01 X180.487 Y165.959
G01 X181.612 Y166.907
G01 X182.808 Y167.805
G01 X183.641 Y168.373
G01 X184.692 Y169.225
G01 X186.212 Y168.849
G01 X187.681 Y168.396
G01 X189.097 Y167.869
G01 X189.866 Y167.544
G01 X191.205 Y167.220
G01 X192.511 Y166.832
G01 X193.783 Y166.383
G01 X195.016 Y165.873
G01 X195.040 Y165.863
G01 X196.297 Y165.561
G01 X197.537 Y165.199
G01 X198.757 Y164.777
G01 X199.953 Y164.296
G01 X200.214 Y164.182
G01 X201.495 Y163.874
G01 X202.771 Y163.499
G01 X204.037 Y163.055
G01 X205.290 Y162.543
G01 X205.387 Y162.501
G01 X206.804 Y162.155
G01 X208.223 Y161.724
G01 X209.640 Y161.205
G01 X210.561 Y160.820
G01 X211.855 Y160.399
G01 X212.369 Y158.913
G01 X212.791 Y157.427
G01 X213.123 Y155.945
G01 X213.269 Y155.119
G01 X213.730 Y153.811
