;  Created by Sandify
;  https://sandify.org
;  Version: 0.2.4
;
;  Machine type: Rectangular
;    Min X (mm): 0
;    Max X (mm): 380
;    Min Y (mm): 0
;    Max Y (mm): 280
;  Content type: shape
;  Layer:
;    Shape: FileImport
;    Name: Spiral4.thr
;    From file:: Spiral4.thr
;    Aspect Ratio: true
;    Comments: 
;    Visible: true
;    Initial width: 10
;    Initial height: 10
;    X offset: 0
;    Y offset: 0
;    Rotate (degrees): 0
;    Reverse path: false
;    Fine tuning:
;      Connect to next layer: line
;      Draw portion of path (%): 100
;      Backtrack at end (%): 0
;      Rotate starting point (%): 0
;  Reverse export path: false
;
; File name: 'Spiral4'
;

G01 X190.000 Y140.000
G01 X190.000 Y140.005
G01 X190.001 Y140.011
G01 X190.002 Y140.016
G01 X190.004 Y140.021
G01 X190.006 Y140.026
G01 X190.009 Y140.031
G01 X190.013 Y140.035
G01 X190.016 Y140.039
G01 X190.020 Y140.043
G01 X190.025 Y140.047
G01 X190.030 Y140.050
G01 X190.035 Y140.053
G01 X190.041 Y140.056
G01 X190.047 Y140.058
G01 X190.054 Y140.059
G01 X190.060 Y140.060
G01 X190.067 Y140.061
G01 X190.074 Y140.061
G01 X190.081 Y140.060
G01 X190.088 Y140.059
G01 X190.096 Y140.057
G01 X190.103 Y140.055
G01 X190.111 Y140.052
G01 X190.118 Y140.049
G01 X190.125 Y140.045
G01 X190.132 Y140.040
G01 X190.135 Y140.039
G01 X190.147 Y140.035
G01 X190.160 Y140.029
G01 X190.172 Y140.023
G01 X190.185 Y140.015
G01 X190.197 Y140.007
G01 X190.208 Y139.997
G01 X190.219 Y139.986
G01 X190.229 Y139.974
G01 X190.239 Y139.961
G01 X190.248 Y139.947
G01 X190.256 Y139.932
G01 X190.263 Y139.916
G01 X190.269 Y139.899
G01 X190.274 Y139.882
G01 X190.278 Y139.863
G01 X190.281 Y139.844
G01 X190.283 Y139.825
G01 X190.283 Y139.805
G01 X190.283 Y139.801
G01 X190.280 Y139.782
G01 X190.275 Y139.763
G01 X190.269 Y139.744
G01 X190.262 Y139.725
G01 X190.254 Y139.706
G01 X190.244 Y139.687
G01 X190.234 Y139.669
G01 X190.222 Y139.651
G01 X190.209 Y139.633
G01 X190.194 Y139.615
G01 X190.178 Y139.599
G01 X190.162 Y139.582
G01 X190.144 Y139.567
G01 X190.124 Y139.552
G01 X190.104 Y139.538
G01 X190.083 Y139.525
G01 X190.060 Y139.514
G01 X190.037 Y139.503
G01 X190.013 Y139.493
G01 X190.002 Y139.489
G01 X189.977 Y139.487
G01 X189.951 Y139.486
G01 X189.926 Y139.487
G01 X189.900 Y139.488
G01 X189.875 Y139.492
G01 X189.849 Y139.496
G01 X189.824 Y139.501
G01 X189.799 Y139.508
G01 X189.774 Y139.517
G01 X189.749 Y139.526
G01 X189.725 Y139.537
G01 X189.701 Y139.549
G01 X189.678 Y139.562
G01 X189.655 Y139.576
G01 X189.633 Y139.592
G01 X189.611 Y139.608
G01 X189.591 Y139.626
G01 X189.571 Y139.645
G01 X189.552 Y139.665
G01 X189.534 Y139.686
G01 X189.517 Y139.708
G01 X189.501 Y139.731
G01 X189.499 Y139.735
G01 X189.486 Y139.759
G01 X189.475 Y139.785
G01 X189.465 Y139.811
G01 X189.456 Y139.837
G01 X189.449 Y139.864
G01 X189.443 Y139.891
G01 X189.438 Y139.919
G01 X189.435 Y139.947
G01 X189.433 Y139.974
G01 X189.432 Y140.002
G01 X189.433 Y140.030
G01 X189.435 Y140.058
G01 X189.438 Y140.086
G01 X189.443 Y140.113
G01 X189.449 Y140.140
G01 X189.457 Y140.167
G01 X189.465 Y140.194
G01 X189.476 Y140.220
G01 X189.487 Y140.245
G01 X189.500 Y140.270
G01 X189.513 Y140.294
G01 X189.528 Y140.318
G01 X189.544 Y140.341
G01 X189.562 Y140.363
G01 X189.580 Y140.384
G01 X189.599 Y140.404
G01 X189.619 Y140.423
G01 X189.639 Y140.445
G01 X189.659 Y140.465
G01 X189.680 Y140.485
G01 X189.702 Y140.503
G01 X189.725 Y140.521
G01 X189.750 Y140.537
G01 X189.775 Y140.552
G01 X189.801 Y140.566
G01 X189.828 Y140.579
G01 X189.856 Y140.591
G01 X189.884 Y140.601
G01 X189.913 Y140.610
G01 X189.943 Y140.617
G01 X189.973 Y140.623
G01 X190.004 Y140.628
G01 X190.035 Y140.631
G01 X190.066 Y140.632
G01 X190.097 Y140.632
G01 X190.129 Y140.630
G01 X190.161 Y140.627
G01 X190.193 Y140.622
G01 X190.224 Y140.615
G01 X190.256 Y140.607
G01 X190.287 Y140.598
G01 X190.318 Y140.586
G01 X190.348 Y140.573
G01 X190.378 Y140.559
G01 X190.407 Y140.543
G01 X190.436 Y140.525
G01 X190.456 Y140.512
G01 X190.486 Y140.495
G01 X190.516 Y140.476
G01 X190.546 Y140.456
G01 X190.574 Y140.434
G01 X190.602 Y140.410
G01 X190.629 Y140.385
G01 X190.655 Y140.357
G01 X190.679 Y140.329
G01 X190.702 Y140.298
G01 X190.724 Y140.266
G01 X190.745 Y140.233
G01 X190.764 Y140.199
G01 X190.781 Y140.163
G01 X190.797 Y140.125
G01 X190.810 Y140.087
G01 X190.822 Y140.048
G01 X190.832 Y140.007
G01 X190.840 Y139.966
G01 X190.846 Y139.924
G01 X190.850 Y139.882
G01 X190.852 Y139.838
G01 X190.851 Y139.795
G01 X190.849 Y139.751
G01 X190.844 Y139.707
G01 X190.836 Y139.662
G01 X190.826 Y139.618
G01 X190.823 Y139.603
G01 X190.809 Y139.560
G01 X190.792 Y139.517
G01 X190.774 Y139.474
G01 X190.753 Y139.433
G01 X190.730 Y139.392
G01 X190.704 Y139.352
G01 X190.677 Y139.313
G01 X190.647 Y139.275
G01 X190.615 Y139.238
G01 X190.581 Y139.203
G01 X190.546 Y139.170
G01 X190.508 Y139.137
G01 X190.468 Y139.107
G01 X190.427 Y139.079
G01 X190.384 Y139.052
G01 X190.339 Y139.027
G01 X190.293 Y139.005
G01 X190.246 Y138.985
G01 X190.197 Y138.967
G01 X190.147 Y138.951
G01 X190.096 Y138.938
G01 X190.044 Y138.927
G01 X189.992 Y138.919
G01 X189.940 Y138.913
G01 X189.887 Y138.916
G01 X189.833 Y138.921
G01 X189.780 Y138.929
G01 X189.727 Y138.939
G01 X189.675 Y138.952
G01 X189.623 Y138.967
G01 X189.573 Y138.985
G01 X189.522 Y139.006
G01 X189.473 Y139.029
G01 X189.425 Y139.054
G01 X189.379 Y139.082
G01 X189.333 Y139.112
G01 X189.289 Y139.145
G01 X189.247 Y139.179
G01 X189.206 Y139.216
G01 X189.167 Y139.254
G01 X189.130 Y139.295
G01 X189.095 Y139.337
G01 X189.062 Y139.382
G01 X189.032 Y139.427
G01 X189.003 Y139.475
G01 X188.977 Y139.524
G01 X188.953 Y139.574
G01 X188.932 Y139.625
G01 X188.921 Y139.654
G01 X188.922 Y139.712
G01 X188.926 Y139.769
G01 X188.933 Y139.825
G01 X188.944 Y139.879
G01 X188.956 Y139.932
G01 X188.972 Y139.984
G01 X188.990 Y140.034
G01 X189.010 Y140.082
G01 X189.033 Y140.128
G01 X189.057 Y140.172
G01 X189.084 Y140.214
G01 X189.112 Y140.254
G01 X189.143 Y140.292
G01 X189.160 Y140.312
G01 X189.160 Y140.360
G01 X189.162 Y140.409
G01 X189.167 Y140.458
G01 X189.175 Y140.508
G01 X189.186 Y140.558
G01 X189.200 Y140.608
G01 X189.217 Y140.658
G01 X189.237 Y140.708
G01 X189.260 Y140.758
G01 X189.286 Y140.807
G01 X189.315 Y140.855
G01 X189.347 Y140.903
G01 X189.382 Y140.949
G01 X189.400 Y140.970
G01 X189.455 Y140.986
G01 X189.510 Y140.999
G01 X189.565 Y141.009
G01 X189.620 Y141.016
G01 X189.674 Y141.020
G01 X189.728 Y141.021
G01 X189.782 Y141.020
G01 X189.834 Y141.015
G01 X189.886 Y141.008
G01 X189.936 Y140.999
G01 X189.986 Y140.987
G01 X190.034 Y140.972
G01 X190.080 Y140.956
G01 X190.125 Y140.937
G01 X190.168 Y140.916
G01 X190.218 Y140.932
G01 X190.271 Y140.945
G01 X190.325 Y140.955
G01 X190.381 Y140.962
G01 X190.439 Y140.966
G01 X190.498 Y140.966
G01 X190.558 Y140.963
G01 X190.618 Y140.957
G01 X190.680 Y140.946
G01 X190.741 Y140.932
G01 X190.803 Y140.914
G01 X190.865 Y140.892
G01 X190.927 Y140.866
G01 X190.936 Y140.862
G01 X190.968 Y140.808
G01 X190.998 Y140.753
G01 X191.024 Y140.697
G01 X191.048 Y140.640
G01 X191.068 Y140.582
G01 X191.085 Y140.524
G01 X191.100 Y140.466
G01 X191.111 Y140.408
G01 X191.119 Y140.349
G01 X191.124 Y140.291
G01 X191.126 Y140.233
G01 X191.125 Y140.176
G01 X191.121 Y140.120
G01 X191.114 Y140.064
G01 X191.110 Y140.041
G01 X191.144 Y139.986
G01 X191.175 Y139.927
G01 X191.203 Y139.866
G01 X191.228 Y139.802
G01 X191.249 Y139.735
G01 X191.266 Y139.666
G01 X191.280 Y139.594
G01 X191.289 Y139.520
G01 X191.295 Y139.445
G01 X191.296 Y139.367
G01 X191.292 Y139.288
G01 X191.285 Y139.219
G01 X191.232 Y139.166
G01 X191.178 Y139.115
G01 X191.121 Y139.068
G01 X191.062 Y139.025
G01 X191.003 Y138.985
G01 X190.941 Y138.949
G01 X190.879 Y138.916
G01 X190.815 Y138.886
G01 X190.751 Y138.861
G01 X190.687 Y138.838
G01 X190.622 Y138.820
G01 X190.556 Y138.805
G01 X190.491 Y138.793
G01 X190.482 Y138.792
G01 X190.432 Y138.740
G01 X190.378 Y138.690
G01 X190.321 Y138.643
G01 X190.259 Y138.598
G01 X190.195 Y138.556
G01 X190.126 Y138.517
G01 X190.054 Y138.481
G01 X189.979 Y138.449
G01 X189.901 Y138.420
G01 X189.820 Y138.396
G01 X189.737 Y138.376
G01 X189.678 Y138.365
G01 X189.604 Y138.405
G01 X189.533 Y138.449
G01 X189.465 Y138.495
G01 X189.401 Y138.545
G01 X189.340 Y138.597
G01 X189.283 Y138.652
G01 X189.230 Y138.709
G01 X189.180 Y138.768
G01 X189.135 Y138.828
G01 X189.093 Y138.890
G01 X189.055 Y138.953
G01 X189.022 Y139.018
G01 X188.997 Y139.069
G01 X188.933 Y139.103
G01 X188.869 Y139.140
G01 X188.806 Y139.182
G01 X188.745 Y139.228
G01 X188.686 Y139.277
G01 X188.628 Y139.331
G01 X188.573 Y139.389
G01 X188.520 Y139.451
G01 X188.469 Y139.516
G01 X188.422 Y139.585
G01 X188.378 Y139.657
G01 X188.337 Y139.733
G01 X188.317 Y139.774
G01 X188.333 Y139.859
G01 X188.355 Y139.942
G01 X188.380 Y140.023
G01 X188.409 Y140.101
G01 X188.442 Y140.176
G01 X188.478 Y140.248
G01 X188.517 Y140.317
G01 X188.560 Y140.382
G01 X188.605 Y140.445
G01 X188.653 Y140.504
G01 X188.703 Y140.559
G01 X188.755 Y140.610
G01 X188.810 Y140.658
G01 X188.842 Y140.684
G01 X188.854 Y140.755
G01 X188.870 Y140.826
G01 X188.890 Y140.898
G01 X188.915 Y140.970
G01 X188.945 Y141.041
G01 X188.978 Y141.112
G01 X189.017 Y141.182
G01 X189.059 Y141.251
G01 X189.106 Y141.318
G01 X189.158 Y141.384
G01 X189.214 Y141.448
G01 X189.274 Y141.509
G01 X189.338 Y141.569
G01 X189.367 Y141.593
G01 X189.453 Y141.601
G01 X189.538 Y141.605
G01 X189.622 Y141.605
G01 X189.705 Y141.600
G01 X189.787 Y141.591
G01 X189.867 Y141.577
G01 X189.946 Y141.560
G01 X190.022 Y141.539
G01 X190.096 Y141.514
G01 X190.168 Y141.486
G01 X190.237 Y141.454
G01 X190.303 Y141.419
G01 X190.367 Y141.381
G01 X190.428 Y141.341
G01 X190.453 Y141.322
G01 X190.531 Y141.331
G01 X190.610 Y141.336
G01 X190.692 Y141.336
G01 X190.774 Y141.332
G01 X190.858 Y141.322
G01 X190.943 Y141.307
G01 X191.028 Y141.288
G01 X191.114 Y141.262
G01 X191.199 Y141.232
G01 X191.285 Y141.196
G01 X191.369 Y141.154
G01 X191.452 Y141.107
G01 X191.534 Y141.055
G01 X191.540 Y141.051
G01 X191.573 Y140.964
G01 X191.601 Y140.876
G01 X191.624 Y140.788
G01 X191.643 Y140.699
G01 X191.656 Y140.611
G01 X191.665 Y140.523
G01 X191.670 Y140.436
G01 X191.670 Y140.349
G01 X191.665 Y140.264
G01 X191.657 Y140.180
G01 X191.644 Y140.097
G01 X191.627 Y140.016
G01 X191.606 Y139.937
G01 X191.582 Y139.862
G01 X191.614 Y139.779
G01 X191.643 Y139.692
G01 X191.666 Y139.602
G01 X191.685 Y139.509
G01 X191.698 Y139.414
G01 X191.706 Y139.315
G01 X191.708 Y139.215
G01 X191.705 Y139.113
G01 X191.695 Y139.009
G01 X191.680 Y138.904
G01 X191.658 Y138.799
G01 X191.629 Y138.693
G01 X191.623 Y138.673
G01 X191.537 Y138.611
G01 X191.450 Y138.555
G01 X191.360 Y138.504
G01 X191.269 Y138.459
G01 X191.177 Y138.419
G01 X191.084 Y138.384
G01 X190.991 Y138.354
G01 X190.897 Y138.329
G01 X190.803 Y138.310
G01 X190.709 Y138.296
G01 X190.616 Y138.287
G01 X190.524 Y138.282
G01 X190.433 Y138.283
G01 X190.425 Y138.283
G01 X190.348 Y138.226
G01 X190.266 Y138.172
G01 X190.179 Y138.122
G01 X190.089 Y138.077
G01 X189.994 Y138.035
G01 X189.896 Y137.999
G01 X189.794 Y137.967
G01 X189.689 Y137.941
G01 X189.580 Y137.920
G01 X189.469 Y137.905
G01 X189.355 Y137.897
G01 X189.240 Y137.894
G01 X189.226 Y137.894
G01 X189.137 Y137.965
G01 X189.052 Y138.039
G01 X188.973 Y138.117
G01 X188.899 Y138.197
G01 X188.830 Y138.281
G01 X188.767 Y138.366
G01 X188.710 Y138.454
G01 X188.657 Y138.543
G01 X188.611 Y138.634
G01 X188.570 Y138.726
G01 X188.535 Y138.818
G01 X188.505 Y138.911
G01 X188.483 Y138.997
G01 X188.405 Y139.054
G01 X188.330 Y139.118
G01 X188.258 Y139.186
G01 X188.188 Y139.259
G01 X188.121 Y139.338
G01 X188.057 Y139.421
G01 X187.997 Y139.508
G01 X187.942 Y139.601
G01 X187.890 Y139.697
G01 X187.843 Y139.798
G01 X187.801 Y139.902
G01 X187.765 Y140.011
G01 X187.739 Y140.099
G01 X187.796 Y140.205
G01 X187.857 Y140.306
G01 X187.923 Y140.402
G01 X187.993 Y140.491
G01 X188.067 Y140.575
G01 X188.144 Y140.653
G01 X188.224 Y140.725
G01 X188.306 Y140.790
G01 X188.339 Y140.814
G01 X188.380 Y140.895
G01 X188.425 Y140.974
G01 X188.474 Y141.051
G01 X188.526 Y141.125
G01 X188.582 Y141.197
G01 X188.642 Y141.266
G01 X188.705 Y141.332
G01 X188.771 Y141.394
G01 X188.840 Y141.454
G01 X188.912 Y141.510
G01 X188.939 Y141.529
G01 X188.988 Y141.624
G01 X189.043 Y141.717
G01 X189.105 Y141.809
G01 X189.174 Y141.898
G01 X189.250 Y141.985
G01 X189.332 Y142.069
G01 X189.421 Y142.150
G01 X189.516 Y142.227
G01 X189.539 Y142.244
G01 X189.656 Y142.220
G01 X189.770 Y142.190
G01 X189.881 Y142.153
G01 X189.987 Y142.112
G01 X190.088 Y142.065
G01 X190.185 Y142.014
G01 X190.278 Y141.958
G01 X190.365 Y141.898
G01 X190.434 Y141.845
G01 X190.526 Y141.828
G01 X190.617 Y141.807
G01 X190.708 Y141.780
G01 X190.797 Y141.749
G01 X190.885 Y141.714
G01 X190.971 Y141.674
G01 X191.056 Y141.630
G01 X191.138 Y141.582
G01 X191.219 Y141.529
G01 X191.296 Y141.473
G01 X191.329 Y141.447
G01 X191.443 Y141.424
G01 X191.558 Y141.393
G01 X191.673 Y141.354
G01 X191.788 Y141.308
G01 X191.903 Y141.253
G01 X192.016 Y141.190
G01 X192.127 Y141.119
G01 X192.225 Y141.048
G01 X192.233 Y140.921
G01 X192.235 Y140.796
G01 X192.229 Y140.673
G01 X192.217 Y140.552
G01 X192.199 Y140.434
G01 X192.175 Y140.319
G01 X192.144 Y140.208
G01 X192.108 Y140.101
G01 X192.082 Y140.032
G01 X192.090 Y139.929
G01 X192.094 Y139.826
G01 X192.092 Y139.722
G01 X192.085 Y139.618
G01 X192.073 Y139.514
G01 X192.055 Y139.410
G01 X192.033 Y139.307
G01 X192.005 Y139.205
G01 X191.972 Y139.104
G01 X191.939 Y139.015
G01 X191.948 Y138.887
G01 X191.948 Y138.756
G01 X191.941 Y138.622
G01 X191.924 Y138.487
G01 X191.899 Y138.349
G01 X191.865 Y138.211
G01 X191.822 Y138.071
G01 X191.796 Y137.998
G01 X191.664 Y137.952
G01 X191.531 Y137.914
G01 X191.399 Y137.883
G01 X191.267 Y137.861
G01 X191.137 Y137.846
G01 X191.009 Y137.839
G01 X190.882 Y137.839
G01 X190.758 Y137.847
G01 X190.733 Y137.849
G01 X190.628 Y137.810
G01 X190.521 Y137.777
G01 X190.412 Y137.749
G01 X190.302 Y137.726
G01 X190.191 Y137.708
G01 X190.078 Y137.697
G01 X189.965 Y137.690
G01 X189.851 Y137.689
G01 X189.738 Y137.694
G01 X189.670 Y137.699
G01 X189.545 Y137.655
G01 X189.415 Y137.617
G01 X189.281 Y137.587
G01 X189.142 Y137.564
G01 X188.999 Y137.549
G01 X188.852 Y137.542
G01 X188.703 Y137.544
G01 X188.607 Y137.550
G01 X188.521 Y137.672
G01 X188.443 Y137.796
G01 X188.374 Y137.922
G01 X188.313 Y138.050
G01 X188.260 Y138.178
G01 X188.216 Y138.307
G01 X188.181 Y138.436
G01 X188.154 Y138.563
G01 X188.152 Y138.573
G01 X188.084 Y138.665
G01 X188.020 Y138.761
G01 X187.961 Y138.859
G01 X187.907 Y138.961
G01 X187.859 Y139.064
G01 X187.815 Y139.170
G01 X187.776 Y139.278
G01 X187.743 Y139.388
G01 X187.716 Y139.500
G01 X187.696 Y139.596
G01 X187.619 Y139.702
G01 X187.546 Y139.815
G01 X187.479 Y139.934
G01 X187.418 Y140.059
G01 X187.364 Y140.190
G01 X187.316 Y140.327
G01 X187.275 Y140.468
G01 X187.242 Y140.615
G01 X187.241 Y140.620
G01 X187.333 Y140.738
G01 X187.431 Y140.849
G01 X187.533 Y140.952
G01 X187.638 Y141.047
G01 X187.747 Y141.134
G01 X187.859 Y141.213
G01 X187.972 Y141.284
G01 X188.088 Y141.347
G01 X188.134 Y141.370
G01 X188.203 Y141.460
G01 X188.275 Y141.548
G01 X188.352 Y141.632
G01 X188.433 Y141.712
G01 X188.518 Y141.788
G01 X188.606 Y141.860
G01 X188.698 Y141.928
G01 X188.794 Y141.991
G01 X188.892 Y142.049
G01 X188.993 Y142.102
G01 X189.028 Y142.119
G01 X189.109 Y142.226
G01 X189.198 Y142.329
G01 X189.295 Y142.428
G01 X189.399 Y142.524
G01 X189.512 Y142.615
G01 X189.632 Y142.701
G01 X189.759 Y142.781
G01 X189.894 Y142.855
G01 X189.922 Y142.869
G01 X190.061 Y142.813
G01 X190.195 Y142.751
G01 X190.323 Y142.682
G01 X190.445 Y142.607
G01 X190.560 Y142.527
G01 X190.669 Y142.442
G01 X190.770 Y142.353
G01 X190.865 Y142.260
G01 X190.928 Y142.191
G01 X191.037 Y142.149
G01 X191.145 Y142.102
G01 X191.251 Y142.050
G01 X191.354 Y141.992
G01 X191.454 Y141.929
G01 X191.552 Y141.861
G01 X191.646 Y141.788
G01 X191.737 Y141.710
G01 X191.825 Y141.628
G01 X191.908 Y141.541
G01 X191.934 Y141.512
G01 X192.068 Y141.460
G01 X192.201 Y141.397
G01 X192.333 Y141.325
G01 X192.463 Y141.243
G01 X192.591 Y141.152
G01 X192.715 Y141.051
G01 X192.836 Y140.940
G01 X192.940 Y140.834
G01 X192.922 Y140.676
G01 X192.896 Y140.522
G01 X192.863 Y140.372
G01 X192.821 Y140.226
G01 X192.773 Y140.086
G01 X192.718 Y139.951
G01 X192.656 Y139.821
G01 X192.588 Y139.698
G01 X192.550 Y139.636
G01 X192.538 Y139.509
G01 X192.520 Y139.383
G01 X192.496 Y139.257
G01 X192.465 Y139.133
G01 X192.428 Y139.009
G01 X192.385 Y138.888
G01 X192.335 Y138.768
G01 X192.280 Y138.650
G01 X192.219 Y138.535
G01 X192.161 Y138.437
G01 X192.144 Y138.283
G01 X192.118 Y138.126
G01 X192.081 Y137.968
G01 X192.034 Y137.810
G01 X191.975 Y137.651
G01 X191.907 Y137.493
G01 X191.827 Y137.336
G01 X191.771 Y137.239
G01 X191.602 Y137.211
G01 X191.434 Y137.193
G01 X191.268 Y137.185
G01 X191.105 Y137.186
G01 X190.945 Y137.196
G01 X190.788 Y137.215
G01 X190.636 Y137.243
G01 X190.489 Y137.278
G01 X190.466 Y137.285
G01 X190.332 Y137.260
G01 X190.198 Y137.243
G01 X190.062 Y137.232
G01 X189.926 Y137.228
G01 X189.790 Y137.230
G01 X189.654 Y137.239
G01 X189.518 Y137.255
G01 X189.383 Y137.278
G01 X189.249 Y137.307
G01 X189.160 Y137.330
G01 X189.003 Y137.303
G01 X188.842 Y137.285
G01 X188.677 Y137.277
G01 X188.508 Y137.278
G01 X188.337 Y137.289
G01 X188.163 Y137.311
G01 X187.987 Y137.344
G01 X187.854 Y137.376
G01 X187.776 Y137.538
G01 X187.710 Y137.702
G01 X187.654 Y137.866
G01 X187.608 Y138.030
G01 X187.573 Y138.193
G01 X187.548 Y138.355
G01 X187.532 Y138.515
G01 X187.526 Y138.672
G01 X187.526 Y138.689
G01 X187.465 Y138.812
G01 X187.410 Y138.938
G01 X187.360 Y139.066
G01 X187.318 Y139.196
G01 X187.281 Y139.329
G01 X187.252 Y139.463
G01 X187.228 Y139.599
G01 X187.212 Y139.735
G01 X187.202 Y139.872
G01 X187.199 Y140.002
G01 X187.129 Y140.143
G01 X187.067 Y140.291
G01 X187.012 Y140.445
G01 X186.966 Y140.606
G01 X186.928 Y140.772
G01 X186.900 Y140.943
G01 X186.881 Y141.119
G01 X186.872 Y141.298
G01 X186.872 Y141.315
G01 X187.017 Y141.430
G01 X187.165 Y141.534
G01 X187.317 Y141.627
G01 X187.471 Y141.709
G01 X187.626 Y141.780
G01 X187.781 Y141.840
G01 X187.891 Y141.931
G01 X188.005 Y142.015
G01 X188.122 Y142.093
G01 X188.242 Y142.164
G01 X188.364 Y142.229
G01 X188.489 Y142.287
G01 X188.615 Y142.338
G01 X188.690 Y142.365
G01 X188.795 Y142.452
G01 X188.906 Y142.535
G01 X189.021 Y142.612
G01 X189.142 Y142.684
G01 X189.267 Y142.750
G01 X189.397 Y142.811
G01 X189.531 Y142.865
G01 X189.600 Y142.890
G01 X189.734 Y142.998
G01 X189.878 Y143.099
G01 X190.031 Y143.193
G01 X190.193 Y143.280
G01 X190.363 Y143.358
G01 X190.509 Y143.415
G01 X190.660 Y143.307
G01 X190.802 Y143.193
G01 X190.935 Y143.073
G01 X191.057 Y142.948
G01 X191.170 Y142.819
G01 X191.272 Y142.685
G01 X191.289 Y142.661
G01 X191.410 Y142.579
G01 X191.525 Y142.490
G01 X191.634 Y142.397
G01 X191.739 Y142.299
G01 X191.838 Y142.197
G01 X191.931 Y142.090
G01 X192.018 Y141.980
G01 X192.070 Y141.908
G01 X192.188 Y141.827
G01 X192.304 Y141.738
G01 X192.415 Y141.643
G01 X192.523 Y141.541
G01 X192.627 Y141.433
G01 X192.726 Y141.317
G01 X192.820 Y141.196
G01 X192.850 Y141.154
G01 X193.001 Y141.047
G01 X193.148 Y140.927
G01 X193.290 Y140.796
G01 X193.426 Y140.653
G01 X193.556 Y140.498
G01 X193.631 Y140.400
G01 X193.565 Y140.217
G01 X193.490 Y140.041
G01 X193.406 Y139.872
G01 X193.315 Y139.712
G01 X193.216 Y139.561
G01 X193.111 Y139.419
G01 X193.105 Y139.411
G01 X193.054 Y139.264
G01 X192.997 Y139.120
G01 X192.932 Y138.980
G01 X192.862 Y138.845
G01 X192.785 Y138.714
G01 X192.702 Y138.587
G01 X192.613 Y138.466
G01 X192.579 Y138.422
G01 X192.530 Y138.277
G01 X192.472 Y138.132
G01 X192.406 Y137.989
G01 X192.331 Y137.849
G01 X192.249 Y137.710
G01 X192.159 Y137.575
G01 X192.061 Y137.443
G01 X192.053 Y137.434
G01 X191.987 Y137.250
G01 X191.908 Y137.066
G01 X191.815 Y136.884
G01 X191.709 Y136.705
G01 X191.590 Y136.528
G01 X191.528 Y136.445
G01 X191.320 Y136.459
G01 X191.117 Y136.485
G01 X190.920 Y136.523
G01 X190.729 Y136.571
G01 X190.545 Y136.629
G01 X190.398 Y136.685
G01 X190.233 Y136.694
G01 X190.070 Y136.711
G01 X189.909 Y136.737
G01 X189.751 Y136.770
G01 X189.596 Y136.810
G01 X189.444 Y136.858
G01 X189.296 Y136.913
G01 X189.268 Y136.925
G01 X189.109 Y136.933
G01 X188.949 Y136.950
G01 X188.789 Y136.975
G01 X188.628 Y137.008
G01 X188.468 Y137.050
G01 X188.308 Y137.101
G01 X188.151 Y137.160
G01 X188.138 Y137.165
G01 X187.942 Y137.178
G01 X187.742 Y137.203
G01 X187.540 Y137.242
G01 X187.337 Y137.294
G01 X187.132 Y137.359
G01 X187.009 Y137.405
G01 X186.963 Y137.617
G01 X186.931 Y137.826
G01 X186.912 Y138.033
G01 X186.906 Y138.236
G01 X186.912 Y138.435
G01 X186.926 Y138.592
G01 X186.888 Y138.756
G01 X186.858 Y138.920
G01 X186.837 Y139.083
G01 X186.825 Y139.246
G01 X186.821 Y139.409
G01 X186.825 Y139.569
G01 X186.837 Y139.728
G01 X186.843 Y139.779
G01 X186.806 Y139.934
G01 X186.777 Y140.092
G01 X186.756 Y140.252
G01 X186.743 Y140.415
G01 X186.738 Y140.579
G01 X186.742 Y140.745
G01 X186.754 Y140.912
G01 X186.760 Y140.967
G01 X186.717 Y141.158
G01 X186.685 Y141.355
G01 X186.666 Y141.558
G01 X186.658 Y141.766
G01 X186.663 Y141.979
G01 X186.677 Y142.154
G01 X186.866 Y142.256
G01 X187.058 Y142.346
G01 X187.251 Y142.422
G01 X187.444 Y142.485
G01 X187.636 Y142.535
G01 X187.827 Y142.573
G01 X187.973 Y142.655
G01 X188.121 Y142.728
G01 X188.272 Y142.794
G01 X188.424 Y142.852
G01 X188.578 Y142.901
G01 X188.732 Y142.943
G01 X188.888 Y142.976
G01 X188.979 Y142.992
G01 X189.118 Y143.070
G01 X189.262 Y143.143
G01 X189.411 Y143.208
G01 X189.564 Y143.267
G01 X189.722 Y143.318
G01 X189.884 Y143.361
G01 X190.050 Y143.397
G01 X190.130 Y143.411
G01 X190.307 Y143.507
G01 X190.493 Y143.595
G01 X190.689 Y143.672
G01 X190.893 Y143.739
G01 X191.105 Y143.794
G01 X191.281 Y143.830
G01 X191.433 Y143.674
G01 X191.573 Y143.514
G01 X191.701 Y143.349
G01 X191.817 Y143.179
G01 X191.920 Y143.007
G01 X192.011 Y142.833
G01 X192.022 Y142.810
G01 X192.143 Y142.690
G01 X192.258 Y142.565
G01 X192.365 Y142.435
G01 X192.466 Y142.301
G01 X192.558 Y142.162
G01 X192.644 Y142.021
G01 X192.721 Y141.876
G01 X192.762 Y141.791
G01 X192.882 Y141.673
G01 X192.996 Y141.549
G01 X193.105 Y141.416
G01 X193.209 Y141.277
G01 X193.306 Y141.131
G01 X193.396 Y140.979
G01 X193.479 Y140.820
G01 X193.503 Y140.771
G01 X193.653 Y140.618
G01 X193.797 Y140.452
G01 X193.933 Y140.274
G01 X194.060 Y140.083
G01 X194.177 Y139.880
G01 X194.243 Y139.752
G01 X194.130 Y139.555
G01 X194.008 Y139.367
G01 X193.878 Y139.191
G01 X193.740 Y139.026
G01 X193.596 Y138.873
G01 X193.446 Y138.732
G01 X193.358 Y138.573
G01 X193.263 Y138.420
G01 X193.161 Y138.273
G01 X193.053 Y138.132
G01 X192.938 Y137.998
G01 X192.818 Y137.870
G01 X192.692 Y137.750
G01 X192.649 Y137.711
G01 X192.563 Y137.556
G01 X192.468 Y137.403
G01 X192.365 Y137.254
G01 X192.253 Y137.109
G01 X192.132 Y136.968
G01 X192.002 Y136.832
G01 X191.865 Y136.702
G01 X191.852 Y136.691
G01 X191.741 Y136.496
G01 X191.615 Y136.305
G01 X191.474 Y136.118
G01 X191.319 Y135.936
G01 X191.149 Y135.760
G01 X191.054 Y135.670
G01 X190.821 Y135.728
G01 X190.595 Y135.799
G01 X190.378 Y135.881
G01 X190.171 Y135.974
G01 X189.974 Y136.077
G01 X189.821 Y136.168
G01 X189.636 Y136.212
G01 X189.455 Y136.264
G01 X189.278 Y136.324
G01 X189.106 Y136.393
G01 X188.939 Y136.470
G01 X188.777 Y136.554
G01 X188.620 Y136.646
G01 X188.588 Y136.667
G01 X188.411 Y136.707
G01 X188.234 Y136.758
G01 X188.058 Y136.817
G01 X187.884 Y136.887
G01 X187.712 Y136.966
G01 X187.543 Y137.054
G01 X187.376 Y137.151
G01 X187.355 Y137.165
G01 X187.137 Y137.218
G01 X186.917 Y137.286
G01 X186.698 Y137.369
G01 X186.479 Y137.467
G01 X186.263 Y137.580
G01 X186.122 Y137.663
G01 X186.112 Y137.910
G01 X186.118 Y138.153
G01 X186.138 Y138.390
G01 X186.171 Y138.620
G01 X186.217 Y138.843
G01 X186.264 Y139.021
G01 X186.254 Y139.212
G01 X186.253 Y139.402
G01 X186.262 Y139.590
G01 X186.280 Y139.776
G01 X186.308 Y139.960
G01 X186.344 Y140.139
G01 X186.389 Y140.316
G01 X186.407 Y140.378
G01 X186.397 Y140.559
G01 X186.395 Y140.742
G01 X186.403 Y140.927
G01 X186.420 Y141.112
G01 X186.447 Y141.298
G01 X186.484 Y141.484
G01 X186.531 Y141.669
G01 X186.550 Y141.736
G01 X186.540 Y141.959
G01 X186.543 Y142.188
G01 X186.561 Y142.421
G01 X186.594 Y142.657
G01 X186.642 Y142.896
G01 X186.692 Y143.093
G01 X186.907 Y143.192
G01 X187.122 Y143.276
G01 X187.339 Y143.348
G01 X187.555 Y143.406
G01 X187.771 Y143.452
G01 X187.985 Y143.484
G01 X188.197 Y143.504
G01 X188.406 Y143.512
G01 X188.611 Y143.508
G01 X188.812 Y143.493
G01 X188.898 Y143.482
G01 X189.063 Y143.562
G01 X189.232 Y143.635
G01 X189.406 Y143.699
G01 X189.585 Y143.755
G01 X189.768 Y143.802
G01 X189.954 Y143.840
G01 X190.144 Y143.869
G01 X190.337 Y143.889
G01 X190.531 Y143.899
G01 X190.728 Y143.899
G01 X190.925 Y143.889
G01 X191.104 Y143.871
G01 X191.336 Y143.939
G01 X191.577 Y143.994
G01 X191.827 Y144.034
G01 X192.084 Y144.059
G01 X192.207 Y144.066
G01 X192.363 Y143.884
G01 X192.506 Y143.697
G01 X192.636 Y143.506
G01 X192.754 Y143.311
G01 X192.859 Y143.113
G01 X192.952 Y142.913
G01 X193.031 Y142.712
G01 X193.099 Y142.509
G01 X193.154 Y142.307
G01 X193.197 Y142.106
G01 X193.214 Y142.002
G01 X193.341 Y141.860
G01 X193.462 Y141.710
G01 X193.576 Y141.553
G01 X193.682 Y141.389
G01 X193.782 Y141.218
G01 X193.873 Y141.041
G01 X193.956 Y140.858
G01 X194.030 Y140.669
G01 X194.095 Y140.474
G01 X194.150 Y140.275
G01 X194.196 Y140.072
G01 X194.220 Y139.938
G01 X194.357 Y139.722
G01 X194.482 Y139.492
G01 X194.594 Y139.250
G01 X194.693 Y138.995
G01 X194.724 Y138.907
G01 X194.584 Y138.699
G01 X194.436 Y138.502
G01 X194.280 Y138.317
G01 X194.116 Y138.143
G01 X193.946 Y137.981
G01 X193.770 Y137.831
G01 X193.590 Y137.694
G01 X193.404 Y137.569
G01 X193.216 Y137.456
G01 X193.025 Y137.356
G01 X192.976 Y137.333
G01 X192.868 Y137.164
G01 X192.750 Y137.000
G01 X192.623 Y136.840
G01 X192.487 Y136.686
G01 X192.342 Y136.537
G01 X192.188 Y136.395
G01 X192.026 Y136.259
G01 X191.856 Y136.131
G01 X191.678 Y136.011
G01 X191.493 Y135.899
G01 X191.301 Y135.795
G01 X191.228 Y135.759
G01 X191.052 Y135.563
G01 X190.859 Y135.374
G01 X190.651 Y135.193
G01 X190.426 Y135.023
G01 X190.354 Y134.972
G01 X190.105 Y135.053
G01 X189.865 Y135.146
G01 X189.634 Y135.250
G01 X189.413 Y135.366
G01 X189.202 Y135.491
G01 X189.002 Y135.625
G01 X188.814 Y135.768
G01 X188.637 Y135.919
G01 X188.472 Y136.077
G01 X188.318 Y136.241
G01 X188.312 Y136.248
G01 X188.115 Y136.307
G01 X187.921 Y136.377
G01 X187.728 Y136.456
G01 X187.539 Y136.546
G01 X187.353 Y136.646
G01 X187.170 Y136.756
G01 X186.993 Y136.876
G01 X186.820 Y137.006
G01 X186.653 Y137.145
G01 X186.492 Y137.293
G01 X186.337 Y137.451
G01 X186.270 Y137.524
G01 X186.033 Y137.639
G01 X185.798 Y137.771
G01 X185.567 Y137.920
G01 X185.341 Y138.087
G01 X185.249 Y138.162
G01 X185.297 Y138.442
G01 X185.362 Y138.712
G01 X185.441 Y138.972
G01 X185.534 Y139.221
G01 X185.588 Y139.346
G01 X185.624 Y139.570
G01 X185.671 Y139.788
G01 X185.728 Y140.001
G01 X185.796 Y140.207
G01 X185.874 Y140.407
G01 X185.928 Y140.531
G01 X185.959 Y140.730
G01 X185.999 Y140.927
G01 X186.049 Y141.123
G01 X186.109 Y141.315
G01 X186.178 Y141.505
G01 X186.256 Y141.690
G01 X186.267 Y141.715
G01 X186.300 Y141.925
G01 X186.345 Y142.136
G01 X186.401 Y142.348
G01 X186.469 Y142.558
G01 X186.550 Y142.768
G01 X186.607 Y142.899
G01 X186.651 Y143.159
G01 X186.712 Y143.421
G01 X186.792 Y143.684
G01 X186.889 Y143.948
G01 X186.947 Y144.084
G01 X187.227 Y144.115
G01 X187.504 Y144.128
G01 X187.775 Y144.125
G01 X188.039 Y144.105
G01 X188.207 Y144.084
G01 X188.430 Y144.111
G01 X188.652 Y144.127
G01 X188.872 Y144.132
G01 X189.089 Y144.124
G01 X189.302 Y144.106
G01 X189.467 Y144.084
G01 X189.667 Y144.110
G01 X189.869 Y144.126
G01 X190.072 Y144.132
G01 X190.275 Y144.128
G01 X190.478 Y144.114
G01 X190.680 Y144.091
G01 X190.727 Y144.084
G01 X190.942 Y144.111
G01 X191.161 Y144.127
G01 X191.384 Y144.131
G01 X191.611 Y144.123
G01 X191.840 Y144.103
G01 X191.987 Y144.084
G01 X192.258 Y144.114
G01 X192.536 Y144.127
G01 X192.821 Y144.123
G01 X193.111 Y144.100
G01 X193.247 Y144.084
G01 X193.355 Y143.819
G01 X193.445 Y143.554
G01 X193.518 Y143.289
G01 X193.573 Y143.027
G01 X193.602 Y142.845
G01 X193.692 Y142.633
G01 X193.770 Y142.419
G01 X193.836 Y142.203
G01 X193.890 Y141.987
G01 X193.932 Y141.771
G01 X193.957 Y141.607
G01 X194.040 Y141.414
G01 X194.113 Y141.217
G01 X194.177 Y141.016
G01 X194.231 Y140.812
G01 X194.275 Y140.604
G01 X194.308 Y140.395
G01 X194.312 Y140.369
G01 X194.401 Y140.160
G01 X194.480 Y139.943
G01 X194.548 Y139.718
G01 X194.605 Y139.487
G01 X194.649 Y139.250
G01 X194.667 Y139.131
G01 X194.775 Y138.866
G01 X194.868 Y138.588
G01 X194.945 Y138.299
G01 X195.005 Y137.998
G01 X195.022 Y137.893
G01 X194.787 Y137.709
G01 X194.547 Y137.543
G01 X194.302 Y137.395
G01 X194.054 Y137.264
G01 X193.906 Y137.196
G01 X193.717 Y137.044
G01 X193.523 Y136.904
G01 X193.325 Y136.776
G01 X193.122 Y136.660
G01 X192.917 Y136.556
G01 X192.790 Y136.498
G01 X192.619 Y136.360
G01 X192.441 Y136.230
G01 X192.257 Y136.108
G01 X192.066 Y135.996
G01 X191.870 Y135.892
G01 X191.674 Y135.801
G01 X191.490 Y135.653
G01 X191.296 Y135.512
G01 X191.091 Y135.381
G01 X190.877 Y135.259
G01 X190.653 Y135.147
G01 X190.558 Y135.104
G01 X190.327 Y134.922
G01 X190.080 Y134.753
G01 X189.817 Y134.595
G01 X189.539 Y134.451
G01 X189.442 Y134.406
G01 X189.190 Y134.589
G01 X188.955 Y134.782
G01 X188.737 Y134.986
G01 X188.536 Y135.197
G01 X188.443 Y135.305
G01 X188.238 Y135.450
G01 X188.044 Y135.603
G01 X187.861 Y135.764
G01 X187.689 Y135.932
G01 X187.528 Y136.106
G01 X187.444 Y136.205
G01 X187.260 Y136.334
G01 X187.082 Y136.471
G01 X186.912 Y136.617
G01 X186.748 Y136.772
G01 X186.593 Y136.934
G01 X186.445 Y137.104
G01 X186.251 Y137.240
G01 X186.061 Y137.389
G01 X185.878 Y137.549
G01 X185.700 Y137.722
G01 X185.530 Y137.906
G01 X185.446 Y138.003
G01 X185.209 Y138.174
G01 X184.978 Y138.363
G01 X184.755 Y138.571
G01 X184.540 Y138.797
G01 X184.448 Y138.903
G01 X184.555 Y139.199
G01 X184.677 Y139.482
G01 X184.814 Y139.752
G01 X184.964 Y140.006
G01 X185.049 Y140.136
G01 X185.131 Y140.373
G01 X185.224 Y140.603
G01 X185.328 Y140.825
G01 X185.442 Y141.037
G01 X185.565 Y141.241
G01 X185.651 Y141.369
G01 X185.723 Y141.581
G01 X185.805 Y141.789
G01 X185.897 Y141.993
G01 X186.000 Y142.192
G01 X186.111 Y142.386
G01 X186.233 Y142.574
G01 X186.252 Y142.602
G01 X186.328 Y142.826
G01 X186.418 Y143.048
G01 X186.520 Y143.269
G01 X186.636 Y143.487
G01 X186.764 Y143.701
G01 X186.853 Y143.835
G01 X186.952 Y144.111
G01 X187.070 Y144.387
G01 X187.208 Y144.660
G01 X187.366 Y144.931
G01 X187.455 Y145.068
G01 X187.755 Y145.078
G01 X188.050 Y145.071
G01 X188.338 Y145.047
G01 X188.619 Y145.008
G01 X188.893 Y144.953
G01 X189.157 Y144.884
G01 X189.413 Y144.801
G01 X189.657 Y144.705
G01 X189.753 Y144.663
G01 X189.982 Y144.675
G01 X190.212 Y144.676
G01 X190.441 Y144.666
G01 X190.670 Y144.644
G01 X190.899 Y144.611
G01 X191.125 Y144.566
G01 X191.349 Y144.511
G01 X191.571 Y144.444
G01 X191.789 Y144.367
G01 X192.004 Y144.279
G01 X192.051 Y144.258
G01 X192.321 Y144.270
G01 X192.598 Y144.266
G01 X192.879 Y144.244
G01 X193.164 Y144.205
G01 X193.453 Y144.147
G01 X193.743 Y144.071
G01 X194.033 Y143.977
G01 X194.323 Y143.864
G01 X194.349 Y143.853
G01 X194.442 Y143.562
G01 X194.517 Y143.272
G01 X194.574 Y142.982
G01 X194.614 Y142.696
G01 X194.638 Y142.412
G01 X194.645 Y142.133
G01 X194.636 Y141.859
G01 X194.611 Y141.592
G01 X194.597 Y141.486
G01 X194.674 Y141.261
G01 X194.739 Y141.032
G01 X194.793 Y140.800
G01 X194.836 Y140.565
G01 X194.867 Y140.328
G01 X194.887 Y140.088
G01 X194.895 Y139.848
G01 X194.891 Y139.608
G01 X194.875 Y139.367
G01 X194.847 Y139.127
G01 X194.846 Y139.119
G01 X194.935 Y138.850
G01 X195.008 Y138.571
G01 X195.066 Y138.281
G01 X195.107 Y137.983
G01 X195.131 Y137.676
G01 X195.136 Y137.363
G01 X195.123 Y137.043
G01 X195.095 Y136.752
G01 X194.830 Y136.577
G01 X194.560 Y136.419
G01 X194.286 Y136.280
G01 X194.010 Y136.159
G01 X193.732 Y136.056
G01 X193.455 Y135.970
G01 X193.178 Y135.902
G01 X192.903 Y135.852
G01 X192.845 Y135.843
G01 X192.641 Y135.703
G01 X192.430 Y135.573
G01 X192.213 Y135.453
G01 X191.989 Y135.344
G01 X191.761 Y135.246
G01 X191.527 Y135.159
G01 X191.290 Y135.084
G01 X191.048 Y135.020
G01 X190.804 Y134.968
G01 X190.595 Y134.934
G01 X190.355 Y134.772
G01 X190.101 Y134.621
G01 X189.832 Y134.484
G01 X189.551 Y134.359
G01 X189.257 Y134.250
G01 X188.951 Y134.156
G01 X188.634 Y134.079
G01 X188.345 Y134.025
G01 X188.095 Y134.239
G01 X187.862 Y134.462
G01 X187.647 Y134.695
G01 X187.449 Y134.935
G01 X187.268 Y135.181
G01 X187.106 Y135.432
G01 X186.961 Y135.688
G01 X186.835 Y135.946
G01 X186.822 Y135.974
G01 X186.628 Y136.134
G01 X186.442 Y136.303
G01 X186.264 Y136.482
G01 X186.095 Y136.669
G01 X185.935 Y136.864
G01 X185.785 Y137.066
G01 X185.646 Y137.276
G01 X185.516 Y137.493
G01 X185.398 Y137.715
G01 X185.299 Y137.923
G01 X185.077 Y138.108
G01 X184.863 Y138.309
G01 X184.656 Y138.528
G01 X184.459 Y138.762
G01 X184.272 Y139.013
G01 X184.097 Y139.279
G01 X183.934 Y139.560
G01 X183.785 Y139.855
G01 X183.777 Y139.872
G01 X183.913 Y140.174
G01 X184.064 Y140.462
G01 X184.228 Y140.735
G01 X184.404 Y140.994
G01 X184.591 Y141.237
G01 X184.789 Y141.464
G01 X184.995 Y141.675
G01 X185.209 Y141.870
G01 X185.258 Y141.911
G01 X185.357 Y142.141
G01 X185.466 Y142.367
G01 X185.587 Y142.587
G01 X185.719 Y142.801
G01 X185.861 Y143.008
G01 X186.013 Y143.208
G01 X186.174 Y143.401
G01 X186.345 Y143.585
G01 X186.525 Y143.761
G01 X186.713 Y143.927
G01 X186.739 Y143.949
G01 X186.855 Y144.215
G01 X186.988 Y144.478
G01 X187.141 Y144.739
G01 X187.311 Y144.994
G01 X187.500 Y145.245
G01 X187.708 Y145.488
G01 X187.933 Y145.723
G01 X188.176 Y145.949
G01 X188.220 Y145.988
G01 X188.547 Y145.941
G01 X188.866 Y145.877
G01 X189.174 Y145.796
G01 X189.471 Y145.699
G01 X189.757 Y145.588
G01 X190.031 Y145.462
G01 X190.292 Y145.323
G01 X190.539 Y145.173
G01 X190.632 Y145.110
G01 X190.883 Y145.079
G01 X191.133 Y145.036
G01 X191.380 Y144.980
G01 X191.625 Y144.913
G01 X191.866 Y144.833
G01 X192.104 Y144.741
G01 X192.337 Y144.638
G01 X192.565 Y144.523
G01 X192.787 Y144.397
G01 X193.003 Y144.260
G01 X193.044 Y144.232
G01 X193.340 Y144.193
G01 X193.639 Y144.135
G01 X193.941 Y144.058
G01 X194.243 Y143.960
G01 X194.545 Y143.843
G01 X194.846 Y143.705
G01 X195.143 Y143.546
G01 X195.436 Y143.367
G01 X195.456 Y143.355
G01 X195.501 Y143.021
G01 X195.527 Y142.691
G01 X195.533 Y142.366
G01 X195.522 Y142.046
G01 X195.493 Y141.734
G01 X195.446 Y141.430
G01 X195.384 Y141.134
G01 X195.306 Y140.848
G01 X195.274 Y140.748
G01 X195.313 Y140.489
G01 X195.340 Y140.228
G01 X195.355 Y139.965
G01 X195.356 Y139.702
G01 X195.344 Y139.439
G01 X195.319 Y139.176
G01 X195.282 Y138.914
G01 X195.231 Y138.654
G01 X195.168 Y138.396
G01 X195.092 Y138.141
G01 X195.136 Y137.833
G01 X195.162 Y137.517
G01 X195.169 Y137.193
G01 X195.157 Y136.863
G01 X195.124 Y136.528
G01 X195.070 Y136.188
G01 X194.996 Y135.845
G01 X194.909 Y135.534
G01 X194.588 Y135.394
G01 X194.266 Y135.276
G01 X193.943 Y135.177
G01 X193.620 Y135.099
G01 X193.300 Y135.041
G01 X192.983 Y135.001
G01 X192.671 Y134.981
G01 X192.363 Y134.979
G01 X192.307 Y134.981
G01 X192.060 Y134.868
G01 X191.808 Y134.768
G01 X191.551 Y134.680
G01 X191.289 Y134.605
G01 X191.024 Y134.543
G01 X190.756 Y134.493
G01 X190.485 Y134.457
G01 X190.213 Y134.434
G01 X189.939 Y134.425
G01 X189.705 Y134.428
G01 X189.417 Y134.299
G01 X189.115 Y134.185
G01 X188.801 Y134.087
G01 X188.475 Y134.007
G01 X188.139 Y133.945
G01 X187.792 Y133.902
G01 X187.437 Y133.878
G01 X187.104 Y133.875
G01 X186.875 Y134.152
G01 X186.667 Y134.437
G01 X186.478 Y134.728
G01 X186.310 Y135.024
G01 X186.163 Y135.324
G01 X186.036 Y135.625
G01 X185.929 Y135.928
G01 X185.841 Y136.230
G01 X185.833 Y136.264
G01 X185.654 Y136.473
G01 X185.486 Y136.690
G01 X185.328 Y136.915
G01 X185.182 Y137.148
G01 X185.048 Y137.388
G01 X184.925 Y137.633
G01 X184.814 Y137.885
G01 X184.716 Y138.142
G01 X184.631 Y138.403
G01 X184.562 Y138.654
G01 X184.359 Y138.894
G01 X184.166 Y139.151
G01 X183.985 Y139.425
G01 X183.817 Y139.714
G01 X183.664 Y140.018
G01 X183.526 Y140.336
G01 X183.404 Y140.668
G01 X183.300 Y141.013
G01 X183.291 Y141.044
G01 X183.495 Y141.342
G01 X183.711 Y141.623
G01 X183.939 Y141.886
G01 X184.177 Y142.130
G01 X184.424 Y142.356
G01 X184.679 Y142.563
G01 X184.941 Y142.751
G01 X185.207 Y142.919
G01 X185.272 Y142.957
G01 X185.422 Y143.186
G01 X185.582 Y143.408
G01 X185.754 Y143.621
G01 X185.936 Y143.826
G01 X186.127 Y144.022
G01 X186.328 Y144.208
G01 X186.538 Y144.385
G01 X186.757 Y144.550
G01 X186.983 Y144.705
G01 X187.217 Y144.849
G01 X187.253 Y144.869
G01 X187.427 Y145.133
G01 X187.621 Y145.392
G01 X187.834 Y145.643
G01 X188.067 Y145.886
G01 X188.318 Y146.119
G01 X188.587 Y146.342
G01 X188.875 Y146.552
G01 X189.179 Y146.750
G01 X189.233 Y146.782
G01 X189.577 Y146.656
G01 X189.906 Y146.512
G01 X190.220 Y146.353
G01 X190.519 Y146.179
G01 X190.801 Y145.992
G01 X191.066 Y145.792
G01 X191.312 Y145.582
G01 X191.578 Y145.489
G01 X191.838 Y145.384
G01 X192.092 Y145.267
G01 X192.339 Y145.138
G01 X192.578 Y144.997
G01 X192.809 Y144.845
G01 X193.031 Y144.683
G01 X193.244 Y144.511
G01 X193.390 Y144.382
G01 X193.666 Y144.286
G01 X193.941 Y144.174
G01 X194.213 Y144.045
G01 X194.482 Y143.899
G01 X194.747 Y143.737
G01 X195.006 Y143.557
G01 X195.259 Y143.361
G01 X195.469 Y143.182
G01 X195.815 Y143.012
G01 X196.157 Y142.815
G01 X196.494 Y142.592
G01 X196.508 Y142.582
G01 X196.480 Y142.209
G01 X196.431 Y141.846
G01 X196.363 Y141.493
G01 X196.276 Y141.151
G01 X196.171 Y140.821
G01 X196.049 Y140.504
G01 X195.918 Y140.214
G01 X195.900 Y139.924
G01 X195.869 Y139.636
G01 X195.824 Y139.351
G01 X195.765 Y139.069
G01 X195.692 Y138.791
G01 X195.606 Y138.519
G01 X195.507 Y138.252
G01 X195.395 Y137.991
G01 X195.327 Y137.847
G01 X195.310 Y137.544
G01 X195.275 Y137.238
G01 X195.223 Y136.930
G01 X195.153 Y136.620
G01 X195.065 Y136.310
G01 X194.959 Y136.001
G01 X194.835 Y135.693
G01 X194.737 Y135.479
G01 X194.666 Y135.087
G01 X194.568 Y134.692
G01 X194.442 Y134.296
G01 X194.063 Y134.218
G01 X193.687 Y134.164
G01 X193.315 Y134.133
G01 X192.950 Y134.123
G01 X192.592 Y134.135
G01 X192.243 Y134.168
G01 X191.963 Y134.209
G01 X191.670 Y134.144
G01 X191.375 Y134.094
G01 X191.079 Y134.059
G01 X190.783 Y134.038
G01 X190.487 Y134.032
G01 X190.193 Y134.041
G01 X189.901 Y134.064
G01 X189.611 Y134.102
G01 X189.485 Y134.122
G01 X189.183 Y134.055
G01 X188.874 Y134.004
G01 X188.558 Y133.969
G01 X188.236 Y133.950
G01 X187.908 Y133.949
G01 X187.576 Y133.966
G01 X187.241 Y134.001
G01 X187.006 Y134.036
G01 X186.607 Y133.996
G01 X186.198 Y133.981
G01 X185.779 Y133.992
G01 X185.767 Y133.993
G01 X185.584 Y134.344
G01 X185.425 Y134.698
G01 X185.289 Y135.054
G01 X185.178 Y135.411
G01 X185.089 Y135.766
G01 X185.024 Y136.118
G01 X184.988 Y136.389
G01 X184.843 Y136.656
G01 X184.712 Y136.929
G01 X184.594 Y137.206
G01 X184.492 Y137.487
G01 X184.403 Y137.772
G01 X184.330 Y138.059
G01 X184.271 Y138.348
G01 X184.227 Y138.638
G01 X184.210 Y138.786
G01 X184.061 Y139.056
G01 X183.926 Y139.338
G01 X183.804 Y139.632
G01 X183.697 Y139.935
G01 X183.605 Y140.248
G01 X183.528 Y140.570
G01 X183.468 Y140.900
G01 X183.431 Y141.183
G01 X183.282 Y141.553
G01 X183.155 Y141.941
G01 X183.050 Y142.345
G01 X183.042 Y142.381
G01 X183.328 Y142.655
G01 X183.625 Y142.907
G01 X183.929 Y143.137
G01 X184.241 Y143.344
G01 X184.558 Y143.528
G01 X184.878 Y143.689
G01 X185.164 Y143.813
G01 X185.379 Y144.026
G01 X185.603 Y144.228
G01 X185.836 Y144.417
G01 X186.077 Y144.594
G01 X186.325 Y144.758
G01 X186.579 Y144.908
G01 X186.840 Y145.045
G01 X187.105 Y145.169
G01 X187.286 Y145.244
G01 X187.505 Y145.462
G01 X187.739 Y145.672
G01 X187.987 Y145.871
G01 X188.250 Y146.059
G01 X188.526 Y146.235
G01 X188.816 Y146.399
G01 X189.118 Y146.549
G01 X189.409 Y146.676
G01 X189.728 Y146.924
G01 X190.070 Y147.157
G01 X190.435 Y147.372
G01 X190.470 Y147.391
G01 X190.813 Y147.192
G01 X191.138 Y146.977
G01 X191.443 Y146.747
G01 X191.729 Y146.505
G01 X191.995 Y146.252
G01 X192.240 Y145.988
G01 X192.461 Y145.720
G01 X192.729 Y145.571
G01 X192.987 Y145.409
G01 X193.236 Y145.236
G01 X193.476 Y145.051
G01 X193.705 Y144.855
G01 X193.923 Y144.649
G01 X194.130 Y144.434
G01 X194.325 Y144.209
G01 X194.453 Y144.049
G01 X194.730 Y143.895
G01 X195.003 Y143.723
G01 X195.270 Y143.533
G01 X195.530 Y143.326
G01 X195.782 Y143.102
G01 X196.025 Y142.861
G01 X196.259 Y142.604
G01 X196.445 Y142.378
G01 X196.783 Y142.130
G01 X197.112 Y141.856
G01 X197.429 Y141.554
G01 X197.441 Y141.542
G01 X197.340 Y141.149
G01 X197.219 Y140.769
G01 X197.079 Y140.405
G01 X196.922 Y140.055
G01 X196.747 Y139.723
G01 X196.557 Y139.407
G01 X196.367 Y139.130
G01 X196.294 Y138.823
G01 X196.206 Y138.521
G01 X196.104 Y138.225
G01 X195.987 Y137.935
G01 X195.857 Y137.652
G01 X195.714 Y137.378
G01 X195.558 Y137.111
G01 X195.389 Y136.854
G01 X195.293 Y136.718
G01 X195.218 Y136.399
G01 X195.123 Y136.080
G01 X195.010 Y135.761
G01 X194.877 Y135.444
G01 X194.725 Y135.131
G01 X194.554 Y134.821
G01 X194.364 Y134.517
G01 X194.219 Y134.307
G01 X194.071 Y133.903
G01 X193.892 Y133.501
G01 X193.684 Y133.103
G01 X193.682 Y133.101
G01 X193.263 Y133.090
G01 X192.852 Y133.103
G01 X192.450 Y133.139
G01 X192.059 Y133.198
G01 X191.680 Y133.278
G01 X191.313 Y133.379
G01 X191.029 Y133.474
G01 X190.704 Y133.460
G01 X190.381 Y133.462
G01 X190.059 Y133.480
G01 X189.740 Y133.513
G01 X189.425 Y133.562
G01 X189.114 Y133.627
G01 X188.807 Y133.706
G01 X188.507 Y133.800
G01 X188.375 Y133.847
G01 X188.042 Y133.832
G01 X187.705 Y133.835
G01 X187.363 Y133.856
G01 X187.017 Y133.897
G01 X186.670 Y133.957
G01 X186.321 Y134.036
G01 X185.972 Y134.136
G01 X185.721 Y134.220
G01 X185.291 Y134.252
G01 X184.854 Y134.312
G01 X184.412 Y134.402
G01 X184.394 Y134.406
G01 X184.265 Y134.814
G01 X184.162 Y135.220
G01 X184.085 Y135.623
G01 X184.033 Y136.022
G01 X184.005 Y136.416
G01 X184.002 Y136.803
G01 X184.015 Y137.100
G01 X183.911 Y137.410
G01 X183.822 Y137.723
G01 X183.750 Y138.039
G01 X183.693 Y138.357
G01 X183.653 Y138.675
G01 X183.628 Y138.993
G01 X183.620 Y139.311
G01 X183.627 Y139.626
G01 X183.637 Y139.793
G01 X183.530 Y140.108
G01 X183.439 Y140.432
G01 X183.365 Y140.765
G01 X183.307 Y141.107
G01 X183.268 Y141.456
G01 X183.247 Y141.811
G01 X183.244 Y142.173
G01 X183.258 Y142.487
G01 X183.170 Y142.908
G01 X183.107 Y143.343
G01 X183.071 Y143.791
G01 X183.069 Y143.834
G01 X183.424 Y144.071
G01 X183.785 Y144.283
G01 X184.151 Y144.469
G01 X184.520 Y144.630
G01 X184.890 Y144.766
G01 X185.260 Y144.878
G01 X185.590 Y144.956
G01 X185.858 Y145.143
G01 X186.134 Y145.315
G01 X186.416 Y145.472
G01 X186.705 Y145.614
G01 X186.998 Y145.742
G01 X187.297 Y145.854
G01 X187.599 Y145.951
G01 X187.904 Y146.033
G01 X188.112 Y146.079
G01 X188.385 Y146.270
G01 X188.673 Y146.448
G01 X188.974 Y146.613
G01 X189.288 Y146.764
G01 X189.615 Y146.900
G01 X189.953 Y147.019
G01 X190.302 Y147.122
G01 X190.633 Y147.201
G01 X191.019 Y147.406
G01 X191.427 Y147.589
G01 X191.855 Y147.750
G01 X191.894 Y147.763
G01 X192.217 Y147.475
G01 X192.517 Y147.174
G01 X192.793 Y146.862
G01 X193.044 Y146.541
G01 X193.271 Y146.212
G01 X193.469 Y145.886
G01 X193.725 Y145.665
G01 X193.967 Y145.433
G01 X194.196 Y145.192
G01 X194.411 Y144.941
G01 X194.612 Y144.681
G01 X194.798 Y144.414
G01 X194.968 Y144.140
G01 X195.043 Y144.009
G01 X195.291 Y143.797
G01 X195.529 Y143.571
G01 X195.758 Y143.330
G01 X195.976 Y143.076
G01 X196.183 Y142.807
G01 X196.378 Y142.526
G01 X196.560 Y142.233
G01 X196.618 Y142.132
G01 X196.925 Y141.861
G01 X197.221 Y141.566
G01 X197.504 Y141.245
G01 X197.772 Y140.900
G01 X198.024 Y140.532
G01 X198.193 Y140.255
G01 X198.000 Y139.857
G01 X197.788 Y139.477
G01 X197.559 Y139.119
G01 X197.313 Y138.781
G01 X197.053 Y138.465
G01 X196.803 Y138.195
G01 X196.656 Y137.880
G01 X196.495 Y137.574
G01 X196.320 Y137.279
G01 X196.131 Y136.995
G01 X195.931 Y136.724
G01 X195.718 Y136.464
G01 X195.494 Y136.218
G01 X195.414 Y136.135
G01 X195.273 Y135.830
G01 X195.115 Y135.530
G01 X194.941 Y135.235
G01 X194.750 Y134.947
G01 X194.542 Y134.666
G01 X194.318 Y134.394
G01 X194.078 Y134.130
G01 X194.024 Y134.075
G01 X193.843 Y133.697
G01 X193.635 Y133.322
G01 X193.398 Y132.954
G01 X193.134 Y132.593
G01 X192.843 Y132.241
G01 X192.635 Y132.015
G01 X192.185 Y132.094
G01 X191.749 Y132.197
G01 X191.329 Y132.323
G01 X190.926 Y132.472
G01 X190.540 Y132.641
G01 X190.238 Y132.794
G01 X189.885 Y132.850
G01 X189.538 Y132.923
G01 X189.198 Y133.013
G01 X188.866 Y133.119
G01 X188.542 Y133.241
G01 X188.227 Y133.377
G01 X187.923 Y133.529
G01 X187.841 Y133.572
G01 X187.504 Y133.625
G01 X187.168 Y133.695
G01 X186.832 Y133.782
G01 X186.498 Y133.888
G01 X186.166 Y134.012
G01 X185.839 Y134.153
G01 X185.516 Y134.313
G01 X185.445 Y134.351
G01 X185.030 Y134.421
G01 X184.611 Y134.518
G01 X184.191 Y134.643
G01 X183.770 Y134.797
G01 X183.350 Y134.979
G01 X183.048 Y135.130
G01 X182.998 Y135.591
G01 X182.977 Y136.045
G01 X182.983 Y136.490
G01 X183.015 Y136.925
G01 X183.072 Y137.348
G01 X183.137 Y137.683
G01 X183.093 Y138.040
G01 X183.067 Y138.396
G01 X183.059 Y138.749
G01 X183.068 Y139.099
G01 X183.096 Y139.446
G01 X183.140 Y139.787
G01 X183.201 Y140.123
G01 X183.226 Y140.237
G01 X183.183 Y140.574
G01 X183.156 Y140.916
G01 X183.147 Y141.262
G01 X183.156 Y141.612
G01 X183.182 Y141.963
G01 X183.227 Y142.316
G01 X183.290 Y142.669
G01 X183.315 Y142.790
G01 X183.267 Y143.207
G01 X183.244 Y143.635
G01 X183.247 Y144.072
G01 X183.278 Y144.518
G01 X183.336 Y144.970
G01 X183.405 Y145.343
G01 X183.833 Y145.519
G01 X184.263 Y145.666
G01 X184.691 Y145.784
G01 X185.117 Y145.874
G01 X185.539 Y145.936
G01 X185.918 Y145.970
G01 X186.247 Y146.112
G01 X186.581 Y146.235
G01 X186.917 Y146.341
G01 X187.256 Y146.429
G01 X187.596 Y146.499
G01 X187.936 Y146.552
G01 X188.275 Y146.586
G01 X188.431 Y146.597
G01 X188.744 Y146.733
G01 X189.067 Y146.854
G01 X189.398 Y146.959
G01 X189.738 Y147.048
G01 X190.085 Y147.120
G01 X190.438 Y147.176
G01 X190.797 Y147.213
G01 X190.944 Y147.223
G01 X191.337 Y147.387
G01 X191.748 Y147.530
G01 X192.176 Y147.649
G01 X192.620 Y147.744
G01 X193.079 Y147.813
G01 X193.457 Y147.850
G01 X193.745 Y147.485
G01 X194.006 Y147.111
G01 X194.239 Y146.730
G01 X194.445 Y146.344
G01 X194.623 Y145.954
G01 X194.769 Y145.576
G01 X194.999 Y145.295
G01 X195.212 Y145.005
G01 X195.409 Y144.706
G01 X195.590 Y144.400
G01 X195.753 Y144.088
G01 X195.900 Y143.771
G01 X196.029 Y143.449
G01 X196.082 Y143.303
G01 X196.304 Y143.033
G01 X196.514 Y142.749
G01 X196.711 Y142.452
G01 X196.894 Y142.142
G01 X197.063 Y141.819
G01 X197.216 Y141.486
G01 X197.354 Y141.141
G01 X197.394 Y141.030
G01 X197.668 Y140.687
G01 X197.925 Y140.319
G01 X198.164 Y139.928
G01 X198.383 Y139.514
G01 X198.581 Y139.078
G01 X198.707 Y138.757
G01 X198.428 Y138.371
G01 X198.133 Y138.009
G01 X197.823 Y137.673
G01 X197.501 Y137.362
G01 X197.167 Y137.077
G01 X196.859 Y136.843
G01 X196.645 Y136.537
G01 X196.417 Y136.244
G01 X196.177 Y135.965
G01 X195.925 Y135.701
G01 X195.662 Y135.451
G01 X195.389 Y135.217
G01 X195.107 Y134.999
G01 X195.011 Y134.930
G01 X194.806 Y134.634
G01 X194.584 Y134.347
G01 X194.345 Y134.069
G01 X194.090 Y133.800
G01 X193.819 Y133.543
G01 X193.532 Y133.298
G01 X193.231 Y133.065
G01 X193.164 Y133.016
G01 X192.903 Y132.652
G01 X192.614 Y132.297
G01 X192.297 Y131.953
G01 X191.953 Y131.622
G01 X191.581 Y131.306
G01 X191.316 Y131.103
G01 X190.856 Y131.269
G01 X190.416 Y131.459
G01 X189.996 Y131.671
G01 X189.599 Y131.902
G01 X189.224 Y132.152
G01 X188.936 Y132.368
G01 X188.575 Y132.492
G01 X188.223 Y132.634
G01 X187.882 Y132.792
G01 X187.552 Y132.965
G01 X187.234 Y133.153
G01 X186.928 Y133.355
G01 X186.636 Y133.571
G01 X186.557 Y133.633
G01 X186.212 Y133.750
G01 X185.871 Y133.886
G01 X185.535 Y134.041
G01 X185.203 Y134.213
G01 X184.878 Y134.404
G01 X184.560 Y134.614
G01 X184.251 Y134.841
G01 X184.177 Y134.898
G01 X183.755 Y135.048
G01 X183.333 Y135.228
G01 X182.915 Y135.437
G01 X182.501 Y135.675
G01 X182.095 Y135.944
G01 X181.798 Y136.164
G01 X181.831 Y136.657
G01 X181.892 Y137.138
G01 X181.981 Y137.605
G01 X182.095 Y138.056
G01 X182.233 Y138.490
G01 X182.365 Y138.834
G01 X182.384 Y139.217
G01 X182.423 Y139.595
G01 X182.480 Y139.968
G01 X182.555 Y140.334
G01 X182.647 Y140.692
G01 X182.757 Y141.043
G01 X182.883 Y141.384
G01 X182.933 Y141.504
G01 X182.949 Y141.867
G01 X182.985 Y142.231
G01 X183.039 Y142.596
G01 X183.113 Y142.961
G01 X183.205 Y143.326
G01 X183.317 Y143.688
G01 X183.449 Y144.047
G01 X183.500 Y144.175
G01 X183.527 Y144.622
G01 X183.582 Y145.076
G01 X183.666 Y145.535
G01 X183.781 Y145.998
G01 X183.926 Y146.463
G01 X184.068 Y146.845
G01 X184.550 Y146.950
G01 X185.029 Y147.024
G01 X185.501 Y147.069
G01 X185.965 Y147.085
G01 X186.419 Y147.073
G01 X186.826 Y147.038
G01 X187.199 Y147.126
G01 X187.572 Y147.194
G01 X187.946 Y147.243
G01 X188.318 Y147.272
G01 X188.688 Y147.283
G01 X189.055 Y147.275
G01 X189.419 Y147.249
G01 X189.584 Y147.231
G01 X189.939 Y147.316
G01 X190.301 Y147.383
G01 X190.670 Y147.432
G01 X191.044 Y147.463
G01 X191.422 Y147.475
G01 X191.805 Y147.467
G01 X192.190 Y147.440
G01 X192.343 Y147.424
G01 X192.787 Y147.523
G01 X193.247 Y147.597
G01 X193.720 Y147.643
G01 X194.205 Y147.660
G01 X194.701 Y147.648
G01 X195.101 Y147.617
G01 X195.330 Y147.170
G01 X195.527 Y146.720
G01 X195.693 Y146.268
G01 X195.829 Y145.817
G01 X195.935 Y145.367
G01 X195.952 Y145.278
G01 X196.139 Y144.927
G01 X196.305 Y144.570
G01 X196.451 Y144.209
G01 X196.577 Y143.845
G01 X196.683 Y143.479
G01 X196.770 Y143.112
G01 X196.804 Y142.939
G01 X196.977 Y142.616
G01 X197.135 Y142.282
G01 X197.276 Y141.940
G01 X197.402 Y141.589
G01 X197.510 Y141.230
G01 X197.601 Y140.864
G01 X197.655 Y140.600
G01 X197.851 Y140.229
G01 X198.029 Y139.840
G01 X198.187 Y139.434
G01 X198.324 Y139.012
G01 X198.439 Y138.576
G01 X198.506 Y138.261
G01 X198.709 Y137.770
G01 X198.884 Y137.254
G01 X198.932 Y137.092
G01 X198.556 Y136.742
G01 X198.168 Y136.421
G01 X197.770 Y136.131
G01 X197.364 Y135.870
G01 X196.951 Y135.640
G01 X196.893 Y135.611
G01 X196.598 Y135.328
G01 X196.293 Y135.064
G01 X195.977 Y134.818
G01 X195.653 Y134.591
G01 X195.321 Y134.383
G01 X194.982 Y134.195
G01 X194.854 Y134.130
G01 X194.583 Y133.868
G01 X194.298 Y133.618
G01 X194.000 Y133.382
G01 X193.689 Y133.160
G01 X193.365 Y132.952
G01 X193.030 Y132.760
G01 X192.815 Y132.648
G01 X192.506 Y132.352
G01 X192.174 Y132.069
G01 X191.820 Y131.800
G01 X191.446 Y131.548
G01 X191.050 Y131.313
G01 X190.777 Y131.167
G01 X190.354 Y130.832
G01 X189.901 Y130.517
G01 X189.757 Y130.426
G01 X189.306 Y130.698
G01 X188.882 Y130.990
G01 X188.484 Y131.301
G01 X188.113 Y131.629
G01 X187.771 Y131.971
G01 X187.747 Y131.997
G01 X187.387 Y132.207
G01 X187.042 Y132.432
G01 X186.713 Y132.672
G01 X186.400 Y132.927
G01 X186.104 Y133.194
G01 X185.826 Y133.472
G01 X185.737 Y133.568
G01 X185.407 Y133.758
G01 X185.085 Y133.965
G01 X184.773 Y134.189
G01 X184.471 Y134.429
G01 X184.179 Y134.685
G01 X183.900 Y134.956
G01 X183.726 Y135.138
G01 X183.356 Y135.354
G01 X182.991 Y135.595
G01 X182.635 Y135.861
G01 X182.288 Y136.151
G01 X181.952 Y136.465
G01 X181.716 Y136.709
G01 X181.278 Y137.022
G01 X180.852 Y137.369
G01 X180.711 Y137.494
G01 X180.848 Y138.007
G01 X181.013 Y138.501
G01 X181.203 Y138.973
G01 X181.418 Y139.423
G01 X181.655 Y139.849
G01 X181.678 Y139.888
G01 X181.780 Y140.293
G01 X181.901 Y140.688
G01 X182.041 Y141.072
G01 X182.198 Y141.443
G01 X182.373 Y141.802
G01 X182.564 Y142.147
G01 X182.646 Y142.283
G01 X182.736 Y142.652
G01 X182.846 Y143.017
G01 X182.974 Y143.379
G01 X183.120 Y143.735
G01 X183.284 Y144.084
G01 X183.466 Y144.427
G01 X183.613 Y144.677
G01 X183.717 Y145.092
G01 X183.847 Y145.509
G01 X184.003 Y145.924
G01 X184.185 Y146.337
G01 X184.394 Y146.747
G01 X184.580 Y147.071
G01 X184.760 Y147.580
G01 X184.977 Y148.087
G01 X185.064 Y148.268
G01 X185.594 Y148.278
G01 X186.112 Y148.257
G01 X186.618 Y148.206
G01 X187.109 Y148.125
G01 X187.584 Y148.016
G01 X187.663 Y147.995
G01 X188.080 Y148.010
G01 X188.492 Y148.003
G01 X188.900 Y147.975
G01 X189.300 Y147.927
G01 X189.694 Y147.858
G01 X190.079 Y147.771
G01 X190.262 Y147.722
G01 X190.644 Y147.737
G01 X191.027 Y147.733
G01 X191.412 Y147.710
G01 X191.797 Y147.668
G01 X192.182 Y147.606
G01 X192.564 Y147.525
G01 X192.861 Y147.449
G01 X193.296 Y147.463
G01 X193.738 Y147.453
G01 X194.188 Y147.417
G01 X194.642 Y147.354
G01 X195.101 Y147.265
G01 X195.460 Y147.175
G01 X196.010 Y147.142
G01 X196.570 Y147.071
G01 X196.760 Y147.039
G01 X196.916 Y146.529
G01 X197.040 Y146.020
G01 X197.131 Y145.516
G01 X197.190 Y145.017
G01 X197.217 Y144.527
G01 X197.219 Y144.435
G01 X197.349 Y144.032
G01 X197.457 Y143.627
G01 X197.544 Y143.222
G01 X197.609 Y142.817
G01 X197.652 Y142.413
G01 X197.675 Y142.012
G01 X197.678 Y141.830
G01 X197.800 Y141.459
G01 X197.903 Y141.080
G01 X197.989 Y140.695
G01 X198.055 Y140.304
G01 X198.102 Y139.908
G01 X198.130 Y139.508
G01 X198.137 Y139.226
G01 X198.274 Y138.801
G01 X198.388 Y138.361
G01 X198.479 Y137.906
G01 X198.544 Y137.439
G01 X198.584 Y136.961
G01 X198.596 Y136.622
G01 X198.718 Y136.070
G01 X198.806 Y135.498
G01 X198.826 Y135.320
G01 X198.367 Y135.022
G01 X197.901 Y134.758
G01 X197.430 Y134.527
G01 X196.956 Y134.330
G01 X196.481 Y134.165
G01 X196.421 Y134.147
G01 X196.060 Y133.905
G01 X195.691 Y133.685
G01 X195.315 Y133.486
G01 X194.934 Y133.308
G01 X194.548 Y133.152
G01 X194.158 Y133.017
G01 X194.016 Y132.974
G01 X193.685 Y132.750
G01 X193.341 Y132.542
G01 X192.985 Y132.350
G01 X192.619 Y132.175
G01 X192.242 Y132.018
G01 X191.857 Y131.879
G01 X191.612 Y131.801
G01 X191.234 Y131.549
G01 X190.836 Y131.314
G01 X190.417 Y131.099
G01 X189.979 Y130.904
G01 X189.524 Y130.732
G01 X189.207 Y130.628
G01 X188.705 Y130.356
G01 X188.174 Y130.111
G01 X188.004 Y130.042
G01 X187.583 Y130.409
G01 X187.193 Y130.793
G01 X186.834 Y131.191
G01 X186.507 Y131.602
G01 X186.213 Y132.023
G01 X186.193 Y132.053
G01 X185.856 Y132.338
G01 X185.537 Y132.637
G01 X185.238 Y132.948
G01 X184.958 Y133.271
G01 X184.698 Y133.604
G01 X184.459 Y133.947
G01 X184.382 Y134.065
G01 X184.073 Y134.324
G01 X183.776 Y134.599
G01 X183.491 Y134.889
G01 X183.220 Y135.195
G01 X182.963 Y135.515
G01 X182.722 Y135.849
G01 X182.571 Y136.076
G01 X182.224 Y136.369
G01 X181.889 Y136.687
G01 X181.566 Y137.029
G01 X181.258 Y137.395
G01 X180.966 Y137.784
G01 X180.760 Y138.087
G01 X180.361 Y138.494
G01 X179.980 Y138.935
G01 X179.854 Y139.093
G01 X180.092 Y139.603
G01 X180.354 Y140.087
G01 X180.639 Y140.545
G01 X180.946 Y140.974
G01 X181.271 Y141.376
G01 X181.305 Y141.415
G01 X181.485 Y141.818
G01 X181.684 Y142.208
G01 X181.900 Y142.582
G01 X182.133 Y142.940
G01 X182.381 Y143.282
G01 X182.643 Y143.607
G01 X182.756 Y143.737
G01 X182.918 Y144.105
G01 X183.100 Y144.466
G01 X183.299 Y144.819
G01 X183.517 Y145.164
G01 X183.752 Y145.498
G01 X184.005 Y145.822
G01 X184.207 Y146.059
G01 X184.392 Y146.473
G01 X184.604 Y146.884
G01 X184.843 Y147.289
G01 X185.109 Y147.686
G01 X185.403 Y148.075
G01 X185.658 Y148.380
G01 X185.939 Y148.878
G01 X186.259 Y149.368
G01 X186.383 Y149.541
G01 X186.937 Y149.454
G01 X187.474 Y149.337
G01 X187.992 Y149.190
G01 X188.489 Y149.016
G01 X188.965 Y148.815
G01 X189.045 Y148.778
G01 X189.482 Y148.716
G01 X189.912 Y148.633
G01 X190.332 Y148.529
G01 X190.741 Y148.405
G01 X191.139 Y148.261
G01 X191.525 Y148.099
G01 X191.706 Y148.015
G01 X192.108 Y147.960
G01 X192.508 Y147.885
G01 X192.906 Y147.790
G01 X193.300 Y147.675
G01 X193.691 Y147.540
G01 X194.075 Y147.385
G01 X194.368 Y147.252
G01 X194.825 Y147.187
G01 X195.286 Y147.094
G01 X195.749 Y146.974
G01 X196.212 Y146.824
G01 X196.675 Y146.646
G01 X197.030 Y146.488
G01 X197.598 Y146.352
G01 X198.170 Y146.175
G01 X198.360 Y146.107
G01 X198.422 Y145.539
G01 X198.448 Y144.980
G01 X198.440 Y144.433
G01 X198.400 Y143.898
G01 X198.360 Y143.587
G01 X198.416 Y143.131
G01 X198.447 Y142.679
G01 X198.454 Y142.231
G01 X198.438 Y141.789
G01 X198.399 Y141.354
G01 X198.360 Y141.067
G01 X198.412 Y140.656
G01 X198.444 Y140.243
G01 X198.455 Y139.828
G01 X198.446 Y139.413
G01 X198.416 Y138.998
G01 X198.366 Y138.584
G01 X198.360 Y138.547
G01 X198.415 Y138.108
G01 X198.446 Y137.660
G01 X198.454 Y137.204
G01 X198.436 Y136.743
G01 X198.394 Y136.276
G01 X198.360 Y136.027
G01 X198.421 Y135.479
G01 X198.447 Y134.916
G01 X198.437 Y134.340
G01 X198.391 Y133.753
G01 X198.360 Y133.507
G01 X197.819 Y133.287
G01 X197.276 Y133.105
G01 X196.735 Y132.959
G01 X196.198 Y132.849
G01 X195.911 Y132.804
G01 X195.477 Y132.622
G01 X195.040 Y132.464
G01 X194.601 Y132.332
G01 X194.161 Y132.224
G01 X193.722 Y132.140
G01 X193.462 Y132.102
G01 X193.072 Y131.936
G01 X192.675 Y131.789
G01 X192.270 Y131.662
G01 X191.860 Y131.555
G01 X191.444 Y131.468
G01 X191.024 Y131.401
G01 X191.012 Y131.400
G01 X190.599 Y131.224
G01 X190.170 Y131.069
G01 X189.727 Y130.934
G01 X189.272 Y130.822
G01 X188.805 Y130.733
G01 X188.563 Y130.697
G01 X188.049 Y130.487
G01 X187.510 Y130.305
G01 X186.949 Y130.154
G01 X186.367 Y130.035
G01 X186.114 Y129.995
G01 X185.747 Y130.464
G01 X185.416 Y130.945
G01 X185.121 Y131.435
G01 X184.864 Y131.931
G01 X184.749 Y132.180
G01 X184.449 Y132.551
G01 X184.174 Y132.934
G01 X183.922 Y133.324
G01 X183.694 Y133.723
G01 X183.491 Y134.127
G01 X183.384 Y134.364
G01 X183.115 Y134.695
G01 X182.862 Y135.039
G01 X182.627 Y135.395
G01 X182.409 Y135.762
G01 X182.209 Y136.139
G01 X182.029 Y136.526
G01 X182.019 Y136.549
G01 X181.735 Y136.898
G01 X181.467 Y137.267
G01 X181.216 Y137.655
G01 X180.982 Y138.061
G01 X180.767 Y138.484
G01 X180.654 Y138.733
G01 X180.310 Y139.168
G01 X179.987 Y139.634
G01 X179.687 Y140.130
G01 X179.412 Y140.654
G01 X179.289 Y140.918
G01 X179.639 Y141.403
G01 X180.011 Y141.856
G01 X180.401 Y142.275
G01 X180.808 Y142.661
G01 X181.031 Y142.853
G01 X181.305 Y143.244
G01 X181.596 Y143.615
G01 X181.901 Y143.965
G01 X182.221 Y144.294
G01 X182.553 Y144.601
G01 X182.773 Y144.788
G01 X183.016 Y145.138
G01 X183.276 Y145.475
G01 X183.551 Y145.799
G01 X183.843 Y146.110
G01 X184.149 Y146.405
G01 X184.470 Y146.685
G01 X184.516 Y146.723
G01 X184.773 Y147.093
G01 X185.053 Y147.452
G01 X185.356 Y147.802
G01 X185.681 Y148.139
G01 X186.029 Y148.462
G01 X186.258 Y148.659
G01 X186.583 Y149.112
G01 X186.943 Y149.553
G01 X187.338 Y149.980
G01 X187.768 Y150.391
G01 X188.001 Y150.594
G01 X188.563 Y150.391
G01 X189.100 Y150.160
G01 X189.611 Y149.901
G01 X190.094 Y149.618
G01 X190.366 Y149.440
G01 X190.818 Y149.284
G01 X191.255 Y149.107
G01 X191.677 Y148.910
G01 X192.083 Y148.694
G01 X192.471 Y148.460
G01 X192.732 Y148.286
G01 X193.138 Y148.148
G01 X193.536 Y147.991
G01 X193.927 Y147.814
G01 X194.309 Y147.618
G01 X194.682 Y147.403
G01 X195.043 Y147.170
G01 X195.098 Y147.132
G01 X195.530 Y146.985
G01 X195.959 Y146.812
G01 X196.385 Y146.614
G01 X196.805 Y146.390
G01 X197.219 Y146.140
G01 X197.463 Y145.979
G01 X197.999 Y145.787
G01 X198.534 Y145.557
G01 X199.065 Y145.288
G01 X199.589 Y144.981
G01 X199.829 Y144.825
G01 X199.788 Y144.222
G01 X199.713 Y143.635
G01 X199.604 Y143.066
G01 X199.463 Y142.517
G01 X199.367 Y142.205
G01 X199.341 Y141.720
G01 X199.290 Y141.243
G01 X199.215 Y140.775
G01 X199.117 Y140.318
G01 X198.996 Y139.872
G01 X198.905 Y139.586
G01 X198.883 Y139.148
G01 X198.840 Y138.712
G01 X198.775 Y138.278
G01 X198.689 Y137.847
G01 X198.582 Y137.421
G01 X198.454 Y137.000
G01 X198.443 Y136.966
G01 X198.419 Y136.499
G01 X198.369 Y136.028
G01 X198.293 Y135.552
G01 X198.191 Y135.075
G01 X198.061 Y134.598
G01 X197.981 Y134.346
G01 X197.943 Y133.766
G01 X197.867 Y133.176
G01 X197.752 Y132.579
G01 X197.596 Y131.978
G01 X197.519 Y131.727
G01 X196.915 Y131.598
G01 X196.317 Y131.507
G01 X195.727 Y131.455
G01 X195.147 Y131.440
G01 X194.846 Y131.446
G01 X194.361 Y131.336
G01 X193.878 Y131.252
G01 X193.397 Y131.195
G01 X192.919 Y131.163
G01 X192.447 Y131.157
G01 X192.173 Y131.165
G01 X191.738 Y131.064
G01 X191.298 Y130.984
G01 X190.854 Y130.926
G01 X190.408 Y130.890
G01 X189.961 Y130.876
G01 X189.513 Y130.883
G01 X189.499 Y130.884
G01 X189.038 Y130.777
G01 X188.565 Y130.694
G01 X188.081 Y130.636
G01 X187.588 Y130.603
G01 X187.088 Y130.596
G01 X186.826 Y130.603
G01 X186.254 Y130.479
G01 X185.663 Y130.389
G01 X185.054 Y130.334
G01 X184.429 Y130.317
G01 X184.153 Y130.322
G01 X183.857 Y130.876
G01 X183.602 Y131.436
G01 X183.386 Y131.998
G01 X183.209 Y132.560
G01 X183.135 Y132.840
G01 X182.893 Y133.281
G01 X182.677 Y133.727
G01 X182.487 Y134.179
G01 X182.323 Y134.634
G01 X182.186 Y135.090
G01 X182.118 Y135.358
G01 X181.899 Y135.751
G01 X181.700 Y136.153
G01 X181.521 Y136.565
G01 X181.363 Y136.985
G01 X181.225 Y137.412
G01 X181.108 Y137.846
G01 X181.101 Y137.877
G01 X180.871 Y138.290
G01 X180.660 Y138.721
G01 X180.470 Y139.169
G01 X180.302 Y139.633
G01 X180.157 Y140.110
G01 X180.083 Y140.395
G01 X179.806 Y140.908
G01 X179.556 Y141.450
G01 X179.336 Y142.018
G01 X179.147 Y142.612
G01 X179.066 Y142.913
G01 X179.518 Y143.352
G01 X179.985 Y143.753
G01 X180.467 Y144.117
G01 X180.959 Y144.443
G01 X181.228 Y144.602
G01 X181.583 Y144.957
G01 X181.952 Y145.289
G01 X182.333 Y145.596
G01 X182.724 Y145.878
G01 X183.124 Y146.136
G01 X183.390 Y146.292
G01 X183.706 Y146.610
G01 X184.036 Y146.912
G01 X184.382 Y147.198
G01 X184.741 Y147.466
G01 X185.112 Y147.717
G01 X185.496 Y147.949
G01 X185.553 Y147.981
G01 X185.887 Y148.317
G01 X186.243 Y148.639
G01 X186.621 Y148.946
G01 X187.021 Y149.237
G01 X187.440 Y149.509
G01 X187.715 Y149.671
G01 X188.135 Y150.082
G01 X188.589 Y150.474
G01 X189.078 Y150.846
G01 X189.600 Y151.193
G01 X189.877 Y151.360
G01 X190.423 Y151.047
G01 X190.938 Y150.709
G01 X191.421 Y150.347
G01 X191.870 Y149.965
G01 X192.120 Y149.731
G01 X192.560 Y149.486
G01 X192.981 Y149.223
G01 X193.383 Y148.941
G01 X193.765 Y148.642
G01 X194.125 Y148.328
G01 X194.362 Y148.101
G01 X194.759 Y147.884
G01 X195.144 Y147.647
G01 X195.517 Y147.392
G01 X195.878 Y147.118
G01 X196.225 Y146.826
G01 X196.558 Y146.518
G01 X196.605 Y146.472
G01 X197.027 Y146.240
G01 X197.441 Y145.981
G01 X197.847 Y145.697
G01 X198.243 Y145.387
G01 X198.627 Y145.052
G01 X198.848 Y144.843
G01 X199.369 Y144.546
G01 X199.882 Y144.209
G01 X200.384 Y143.832
G01 X200.873 Y143.416
G01 X201.090 Y143.213
G01 X200.973 Y142.603
G01 X200.823 Y142.012
G01 X200.642 Y141.443
G01 X200.432 Y140.896
G01 X200.195 Y140.373
G01 X199.932 Y139.876
G01 X199.784 Y139.625
G01 X199.701 Y139.150
G01 X199.595 Y138.683
G01 X199.466 Y138.223
G01 X199.316 Y137.773
G01 X199.144 Y137.334
G01 X198.952 Y136.906
G01 X198.740 Y136.490
G01 X198.509 Y136.088
G01 X198.478 Y136.037
G01 X198.396 Y135.561
G01 X198.288 Y135.084
G01 X198.152 Y134.607
G01 X197.989 Y134.131
G01 X197.799 Y133.659
G01 X197.582 Y133.191
G01 X197.337 Y132.730
G01 X197.173 Y132.450
G01 X197.016 Y131.847
G01 X196.818 Y131.243
G01 X196.577 Y130.639
G01 X196.302 Y130.058
G01 X195.669 Y130.002
G01 X195.047 Y129.984
G01 X194.437 Y130.003
G01 X193.841 Y130.056
G01 X193.261 Y130.144
G01 X192.699 Y130.263
G01 X192.455 Y130.327
G01 X191.966 Y130.275
G01 X191.477 Y130.249
G01 X190.991 Y130.246
G01 X190.508 Y130.268
G01 X190.030 Y130.314
G01 X189.557 Y130.383
G01 X189.092 Y130.474
G01 X188.634 Y130.588
G01 X188.608 Y130.596
G01 X188.122 Y130.543
G01 X187.628 Y130.516
G01 X187.126 Y130.515
G01 X186.619 Y130.541
G01 X186.107 Y130.594
G01 X185.593 Y130.675
G01 X185.077 Y130.784
G01 X184.761 Y130.865
G01 X184.137 Y130.849
G01 X183.499 Y130.872
G01 X182.850 Y130.937
G01 X182.196 Y131.044
G01 X181.965 Y131.645
G01 X181.774 Y132.246
G01 X181.622 Y132.845
G01 X181.508 Y133.440
G01 X181.432 Y134.029
G01 X181.392 Y134.609
G01 X181.387 Y134.853
G01 X181.230 Y135.328
G01 X181.099 Y135.805
G01 X180.994 Y136.284
G01 X180.914 Y136.763
G01 X180.859 Y137.241
G01 X180.847 Y137.393
G01 X180.699 Y137.838
G01 X180.573 Y138.291
G01 X180.468 Y138.752
G01 X180.387 Y139.218
G01 X180.328 Y139.690
G01 X180.307 Y139.933
G01 X180.111 Y140.417
G01 X179.939 Y140.920
G01 X179.794 Y141.441
G01 X179.676 Y141.979
G01 X179.587 Y142.532
G01 X179.527 Y143.098
G01 X179.499 Y143.675
G01 X179.497 Y143.742
G01 X179.337 Y144.400
G01 X179.227 Y145.012
G01 X179.740 Y145.401
G01 X180.265 Y145.751
G01 X180.799 Y146.064
G01 X181.339 Y146.339
G01 X181.884 Y146.575
G01 X182.430 Y146.774
G01 X182.700 Y146.858
G01 X183.111 Y147.139
G01 X183.533 Y147.397
G01 X183.963 Y147.630
G01 X184.400 Y147.840
G01 X184.843 Y148.025
G01 X185.015 Y148.089
G01 X185.401 Y148.354
G01 X185.801 Y148.601
G01 X186.215 Y148.829
G01 X186.640 Y149.036
G01 X187.077 Y149.223
G01 X187.330 Y149.320
G01 X187.751 Y149.608
G01 X188.194 Y149.876
G01 X188.658 Y150.124
G01 X189.142 Y150.349
G01 X189.645 Y150.551
G01 X190.168 Y150.898
G01 X190.725 Y151.219
G01 X191.313 Y151.511
G01 X191.932 Y151.771
G01 X191.959 Y151.782
G01 X192.475 Y151.396
G01 X192.958 Y150.988
G01 X193.407 Y150.561
G01 X193.821 Y150.117
G01 X194.201 Y149.659
G01 X194.544 Y149.188
G01 X194.718 Y148.925
G01 X195.104 Y148.605
G01 X195.470 Y148.269
G01 X195.816 Y147.917
G01 X196.140 Y147.552
G01 X196.443 Y147.174
G01 X196.557 Y147.021
G01 X196.923 Y146.719
G01 X197.275 Y146.398
G01 X197.612 Y146.059
G01 X197.933 Y145.702
G01 X198.237 Y145.328
G01 X198.396 Y145.117
G01 X198.795 Y144.785
G01 X199.182 Y144.426
G01 X199.555 Y144.040
G01 X199.911 Y143.629
G01 X200.235 Y143.212
G01 X200.723 Y142.796
G01 X201.195 Y142.339
G01 X201.646 Y141.842
G01 X202.074 Y141.308
G01 X201.840 Y140.697
G01 X201.577 Y140.113
G01 X201.285 Y139.556
G01 X200.968 Y139.028
G01 X200.626 Y138.529
G01 X200.263 Y138.062
G01 X200.069 Y137.836
G01 X199.863 Y137.368
G01 X199.636 Y136.915
G01 X199.388 Y136.478
G01 X199.120 Y136.057
G01 X198.834 Y135.655
G01 X198.733 Y135.521
G01 X198.539 Y135.078
G01 X198.322 Y134.642
G01 X198.083 Y134.216
G01 X197.822 Y133.800
G01 X197.540 Y133.396
G01 X197.396 Y133.207
G01 X197.183 Y132.722
G01 X196.939 Y132.242
G01 X196.665 Y131.769
G01 X196.361 Y131.304
G01 X196.060 Y130.892
G01 X195.789 Y130.299
G01 X195.474 Y129.710
G01 X195.115 Y129.130
G01 X194.724 Y128.577
G01 X194.059 Y128.636
G01 X193.411 Y128.731
G01 X192.783 Y128.861
G01 X192.176 Y129.026
G01 X191.592 Y129.222
G01 X191.033 Y129.449
G01 X190.797 Y129.557
G01 X190.281 Y129.627
G01 X189.773 Y129.723
G01 X189.276 Y129.844
G01 X188.791 Y129.988
G01 X188.317 Y130.155
G01 X188.179 Y130.209
G01 X187.692 Y130.275
G01 X187.207 Y130.365
G01 X186.726 Y130.478
G01 X186.249 Y130.617
G01 X185.778 Y130.779
G01 X185.561 Y130.862
G01 X185.032 Y130.935
G01 X184.500 Y131.037
G01 X183.966 Y131.171
G01 X183.432 Y131.335
G01 X182.943 Y131.515
G01 X182.296 Y131.612
G01 X181.643 Y131.752
G01 X180.985 Y131.937
G01 X180.326 Y132.167
G01 X180.325 Y132.168
G01 X180.236 Y132.859
G01 X180.190 Y133.540
G01 X180.188 Y134.208
G01 X180.227 Y134.860
G01 X180.229 Y134.890
G01 X180.150 Y135.449
G01 X180.102 Y136.004
G01 X180.084 Y136.552
G01 X180.095 Y137.092
G01 X180.134 Y137.612
G01 X180.062 Y138.105
G01 X180.014 Y138.599
G01 X179.991 Y139.094
G01 X179.991 Y139.588
G01 X180.017 Y140.079
G01 X180.039 Y140.334
G01 X179.966 Y140.830
G01 X179.918 Y141.335
G01 X179.895 Y141.846
G01 X179.899 Y142.363
G01 X179.929 Y142.884
G01 X179.944 Y143.056
G01 X179.863 Y143.632
G01 X179.815 Y144.224
G01 X179.801 Y144.829
G01 X179.823 Y145.446
G01 X179.849 Y145.778
G01 X179.804 Y146.486
G01 X179.802 Y147.138
G01 X180.441 Y147.415
G01 X181.083 Y147.647
G01 X181.724 Y147.834
G01 X182.361 Y147.978
G01 X182.416 Y147.988
G01 X182.931 Y148.219
G01 X183.449 Y148.418
G01 X183.970 Y148.587
G01 X184.492 Y148.726
G01 X185.012 Y148.834
G01 X185.031 Y148.838
G01 X185.484 Y149.043
G01 X185.945 Y149.226
G01 X186.414 Y149.386
G01 X186.888 Y149.521
G01 X187.367 Y149.633
G01 X187.645 Y149.687
G01 X188.103 Y149.895
G01 X188.576 Y150.082
G01 X189.063 Y150.246
G01 X189.563 Y150.386
G01 X190.073 Y150.501
G01 X190.260 Y150.537
G01 X190.796 Y150.776
G01 X191.356 Y150.987
G01 X191.939 Y151.169
G01 X192.543 Y151.319
G01 X192.874 Y151.386
G01 X193.551 Y151.628
G01 X194.182 Y151.811
G01 X194.625 Y151.272
G01 X195.026 Y150.718
G01 X195.384 Y150.153
G01 X195.698 Y149.580
G01 X195.733 Y149.511
G01 X196.099 Y149.077
G01 X196.435 Y148.631
G01 X196.744 Y148.175
G01 X197.023 Y147.709
G01 X197.272 Y147.236
G01 X197.285 Y147.210
G01 X197.611 Y146.827
G01 X197.917 Y146.430
G01 X198.203 Y146.019
G01 X198.467 Y145.595
G01 X198.709 Y145.160
G01 X198.836 Y144.910
G01 X199.168 Y144.521
G01 X199.483 Y144.110
G01 X199.779 Y143.680
G01 X200.055 Y143.230
G01 X200.311 Y142.762
G01 X200.388 Y142.610
G01 X200.773 Y142.151
G01 X201.137 Y141.660
G01 X201.479 Y141.139
G01 X201.795 Y140.588
G01 X201.939 Y140.310
G01 X202.367 Y139.714
G01 X202.715 Y139.160
G01 X202.350 Y138.572
G01 X201.959 Y138.019
G01 X201.544 Y137.500
G01 X201.108 Y137.017
G01 X200.653 Y136.571
G01 X200.240 Y136.210
G01 X199.962 Y135.747
G01 X199.663 Y135.301
G01 X199.345 Y134.874
G01 X199.008 Y134.467
G01 X198.654 Y134.081
G01 X198.284 Y133.716
G01 X197.899 Y133.373
G01 X197.766 Y133.261
G01 X197.501 Y132.816
G01 X197.211 Y132.381
G01 X196.896 Y131.957
G01 X196.557 Y131.546
G01 X196.194 Y131.149
G01 X195.808 Y130.767
G01 X195.399 Y130.403
G01 X195.291 Y130.312
G01 X194.955 Y129.763
G01 X194.577 Y129.225
G01 X194.158 Y128.700
G01 X193.698 Y128.191
G01 X193.198 Y127.701
G01 X192.816 Y127.363
G01 X192.138 Y127.556
G01 X191.486 Y127.784
G01 X190.862 Y128.046
G01 X190.267 Y128.339
G01 X189.703 Y128.661
G01 X189.267 Y128.943
G01 X188.736 Y129.085
G01 X188.217 Y129.252
G01 X187.712 Y129.444
G01 X187.221 Y129.659
G01 X186.745 Y129.897
G01 X186.287 Y130.156
G01 X185.845 Y130.436
G01 X185.718 Y130.523
G01 X185.213 Y130.656
G01 X184.710 Y130.816
G01 X184.212 Y131.003
G01 X183.720 Y131.217
G01 X183.235 Y131.458
G01 X182.759 Y131.726
G01 X182.292 Y132.019
G01 X182.169 Y132.103
G01 X181.548 Y132.275
G01 X180.926 Y132.490
G01 X180.305 Y132.747
G01 X179.688 Y133.048
G01 X179.078 Y133.392
G01 X178.620 Y133.683
G01 X178.618 Y134.394
G01 X178.658 Y135.090
G01 X178.738 Y135.768
G01 X178.857 Y136.426
G01 X179.012 Y137.062
G01 X179.165 Y137.565
G01 X179.154 Y138.116
G01 X179.172 Y138.663
G01 X179.216 Y139.203
G01 X179.287 Y139.735
G01 X179.384 Y140.259
G01 X179.507 Y140.772
G01 X179.654 Y141.274
G01 X179.711 Y141.447
G01 X179.698 Y141.968
G01 X179.713 Y142.494
G01 X179.754 Y143.024
G01 X179.823 Y143.555
G01 X179.920 Y144.087
G01 X180.044 Y144.617
G01 X180.196 Y145.145
G01 X180.256 Y145.329
G01 X180.249 Y145.972
G01 X180.283 Y146.628
G01 X180.358 Y147.296
G01 X180.475 Y147.971
G01 X180.637 Y148.651
G01 X180.802 Y149.211
G01 X181.484 Y149.409
G01 X182.162 Y149.563
G01 X182.835 Y149.674
G01 X183.500 Y149.743
G01 X184.153 Y149.770
G01 X184.718 Y149.761
G01 X185.244 Y149.924
G01 X185.773 Y150.059
G01 X186.304 Y150.166
G01 X186.835 Y150.245
G01 X187.365 Y150.297
G01 X187.892 Y150.322
G01 X188.415 Y150.320
G01 X188.635 Y150.312
G01 X189.134 Y150.468
G01 X189.645 Y150.600
G01 X190.167 Y150.708
G01 X190.699 Y150.789
G01 X191.239 Y150.843
G01 X191.787 Y150.870
G01 X192.339 Y150.870
G01 X192.551 Y150.862
G01 X193.174 Y151.048
G01 X193.822 Y151.199
G01 X194.491 Y151.312
G01 X195.181 Y151.385
G01 X195.888 Y151.417
G01 X196.468 Y151.412
G01 X196.848 Y150.810
G01 X197.185 Y150.197
G01 X197.478 Y149.579
G01 X197.729 Y148.957
G01 X197.937 Y148.334
G01 X198.091 Y147.767
G01 X198.395 Y147.302
G01 X198.672 Y146.826
G01 X198.924 Y146.341
G01 X199.149 Y145.847
G01 X199.347 Y145.346
G01 X199.518 Y144.841
G01 X199.662 Y144.331
G01 X199.714 Y144.122
G01 X200.006 Y143.678
G01 X200.278 Y143.215
G01 X200.528 Y142.734
G01 X200.756 Y142.236
G01 X200.960 Y141.723
G01 X201.139 Y141.195
G01 X201.293 Y140.653
G01 X201.336 Y140.477
G01 X201.694 Y139.918
G01 X202.022 Y139.325
G01 X202.320 Y138.699
G01 X202.585 Y138.043
G01 X202.814 Y137.358
G01 X202.959 Y136.832
G01 X202.476 Y136.293
G01 X201.972 Y135.793
G01 X201.449 Y135.334
G01 X200.911 Y134.915
G01 X200.360 Y134.538
G01 X199.876 Y134.245
G01 X199.505 Y133.817
G01 X199.116 Y133.412
G01 X198.710 Y133.030
G01 X198.289 Y132.672
G01 X197.853 Y132.338
G01 X197.405 Y132.029
G01 X196.946 Y131.746
G01 X196.793 Y131.658
G01 X196.439 Y131.248
G01 X196.062 Y130.852
G01 X195.661 Y130.473
G01 X195.237 Y130.111
G01 X194.791 Y129.768
G01 X194.324 Y129.445
G01 X193.837 Y129.144
G01 X193.709 Y129.071
G01 X193.264 Y128.567
G01 X192.778 Y128.083
G01 X192.252 Y127.619
G01 X191.687 Y127.178
G01 X191.085 Y126.764
G01 X190.626 Y126.483
G01 X189.963 Y126.806
G01 X189.333 Y127.159
G01 X188.738 Y127.542
G01 X188.178 Y127.952
G01 X187.656 Y128.386
G01 X187.260 Y128.754
G01 X186.740 Y128.996
G01 X186.236 Y129.262
G01 X185.751 Y129.551
G01 X185.285 Y129.862
G01 X184.839 Y130.193
G01 X184.414 Y130.542
G01 X184.011 Y130.910
G01 X183.894 Y131.024
G01 X183.399 Y131.252
G01 X182.912 Y131.508
G01 X182.434 Y131.790
G01 X181.967 Y132.099
G01 X181.512 Y132.434
G01 X181.071 Y132.795
G01 X180.645 Y133.181
G01 X180.528 Y133.294
G01 X179.922 Y133.583
G01 X179.322 Y133.916
G01 X178.730 Y134.293
G01 X178.151 Y134.713
G01 X177.587 Y135.177
G01 X177.162 Y135.565
G01 X177.289 Y136.296
G01 X177.457 Y137.004
G01 X177.662 Y137.686
G01 X177.903 Y138.341
G01 X178.177 Y138.966
G01 X178.428 Y139.459
G01 X178.517 Y140.027
G01 X178.633 Y140.586
G01 X178.776 Y141.133
G01 X178.946 Y141.667
G01 X179.140 Y142.187
G01 X179.359 Y142.693
G01 X179.601 Y143.182
G01 X179.693 Y143.354
G01 X179.775 Y143.892
G01 X179.885 Y144.430
G01 X180.023 Y144.966
G01 X180.190 Y145.499
G01 X180.386 Y146.028
G01 X180.609 Y146.551
G01 X180.862 Y147.066
G01 X180.959 Y147.248
G01 X181.068 Y147.911
G01 X181.221 Y148.580
G01 X181.419 Y149.252
G01 X181.663 Y149.925
G01 X181.952 Y150.596
G01 X182.224 Y151.143
G01 X182.961 Y151.223
G01 X183.686 Y151.259
G01 X184.398 Y151.251
G01 X185.093 Y151.201
G01 X185.769 Y151.111
G01 X186.352 Y150.999
G01 X186.922 Y151.071
G01 X187.490 Y151.114
G01 X188.055 Y151.127
G01 X188.616 Y151.113
G01 X189.170 Y151.070
G01 X189.717 Y151.000
G01 X190.254 Y150.904
G01 X190.479 Y150.855
G01 X191.021 Y150.925
G01 X191.571 Y150.969
G01 X192.128 Y150.984
G01 X192.690 Y150.971
G01 X193.256 Y150.929
G01 X193.824 Y150.857
G01 X194.393 Y150.756
G01 X194.607 Y150.711
G01 X195.282 Y150.789
G01 X195.976 Y150.827
G01 X196.686 Y150.821
G01 X197.409 Y150.771
G01 X198.143 Y150.676
G01 X198.734 Y150.566
G01 X199.016 Y149.877
G01 X199.251 Y149.186
G01 X199.441 Y148.496
G01 X199.586 Y147.811
G01 X199.687 Y147.132
G01 X199.742 Y146.525
G01 X199.970 Y145.991
G01 X200.169 Y145.450
G01 X200.340 Y144.905
G01 X200.482 Y144.356
G01 X200.595 Y143.804
G01 X200.679 Y143.253
G01 X200.735 Y142.702
G01 X200.749 Y142.484
G01 X200.970 Y141.973
G01 X201.165 Y141.447
G01 X201.336 Y140.907
G01 X201.480 Y140.353
G01 X201.596 Y139.787
G01 X201.685 Y139.211
G01 X201.744 Y138.625
G01 X201.757 Y138.443
G01 X202.023 Y137.802
G01 X202.253 Y137.133
G01 X202.446 Y136.435
G01 X202.599 Y135.712
G01 X202.710 Y134.965
G01 X202.765 Y134.401
G01 X202.159 Y133.939
G01 X201.539 Y133.523
G01 X200.908 Y133.152
G01 X200.270 Y132.827
G01 X199.627 Y132.548
G01 X199.407 Y132.463
G01 X198.935 Y132.091
G01 X198.449 Y131.747
G01 X197.951 Y131.432
G01 X197.442 Y131.146
G01 X196.925 Y130.888
G01 X196.401 Y130.660
G01 X196.049 Y130.524
G01 X195.612 Y130.178
G01 X195.156 Y129.851
G01 X194.680 Y129.546
G01 X194.187 Y129.263
G01 X193.678 Y129.003
G01 X193.153 Y128.768
G01 X192.692 Y128.586
G01 X192.181 Y128.186
G01 X191.636 Y127.809
G01 X191.060 Y127.458
G01 X190.454 Y127.135
G01 X189.818 Y126.842
G01 X189.334 Y126.647
G01 X188.633 Y126.225
G01 X188.215 Y126.001
G01 X187.594 Y126.464
G01 X187.014 Y126.953
G01 X186.476 Y127.466
G01 X185.981 Y127.999
G01 X185.529 Y128.550
G01 X185.403 Y128.717
G01 X184.910 Y129.073
G01 X184.440 Y129.450
G01 X183.994 Y129.847
G01 X183.574 Y130.261
G01 X183.181 Y130.692
G01 X182.813 Y131.138
G01 X182.591 Y131.432
G01 X182.134 Y131.759
G01 X181.692 Y132.110
G01 X181.265 Y132.484
G01 X180.855 Y132.881
G01 X180.463 Y133.301
G01 X180.091 Y133.742
G01 X179.779 Y134.148
G01 X179.253 Y134.529
G01 X178.741 Y134.948
G01 X178.245 Y135.404
G01 X177.766 Y135.896
G01 X177.309 Y136.425
G01 X176.967 Y136.864
G01 X176.369 Y137.420
G01 X176.030 Y137.769
G01 X176.304 Y138.497
G01 X176.615 Y139.193
G01 X176.961 Y139.855
G01 X177.338 Y140.481
G01 X177.745 Y141.070
G01 X177.880 Y141.249
G01 X178.086 Y141.822
G01 X178.318 Y142.379
G01 X178.576 Y142.917
G01 X178.858 Y143.435
G01 X179.163 Y143.933
G01 X179.490 Y144.409
G01 X179.731 Y144.729
G01 X179.917 Y145.257
G01 X180.131 Y145.779
G01 X180.372 Y146.292
G01 X180.640 Y146.795
G01 X180.933 Y147.287
G01 X181.253 Y147.766
G01 X181.581 Y148.209
G01 X181.801 Y148.820
G01 X182.062 Y149.428
G01 X182.362 Y150.031
G01 X182.703 Y150.628
G01 X183.085 Y151.214
G01 X183.431 Y151.690
G01 X183.802 Y152.420
G01 X184.048 Y152.850
G01 X184.823 Y152.788
G01 X185.577 Y152.681
G01 X186.308 Y152.533
G01 X187.013 Y152.344
G01 X187.691 Y152.117
G01 X187.935 Y152.023
G01 X188.543 Y151.984
G01 X189.142 Y151.915
G01 X189.730 Y151.816
G01 X190.307 Y151.689
G01 X190.871 Y151.533
G01 X191.420 Y151.351
G01 X191.822 Y151.197
G01 X192.384 Y151.164
G01 X192.947 Y151.102
G01 X193.510 Y151.011
G01 X194.071 Y150.892
G01 X194.629 Y150.745
G01 X195.182 Y150.568
G01 X195.709 Y150.371
G01 X196.365 Y150.327
G01 X197.029 Y150.243
G01 X197.700 Y150.119
G01 X198.376 Y149.952
G01 X199.053 Y149.744
G01 X199.596 Y149.545
G01 X200.414 Y149.387
G01 X200.892 Y149.269
G01 X201.047 Y148.503
G01 X201.153 Y147.744
G01 X201.212 Y146.996
G01 X201.225 Y146.261
G01 X201.194 Y145.541
G01 X201.171 Y145.273
G01 X201.302 Y144.671
G01 X201.401 Y144.069
G01 X201.469 Y143.469
G01 X201.505 Y142.872
G01 X201.511 Y142.280
G01 X201.487 Y141.695
G01 X201.451 Y141.277
G01 X201.575 Y140.718
G01 X201.671 Y140.150
G01 X201.740 Y139.574
G01 X201.780 Y138.992
G01 X201.791 Y138.406
G01 X201.772 Y137.815
G01 X201.730 Y137.280
G01 X201.870 Y136.626
G01 X201.974 Y135.952
G01 X202.039 Y135.260
G01 X202.065 Y134.552
G01 X202.049 Y133.830
G01 X202.010 Y133.284
G01 X202.085 Y132.440
G01 X202.103 Y131.952
G01 X201.397 Y131.587
G01 X200.684 Y131.271
G01 X199.969 Y131.004
G01 X199.254 Y130.786
G01 X198.543 Y130.616
G01 X198.308 Y130.570
G01 X197.755 Y130.274
G01 X197.194 Y130.009
G01 X196.626 Y129.776
G01 X196.052 Y129.574
G01 X195.474 Y129.403
G01 X194.894 Y129.264
G01 X194.513 Y129.189
G01 X194.002 Y128.912
G01 X193.474 Y128.660
G01 X192.931 Y128.433
G01 X192.375 Y128.232
G01 X191.805 Y128.057
G01 X191.224 Y127.911
G01 X190.718 Y127.808
G01 X190.122 Y127.490
G01 X189.496 Y127.203
G01 X188.843 Y126.947
G01 X188.163 Y126.725
G01 X187.459 Y126.540
G01 X186.923 Y126.427
G01 X186.129 Y126.121
G01 X185.658 Y125.966
G01 X185.105 Y126.553
G01 X184.598 Y127.160
G01 X184.139 Y127.783
G01 X183.728 Y128.420
G01 X183.364 Y129.066
G01 X183.266 Y129.260
G01 X182.824 Y129.714
G01 X182.410 Y130.185
G01 X182.026 Y130.672
G01 X181.670 Y131.172
G01 X181.344 Y131.685
G01 X181.049 Y132.209
G01 X180.873 Y132.553
G01 X180.464 Y132.970
G01 X180.074 Y133.409
G01 X179.705 Y133.869
G01 X179.356 Y134.350
G01 X179.031 Y134.850
G01 X178.729 Y135.369
G01 X178.480 Y135.846
G01 X178.011 Y136.331
G01 X177.562 Y136.852
G01 X177.135 Y137.408
G01 X176.735 Y137.999
G01 X176.362 Y138.623
G01 X176.087 Y139.140
G01 X175.575 Y139.817
G01 X175.290 Y140.237
G01 X175.702 Y140.934
G01 X176.146 Y141.590
G01 X176.620 Y142.206
G01 X177.119 Y142.779
G01 X177.642 Y143.308
G01 X177.816 Y143.471
G01 X178.130 Y144.021
G01 X178.468 Y144.548
G01 X178.829 Y145.053
G01 X179.211 Y145.533
G01 X179.613 Y145.988
G01 X180.034 Y146.416
G01 X180.342 Y146.704
G01 X180.628 Y147.211
G01 X180.942 Y147.707
G01 X181.281 Y148.189
G01 X181.646 Y148.656
G01 X182.036 Y149.107
G01 X182.450 Y149.540
G01 X182.868 Y149.937
G01 X183.204 Y150.523
G01 X183.581 Y151.100
G01 X183.998 Y151.664
G01 X184.456 Y152.213
G01 X184.953 Y152.745
G01 X185.394 Y153.170
G01 X185.906 Y153.853
G01 X186.236 Y154.248
G01 X187.019 Y154.045
G01 X187.772 Y153.800
G01 X188.494 Y153.516
G01 X189.182 Y153.195
G01 X189.835 Y152.840
G01 X190.070 Y152.699
G01 X190.686 Y152.549
G01 X191.288 Y152.370
G01 X191.873 Y152.162
G01 X192.441 Y151.927
G01 X192.991 Y151.666
G01 X193.521 Y151.380
G01 X193.905 Y151.150
G01 X194.475 Y151.014
G01 X195.042 Y150.848
G01 X195.602 Y150.654
G01 X196.156 Y150.430
G01 X196.701 Y150.178
G01 X197.237 Y149.897
G01 X197.739 Y149.601
G01 X198.404 Y149.437
G01 X199.070 Y149.231
G01 X199.736 Y148.981
G01 X200.399 Y148.688
G01 X201.056 Y148.351
G01 X201.573 Y148.052
G01 X202.383 Y147.742
G01 X202.851 Y147.535
G01 X202.871 Y146.721
G01 X202.843 Y145.923
G01 X202.768 Y145.145
G01 X202.649 Y144.389
G01 X202.487 Y143.657
G01 X202.416 Y143.390
G01 X202.441 Y142.749
G01 X202.434 Y142.114
G01 X202.394 Y141.486
G01 X202.323 Y140.867
G01 X202.222 Y140.258
G01 X202.091 Y139.662
G01 X201.980 Y139.245
G01 X202.006 Y138.650
G01 X202.002 Y138.050
G01 X201.968 Y137.447
G01 X201.904 Y136.843
G01 X201.809 Y136.239
G01 X201.683 Y135.637
G01 X201.544 Y135.101
G01 X201.570 Y134.405
G01 X201.554 Y133.695
G01 X201.496 Y132.974
G01 X201.394 Y132.243
G01 X201.247 Y131.507
G01 X201.109 Y130.956
G01 X201.033 Y130.078
G01 X200.964 Y129.574
G01 X200.165 Y129.335
G01 X199.371 Y129.149
G01 X198.583 Y129.015
G01 X197.806 Y128.931
G01 X197.123 Y128.897
G01 X196.491 Y128.698
G01 X195.856 Y128.534
G01 X195.222 Y128.405
G01 X194.589 Y128.310
G01 X193.959 Y128.248
G01 X193.335 Y128.221
G01 X193.282 Y128.220
G01 X192.708 Y128.036
G01 X192.125 Y127.881
G01 X191.532 Y127.754
G01 X190.932 Y127.657
G01 X190.326 Y127.588
G01 X189.716 Y127.550
G01 X189.441 Y127.542
G01 X188.808 Y127.342
G01 X188.154 Y127.175
G01 X187.480 Y127.042
G01 X186.789 Y126.944
G01 X186.082 Y126.884
G01 X185.601 Y126.865
G01 X184.793 Y126.667
G01 X183.957 Y126.517
G01 X183.093 Y126.418
G01 X183.040 Y126.414
G01 X182.585 Y127.124
G01 X182.182 Y127.846
G01 X181.832 Y128.575
G01 X181.534 Y129.309
G01 X181.317 Y129.946
G01 X180.948 Y130.504
G01 X180.613 Y131.073
G01 X180.311 Y131.652
G01 X180.043 Y132.239
G01 X179.810 Y132.832
G01 X179.610 Y133.429
G01 X179.594 Y133.478
G01 X179.259 Y133.981
G01 X178.947 Y134.501
G01 X178.661 Y135.037
G01 X178.400 Y135.587
G01 X178.167 Y136.152
G01 X177.961 Y136.728
G01 X177.872 Y137.011
G01 X177.504 Y137.563
G01 X177.163 Y138.145
G01 X176.849 Y138.755
G01 X176.564 Y139.391
G01 X176.311 Y140.052
G01 X176.149 Y140.543
G01 X175.736 Y141.262
G01 X175.361 Y142.023
G01 X175.028 Y142.824
G01 X175.000 Y142.898
G01 X175.558 Y143.533
G01 X176.142 Y144.121
G01 X176.747 Y144.660
G01 X177.370 Y145.150
G01 X177.943 Y145.547
G01 X178.376 Y146.056
G01 X178.830 Y146.536
G01 X179.303 Y146.985
G01 X179.792 Y147.405
G01 X180.296 Y147.793
G01 X180.814 Y148.151
G01 X180.886 Y148.197
G01 X181.275 Y148.658
G01 X181.688 Y149.101
G01 X182.123 Y149.524
G01 X182.579 Y149.926
G01 X183.056 Y150.306
G01 X183.553 Y150.664
G01 X183.829 Y150.847
G01 X184.259 Y151.353
G01 X184.724 Y151.843
G01 X185.224 Y152.314
G01 X185.757 Y152.764
G01 X186.323 Y153.191
G01 X186.772 Y153.497
G01 X187.352 Y154.095
G01 X187.984 Y154.668
G01 X188.665 Y155.212
G01 X188.734 Y155.263
G01 X189.498 Y154.903
G01 X190.223 Y154.505
G01 X190.909 Y154.073
G01 X191.552 Y153.610
G01 X192.117 Y153.149
G01 X192.727 Y152.872
G01 X193.314 Y152.568
G01 X193.879 Y152.238
G01 X194.418 Y151.882
G01 X194.933 Y151.504
G01 X195.421 Y151.104
G01 X195.501 Y151.034
G01 X196.055 Y150.786
G01 X196.598 Y150.510
G01 X197.129 Y150.206
G01 X197.646 Y149.875
G01 X198.147 Y149.518
G01 X198.631 Y149.136
G01 X198.885 Y148.920
G01 X199.498 Y148.643
G01 X200.105 Y148.326
G01 X200.703 Y147.971
G01 X201.290 Y147.576
G01 X201.864 Y147.143
G01 X202.269 Y146.806
G01 X203.016 Y146.406
G01 X203.752 Y145.949
G01 X204.474 Y145.435
G01 X204.524 Y145.396
G01 X204.387 Y144.555
G01 X204.202 Y143.741
G01 X203.974 Y142.956
G01 X203.703 Y142.203
G01 X203.416 Y141.532
G01 X203.316 Y140.861
G01 X203.183 Y140.204
G01 X203.018 Y139.563
G01 X202.823 Y138.938
G01 X202.597 Y138.331
G01 X202.344 Y137.743
G01 X202.308 Y137.668
G01 X202.220 Y137.057
G01 X202.101 Y136.449
G01 X201.952 Y135.845
G01 X201.773 Y135.248
G01 X201.564 Y134.658
G01 X201.325 Y134.078
G01 X201.200 Y133.803
G01 X201.100 Y133.127
G01 X200.960 Y132.445
G01 X200.779 Y131.761
G01 X200.557 Y131.077
G01 X200.293 Y130.396
G01 X200.092 Y129.939
G01 X199.911 Y129.099
G01 X199.670 Y128.253
G01 X199.370 Y127.406
G01 X199.353 Y127.363
G01 X198.493 Y127.263
G01 X197.646 Y127.216
G01 X196.815 Y127.220
G01 X196.004 Y127.275
G01 X195.303 Y127.363
G01 X194.620 Y127.273
G01 X193.942 Y127.220
G01 X193.269 Y127.202
G01 X192.604 Y127.219
G01 X191.949 Y127.270
G01 X191.305 Y127.355
G01 X191.253 Y127.363
G01 X190.634 Y127.279
G01 X190.009 Y127.225
G01 X189.380 Y127.202
G01 X188.749 Y127.211
G01 X188.118 Y127.250
G01 X187.487 Y127.321
G01 X187.203 Y127.363
G01 X186.520 Y127.272
G01 X185.822 Y127.219
G01 X185.110 Y127.204
G01 X184.386 Y127.229
G01 X183.654 Y127.295
G01 X183.153 Y127.363
G01 X182.293 Y127.305
G01 X181.412 Y127.303
G01 X180.513 Y127.357
G01 X180.453 Y127.363
G01 X180.116 Y128.171
G01 X179.834 Y128.981
G01 X179.608 Y129.790
G01 X179.435 Y130.594
G01 X179.329 Y131.285
G01 X179.052 Y131.921
G01 X178.812 Y132.563
G01 X178.608 Y133.209
G01 X178.440 Y133.856
G01 X178.308 Y134.504
G01 X178.211 Y135.150
G01 X178.204 Y135.207
G01 X177.952 Y135.780
G01 X177.727 Y136.367
G01 X177.531 Y136.966
G01 X177.364 Y137.575
G01 X177.227 Y138.193
G01 X177.121 Y138.819
G01 X177.080 Y139.129
G01 X176.804 Y139.759
G01 X176.560 Y140.415
G01 X176.349 Y141.093
G01 X176.173 Y141.794
G01 X176.033 Y142.514
G01 X175.955 Y143.051
G01 X175.663 Y143.860
G01 X175.417 Y144.704
G01 X175.221 Y145.582
G01 X175.205 Y145.665
G01 X175.889 Y146.213
G01 X176.590 Y146.709
G01 X177.305 Y147.150
G01 X178.030 Y147.539
G01 X178.691 Y147.843
G01 X179.225 Y148.285
G01 X179.774 Y148.693
G01 X180.338 Y149.067
G01 X180.913 Y149.407
G01 X181.498 Y149.713
G01 X182.091 Y149.985
G01 X182.176 Y150.021
G01 X182.657 Y150.422
G01 X183.158 Y150.800
G01 X183.678 Y151.154
G01 X184.217 Y151.483
G01 X184.773 Y151.785
G01 X185.345 Y152.061
G01 X185.662 Y152.199
G01 X186.193 Y152.639
G01 X186.756 Y153.056
G01 X187.352 Y153.448
G01 X187.978 Y153.812
G01 X188.634 Y154.146
G01 X189.147 Y154.377
G01 X189.849 Y154.885
G01 X190.598 Y155.357
G01 X191.393 Y155.790
G01 X191.471 Y155.829
G01 X192.187 Y155.323
G01 X192.856 Y154.786
G01 X193.479 Y154.221
G01 X194.053 Y153.632
G01 X194.547 Y153.059
G01 X195.121 Y152.666
G01 X195.666 Y152.249
G01 X196.184 Y151.810
G01 X196.672 Y151.349
G01 X197.129 Y150.869
G01 X197.556 Y150.372
G01 X197.624 Y150.289
G01 X198.146 Y149.934
G01 X198.652 Y149.554
G01 X199.140 Y149.147
G01 X199.608 Y148.716
G01 X200.057 Y148.260
G01 X200.483 Y147.782
G01 X200.701 Y147.518
G01 X201.278 Y147.124
G01 X201.841 Y146.691
G01 X202.389 Y146.219
G01 X202.919 Y145.709
G01 X203.427 Y145.162
G01 X203.777 Y144.748
G01 X204.469 Y144.205
G01 X205.140 Y143.604
G01 X205.785 Y142.948
G01 X205.828 Y142.901
G01 X205.536 Y142.066
G01 X205.200 Y141.266
G01 X204.825 Y140.505
G01 X204.412 Y139.783
G01 X204.000 Y139.153
G01 X203.777 Y138.486
G01 X203.522 Y137.838
G01 X203.238 Y137.211
G01 X202.925 Y136.607
G01 X202.584 Y136.027
G01 X202.219 Y135.472
G01 X202.172 Y135.406
G01 X201.972 Y134.797
G01 X201.741 Y134.196
G01 X201.479 Y133.606
G01 X201.188 Y133.028
G01 X200.868 Y132.463
G01 X200.519 Y131.913
G01 X200.344 Y131.658
G01 X200.120 Y130.984
G01 X199.854 Y130.313
G01 X199.546 Y129.647
G01 X199.196 Y128.988
G01 X198.804 Y128.339
G01 X198.516 Y127.910
G01 X198.180 Y127.085
G01 X197.782 Y126.264
G01 X197.323 Y125.453
G01 X197.298 Y125.411
G01 X196.396 Y125.473
G01 X195.518 Y125.588
G01 X194.667 Y125.752
G01 X193.846 Y125.965
G01 X193.437 Y126.092
G01 X192.713 Y126.132
G01 X192.001 Y126.209
G01 X191.304 Y126.322
G01 X190.622 Y126.470
G01 X189.958 Y126.651
G01 X189.577 Y126.772
G01 X188.928 Y126.805
G01 X188.281 Y126.870
G01 X187.638 Y126.966
G01 X187.001 Y127.094
G01 X186.370 Y127.253
G01 X185.748 Y127.443
G01 X185.716 Y127.453
G01 X185.030 Y127.488
G01 X184.338 Y127.561
G01 X183.641 Y127.673
G01 X182.941 Y127.823
G01 X182.241 Y128.012
G01 X181.856 Y128.134
G01 X181.010 Y128.188
G01 X180.151 Y128.298
G01 X179.281 Y128.465
G01 X178.405 Y128.690
G01 X177.995 Y128.814
G01 X177.805 Y129.707
G01 X177.672 Y130.590
G01 X177.595 Y131.462
G01 X177.573 Y132.317
G01 X177.583 Y132.741
G01 X177.420 Y133.452
G01 X177.297 Y134.161
G01 X177.213 Y134.866
G01 X177.167 Y135.566
G01 X177.158 Y136.257
G01 X177.170 Y136.667
G01 X177.022 Y137.301
G01 X176.905 Y137.941
G01 X176.820 Y138.586
G01 X176.766 Y139.234
G01 X176.745 Y139.884
G01 X176.755 Y140.535
G01 X176.757 Y140.594
G01 X176.602 Y141.262
G01 X176.481 Y141.946
G01 X176.395 Y142.646
G01 X176.345 Y143.358
G01 X176.333 Y144.082
G01 X176.345 Y144.520
G01 X176.164 Y145.347
G01 X176.032 Y146.202
G01 X175.951 Y147.082
G01 X175.925 Y147.985
G01 X175.932 Y148.446
G01 X176.737 Y148.877
G01 X177.549 Y149.249
G01 X178.365 Y149.563
G01 X179.181 Y149.821
G01 X179.619 Y149.936
G01 X180.256 Y150.288
G01 X180.902 Y150.602
G01 X181.556 Y150.878
G01 X182.214 Y151.116
G01 X182.876 Y151.316
G01 X183.305 Y151.425
G01 X183.872 Y151.743
G01 X184.455 Y152.032
G01 X185.051 Y152.292
G01 X185.659 Y152.523
G01 X186.278 Y152.724
G01 X186.906 Y152.894
G01 X186.991 Y152.915
G01 X187.592 Y153.250
G01 X188.218 Y153.556
G01 X188.869 Y153.833
G01 X189.542 Y154.078
G01 X190.237 Y154.290
G01 X190.678 Y154.404
G01 X191.428 Y154.809
G01 X192.219 Y155.175
G01 X193.049 Y155.497
G01 X193.917 Y155.773
G01 X194.364 Y155.893
G01 X195.001 Y155.238
G01 X195.583 Y154.560
G01 X196.112 Y153.862
G01 X196.586 Y153.148
G01 X196.830 Y152.738
G01 X197.346 Y152.221
G01 X197.828 Y151.684
G01 X198.276 Y151.129
G01 X198.688 Y150.559
G01 X199.065 Y149.976
G01 X199.295 Y149.583
G01 X199.760 Y149.121
G01 X200.202 Y148.637
G01 X200.620 Y148.131
G01 X201.013 Y147.605
G01 X201.381 Y147.060
G01 X201.721 Y146.497
G01 X201.760 Y146.428
G01 X202.254 Y145.936
G01 X202.727 Y145.412
G01 X203.178 Y144.855
G01 X203.604 Y144.266
G01 X204.004 Y143.647
G01 X204.225 Y143.273
G01 X204.830 Y142.653
G01 X205.408 Y141.982
G01 X205.954 Y141.261
G01 X206.466 Y140.491
G01 X206.690 Y140.117
G01 X206.230 Y139.317
G01 X205.732 Y138.562
G01 X205.201 Y137.854
G01 X204.639 Y137.195
G01 X204.320 Y136.856
G01 X203.959 Y136.208
G01 X203.570 Y135.588
G01 X203.154 Y134.997
G01 X202.713 Y134.437
G01 X202.249 Y133.907
G01 X201.950 Y133.594
G01 X201.629 Y133.011
G01 X201.279 Y132.444
G01 X200.901 Y131.894
G01 X200.497 Y131.364
G01 X200.067 Y130.853
G01 X199.612 Y130.364
G01 X199.580 Y130.332
G01 X199.238 Y129.713
G01 X198.858 Y129.105
G01 X198.440 Y128.510
G01 X197.985 Y127.930
G01 X197.493 Y127.368
G01 X197.210 Y127.070
G01 X196.776 Y126.309
G01 X196.284 Y125.561
G01 X195.735 Y124.829
G01 X195.128 Y124.117
G01 X194.840 Y123.808
G01 X193.931 Y124.034
G01 X193.055 Y124.309
G01 X192.216 Y124.630
G01 X191.416 Y124.995
G01 X191.025 Y125.196
G01 X190.293 Y125.367
G01 X189.581 Y125.574
G01 X188.889 Y125.815
G01 X188.221 Y126.088
G01 X187.576 Y126.393
G01 X187.210 Y126.585
G01 X186.554 Y126.735
G01 X185.907 Y126.917
G01 X185.269 Y127.131
G01 X184.642 Y127.376
G01 X184.027 Y127.651
G01 X183.427 Y127.956
G01 X183.395 Y127.974
G01 X182.702 Y128.133
G01 X182.010 Y128.331
G01 X181.320 Y128.570
G01 X180.634 Y128.848
G01 X179.955 Y129.167
G01 X179.580 Y129.362
G01 X178.728 Y129.570
G01 X177.872 Y129.836
G01 X177.017 Y130.161
G01 X176.165 Y130.547
G01 X175.764 Y130.751
G01 X175.730 Y131.695
G01 X175.753 Y132.619
G01 X175.832 Y133.521
G01 X175.963 Y134.396
G01 X176.050 Y134.829
G01 X176.012 Y135.582
G01 X176.013 Y136.327
G01 X176.054 Y137.061
G01 X176.133 Y137.782
G01 X176.248 Y138.487
G01 X176.335 Y138.907
G01 X176.298 Y139.579
G01 X176.293 Y140.251
G01 X176.322 Y140.924
G01 X176.384 Y141.594
G01 X176.479 Y142.260
G01 X176.606 Y142.921
G01 X176.620 Y142.985
G01 X176.581 Y143.693
G01 X176.581 Y144.412
G01 X176.619 Y145.140
G01 X176.696 Y145.875
G01 X176.814 Y146.614
G01 X176.905 Y147.063
G01 X176.869 Y147.938
G01 X176.888 Y148.833
G01 X176.964 Y149.744
G01 X177.099 Y150.669
G01 X177.190 Y151.141
G01 X178.087 Y151.435
G01 X178.981 Y151.668
G01 X179.869 Y151.842
G01 X180.746 Y151.958
G01 X181.216 Y151.997
G01 X181.929 Y152.241
G01 X182.644 Y152.445
G01 X183.360 Y152.609
G01 X184.073 Y152.733
G01 X184.783 Y152.818
G01 X185.242 Y152.852
G01 X185.878 Y153.074
G01 X186.523 Y153.264
G01 X187.177 Y153.422
G01 X187.839 Y153.548
G01 X188.506 Y153.642
G01 X189.177 Y153.703
G01 X189.268 Y153.708
G01 X189.941 Y153.942
G01 X190.635 Y154.142
G01 X191.348 Y154.307
G01 X192.079 Y154.436
G01 X192.826 Y154.527
G01 X193.295 Y154.564
G01 X194.133 Y154.843
G01 X195.006 Y155.073
G01 X195.911 Y155.252
G01 X196.846 Y155.378
G01 X197.321 Y155.420
G01 X197.851 Y154.637
G01 X198.323 Y153.841
G01 X198.737 Y153.034
G01 X199.091 Y152.221
G01 X199.266 Y151.761
G01 X199.700 Y151.140
G01 X200.095 Y150.505
G01 X200.452 Y149.859
G01 X200.770 Y149.204
G01 X201.049 Y148.541
G01 X201.212 Y148.102
G01 X201.603 Y147.547
G01 X201.967 Y146.973
G01 X202.303 Y146.381
G01 X202.609 Y145.774
G01 X202.885 Y145.151
G01 X203.131 Y144.516
G01 X203.157 Y144.443
G01 X203.572 Y143.853
G01 X203.961 Y143.232
G01 X204.321 Y142.582
G01 X204.650 Y141.905
G01 X204.947 Y141.202
G01 X205.103 Y140.784
G01 X205.608 Y140.043
G01 X206.077 Y139.255
G01 X206.504 Y138.421
G01 X206.888 Y137.543
G01 X207.048 Y137.125
G01 X206.434 Y136.391
G01 X205.791 Y135.711
G01 X205.121 Y135.084
G01 X204.429 Y134.513
G01 X204.047 Y134.227
G01 X203.562 Y133.631
G01 X203.053 Y133.069
G01 X202.523 Y132.541
G01 X201.972 Y132.048
G01 X201.403 Y131.592
G01 X201.046 Y131.329
G01 X200.613 Y130.792
G01 X200.154 Y130.277
G01 X199.670 Y129.784
G01 X199.163 Y129.316
G01 X198.632 Y128.873
G01 X198.081 Y128.456
G01 X198.045 Y128.431
G01 X197.585 Y127.862
G01 X197.088 Y127.311
G01 X196.556 Y126.779
G01 X195.988 Y126.270
G01 X195.386 Y125.785
G01 X195.044 Y125.533
G01 X194.465 Y124.836
G01 X193.830 Y124.162
G01 X193.139 Y123.516
G01 X192.394 Y122.900
G01 X192.043 Y122.635
G01 X191.155 Y123.038
G01 X190.312 Y123.486
G01 X189.516 Y123.974
G01 X188.769 Y124.500
G01 X188.633 Y124.603
G01 X187.911 Y124.920
G01 X187.217 Y125.270
G01 X186.552 Y125.652
G01 X185.918 Y126.062
G01 X185.315 Y126.500
G01 X185.223 Y126.572
G01 X184.581 Y126.850
G01 X183.955 Y127.159
G01 X183.346 Y127.497
G01 X182.756 Y127.864
G01 X182.186 Y128.259
G01 X181.813 Y128.541
G01 X181.156 Y128.825
G01 X180.509 Y129.147
G01 X179.871 Y129.505
G01 X179.247 Y129.900
G01 X178.636 Y130.331
G01 X178.403 Y130.510
G01 X177.630 Y130.852
G01 X176.863 Y131.249
G01 X176.106 Y131.699
G01 X175.363 Y132.203
G01 X174.993 Y132.478
G01 X174.098 Y132.984
G01 X173.856 Y133.135
G01 X174.000 Y134.105
G01 X174.199 Y135.044
G01 X174.450 Y135.949
G01 X174.751 Y136.818
G01 X174.815 Y136.981
G01 X174.920 Y137.764
G01 X175.066 Y138.530
G01 X175.249 Y139.276
G01 X175.469 Y140.001
G01 X175.724 Y140.702
G01 X175.774 Y140.827
G01 X175.864 Y141.520
G01 X175.987 Y142.207
G01 X176.144 Y142.885
G01 X176.333 Y143.554
G01 X176.555 Y144.210
G01 X176.733 Y144.673
G01 X176.824 Y145.381
G01 X176.954 Y146.091
G01 X177.121 Y146.801
G01 X177.328 Y147.510
G01 X177.573 Y148.214
G01 X177.692 Y148.519
G01 X177.807 Y149.356
G01 X177.976 Y150.201
G01 X178.199 Y151.052
G01 X178.478 Y151.906
G01 X178.651 Y152.365
G01 X178.890 Y153.365
G01 X178.970 Y153.647
G01 X179.941 Y153.776
G01 X180.898 Y153.845
G01 X181.837 Y153.854
G01 X182.753 Y153.805
G01 X182.958 Y153.786
G01 X183.739 Y153.901
G01 X184.514 Y153.973
G01 X185.281 Y154.003
G01 X186.038 Y153.993
G01 X186.782 Y153.942
G01 X186.945 Y153.925
G01 X187.637 Y154.031
G01 X188.332 Y154.102
G01 X189.027 Y154.139
G01 X189.723 Y154.141
G01 X190.416 Y154.110
G01 X190.933 Y154.064
G01 X191.642 Y154.172
G01 X192.363 Y154.245
G01 X193.096 Y154.280
G01 X193.837 Y154.277
G01 X194.586 Y154.235
G01 X194.921 Y154.204
G01 X195.764 Y154.324
G01 X196.631 Y154.396
G01 X197.519 Y154.416
G01 X198.424 Y154.383
G01 X198.908 Y154.343
G01 X199.947 Y154.389
G01 X200.237 Y154.389
G01 X200.631 Y153.489
G01 X200.962 Y152.586
G01 X201.230 Y151.683
G01 X201.437 Y150.786
G01 X201.478 Y150.570
G01 X201.806 Y149.846
G01 X202.091 Y149.116
G01 X202.333 Y148.382
G01 X202.533 Y147.647
G01 X202.690 Y146.912
G01 X202.720 Y146.750
G01 X203.014 Y146.108
G01 X203.276 Y145.453
G01 X203.506 Y144.787
G01 X203.702 Y144.112
G01 X203.864 Y143.429
G01 X203.961 Y142.930
G01 X204.263 Y142.270
G01 X204.535 Y141.586
G01 X204.773 Y140.882
G01 X204.977 Y140.158
G01 X205.144 Y139.416
G01 X205.202 Y139.110
G01 X205.555 Y138.321
G01 X205.866 Y137.494
G01 X206.133 Y136.634
G01 X206.353 Y135.741
G01 X206.443 Y135.291
G01 X206.778 Y134.290
G01 X206.856 Y134.018
G01 X206.090 Y133.384
G01 X205.303 Y132.811
G01 X204.499 Y132.298
G01 X203.683 Y131.847
G01 X203.505 Y131.757
G01 X202.891 Y131.236
G01 X202.258 Y130.755
G01 X201.610 Y130.315
G01 X200.949 Y129.915
G01 X200.276 Y129.557
G01 X200.154 Y129.497
G01 X199.609 Y129.030
G01 X199.043 Y128.592
G01 X198.458 Y128.183
G01 X197.854 Y127.804
G01 X197.233 Y127.455
G01 X196.802 Y127.236
G01 X196.243 Y126.757
G01 X195.654 Y126.303
G01 X195.034 Y125.875
G01 X194.386 Y125.476
G01 X193.711 Y125.106
G01 X193.451 Y124.975
G01 X192.783 Y124.414
G01 X192.068 Y123.882
G01 X191.307 Y123.384
G01 X190.503 Y122.923
G01 X190.100 Y122.715
G01 X189.225 Y122.113
G01 X188.982 Y121.961
G01 X188.151 Y122.532
G01 X187.374 Y123.139
G01 X186.651 Y123.779
G01 X185.984 Y124.448
G01 X185.866 Y124.577
G01 X185.188 Y125.029
G01 X184.544 Y125.510
G01 X183.936 Y126.017
G01 X183.365 Y126.549
G01 X182.830 Y127.102
G01 X182.749 Y127.192
G01 X182.146 Y127.590
G01 X181.565 Y128.016
G01 X181.006 Y128.469
G01 X180.472 Y128.948
G01 X179.963 Y129.452
G01 X179.632 Y129.807
G01 X179.016 Y130.214
G01 X178.415 Y130.657
G01 X177.831 Y131.135
G01 X177.267 Y131.648
G01 X176.724 Y132.196
G01 X176.515 Y132.423
G01 X175.791 Y132.910
G01 X175.083 Y133.450
G01 X174.394 Y134.043
G01 X173.729 Y134.688
G01 X173.398 Y135.038
G01 X172.580 Y135.712
G01 X172.359 Y135.910
G01 X172.679 Y136.871
G01 X173.050 Y137.790
G01 X173.468 Y138.665
G01 X173.929 Y139.494
G01 X174.025 Y139.651
G01 X174.272 Y140.428
G01 X174.557 Y141.181
G01 X174.877 Y141.907
G01 X175.230 Y142.604
G01 X175.615 Y143.271
G01 X175.690 Y143.392
G01 X175.906 Y144.081
G01 X176.154 Y144.757
G01 X176.435 Y145.418
G01 X176.747 Y146.063
G01 X177.090 Y146.691
G01 X177.356 Y147.133
G01 X177.576 Y147.836
G01 X177.835 Y148.535
G01 X178.132 Y149.227
G01 X178.469 Y149.911
G01 X178.845 Y150.583
G01 X179.022 Y150.874
G01 X179.289 Y151.704
G01 X179.612 Y152.534
G01 X179.992 Y153.360
G01 X180.428 Y154.178
G01 X180.687 Y154.615
G01 X181.110 Y155.589
G01 X181.242 Y155.862
G01 X182.253 Y155.820
G01 X183.238 Y155.718
G01 X184.193 Y155.559
G01 X185.116 Y155.345
G01 X185.324 Y155.288
G01 X186.139 Y155.265
G01 X186.940 Y155.200
G01 X187.725 Y155.093
G01 X188.493 Y154.946
G01 X189.240 Y154.761
G01 X189.405 Y154.715
G01 X190.127 Y154.698
G01 X190.847 Y154.646
G01 X191.561 Y154.558
G01 X192.269 Y154.436
G01 X192.969 Y154.280
G01 X193.486 Y154.141
G01 X194.227 Y154.124
G01 X194.974 Y154.068
G01 X195.726 Y153.972
G01 X196.480 Y153.835
G01 X197.235 Y153.658
G01 X197.567 Y153.567
G01 X198.448 Y153.539
G01 X199.343 Y153.456
G01 X200.251 Y153.317
G01 X201.166 Y153.120
G01 X201.648 Y152.994
G01 X202.714 Y152.854
G01 X203.008 Y152.803
G01 X203.247 Y151.816
G01 X203.422 Y150.837
G01 X203.533 Y149.871
G01 X203.583 Y148.920
G01 X203.586 Y148.696
G01 X203.789 Y147.900
G01 X203.948 Y147.106
G01 X204.063 Y146.315
G01 X204.134 Y145.531
G01 X204.162 Y144.755
G01 X204.163 Y144.588
G01 X204.347 Y143.882
G01 X204.497 Y143.168
G01 X204.611 Y142.449
G01 X204.689 Y141.726
G01 X204.732 Y141.001
G01 X204.740 Y140.481
G01 X204.930 Y139.754
G01 X205.083 Y139.010
G01 X205.199 Y138.250
G01 X205.276 Y137.477
G01 X205.314 Y136.691
G01 X205.317 Y136.374
G01 X205.535 Y135.507
G01 X205.704 Y134.610
G01 X205.821 Y133.687
G01 X205.884 Y132.739
G01 X205.895 Y132.267
G01 X206.056 Y131.189
G01 X206.087 Y130.898
G01 X205.193 Y130.391
G01 X204.288 Y129.948
G01 X203.378 Y129.571
G01 X202.466 Y129.258
G01 X202.274 Y129.200
G01 X201.555 Y128.780
G01 X200.825 Y128.404
G01 X200.086 Y128.072
G01 X199.341 Y127.785
G01 X198.593 Y127.541
G01 X198.461 Y127.503
G01 X197.824 Y127.126
G01 X197.169 Y126.782
G01 X196.500 Y126.471
G01 X195.818 Y126.193
G01 X195.124 Y125.950
G01 X194.648 Y125.805
G01 X193.994 Y125.419
G01 X193.313 Y125.063
G01 X192.607 Y124.739
G01 X191.877 Y124.449
G01 X191.124 Y124.194
G01 X190.835 Y124.107
G01 X190.056 Y123.656
G01 X189.234 Y123.244
G01 X188.373 Y122.875
G01 X187.473 Y122.550
G01 X187.022 Y122.410
G01 X186.026 Y121.956
G01 X185.751 Y121.844
G01 X185.011 Y122.582
G01 X184.333 Y123.347
G01 X183.717 Y124.136
G01 X183.211 Y124.872
G01 X182.600 Y125.466
G01 X182.031 Y126.083
G01 X181.504 Y126.719
G01 X181.020 Y127.374
G01 X180.670 Y127.900
G01 X180.128 Y128.421
G01 X179.616 Y128.966
G01 X179.133 Y129.533
G01 X178.680 Y130.120
G01 X178.259 Y130.727
G01 X178.129 Y130.928
G01 X177.589 Y131.447
G01 X177.072 Y131.997
G01 X176.579 Y132.577
G01 X176.113 Y133.186
G01 X175.674 Y133.823
G01 X175.588 Y133.957
G01 X174.976 Y134.550
G01 X174.390 Y135.190
G01 X173.830 Y135.875
G01 X173.301 Y136.603
