;  Created by Sandify
;  https://sandify.org
;  Version: 0.2.4
;
;  Machine type: Rectangular
;    Min X (mm): 0
;    Max X (mm): 380
;    Min Y (mm): 0
;    Max Y (mm): 280
;  Content type: shape
;  Layer:
;    Shape: FileImport
;    Name: Spiral2.thr
;    From file:: Spiral2.thr
;    Aspect Ratio: true
;    Comments: 
;    Visible: true
;    Initial width: 10
;    Initial height: 10
;    X offset: 0
;    Y offset: 0
;    Rotate (degrees): 0
;    Reverse path: false
;    Fine tuning:
;      Connect to next layer: line
;      Draw portion of path (%): 100
;      Backtrack at end (%): 0
;      Rotate starting point (%): 0
;  Reverse export path: false
;
; File name: 'Spiral2'
;

G01 X190.000 Y140.000
G01 X189.999 Y140.016
G01 X189.997 Y140.033
G01 X189.993 Y140.049
G01 X189.987 Y140.064
G01 X189.980 Y140.080
G01 X189.971 Y140.094
G01 X189.961 Y140.108
G01 X189.950 Y140.121
G01 X189.943 Y140.128
G01 X189.948 Y140.135
G01 X189.953 Y140.142
G01 X189.958 Y140.150
G01 X189.965 Y140.156
G01 X189.971 Y140.163
G01 X189.979 Y140.169
G01 X189.987 Y140.175
G01 X189.995 Y140.180
G01 X190.004 Y140.186
G01 X190.014 Y140.190
G01 X190.024 Y140.194
G01 X190.034 Y140.198
G01 X190.045 Y140.201
G01 X190.056 Y140.203
G01 X190.060 Y140.204
G01 X190.098 Y140.279
G01 X190.142 Y140.350
G01 X190.194 Y140.417
G01 X190.213 Y140.439
G01 X190.238 Y140.435
G01 X190.263 Y140.429
G01 X190.288 Y140.423
G01 X190.314 Y140.414
G01 X190.339 Y140.404
G01 X190.363 Y140.393
G01 X190.388 Y140.380
G01 X190.412 Y140.366
G01 X190.436 Y140.350
G01 X190.459 Y140.333
G01 X190.469 Y140.325
G01 X190.545 Y140.340
G01 X190.624 Y140.348
G01 X190.705 Y140.349
G01 X190.788 Y140.342
G01 X190.871 Y140.329
G01 X190.889 Y140.325
G01 X190.905 Y140.281
G01 X190.919 Y140.237
G01 X190.931 Y140.192
G01 X190.940 Y140.146
G01 X190.948 Y140.100
G01 X190.953 Y140.054
G01 X190.956 Y140.007
G01 X190.956 Y139.960
G01 X190.955 Y139.913
G01 X190.954 Y139.910
G01 X191.012 Y139.854
G01 X191.066 Y139.793
G01 X191.116 Y139.726
G01 X191.162 Y139.653
G01 X191.203 Y139.575
G01 X191.240 Y139.493
G01 X191.259 Y139.441
G01 X191.218 Y139.386
G01 X191.174 Y139.334
G01 X191.128 Y139.284
G01 X191.080 Y139.238
G01 X191.031 Y139.195
G01 X190.979 Y139.154
G01 X190.926 Y139.117
G01 X190.872 Y139.083
G01 X190.843 Y139.066
G01 X190.829 Y138.986
G01 X190.809 Y138.905
G01 X190.782 Y138.824
G01 X190.750 Y138.743
G01 X190.712 Y138.662
G01 X190.667 Y138.583
G01 X190.616 Y138.504
G01 X190.559 Y138.427
G01 X190.559 Y138.426
G01 X190.472 Y138.431
G01 X190.387 Y138.440
G01 X190.303 Y138.454
G01 X190.223 Y138.472
G01 X190.144 Y138.494
G01 X190.069 Y138.520
G01 X189.996 Y138.550
G01 X189.927 Y138.584
G01 X189.882 Y138.608
G01 X189.809 Y138.574
G01 X189.732 Y138.545
G01 X189.651 Y138.519
G01 X189.567 Y138.499
G01 X189.481 Y138.483
G01 X189.392 Y138.472
G01 X189.300 Y138.466
G01 X189.207 Y138.465
G01 X189.112 Y138.470
G01 X189.053 Y138.476
G01 X189.002 Y138.557
G01 X188.957 Y138.640
G01 X188.917 Y138.723
G01 X188.883 Y138.807
G01 X188.855 Y138.891
G01 X188.832 Y138.975
G01 X188.814 Y139.059
G01 X188.802 Y139.141
G01 X188.795 Y139.223
G01 X188.793 Y139.275
G01 X188.723 Y139.316
G01 X188.654 Y139.362
G01 X188.586 Y139.413
G01 X188.520 Y139.469
G01 X188.456 Y139.530
G01 X188.395 Y139.596
G01 X188.337 Y139.668
G01 X188.282 Y139.743
G01 X188.231 Y139.824
G01 X188.183 Y139.909
G01 X188.140 Y139.998
G01 X188.137 Y140.003
G01 X188.176 Y140.093
G01 X188.218 Y140.179
G01 X188.264 Y140.261
G01 X188.314 Y140.338
G01 X188.368 Y140.412
G01 X188.424 Y140.481
G01 X188.483 Y140.546
G01 X188.545 Y140.606
G01 X188.609 Y140.661
G01 X188.675 Y140.711
G01 X188.742 Y140.757
G01 X188.754 Y140.765
G01 X188.747 Y140.857
G01 X188.746 Y140.951
G01 X188.751 Y141.047
G01 X188.763 Y141.145
G01 X188.782 Y141.244
G01 X188.807 Y141.344
G01 X188.840 Y141.445
G01 X188.879 Y141.545
G01 X188.926 Y141.645
G01 X188.980 Y141.744
G01 X189.041 Y141.842
G01 X189.044 Y141.847
G01 X189.148 Y141.865
G01 X189.252 Y141.877
G01 X189.354 Y141.883
G01 X189.456 Y141.884
G01 X189.555 Y141.880
G01 X189.654 Y141.870
G01 X189.750 Y141.856
G01 X189.844 Y141.836
G01 X189.935 Y141.812
G01 X190.024 Y141.784
G01 X190.109 Y141.751
G01 X190.158 Y141.730
G01 X190.254 Y141.799
G01 X190.357 Y141.863
G01 X190.467 Y141.921
G01 X190.583 Y141.972
G01 X190.705 Y142.017
G01 X190.834 Y142.054
G01 X190.967 Y142.083
G01 X191.105 Y142.104
G01 X191.248 Y142.116
G01 X191.356 Y142.119
G01 X191.440 Y142.024
G01 X191.517 Y141.925
G01 X191.589 Y141.824
G01 X191.654 Y141.721
G01 X191.713 Y141.615
G01 X191.766 Y141.508
G01 X191.812 Y141.400
G01 X191.852 Y141.291
G01 X191.886 Y141.181
G01 X191.913 Y141.072
G01 X191.928 Y140.996
G01 X192.061 Y140.940
G01 X192.193 Y140.873
G01 X192.323 Y140.795
G01 X192.450 Y140.706
G01 X192.574 Y140.607
G01 X192.694 Y140.497
G01 X192.810 Y140.377
G01 X192.919 Y140.247
G01 X193.016 Y140.115
G01 X192.972 Y139.968
G01 X192.920 Y139.825
G01 X192.862 Y139.687
G01 X192.797 Y139.554
G01 X192.726 Y139.427
G01 X192.650 Y139.306
G01 X192.568 Y139.190
G01 X192.482 Y139.081
G01 X192.391 Y138.979
G01 X192.316 Y138.903
G01 X192.342 Y138.747
G01 X192.357 Y138.586
G01 X192.362 Y138.420
G01 X192.356 Y138.250
G01 X192.339 Y138.078
G01 X192.311 Y137.903
G01 X192.271 Y137.726
G01 X192.219 Y137.549
G01 X192.155 Y137.371
G01 X191.985 Y137.322
G01 X191.814 Y137.282
G01 X191.645 Y137.253
G01 X191.477 Y137.234
G01 X191.311 Y137.224
G01 X191.148 Y137.224
G01 X190.989 Y137.233
G01 X190.833 Y137.251
G01 X190.681 Y137.277
G01 X190.617 Y137.291
G01 X190.498 Y137.182
G01 X190.370 Y137.078
G01 X190.232 Y136.980
G01 X190.086 Y136.889
G01 X189.932 Y136.805
G01 X189.769 Y136.729
G01 X189.599 Y136.661
G01 X189.422 Y136.602
G01 X189.238 Y136.553
G01 X189.121 Y136.528
G01 X188.974 Y136.651
G01 X188.838 Y136.779
G01 X188.712 Y136.912
G01 X188.595 Y137.050
G01 X188.490 Y137.192
G01 X188.394 Y137.337
G01 X188.309 Y137.484
G01 X188.235 Y137.633
G01 X188.171 Y137.783
G01 X188.133 Y137.887
G01 X187.976 Y137.924
G01 X187.818 Y137.972
G01 X187.661 Y138.030
G01 X187.504 Y138.099
G01 X187.348 Y138.179
G01 X187.194 Y138.270
G01 X187.043 Y138.371
G01 X186.895 Y138.483
G01 X186.751 Y138.606
G01 X186.612 Y138.739
G01 X186.557 Y138.797
G01 X186.577 Y138.990
G01 X186.607 Y139.177
G01 X186.647 Y139.359
G01 X186.697 Y139.535
G01 X186.756 Y139.705
G01 X186.823 Y139.868
G01 X186.898 Y140.023
G01 X186.981 Y140.171
G01 X187.070 Y140.311
G01 X187.166 Y140.442
G01 X187.209 Y140.496
G01 X187.150 Y140.653
G01 X187.099 Y140.816
G01 X187.058 Y140.986
G01 X187.027 Y141.161
G01 X187.006 Y141.342
G01 X186.996 Y141.528
G01 X186.997 Y141.718
G01 X187.010 Y141.911
G01 X187.034 Y142.107
G01 X187.071 Y142.306
G01 X187.107 Y142.454
G01 X187.282 Y142.545
G01 X187.459 Y142.625
G01 X187.637 Y142.693
G01 X187.816 Y142.751
G01 X187.994 Y142.798
G01 X188.172 Y142.834
G01 X188.348 Y142.859
G01 X188.523 Y142.874
G01 X188.694 Y142.880
G01 X188.863 Y142.875
G01 X189.024 Y142.861
G01 X189.135 Y143.012
G01 X189.258 Y143.159
G01 X189.394 Y143.300
G01 X189.542 Y143.436
G01 X189.702 Y143.564
G01 X189.874 Y143.685
G01 X190.056 Y143.798
G01 X190.249 Y143.901
G01 X190.453 Y143.994
G01 X190.666 Y144.076
G01 X190.723 Y144.095
G01 X190.907 Y143.988
G01 X191.083 Y143.872
G01 X191.250 Y143.749
G01 X191.408 Y143.619
G01 X191.556 Y143.483
G01 X191.694 Y143.341
G01 X191.821 Y143.194
G01 X191.939 Y143.042
G01 X192.046 Y142.887
G01 X192.143 Y142.729
G01 X192.208 Y142.611
G01 X192.422 Y142.594
G01 X192.639 Y142.562
G01 X192.859 Y142.516
G01 X193.081 Y142.453
G01 X193.303 Y142.375
G01 X193.524 Y142.280
G01 X193.744 Y142.170
G01 X193.961 Y142.043
G01 X194.175 Y141.900
G01 X194.299 Y141.808
G01 X194.307 Y141.567
G01 X194.302 Y141.330
G01 X194.285 Y141.098
G01 X194.255 Y140.870
G01 X194.214 Y140.648
G01 X194.161 Y140.432
G01 X194.097 Y140.223
G01 X194.023 Y140.022
G01 X193.940 Y139.828
G01 X193.847 Y139.642
G01 X193.833 Y139.617
G01 X193.942 Y139.409
G01 X194.040 Y139.190
G01 X194.125 Y138.960
G01 X194.197 Y138.720
G01 X194.255 Y138.470
G01 X194.299 Y138.212
G01 X194.327 Y137.946
G01 X194.339 Y137.673
G01 X194.334 Y137.394
G01 X194.328 Y137.289
G01 X194.108 Y137.137
G01 X193.884 Y136.999
G01 X193.656 Y136.877
G01 X193.426 Y136.769
G01 X193.195 Y136.677
G01 X192.963 Y136.599
G01 X192.731 Y136.536
G01 X192.500 Y136.487
G01 X192.271 Y136.452
G01 X192.106 Y136.436
G01 X191.969 Y136.259
G01 X191.821 Y136.088
G01 X191.659 Y135.922
G01 X191.486 Y135.762
G01 X191.302 Y135.610
G01 X191.215 Y135.545
G01 X191.033 Y135.319
G01 X190.831 Y135.100
G01 X190.611 Y134.890
G01 X190.372 Y134.691
G01 X190.324 Y134.654
G01 X190.059 Y134.807
G01 X189.811 Y134.974
G01 X189.578 Y135.151
G01 X189.363 Y135.339
G01 X189.305 Y135.395
G01 X189.095 Y135.511
G01 X188.895 Y135.638
G01 X188.706 Y135.772
G01 X188.526 Y135.915
G01 X188.358 Y136.065
G01 X188.285 Y136.135
G01 X188.062 Y136.152
G01 X187.836 Y136.182
G01 X187.608 Y136.226
G01 X187.380 Y136.282
G01 X187.151 Y136.352
G01 X186.984 Y136.412
G01 X186.696 Y136.439
G01 X186.404 Y136.487
G01 X186.109 Y136.555
G01 X185.811 Y136.644
G01 X185.683 Y136.688
G01 X185.666 Y137.001
G01 X185.668 Y137.307
G01 X185.690 Y137.605
G01 X185.730 Y137.895
G01 X185.753 Y138.016
G01 X185.735 Y138.257
G01 X185.730 Y138.495
G01 X185.738 Y138.730
G01 X185.759 Y138.959
G01 X185.791 Y139.184
G01 X185.823 Y139.345
G01 X185.700 Y139.540
G01 X185.586 Y139.746
G01 X185.483 Y139.962
G01 X185.390 Y140.188
G01 X185.309 Y140.422
G01 X185.240 Y140.665
G01 X185.184 Y140.916
G01 X185.154 Y141.087
G01 X185.021 Y141.377
G01 X184.905 Y141.682
G01 X184.819 Y141.959
G01 X185.055 Y142.152
G01 X185.297 Y142.328
G01 X185.544 Y142.485
G01 X185.795 Y142.624
G01 X186.048 Y142.744
G01 X186.302 Y142.846
G01 X186.436 Y142.892
G01 X186.626 Y143.024
G01 X186.821 Y143.144
G01 X187.020 Y143.252
G01 X187.221 Y143.348
G01 X187.244 Y143.359
G01 X187.345 Y143.580
G01 X187.462 Y143.799
G01 X187.594 Y144.015
G01 X187.741 Y144.227
G01 X187.903 Y144.435
G01 X188.080 Y144.636
G01 X188.272 Y144.830
G01 X188.396 Y144.944
G01 X188.581 Y145.236
G01 X188.791 Y145.521
G01 X188.972 Y145.737
G01 X189.273 Y145.641
G01 X189.562 Y145.530
G01 X189.838 Y145.405
G01 X190.101 Y145.266
G01 X190.349 Y145.114
G01 X190.583 Y144.952
G01 X190.719 Y144.847
G01 X190.945 Y144.753
G01 X191.164 Y144.649
G01 X191.375 Y144.535
G01 X191.578 Y144.411
G01 X191.592 Y144.402
G01 X191.856 Y144.440
G01 X192.128 Y144.461
G01 X192.407 Y144.467
G01 X192.691 Y144.455
G01 X192.979 Y144.426
G01 X193.271 Y144.380
G01 X193.565 Y144.315
G01 X193.642 Y144.295
G01 X194.023 Y144.297
G01 X194.412 Y144.272
G01 X194.668 Y144.241
G01 X194.755 Y143.913
G01 X194.822 Y143.586
G01 X194.869 Y143.262
G01 X194.896 Y142.943
G01 X194.903 Y142.629
G01 X194.892 Y142.321
G01 X194.882 Y142.199
G01 X194.930 Y141.936
G01 X194.963 Y141.673
G01 X194.983 Y141.411
G01 X194.990 Y141.178
G01 X195.178 Y140.957
G01 X195.357 Y140.720
G01 X195.524 Y140.468
G01 X195.680 Y140.202
G01 X195.822 Y139.921
G01 X195.950 Y139.627
G01 X196.063 Y139.320
G01 X196.285 Y138.980
G01 X196.488 Y138.617
G01 X196.600 Y138.389
G01 X196.350 Y138.116
G01 X196.090 Y137.863
G01 X195.821 Y137.630
G01 X195.544 Y137.419
G01 X195.261 Y137.229
G01 X194.972 Y137.061
G01 X194.931 Y137.039
G01 X194.720 Y136.840
G01 X194.501 Y136.656
G01 X194.275 Y136.485
G01 X194.097 Y136.363
G01 X194.010 Y136.072
G01 X193.903 Y135.782
G01 X193.778 Y135.493
G01 X193.633 Y135.206
G01 X193.469 Y134.923
G01 X193.286 Y134.644
G01 X193.084 Y134.372
G01 X193.080 Y134.367
G01 X192.914 Y133.988
G01 X192.717 Y133.613
G01 X192.572 Y133.369
G01 X192.183 Y133.433
G01 X191.806 Y133.519
G01 X191.444 Y133.625
G01 X191.096 Y133.751
G01 X190.764 Y133.896
G01 X190.449 Y134.057
G01 X190.441 Y134.061
G01 X190.147 Y134.134
G01 X189.861 Y134.220
G01 X189.584 Y134.321
G01 X189.376 Y134.408
G01 X189.082 Y134.321
G01 X188.779 Y134.250
G01 X188.466 Y134.196
G01 X188.145 Y134.159
G01 X187.817 Y134.139
G01 X187.483 Y134.138
G01 X187.143 Y134.156
G01 X187.056 Y134.164
G01 X186.648 Y134.096
G01 X186.228 Y134.055
G01 X185.895 Y134.042
G01 X185.731 Y134.412
G01 X185.593 Y134.783
G01 X185.481 Y135.154
G01 X185.394 Y135.523
G01 X185.332 Y135.888
G01 X185.295 Y136.249
G01 X185.291 Y136.296
G01 X185.190 Y136.584
G01 X185.105 Y136.873
G01 X185.037 Y137.163
G01 X184.989 Y137.422
G01 X184.755 Y137.620
G01 X184.529 Y137.834
G01 X184.311 Y138.065
G01 X184.103 Y138.312
G01 X183.906 Y138.575
G01 X183.721 Y138.853
G01 X183.548 Y139.147
G01 X183.462 Y139.308
G01 X183.180 Y139.615
G01 X182.912 Y139.949
G01 X182.699 Y140.251
G01 X182.918 Y140.593
G01 X183.153 Y140.913
G01 X183.402 Y141.212
G01 X183.663 Y141.489
G01 X183.935 Y141.743
G01 X184.216 Y141.974
G01 X184.322 Y142.055
G01 X184.509 Y142.298
G01 X184.705 Y142.528
G01 X184.910 Y142.744
G01 X185.124 Y142.947
G01 X185.134 Y142.956
G01 X185.172 Y143.268
G01 X185.228 Y143.584
G01 X185.304 Y143.901
G01 X185.400 Y144.220
G01 X185.517 Y144.538
G01 X185.653 Y144.854
G01 X185.810 Y145.168
G01 X185.913 Y145.353
G01 X186.022 Y145.778
G01 X186.163 Y146.204
G01 X186.302 Y146.551
G01 X186.714 Y146.554
G01 X187.117 Y146.532
G01 X187.510 Y146.487
G01 X187.891 Y146.419
G01 X188.259 Y146.330
G01 X188.613 Y146.221
G01 X188.791 Y146.157
G01 X189.106 Y146.133
G01 X189.415 Y146.092
G01 X189.719 Y146.036
G01 X190.015 Y145.966
G01 X190.036 Y145.960
G01 X190.337 Y146.107
G01 X190.652 Y146.239
G01 X190.982 Y146.354
G01 X191.324 Y146.451
G01 X191.677 Y146.529
G01 X192.042 Y146.589
G01 X192.416 Y146.627
G01 X192.560 Y146.636
G01 X193.008 Y146.786
G01 X193.477 Y146.907
G01 X193.822 Y146.975
G01 X194.058 Y146.613
G01 X194.268 Y146.245
G01 X194.451 Y145.873
G01 X194.609 Y145.498
G01 X194.741 Y145.122
G01 X194.847 Y144.747
G01 X194.885 Y144.587
G01 X195.045 Y144.291
G01 X195.187 Y143.991
G01 X195.313 Y143.687
G01 X195.417 Y143.393
G01 X195.724 Y143.206
G01 X196.026 Y142.997
G01 X196.320 Y142.765
G01 X196.606 Y142.511
G01 X196.882 Y142.236
G01 X197.146 Y141.940
G01 X197.398 Y141.624
G01 X197.428 Y141.582
G01 X197.820 Y141.268
G01 X198.199 Y140.920
G01 X198.434 Y140.677
G01 X198.244 Y140.256
G01 X198.035 Y139.855
G01 X197.806 Y139.475
G01 X197.559 Y139.117
G01 X197.297 Y138.782
G01 X197.021 Y138.471
G01 X196.960 Y138.407
G01 X196.786 Y138.092
G01 X196.599 Y137.790
G01 X196.399 Y137.501
G01 X196.223 Y137.272
G01 X196.241 Y136.890
G01 X196.236 Y136.500
G01 X196.208 Y136.104
G01 X196.156 Y135.702
G01 X196.078 Y135.296
G01 X195.976 Y134.887
G01 X195.847 Y134.478
G01 X195.730 Y134.161
G01 X195.664 Y133.631
G01 X195.566 Y133.123
G01 X195.090 Y133.039
G01 X194.619 Y132.984
G01 X194.156 Y132.958
G01 X193.702 Y132.960
G01 X193.258 Y132.990
G01 X192.826 Y133.045
G01 X192.416 Y133.123
G01 X192.048 Y133.105
G01 X191.684 Y133.107
G01 X191.366 Y133.123
G01 X191.051 Y132.897
G01 X190.718 Y132.685
G01 X190.367 Y132.490
G01 X189.998 Y132.311
G01 X189.612 Y132.151
G01 X189.211 Y132.011
G01 X188.795 Y131.892
G01 X188.392 Y131.800
G01 X187.912 Y131.566
G01 X187.405 Y131.360
G01 X187.401 Y131.358
G01 X187.060 Y131.721
G01 X186.748 Y132.095
G01 X186.465 Y132.480
G01 X186.212 Y132.872
G01 X185.989 Y133.271
G01 X185.795 Y133.674
G01 X185.631 Y134.080
G01 X185.628 Y134.088
G01 X185.409 Y134.390
G01 X185.209 Y134.699
G01 X185.037 Y134.998
G01 X184.699 Y135.158
G01 X184.366 Y135.339
G01 X184.037 Y135.541
G01 X183.715 Y135.765
G01 X183.401 Y136.009
G01 X183.159 Y136.218
G01 X182.726 Y136.433
G01 X182.298 Y136.682
G01 X181.878 Y136.964
G01 X181.467 Y137.280
G01 X181.280 Y137.438
G01 X181.396 Y137.925
G01 X181.538 Y138.394
G01 X181.705 Y138.844
G01 X181.895 Y139.273
G01 X182.106 Y139.682
G01 X182.338 Y140.067
G01 X182.588 Y140.429
G01 X182.647 Y140.508
G01 X182.780 Y140.856
G01 X182.929 Y141.193
G01 X183.094 Y141.517
G01 X183.102 Y141.531
G01 X183.050 Y141.905
G01 X183.018 Y142.287
G01 X183.008 Y142.677
G01 X183.019 Y143.074
G01 X183.052 Y143.475
G01 X183.102 Y143.841
G01 X183.044 Y144.333
G01 X183.018 Y144.841
G01 X183.026 Y145.360
G01 X183.069 Y145.891
G01 X183.102 Y146.151
G01 X183.607 Y146.290
G01 X184.109 Y146.395
G01 X184.605 Y146.466
G01 X185.094 Y146.504
G01 X185.384 Y146.512
G01 X185.775 Y146.627
G01 X186.166 Y146.720
G01 X186.556 Y146.791
G01 X186.943 Y146.839
G01 X187.327 Y146.867
G01 X187.665 Y146.873
G01 X187.962 Y147.131
G01 X188.279 Y147.376
G01 X188.614 Y147.606
G01 X188.969 Y147.821
G01 X189.341 Y148.020
G01 X189.661 Y148.170
G01 X190.065 Y148.504
G01 X190.501 Y148.818
G01 X190.967 Y149.108
G01 X191.464 Y149.373
G01 X191.657 Y149.466
G01 X192.060 Y149.108
G01 X192.431 Y148.733
G01 X192.771 Y148.345
G01 X193.079 Y147.945
G01 X193.250 Y147.697
G01 X193.571 Y147.420
G01 X193.874 Y147.130
G01 X194.156 Y146.828
G01 X194.419 Y146.517
G01 X194.661 Y146.196
G01 X194.842 Y145.929
G01 X195.243 Y145.812
G01 X195.643 Y145.670
G01 X196.042 Y145.502
G01 X196.438 Y145.309
G01 X196.829 Y145.089
G01 X197.081 Y144.932
G01 X197.610 Y144.764
G01 X198.140 Y144.556
G01 X198.667 Y144.306
G01 X199.188 Y144.016
G01 X199.319 Y143.936
G01 X199.231 Y143.375
G01 X199.112 Y142.833
G01 X198.962 Y142.311
G01 X198.784 Y141.810
G01 X198.685 Y141.569
G01 X198.622 Y141.124
G01 X198.537 Y140.689
G01 X198.431 Y140.266
G01 X198.304 Y139.854
G01 X198.157 Y139.455
G01 X198.050 Y139.203
G01 X198.175 Y138.783
G01 X198.277 Y138.349
G01 X198.356 Y137.902
G01 X198.410 Y137.444
G01 X198.440 Y136.975
G01 X198.445 Y136.714
G01 X198.596 Y136.159
G01 X198.713 Y135.582
G01 X198.793 Y134.984
G01 X198.835 Y134.368
G01 X198.839 Y134.225
G01 X198.292 Y133.981
G01 X197.744 Y133.777
G01 X197.196 Y133.612
G01 X196.651 Y133.485
G01 X196.442 Y133.446
G01 X196.015 Y133.247
G01 X195.585 Y133.075
G01 X195.152 Y132.928
G01 X194.718 Y132.806
G01 X194.285 Y132.710
G01 X194.046 Y132.667
G01 X193.754 Y132.327
G01 X193.440 Y131.998
G01 X193.101 Y131.682
G01 X192.740 Y131.380
G01 X192.357 Y131.095
G01 X192.121 Y130.934
G01 X191.736 Y130.501
G01 X191.313 Y130.085
G01 X190.853 Y129.688
G01 X190.358 Y129.313
G01 X190.196 Y129.201
G01 X189.676 Y129.538
G01 X189.190 Y129.899
G01 X188.738 Y130.282
G01 X188.322 Y130.684
G01 X188.183 Y130.831
G01 X187.774 Y131.086
G01 X187.386 Y131.358
G01 X187.018 Y131.647
G01 X186.673 Y131.951
G01 X186.350 Y132.268
G01 X186.170 Y132.461
G01 X185.726 Y132.519
G01 X185.278 Y132.602
G01 X184.827 Y132.712
G01 X184.377 Y132.849
G01 X183.928 Y133.013
G01 X183.601 Y133.149
G01 X183.029 Y133.235
G01 X182.450 Y133.360
G01 X181.867 Y133.527
G01 X181.283 Y133.735
G01 X181.032 Y133.838
G01 X181.030 Y134.464
G01 X181.066 Y135.075
G01 X181.141 Y135.668
G01 X181.252 Y136.243
G01 X181.310 Y136.483
G01 X181.299 Y136.967
G01 X181.314 Y137.442
G01 X181.355 Y137.909
G01 X181.420 Y138.366
G01 X181.509 Y138.811
G01 X181.588 Y139.129
G01 X181.392 Y139.534
G01 X181.216 Y139.956
G01 X181.061 Y140.394
G01 X180.928 Y140.847
G01 X180.819 Y141.315
G01 X180.744 Y141.725
G01 X180.499 Y142.258
G01 X180.285 Y142.819
G01 X180.104 Y143.406
G01 X179.958 Y144.018
G01 X179.901 Y144.321
G01 X180.424 Y144.666
G01 X180.956 Y144.970
G01 X181.495 Y145.233
G01 X182.036 Y145.456
G01 X182.333 Y145.561
G01 X182.734 Y145.835
G01 X183.142 Y146.084
G01 X183.558 Y146.307
G01 X183.978 Y146.504
G01 X184.402 Y146.675
G01 X184.766 Y146.800
G01 X184.994 Y147.209
G01 X185.251 Y147.611
G01 X185.535 Y148.005
G01 X185.847 Y148.389
G01 X186.186 Y148.762
G01 X186.551 Y149.121
G01 X186.880 Y149.411
G01 X187.239 Y149.938
G01 X187.642 Y150.452
G01 X188.088 Y150.949
G01 X188.290 Y151.152
G01 X188.870 Y150.918
G01 X189.424 Y150.655
G01 X189.949 Y150.364
G01 X190.444 Y150.048
G01 X190.908 Y149.710
G01 X191.200 Y149.472
G01 X191.640 Y149.273
G01 X192.064 Y149.053
G01 X192.470 Y148.814
G01 X192.858 Y148.558
G01 X193.139 Y148.352
G01 X193.630 Y148.383
G01 X194.131 Y148.385
G01 X194.640 Y148.358
G01 X195.157 Y148.301
G01 X195.679 Y148.213
G01 X196.204 Y148.093
G01 X196.565 Y147.992
G01 X197.235 Y147.976
G01 X197.919 Y147.913
G01 X198.614 Y147.801
G01 X198.848 Y147.752
G01 X198.971 Y147.113
G01 X199.053 Y146.481
G01 X199.095 Y145.858
G01 X199.098 Y145.247
G01 X199.064 Y144.651
G01 X199.028 Y144.313
G01 X199.103 Y143.812
G01 X199.150 Y143.314
G01 X199.171 Y142.821
G01 X199.166 Y142.334
G01 X199.148 Y142.020
G01 X199.453 Y141.606
G01 X199.739 Y141.166
G01 X200.004 Y140.702
G01 X200.246 Y140.215
G01 X200.464 Y139.706
G01 X200.656 Y139.176
G01 X200.750 Y138.877
G01 X201.114 Y138.284
G01 X201.444 Y137.653
G01 X201.738 Y136.986
G01 X201.818 Y136.781
G01 X201.325 Y136.310
G01 X200.815 Y135.879
G01 X200.290 Y135.488
G01 X199.754 Y135.139
G01 X199.210 Y134.832
G01 X198.964 Y134.707
G01 X198.566 Y134.357
G01 X198.157 Y134.034
G01 X197.736 Y133.736
G01 X197.306 Y133.465
G01 X197.061 Y133.325
G01 X196.873 Y132.831
G01 X196.654 Y132.341
G01 X196.403 Y131.855
G01 X196.120 Y131.375
G01 X195.805 Y130.904
G01 X195.458 Y130.444
G01 X195.255 Y130.197
G01 X194.952 Y129.561
G01 X194.599 Y128.933
G01 X194.197 Y128.315
G01 X194.051 Y128.111
G01 X193.363 Y128.274
G01 X192.701 Y128.474
G01 X192.068 Y128.711
G01 X191.464 Y128.980
G01 X190.891 Y129.282
G01 X190.679 Y129.406
G01 X190.156 Y129.552
G01 X189.648 Y129.723
G01 X189.158 Y129.918
G01 X188.687 Y130.137
G01 X188.431 Y130.269
G01 X187.912 Y130.156
G01 X187.379 Y130.071
G01 X186.833 Y130.015
G01 X186.275 Y129.989
G01 X185.707 Y129.994
G01 X185.130 Y130.032
G01 X184.740 Y130.075
G01 X184.043 Y129.982
G01 X183.325 Y129.934
G01 X182.588 Y129.933
G01 X182.279 Y129.946
G01 X182.036 Y130.621
G01 X181.839 Y131.294
G01 X181.689 Y131.963
G01 X181.584 Y132.625
G01 X181.524 Y133.278
G01 X181.511 Y133.562
G01 X181.346 Y134.082
G01 X181.211 Y134.603
G01 X181.107 Y135.123
G01 X181.032 Y135.640
G01 X180.998 Y135.972
G01 X180.620 Y136.344
G01 X180.256 Y136.743
G01 X179.910 Y137.169
G01 X179.582 Y137.622
G01 X179.276 Y138.100
G01 X178.991 Y138.603
G01 X178.777 Y139.030
G01 X178.315 Y139.566
G01 X177.879 Y140.145
G01 X177.473 Y140.766
G01 X177.295 Y141.069
G01 X177.727 Y141.642
G01 X178.184 Y142.176
G01 X178.662 Y142.669
G01 X179.159 Y143.120
G01 X179.673 Y143.530
G01 X179.968 Y143.741
G01 X180.315 Y144.164
G01 X180.678 Y144.562
G01 X181.057 Y144.935
G01 X181.449 Y145.282
G01 X181.750 Y145.523
G01 X181.856 Y146.052
G01 X181.994 Y146.583
G01 X182.165 Y147.115
G01 X182.369 Y147.645
G01 X182.607 Y148.172
G01 X182.878 Y148.694
G01 X183.135 Y149.131
G01 X183.338 Y149.830
G01 X183.594 Y150.530
G01 X183.904 Y151.228
G01 X184.058 Y151.536
G01 X184.780 Y151.486
G01 X185.482 Y151.394
G01 X186.163 Y151.261
G01 X186.819 Y151.090
G01 X187.449 Y150.883
G01 X187.838 Y150.732
G01 X188.390 Y150.671
G01 X188.931 Y150.581
G01 X189.460 Y150.465
G01 X189.974 Y150.322
G01 X190.357 Y150.197
G01 X190.877 Y150.403
G01 X191.418 Y150.582
G01 X191.978 Y150.732
G01 X192.557 Y150.853
G01 X193.152 Y150.942
G01 X193.761 Y150.998
G01 X194.219 Y151.017
G01 X194.948 Y151.236
G01 X195.707 Y151.408
G01 X196.495 Y151.532
G01 X196.793 Y151.565
G01 X197.153 Y150.913
G01 X197.466 Y150.255
G01 X197.732 Y149.594
G01 X197.952 Y148.931
G01 X198.126 Y148.271
G01 X198.208 Y147.879
G01 X198.466 Y147.363
G01 X198.693 Y146.841
G01 X198.889 Y146.315
G01 X199.055 Y145.786
G01 X199.152 Y145.422
G01 X199.626 Y145.082
G01 X200.089 Y144.709
G01 X200.538 Y144.302
G01 X200.970 Y143.862
G01 X201.384 Y143.390
G01 X201.778 Y142.886
G01 X202.003 Y142.571
G01 X202.604 Y142.059
G01 X203.182 Y141.493
G01 X203.734 Y140.876
G01 X203.903 Y140.670
G01 X203.537 Y139.987
G01 X203.138 Y139.342
G01 X202.709 Y138.736
G01 X202.253 Y138.171
G01 X201.773 Y137.647
G01 X201.533 Y137.408
G01 X201.228 Y136.891
G01 X200.899 Y136.397
G01 X200.550 Y135.928
G01 X200.181 Y135.485
G01 X199.953 Y135.233
G01 X199.924 Y134.633
G01 X199.860 Y134.025
G01 X199.759 Y133.411
G01 X199.622 Y132.792
G01 X199.446 Y132.171
G01 X199.233 Y131.550
G01 X199.098 Y131.207
G01 X198.993 Y130.411
G01 X198.832 Y129.605
G01 X198.612 Y128.792
G01 X198.527 Y128.523
G01 X197.727 Y128.457
G01 X196.942 Y128.441
G01 X196.174 Y128.474
G01 X195.426 Y128.553
G01 X194.702 Y128.677
G01 X194.417 Y128.739
G01 X193.799 Y128.713
G01 X193.190 Y128.720
G01 X192.591 Y128.759
G01 X192.003 Y128.829
G01 X191.677 Y128.882
G01 X191.151 Y128.597
G01 X190.601 Y128.337
G01 X190.029 Y128.104
G01 X189.435 Y127.899
G01 X188.821 Y127.725
G01 X188.409 Y127.628
G01 X187.724 Y127.272
G01 X187.000 Y126.955
G01 X186.239 Y126.679
G01 X185.445 Y126.448
G01 X185.141 Y126.374
G01 X184.651 Y127.046
G01 X184.214 Y127.732
G01 X183.832 Y128.429
G01 X183.503 Y129.134
G01 X183.391 Y129.405
G01 X183.002 Y129.918
G01 X182.647 Y130.444
G01 X182.326 Y130.980
G01 X182.039 Y131.524
G01 X181.788 Y132.074
G01 X181.641 Y132.436
G01 X181.115 Y132.720
G01 X180.597 Y133.038
G01 X180.089 Y133.389
G01 X179.594 Y133.774
G01 X179.112 Y134.191
G01 X178.753 Y134.534
G01 X178.080 Y134.914
G01 X177.418 Y135.347
G01 X176.771 Y135.834
G01 X176.142 Y136.372
G01 X175.865 Y136.633
G01 X176.161 Y137.413
G01 X176.498 Y138.157
G01 X176.874 Y138.860
G01 X177.285 Y139.523
G01 X177.486 Y139.814
G01 X177.703 Y140.421
G01 X177.949 Y141.006
G01 X178.222 Y141.568
G01 X178.521 Y142.106
G01 X178.843 Y142.619
G01 X179.107 Y142.994
G01 X179.056 Y143.595
G01 X179.039 Y144.207
G01 X179.056 Y144.829
G01 X179.108 Y145.459
G01 X179.196 Y146.096
G01 X179.297 Y146.630
G01 X179.247 Y147.414
G01 X179.249 Y148.219
G01 X179.305 Y149.042
G01 X179.417 Y149.877
G01 X179.488 Y150.265
G01 X180.305 Y150.443
G01 X181.115 Y150.567
G01 X181.912 Y150.637
G01 X182.695 Y150.656
G01 X183.108 Y150.645
G01 X183.740 Y150.795
G01 X184.370 Y150.909
G01 X184.996 Y150.988
G01 X185.616 Y151.032
G01 X186.228 Y151.042
G01 X186.728 Y151.025
G01 X187.216 Y151.405
G01 X187.734 Y151.762
G01 X188.280 Y152.095
G01 X188.854 Y152.402
G01 X189.453 Y152.682
G01 X189.941 Y152.880
G01 X190.595 Y153.366
G01 X191.297 Y153.817
G01 X192.044 Y154.231
G01 X192.835 Y154.603
G01 X193.154 Y154.735
G01 X193.759 Y154.136
G01 X194.314 Y153.513
G01 X194.817 Y152.871
G01 X195.267 Y152.213
G01 X195.488 Y151.852
G01 X195.970 Y151.391
G01 X196.420 Y150.911
G01 X196.838 Y150.415
G01 X197.222 Y149.905
G01 X197.573 Y149.382
G01 X197.823 Y148.969
G01 X198.429 Y148.757
G01 X199.033 Y148.506
G01 X199.632 Y148.216
G01 X200.223 Y147.888
G01 X200.806 Y147.522
G01 X201.191 Y147.253
G01 X201.983 Y146.956
G01 X202.772 Y146.598
G01 X203.553 Y146.179
G01 X204.323 Y145.699
G01 X204.559 Y145.537
G01 X204.378 Y144.674
G01 X204.149 Y143.843
G01 X203.873 Y143.046
G01 X203.555 Y142.286
G01 X203.391 Y141.942
G01 X203.260 Y141.262
G01 X203.095 Y140.601
G01 X202.898 Y139.958
G01 X202.670 Y139.336
G01 X202.412 Y138.737
G01 X202.223 Y138.347
G01 X202.378 Y137.703
G01 X202.498 Y137.039
G01 X202.583 Y136.359
G01 X202.631 Y135.663
G01 X202.639 Y134.954
G01 X202.625 Y134.518
G01 X202.811 Y133.673
G01 X202.942 Y132.798
G01 X203.018 Y131.895
G01 X203.034 Y130.968
G01 X203.028 Y130.689
G01 X202.176 Y130.361
G01 X201.325 Y130.093
G01 X200.477 Y129.885
G01 X199.638 Y129.736
G01 X199.309 Y129.693
G01 X198.648 Y129.425
G01 X197.983 Y129.196
G01 X197.317 Y129.008
G01 X196.652 Y128.857
G01 X195.990 Y128.746
G01 X195.590 Y128.696
G01 X195.127 Y128.209
G01 X194.630 Y127.740
G01 X194.099 Y127.292
G01 X193.535 Y126.868
G01 X192.938 Y126.469
G01 X192.544 Y126.229
G01 X191.934 Y125.610
G01 X191.269 Y125.020
G01 X190.550 Y124.461
G01 X189.780 Y123.937
G01 X189.497 Y123.762
G01 X188.742 Y124.310
G01 X188.038 Y124.891
G01 X187.389 Y125.502
G01 X186.794 Y126.139
G01 X186.584 Y126.385
G01 X185.990 Y126.799
G01 X185.428 Y127.238
G01 X184.899 Y127.699
G01 X184.405 Y128.181
G01 X183.945 Y128.682
G01 X183.671 Y129.008
G01 X183.009 Y129.130
G01 X182.345 Y129.290
G01 X181.679 Y129.490
G01 X181.015 Y129.730
G01 X180.355 Y130.011
G01 X179.876 Y130.241
G01 X179.025 Y130.414
G01 X178.168 Y130.648
G01 X177.308 Y130.943
G01 X176.449 Y131.301
G01 X176.082 Y131.474
G01 X176.128 Y132.412
G01 X176.231 Y133.324
G01 X176.389 Y134.208
G01 X176.600 Y135.059
G01 X176.706 Y135.415
G01 X176.728 Y136.140
G01 X176.788 Y136.852
G01 X176.885 Y137.548
G01 X177.019 Y138.227
G01 X177.186 Y138.887
G01 X177.330 Y139.356
G01 X177.069 Y139.978
G01 X176.840 Y140.624
G01 X176.643 Y141.293
G01 X176.481 Y141.982
G01 X176.354 Y142.690
G01 X176.279 Y143.278
G01 X175.956 Y144.093
G01 X175.681 Y144.947
G01 X175.457 Y145.838
G01 X175.288 Y146.762
G01 X175.228 Y147.199
G01 X176.040 Y147.673
G01 X176.861 Y148.086
G01 X177.688 Y148.437
G01 X178.517 Y148.727
G01 X178.937 Y148.851
G01 X179.559 Y149.229
G01 X180.190 Y149.569
G01 X180.829 Y149.869
G01 X181.474 Y150.129
G01 X182.122 Y150.351
G01 X182.646 Y150.502
G01 X183.032 Y151.070
G01 X183.457 Y151.625
G01 X183.919 Y152.164
G01 X184.418 Y152.685
G01 X184.955 Y153.186
G01 X185.410 Y153.571
G01 X185.932 Y154.306
G01 X186.515 Y155.021
G01 X187.159 Y155.711
G01 X187.863 Y156.374
G01 X188.173 Y156.640
G01 X189.022 Y156.213
G01 X189.824 Y155.744
G01 X190.578 Y155.237
G01 X191.282 Y154.694
G01 X191.637 Y154.391
G01 X192.305 Y154.070
G01 X192.945 Y153.718
G01 X193.556 Y153.338
G01 X194.137 Y152.931
G01 X194.687 Y152.500
G01 X195.101 Y152.142
G01 X195.802 Y152.110
G01 X196.513 Y152.038
G01 X197.230 Y151.925
G01 X197.951 Y151.771
G01 X198.657 Y151.579
G01 X199.534 Y151.526
G01 X200.426 Y151.414
G01 X201.329 Y151.242
G01 X202.212 Y151.015
G01 X203.285 Y150.849
G01 X203.397 Y150.828
G01 X203.483 Y149.844
G01 X203.506 Y148.878
G01 X203.467 Y147.935
G01 X203.397 Y147.228
G01 X203.478 Y146.438
G01 X203.513 Y145.659
G01 X203.506 Y144.891
G01 X203.456 Y144.138
G01 X203.397 Y143.628
G01 X203.411 Y142.933
G01 X203.397 Y142.428
G01 X203.763 Y141.802
G01 X204.099 Y141.146
G01 X204.403 Y140.461
G01 X204.673 Y139.749
G01 X204.886 Y139.084
G01 X205.330 Y138.298
G01 X205.732 Y137.467
G01 X206.087 Y136.593
G01 X206.375 Y135.740
G01 X206.830 Y134.728
G01 X206.871 Y134.626
G01 X206.066 Y133.999
G01 X205.241 Y133.438
G01 X204.402 Y132.943
G01 X203.801 Y132.633
G01 X203.163 Y132.120
G01 X202.508 Y131.652
G01 X201.839 Y131.230
G01 X201.159 Y130.852
G01 X200.732 Y130.639
G01 X200.140 Y130.239
G01 X199.709 Y129.975
G01 X199.376 Y129.316
G01 X199.002 Y128.665
G01 X198.586 Y128.027
G01 X198.129 Y127.402
G01 X197.683 Y126.855
G01 X197.261 Y126.046
G01 X196.778 Y125.249
G01 X196.234 Y124.466
G01 X195.657 Y123.735
G01 X195.052 Y122.796
G01 X194.981 Y122.695
G01 X193.993 Y123.037
G01 X193.051 Y123.434
G01 X192.157 Y123.880
G01 X191.583 Y124.208
G01 X190.790 Y124.469
G01 X190.026 Y124.770
G01 X189.294 Y125.107
G01 X188.595 Y125.478
G01 X188.185 Y125.721
G01 X187.517 Y126.003
G01 X187.052 Y126.226
G01 X186.315 Y126.145
G01 X185.563 Y126.103
G01 X184.799 Y126.103
G01 X184.024 Y126.145
G01 X183.272 Y126.226
G01 X182.364 Y126.138
G01 X181.433 Y126.106
G01 X180.481 Y126.134
G01 X179.511 Y126.223
G01 X179.492 Y126.226
G01 X178.375 Y126.221
G01 X178.232 Y126.226
G01 X177.977 Y127.251
G01 X177.793 Y128.267
G01 X177.679 Y129.270
G01 X177.640 Y129.959
G01 X177.425 Y130.770
G01 X177.259 Y131.578
G01 X177.141 Y132.379
G01 X177.070 Y133.171
G01 X177.049 Y133.692
G01 X176.922 Y134.407
G01 X176.852 Y134.937
G01 X176.382 Y135.510
G01 X175.936 Y136.117
G01 X175.518 Y136.757
G01 X175.130 Y137.429
G01 X174.773 Y138.131
G01 X174.761 Y138.157
G01 X174.189 Y138.872
G01 X173.653 Y139.638
G01 X173.155 Y140.454
G01 X172.698 Y141.318
G01 X172.669 Y141.378
G01 X172.052 Y142.318
G01 X171.972 Y142.451
G01 X172.693 Y143.225
G01 X173.444 Y143.935
G01 X174.222 Y144.578
G01 X174.826 Y145.021
G01 X175.388 Y145.644
G01 X175.974 Y146.225
G01 X176.582 Y146.762
G01 X177.207 Y147.255
G01 X177.679 Y147.590
G01 X178.210 Y148.088
G01 X178.631 Y148.447
G01 X178.856 Y149.161
G01 X179.125 Y149.873
G01 X179.437 Y150.580
G01 X179.793 Y151.280
G01 X180.193 Y151.971
G01 X180.217 Y152.010
G01 X180.510 Y152.894
G01 X180.867 Y153.777
G01 X181.288 Y154.656
G01 X181.774 Y155.525
G01 X181.803 Y155.573
G01 X182.266 Y156.625
G01 X182.332 Y156.760
G01 X183.379 Y156.577
G01 X184.389 Y156.332
G01 X185.359 Y156.030
G01 X186.099 Y155.751
G01 X186.937 Y155.617
G01 X187.752 Y155.440
G01 X188.542 Y155.221
G01 X189.305 Y154.963
G01 X189.866 Y154.741
G01 X190.583 Y154.564
G01 X191.122 Y154.405
G01 X191.863 Y154.609
G01 X192.626 Y154.775
G01 X193.410 Y154.901
G01 X194.213 Y154.984
G01 X195.032 Y155.024
G01 X195.033 Y155.024
G01 X195.962 Y155.266
G01 X196.927 Y155.452
G01 X197.924 Y155.579
G01 X198.944 Y155.644
G01 X200.115 Y155.834
G01 X200.248 Y155.850
G01 X200.672 Y154.853
G01 X201.023 Y153.853
G01 X201.303 Y152.856
G01 X201.472 Y152.084
G01 X201.823 Y151.289
G01 X202.125 Y150.489
G01 X202.377 Y149.688
G01 X202.580 Y148.887
G01 X202.695 Y148.318
G01 X202.944 Y147.600
G01 X203.103 Y147.063
G01 X203.695 Y146.536
G01 X204.266 Y145.967
G01 X204.814 Y145.359
G01 X205.335 Y144.710
G01 X205.793 Y144.075
G01 X206.521 Y143.408
G01 X207.221 Y142.679
G01 X207.887 Y141.890
G01 X208.483 Y141.088
G01 X209.300 Y140.187
G01 X209.380 Y140.092
G01 X208.755 Y139.168
G01 X208.087 Y138.305
G01 X207.382 Y137.506
G01 X206.850 Y136.968
G01 X206.359 Y136.219
G01 X205.836 Y135.511
G01 X205.284 Y134.845
G01 X204.706 Y134.222
G01 X204.320 Y133.844
G01 X203.840 Y133.227
G01 X203.477 Y132.802
G01 X203.353 Y132.002
G01 X203.183 Y131.197
G01 X202.966 Y130.390
G01 X202.701 Y129.584
G01 X202.421 Y128.861
G01 X202.255 Y127.874
G01 X202.021 Y126.877
G01 X201.718 Y125.874
G01 X201.365 Y124.920
G01 X201.051 Y123.733
G01 X201.013 Y123.607
G01 X199.868 Y123.629
G01 X198.753 Y123.722
G01 X197.671 Y123.885
G01 X196.955 Y124.033
G01 X196.040 Y124.037
G01 X195.142 Y124.091
G01 X194.265 Y124.195
G01 X193.410 Y124.345
G01 X192.898 Y124.460
G01 X192.105 Y124.528
G01 X191.545 Y124.602
G01 X190.802 Y124.267
G01 X190.029 Y123.969
G01 X189.229 Y123.709
G01 X188.404 Y123.490
G01 X187.608 Y123.322
G01 X186.688 Y122.922
G01 X185.723 Y122.573
G01 X184.717 Y122.279
G01 X183.672 Y122.043
G01 X183.670 Y122.043
G01 X182.504 Y121.659
G01 X182.358 Y121.617
G01 X181.744 Y122.602
G01 X181.208 Y123.601
G01 X180.749 Y124.610
G01 X180.478 Y125.305
G01 X179.978 Y126.081
G01 X179.530 Y126.869
G01 X179.135 Y127.667
G01 X178.792 Y128.472
G01 X178.599 Y128.994
G01 X178.223 Y129.698
G01 X177.972 Y130.224
G01 X177.298 Y130.672
G01 X176.639 Y131.164
G01 X175.999 Y131.697
G01 X175.379 Y132.273
G01 X175.116 Y132.537
G01 X174.319 Y133.078
G01 X173.540 Y133.679
G01 X172.783 Y134.341
G01 X172.260 Y134.849
G01 X171.319 Y135.557
G01 X170.406 Y136.345
G01 X170.356 Y136.391
G01 X170.869 Y137.448
G01 X171.437 Y138.446
G01 X172.055 Y139.382
G01 X172.194 Y139.574
G01 X172.599 Y140.438
G01 X173.045 Y141.261
G01 X173.529 Y142.042
G01 X174.031 Y142.756
G01 X174.403 Y143.488
G01 X174.808 Y144.190
G01 X175.244 Y144.860
G01 X175.256 Y144.878
G01 X175.264 Y145.692
G01 X175.316 Y146.517
G01 X175.415 Y147.350
G01 X175.561 Y148.188
G01 X175.646 Y148.585
G01 X175.665 Y149.559
G01 X175.746 Y150.551
G01 X175.890 Y151.557
G01 X176.035 Y152.292
G01 X176.117 Y153.485
G01 X176.284 Y154.699
G01 X176.295 Y154.764
G01 X177.463 Y154.910
G01 X178.612 Y154.979
G01 X179.736 Y154.972
G01 X180.018 Y154.959
G01 X180.967 Y155.091
G01 X181.905 Y155.166
G01 X182.828 Y155.187
G01 X183.733 Y155.154
G01 X183.740 Y155.154
G01 X184.563 Y155.241
G01 X185.379 Y155.284
G01 X186.187 Y155.285
G01 X186.222 Y155.284
G01 X186.922 Y155.729
G01 X187.656 Y156.142
G01 X188.424 Y156.520
G01 X189.224 Y156.861
G01 X189.590 Y157.000
G01 X190.437 Y157.527
G01 X191.336 Y158.010
G01 X192.283 Y158.447
G01 X192.958 Y158.716
G01 X194.032 Y159.312
G01 X195.171 Y159.847
G01 X195.203 Y159.860
G01 X195.972 Y158.948
G01 X196.664 Y158.010
G01 X197.279 Y157.051
G01 X197.425 Y156.802
G01 X198.063 Y156.064
G01 X198.647 Y155.305
G01 X199.176 Y154.528
G01 X199.647 Y153.744
G01 X200.179 Y153.086
G01 X200.670 Y152.410
G01 X201.120 Y151.718
G01 X201.128 Y151.705
G01 X201.903 Y151.350
G01 X202.671 Y150.946
G01 X203.426 Y150.494
G01 X204.167 Y149.993
G01 X204.447 Y149.789
G01 X205.376 Y149.352
G01 X206.295 Y148.846
G01 X207.201 Y148.272
G01 X207.766 Y147.873
G01 X208.880 Y147.280
G01 X209.976 Y146.597
G01 X209.979 Y146.595
G01 X209.622 Y145.426
G01 X209.201 Y144.307
G01 X208.719 Y143.244
G01 X208.605 Y143.017
G01 X208.325 Y142.055
G01 X207.997 Y141.128
G01 X207.622 Y140.238
G01 X207.232 Y139.439
G01 X206.962 Y138.613
G01 X206.653 Y137.811
G01 X206.316 Y137.054
G01 X206.442 Y136.190
G01 X206.522 Y135.306
G01 X206.554 Y134.406
G01 X206.537 Y133.491
G01 X206.519 Y133.174
G01 X206.660 Y132.138
G01 X206.737 Y131.072
G01 X206.749 Y129.981
G01 X206.723 Y129.295
G01 X206.834 Y128.020
G01 X206.858 Y126.710
G01 X206.858 Y126.708
G01 X205.652 Y126.362
G01 X204.454 Y126.101
G01 X203.269 Y125.924
G01 X203.058 Y125.901
G01 X202.075 Y125.605
G01 X201.096 Y125.371
G01 X200.123 Y125.198
G01 X199.258 Y125.093
G01 X198.400 Y124.864
G01 X197.543 Y124.683
G01 X196.725 Y124.554
G01 X196.061 Y123.972
G01 X195.357 Y123.418
G01 X194.612 Y122.895
G01 X193.829 Y122.406
G01 X193.539 Y122.240
G01 X192.743 Y121.554
G01 X191.887 Y120.905
G01 X190.975 Y120.296
G01 X190.354 Y119.925
G01 X189.343 Y119.136
G01 X188.256 Y118.399
G01 X188.230 Y118.383
G01 X187.267 Y119.219
G01 X186.381 Y120.097
G01 X185.574 Y121.009
G01 X185.446 Y121.167
G01 X184.652 Y121.838
G01 X183.913 Y122.540
G01 X183.230 Y123.271
G01 X182.662 Y123.951
G01 X181.997 Y124.550
G01 X181.373 Y125.176
G01 X180.805 Y125.807
G01 X179.955 Y126.046
G01 X179.105 Y126.334
G01 X178.261 Y126.672
G01 X177.424 Y127.061
G01 X177.080 Y127.237
G01 X176.072 Y127.530
G01 X175.061 Y127.892
G01 X174.054 Y128.324
G01 X173.355 Y128.667
G01 X172.142 Y129.083
G01 X170.932 Y129.593
G01 X170.872 Y129.620
G01 X171.049 Y130.890
G01 X171.302 Y132.116
G01 X171.629 Y133.296
G01 X171.702 Y133.523
G01 X171.831 Y134.556
G01 X172.017 Y135.561
G01 X172.256 Y136.533
G01 X172.531 Y137.426
G01 X172.671 Y138.310
G01 X172.855 Y139.174
G01 X173.081 Y140.016
G01 X173.084 Y140.028
G01 X172.819 Y140.872
G01 X172.597 Y141.743
G01 X172.419 Y142.637
G01 X172.288 Y143.553
G01 X172.244 Y143.982
G01 X171.937 Y144.993
G01 X171.688 Y146.044
G01 X171.500 Y147.130
G01 X171.403 Y147.936
G01 X171.088 Y149.192
G01 X170.854 Y150.498
G01 X170.843 Y150.572
G01 X172.004 Y151.117
G01 X173.171 Y151.574
G01 X174.338 Y151.945
G01 X174.617 Y152.021
G01 X175.555 Y152.476
G01 X176.500 Y152.869
G01 X177.448 Y153.201
G01 X178.391 Y153.470
G01 X179.212 Y153.836
G01 X180.040 Y154.154
G01 X180.874 Y154.425
G01 X180.907 Y154.435
G01 X181.478 Y155.127
G01 X182.095 Y155.797
G01 X182.758 Y156.442
G01 X183.466 Y157.060
G01 X183.803 Y157.331
G01 X184.497 Y158.154
G01 X185.257 Y158.950
G01 X186.083 Y159.714
G01 X186.698 Y160.227
G01 X187.600 Y161.196
G01 X188.590 Y162.123
G01 X188.629 Y162.157
G01 X189.727 Y161.474
G01 X190.754 Y160.739
G01 X191.709 Y159.957
G01 X191.941 Y159.750
G01 X192.845 Y159.204
G01 X193.700 Y158.619
G01 X194.504 Y157.996
G01 X195.254 Y157.343
G01 X196.021 Y156.845
G01 X196.751 Y156.315
G01 X197.445 Y155.754
G01 X197.463 Y155.738
G01 X198.376 Y155.633
G01 X199.296 Y155.475
G01 X200.221 Y155.264
G01 X201.147 Y154.998
G01 X201.520 Y154.876
G01 X202.617 Y154.738
G01 X203.727 Y154.526
G01 X204.845 Y154.241
G01 X205.577 Y154.014
G01 X206.915 Y153.778
G01 X208.266 Y153.443
G01 X208.281 Y153.439
G01 X208.306 Y152.120
G01 X208.247 Y150.832
G01 X208.108 Y149.580
G01 X208.064 Y149.297
G01 X208.098 Y148.218
G01 X208.071 Y147.158
G01 X207.984 Y146.121
G01 X207.847 Y145.155
G01 X207.847 Y144.218
G01 X207.798 Y143.294
G01 X207.703 Y142.394
G01 X208.142 Y141.552
G01 X208.541 Y140.672
G01 X208.896 Y139.757
G01 X209.206 Y138.809
G01 X209.467 Y137.830
G01 X209.486 Y137.747
G01 X210.022 Y136.682
G01 X210.498 Y135.560
G01 X210.911 Y134.384
G01 X211.256 Y133.157
G01 X211.270 Y133.100
G01 X211.716 Y131.938
G01 X210.625 Y131.169
G01 X209.512 Y130.486
G01 X208.384 Y129.891
G01 X207.405 Y129.449
G01 X206.547 Y128.824
G01 X205.670 Y128.257
G01 X204.778 Y127.748
G01 X203.874 Y127.298
G01 X203.094 Y126.960
G01 X202.296 Y126.490
G01 X202.017 Y126.338
G01 X201.521 Y125.527
G01 X200.974 Y124.733
G01 X200.376 Y123.959
G01 X199.795 Y123.280
G01 X199.231 Y122.305
G01 X198.595 Y121.346
G01 X197.886 Y120.408
G01 X197.105 Y119.496
G01 X196.832 Y119.202
G01 X196.037 Y118.044
G01 X195.351 Y117.164
G01 X194.089 Y117.669
G01 X192.889 Y118.242
G01 X191.755 Y118.877
G01 X190.861 Y119.452
G01 X189.854 Y119.836
G01 X188.888 Y120.269
G01 X187.963 Y120.746
G01 X187.083 Y121.267
G01 X186.370 Y121.740
G01 X185.533 Y122.157
G01 X185.247 Y122.312
G01 X184.295 Y122.286
G01 X183.328 Y122.311
G01 X182.351 Y122.390
G01 X181.426 Y122.512
G01 X180.301 Y122.453
G01 X179.150 Y122.462
G01 X177.978 Y122.544
G01 X176.788 Y122.700
G01 X176.331 Y122.779
G01 X174.926 Y122.814
G01 X173.783 Y122.913
G01 X173.516 Y124.256
G01 X173.341 Y125.584
G01 X173.255 Y126.889
G01 X173.250 Y127.987
G01 X173.056 Y129.066
G01 X172.926 Y130.134
G01 X172.860 Y131.187
G01 X172.850 Y131.793
G01 X172.707 Y132.745
G01 X172.616 Y133.690
G01 X172.583 Y134.330
G01 X172.041 Y135.114
G01 X171.535 Y135.938
G01 X171.067 Y136.799
G01 X170.646 Y137.684
G01 X169.981 Y138.596
G01 X169.360 Y139.568
G01 X168.787 Y140.598
G01 X168.267 Y141.682
G01 X168.064 Y142.157
G01 X167.324 Y143.360
G01 X166.773 Y144.393
G01 X167.754 Y145.350
G01 X168.771 Y146.222
G01 X169.818 Y147.007
G01 X170.787 Y147.643
G01 X171.585 Y148.394
G01 X172.410 Y149.086
G01 X173.257 Y149.717
G01 X173.797 Y150.081
G01 X174.518 Y150.720
G01 X175.263 Y151.313
G01 X175.803 Y151.706
G01 X176.168 Y152.595
G01 X176.587 Y153.475
G01 X177.059 Y154.345
G01 X177.583 Y155.198
G01 X178.017 Y156.232
G01 X178.523 Y157.259
G01 X179.101 Y158.275
G01 X179.363 Y158.691
G01 X179.909 Y159.949
G01 X180.554 Y161.196
G01 X181.142 Y162.184
G01 X182.485 Y161.882
G01 X183.777 Y161.503
G01 X185.013 Y161.052
G01 X186.113 Y160.569
G01 X187.187 Y160.306
G01 X188.225 Y159.988
G01 X189.225 Y159.619
G01 X189.841 Y159.357
G01 X190.781 Y159.097
G01 X191.696 Y158.792
G01 X192.327 Y158.550
G01 X193.290 Y158.731
G01 X194.276 Y158.862
G01 X195.284 Y158.940
G01 X196.272 Y158.965
G01 X197.401 Y159.168
G01 X198.564 Y159.305
G01 X199.759 Y159.372
G01 X200.217 Y159.379
G01 X201.602 Y159.610
G01 X203.035 Y159.751
G01 X204.162 Y159.794
G01 X204.646 Y158.482
G01 X205.037 Y157.172
G01 X205.336 Y155.870
G01 X205.530 Y154.685
G01 X205.901 Y153.621
G01 X206.205 Y152.557
G01 X206.443 Y151.497
G01 X206.557 Y150.854
G01 X206.857 Y149.903
G01 X207.103 Y148.949
G01 X207.242 Y148.299
G01 X207.934 Y147.572
G01 X208.595 Y146.797
G01 X209.223 Y145.975
G01 X209.767 Y145.180
G01 X210.569 Y144.324
G01 X211.334 Y143.402
G01 X212.056 Y142.415
G01 X212.293 Y142.061
G01 X213.260 Y141.004
G01 X214.174 Y139.856
G01 X214.819 Y138.942
G01 X213.962 Y137.797
G01 X213.054 Y136.733
G01 X212.102 Y135.753
G01 X211.238 Y134.966
G01 X210.530 Y134.056
G01 X209.786 Y133.203
G01 X209.008 Y132.408
G01 X208.553 Y131.983
G01 X207.904 Y131.197
G01 X207.223 Y130.455
G01 X206.762 Y129.995
G01 X206.525 Y129.002
G01 X206.229 Y128.010
G01 X205.876 Y127.020
G01 X205.508 Y126.134
G01 X205.223 Y124.981
G01 X204.861 Y123.824
G01 X204.421 Y122.667
G01 X204.253 Y122.272
G01 X203.889 Y120.874
G01 X203.421 Y119.470
G01 X202.998 Y118.411
G01 X201.543 Y118.508
G01 X200.129 Y118.695
G01 X198.761 Y118.967
G01 X197.652 Y119.258
G01 X196.483 Y119.358
G01 X195.344 Y119.521
G01 X194.236 Y119.745
G01 X193.642 Y119.893
G01 X192.615 Y120.011
G01 X191.609 Y120.180
G01 X190.968 Y120.316
G01 X190.001 Y119.973
G01 X189.003 Y119.678
G01 X187.976 Y119.433
G01 X187.002 Y119.254
G01 X185.878 Y118.863
G01 X184.708 Y118.535
G01 X183.497 Y118.272
G01 X183.035 Y118.191
G01 X181.664 Y117.733
G01 X180.232 Y117.359
G01 X179.068 Y117.128
G01 X178.349 Y118.414
G01 X177.729 Y119.714
G01 X177.207 Y121.021
G01 X176.841 Y122.130
G01 X176.284 Y123.170
G01 X175.796 Y124.221
G01 X175.378 Y125.278
G01 X175.171 Y125.882
G01 X174.708 Y126.809
G01 X174.300 Y127.748
G01 X174.057 Y128.383
G01 X173.242 Y129.006
G01 X172.450 Y129.681
G01 X171.685 Y130.408
G01 X170.971 Y131.162
G01 X170.030 Y131.891
G01 X169.117 Y132.692
G01 X168.235 Y133.563
G01 X167.884 Y133.941
G01 X166.751 Y134.842
G01 X165.655 Y135.840
G01 X164.798 Y136.720
G01 X165.542 Y138.031
G01 X166.353 Y139.261
G01 X167.060 Y140.203
G01 X167.664 Y141.296
G01 X168.318 Y142.330
G01 X169.019 Y143.303
G01 X169.322 Y143.687
G01 X169.832 Y144.627
G01 X170.385 Y145.526
G01 X170.976 Y146.382
G01 X171.584 Y147.170
G01 X171.640 Y148.207
G01 X171.755 Y149.255
G01 X171.928 Y150.312
G01 X172.163 Y151.373
G01 X172.372 Y152.148
G01 X172.455 Y153.407
G01 X172.620 Y154.686
G01 X172.870 Y155.979
G01 X173.161 Y157.126
G01 X173.371 Y158.662
G01 X173.555 Y159.615
G01 X175.041 Y159.733
G01 X176.498 Y159.755
G01 X177.920 Y159.683
G01 X178.595 Y159.615
G01 X179.790 Y159.727
G01 X180.969 Y159.771
G01 X182.126 Y159.747
G01 X183.259 Y159.659
G01 X183.635 Y159.615
G01 X184.673 Y159.654
G01 X185.699 Y159.639
G01 X186.155 Y159.615
G01 X187.069 Y160.140
G01 X188.027 Y160.623
G01 X189.024 Y161.059
G01 X190.059 Y161.446
G01 X190.810 Y161.688
G01 X191.934 Y162.315
G01 X193.120 Y162.884
G01 X194.367 Y163.388
G01 X195.466 Y163.760
G01 X196.899 Y164.434
G01 X197.793 Y164.797
G01 X198.712 Y163.601
G01 X199.532 Y162.378
G01 X200.254 Y161.132
G01 X200.569 Y160.523
G01 X201.324 Y159.567
G01 X202.012 Y158.587
G01 X202.632 Y157.589
G01 X203.183 Y156.575
G01 X203.344 Y156.249
G01 X203.953 Y155.384
G01 X204.509 Y154.499
G01 X204.732 Y154.112
G01 X205.692 Y153.619
G01 X206.638 Y153.066
G01 X207.566 Y152.452
G01 X208.474 Y151.778
G01 X209.053 Y151.306
G01 X210.216 Y150.691
G01 X211.363 Y149.989
G01 X212.488 Y149.199
G01 X213.374 Y148.500
G01 X214.747 Y147.647
G01 X215.534 Y147.097
G01 X215.020 Y145.648
G01 X214.428 Y144.267
G01 X213.762 Y142.958
G01 X213.439 Y142.390
G01 X213.039 Y141.212
G01 X212.581 Y140.078
G01 X212.069 Y138.992
G01 X211.505 Y137.957
G01 X211.343 Y137.684
G01 X210.940 Y136.681
G01 X210.490 Y135.712
G01 X210.295 Y135.331
G01 X210.405 Y134.238
G01 X210.456 Y133.123
G01 X210.446 Y131.990
G01 X210.373 Y130.841
G01 X210.295 Y130.123
G01 X210.414 Y128.794
G01 X210.449 Y127.431
G01 X210.399 Y126.038
G01 X210.295 Y124.915
G01 X210.328 Y123.281
G01 X210.295 Y122.311
G01 X208.769 Y121.946
G01 X207.257 Y121.687
G01 X205.767 Y121.531
G01 X205.152 Y121.496
G01 X203.923 Y121.184
G01 X202.700 Y120.947
G01 X201.489 Y120.784
G01 X200.292 Y120.693
G01 X200.008 Y120.681
G01 X198.930 Y120.470
G01 X197.856 Y120.318
G01 X197.436 Y120.274
G01 X196.572 Y119.581
G01 X195.658 Y118.926
G01 X194.695 Y118.313
G01 X193.686 Y117.744
G01 X193.021 Y117.407
G01 X191.968 Y116.581
G01 X190.841 Y115.805
G01 X189.643 Y115.086
G01 X188.606 Y114.540
G01 X187.253 Y113.621
G01 X186.399 Y113.106
G01 X185.247 Y114.201
G01 X184.193 Y115.343
G01 X183.240 Y116.523
G01 X182.877 Y117.018
G01 X181.936 Y117.886
G01 X181.064 Y118.790
G01 X180.260 Y119.725
G01 X179.526 Y120.687
G01 X179.354 Y120.930
G01 X178.586 Y121.723
G01 X177.869 Y122.545
G01 X177.593 Y122.886
G01 X176.541 Y123.232
G01 X175.493 Y123.641
G01 X174.454 Y124.113
G01 X173.427 Y124.648
G01 X172.733 Y125.050
G01 X171.467 Y125.482
G01 X170.203 Y126.003
G01 X168.946 Y126.614
G01 X167.873 Y127.214
G01 X166.364 Y127.848
G01 X165.443 Y128.296
G01 X165.733 Y129.864
G01 X166.117 Y131.374
G01 X166.587 Y132.822
G01 X166.820 Y133.434
G01 X167.035 Y134.697
G01 X167.316 Y135.923
G01 X167.662 Y137.108
G01 X168.068 Y138.249
G01 X168.197 Y138.573
G01 X168.442 Y139.649
G01 X168.741 Y140.698
G01 X168.885 Y141.143
G01 X168.600 Y142.215
G01 X168.371 Y143.318
G01 X168.199 Y144.449
G01 X168.087 Y145.605
G01 X168.044 Y146.452
G01 X167.714 Y147.756
G01 X167.460 Y149.108
G01 X167.286 Y150.502
G01 X167.203 Y151.762
G01 X166.910 Y153.387
G01 X166.783 Y154.417
G01 X168.256 Y155.029
G01 X169.732 Y155.532
G01 X171.203 Y155.928
G01 X171.896 Y156.078
G01 X173.073 Y156.587
G01 X174.257 Y157.021
G01 X175.441 Y157.379
G01 X176.622 Y157.662
G01 X177.008 Y157.740
G01 X178.049 Y158.121
G01 X179.095 Y158.445
G01 X179.565 Y158.570
G01 X180.318 Y159.403
G01 X181.127 Y160.206
G01 X181.993 Y160.975
G01 X182.912 Y161.707
G01 X183.602 Y162.205
G01 X184.530 Y163.208
G01 X185.542 Y164.172
G01 X186.636 Y165.091
G01 X187.638 Y165.840
G01 X188.864 Y166.991
G01 X189.657 Y167.657
G01 X190.982 Y166.748
G01 X192.216 Y165.778
G01 X193.358 Y164.753
G01 X193.878 Y164.239
G01 X194.958 Y163.520
G01 X195.976 Y162.755
G01 X196.932 Y161.948
G01 X197.823 Y161.103
G01 X198.100 Y160.820
G01 X198.999 Y160.146
G01 X199.852 Y159.434
G01 X200.210 Y159.111
G01 X201.321 Y158.895
G01 X202.434 Y158.616
G01 X203.547 Y158.273
G01 X204.186 Y158.046
G01 X205.487 Y157.825
G01 X206.799 Y157.519
G01 X208.117 Y157.127
G01 X209.436 Y156.646
G01 X209.487 Y156.625
G01 X211.096 Y156.279
G01 X212.717 Y155.814
G01 X213.463 Y155.560
G01 X213.420 Y153.927
G01 X213.275 Y152.337
G01 X213.033 Y150.796
G01 X212.889 Y150.102
G01 X212.873 Y148.781
G01 X212.783 Y147.486
G01 X212.622 Y146.221
G01 X212.394 Y144.991
G01 X212.316 Y144.644
G01 X212.238 Y143.499
G01 X212.102 Y142.374
G01 X212.029 Y141.915
G01 X212.460 Y140.845
G01 X212.839 Y139.738
G01 X213.162 Y138.596
G01 X213.314 Y137.961
G01 X213.845 Y136.729
G01 X214.310 Y135.440
G01 X214.704 Y134.098
G01 X215.023 Y132.707
G01 X215.027 Y132.688
G01 X215.621 Y131.128
G01 X216.120 Y129.494
G01 X216.312 Y128.733
G01 X214.890 Y127.864
G01 X213.449 Y127.106
G01 X211.995 Y126.459
G01 X211.372 Y126.216
G01 X210.233 Y125.498
G01 X209.076 Y124.857
G01 X207.905 Y124.294
G01 X206.726 Y123.808
G01 X206.432 Y123.700
G01 X205.412 Y123.132
G01 X204.377 Y122.625
G01 X203.962 Y122.441
G01 X203.307 Y121.466
G01 X202.589 Y120.514
G01 X201.810 Y119.589
G01 X200.969 Y118.694
G01 X200.759 Y118.485
G01 X199.973 Y117.339
G01 X199.101 Y116.220
G01 X198.142 Y115.133
G01 X197.555 Y114.528
G01 X196.545 Y113.168
G01 X195.419 Y111.849
G01 X195.152 Y111.561
G01 X193.623 Y112.312
G01 X192.181 Y113.142
G01 X190.830 Y114.044
G01 X190.743 Y114.106
G01 X189.484 Y114.705
G01 X188.285 Y115.364
G01 X187.150 Y116.078
G01 X186.334 Y116.652
G01 X185.262 Y117.190
G01 X184.233 Y117.776
G01 X183.250 Y118.408
G01 X183.028 Y118.561
G01 X181.851 Y118.579
G01 X180.660 Y118.662
G01 X179.457 Y118.811
G01 X178.247 Y119.027
G01 X177.914 Y119.098
G01 X176.525 Y119.132
G01 X175.112 Y119.253
G01 X173.679 Y119.463
G01 X172.800 Y119.636
G01 X171.110 Y119.741
G01 X169.391 Y119.965
G01 X168.965 Y120.039
G01 X168.760 Y121.739
G01 X168.669 Y123.410
G01 X168.690 Y125.044
G01 X168.696 Y125.174
G01 X168.511 Y126.560
G01 X168.409 Y127.928
G01 X168.388 Y129.273
G01 X168.427 Y130.309
G01 X168.293 Y131.502
G01 X168.223 Y132.686
G01 X168.217 Y133.855
G01 X168.225 Y134.160
G01 X167.598 Y135.156
G01 X167.017 Y136.200
G01 X166.486 Y137.289
G01 X166.007 Y138.421
G01 X165.868 Y138.786
G01 X165.137 Y139.971
G01 X164.465 Y141.225
G01 X163.859 Y142.544
G01 X163.510 Y143.413
G01 X162.674 Y144.894
G01 X161.921 Y146.466
G01 X161.742 Y146.883
G01 X163.056 Y147.982
G01 X164.407 Y148.970
G01 X165.788 Y149.845
G01 X165.943 Y149.935
G01 X167.004 Y150.847
G01 X168.096 Y151.679
G01 X169.212 Y152.431
G01 X170.144 Y152.988
G01 X171.073 Y153.752
G01 X172.028 Y154.456
G01 X173.007 Y155.101
G01 X173.295 Y155.277
G01 X173.792 Y156.353
G01 X174.355 Y157.417
G01 X174.984 Y158.465
G01 X175.678 Y159.491
G01 X175.917 Y159.818
G01 X176.519 Y161.091
G01 X177.213 Y162.351
G01 X177.999 Y163.593
G01 X178.538 Y164.359
G01 X179.337 Y165.889
G01 X180.259 Y167.398
G01 X180.505 Y167.765
G01 X182.149 Y167.260
G01 X183.719 Y166.664
G01 X185.212 Y165.981
G01 X185.400 Y165.886
G01 X186.751 Y165.490
G01 X188.052 Y165.025
G01 X189.299 Y164.495
G01 X190.296 Y164.007
G01 X191.453 Y163.640
G01 X192.576 Y163.218
G01 X193.660 Y162.744
G01 X193.967 Y162.597
G01 X195.160 Y162.769
G01 X196.380 Y162.877
G01 X197.622 Y162.920
G01 X198.884 Y162.895
G01 X199.254 Y162.874
G01 X200.677 Y163.065
G01 X202.140 Y163.170
G01 X203.638 Y163.186
G01 X204.542 Y163.151
G01 X206.294 Y163.318
G01 X208.097 Y163.365
G01 X208.507 Y163.359
G01 X208.984 Y161.684
G01 X209.343 Y160.021
G01 X209.586 Y158.376
G01 X209.608 Y158.180
G01 X210.017 Y156.810
G01 X210.339 Y155.445
G01 X210.577 Y154.089
G01 X210.709 Y153.002
G01 X211.037 Y151.810
G01 X211.298 Y150.617
G01 X211.494 Y149.428
G01 X211.534 Y149.117
G01 X212.343 Y148.192
G01 X213.111 Y147.208
G01 X213.836 Y146.169
G01 X214.514 Y145.075
G01 X214.676 Y144.793
G01 X215.627 Y143.683
G01 X216.527 Y142.492
G01 X217.369 Y141.221
G01 X217.818 Y140.468
G01 X218.929 Y139.067
G01 X219.966 Y137.557
G01 X220.175 Y137.225
G01 X219.007 Y135.889
G01 X217.784 Y134.660
G01 X216.512 Y133.541
G01 X216.395 Y133.445
G01 X215.450 Y132.336
G01 X214.461 Y131.304
G01 X213.433 Y130.349
G01 X212.615 Y129.665
G01 X211.778 Y128.725
G01 X210.905 Y127.841
G01 X209.997 Y127.015
G01 X209.780 Y126.830
G01 X209.439 Y125.633
G01 X209.027 Y124.438
G01 X208.544 Y123.249
G01 X207.989 Y122.070
G01 X207.846 Y121.792
G01 X207.429 Y120.378
G01 X206.916 Y118.962
G01 X206.304 Y117.551
G01 X205.912 Y116.755
G01 X205.338 Y115.049
G01 X204.634 Y113.347
G01 X204.462 Y112.976
G01 X202.677 Y113.232
G01 X200.953 Y113.596
G01 X199.295 Y114.062
G01 X199.184 Y114.098
G01 X197.718 Y114.289
G01 X196.294 Y114.561
G01 X194.916 Y114.908
G01 X193.905 Y115.220
G01 X192.647 Y115.411
G01 X191.416 Y115.666
G01 X190.217 Y115.981
G01 X189.946 Y116.061
G01 X188.751 Y115.694
G01 X187.520 Y115.387
G01 X186.256 Y115.143
G01 X184.962 Y114.964
G01 X184.618 Y114.929
G01 X183.204 Y114.507
G01 X181.735 Y114.165
G01 X180.217 Y113.908
G01 X179.290 Y113.796
G01 X177.547 Y113.348
G01 X175.736 Y113.011
G01 X175.294 Y112.947
G01 X174.529 Y114.597
G01 X173.890 Y116.254
G01 X173.375 Y117.911
G01 X173.342 Y118.032
G01 X172.700 Y119.372
G01 X172.148 Y120.721
G01 X171.686 Y122.073
G01 X171.389 Y123.118
G01 X170.862 Y124.280
G01 X170.404 Y125.453
G01 X170.013 Y126.633
G01 X169.925 Y126.932
G01 X168.966 Y127.733
G01 X168.037 Y128.597
G01 X167.143 Y129.523
G01 X166.288 Y130.510
G01 X166.038 Y130.820
G01 X164.912 Y131.776
G01 X163.824 Y132.821
G01 X162.780 Y133.953
G01 X162.150 Y134.708
G01 X160.822 Y135.927
G01 X159.549 Y137.264
G01 X159.234 Y137.623
G01 X160.201 Y139.165
G01 X161.242 Y140.606
G01 X162.351 Y141.943
G01 X162.466 Y142.072
G01 X163.239 Y143.340
G01 X164.068 Y144.539
G01 X164.950 Y145.664
G01 X165.697 Y146.520
G01 X166.385 Y147.596
G01 X167.118 Y148.620
G01 X167.894 Y149.591
G01 X168.121 Y149.856
G01 X168.270 Y151.102
G01 X168.489 Y152.357
G01 X168.779 Y153.617
G01 X169.142 Y154.878
G01 X169.275 Y155.284
G01 X169.464 Y156.760
G01 X169.750 Y158.253
G01 X170.134 Y159.758
G01 X170.429 Y160.711
G01 X170.731 Y162.508
G01 X171.164 Y164.324
G01 X171.294 Y164.782
G01 X173.117 Y164.812
G01 X174.896 Y164.725
G01 X176.624 Y164.524
G01 X176.835 Y164.492
G01 X178.326 Y164.535
G01 X179.788 Y164.492
G01 X181.217 Y164.367
G01 X182.377 Y164.201
G01 X183.661 Y164.211
G01 X184.928 Y164.154
G01 X186.174 Y164.031
G01 X186.533 Y163.984
G01 X187.675 Y164.532
G01 X188.863 Y165.026
G01 X190.094 Y165.460
G01 X191.325 Y165.823
G01 X192.664 Y166.453
G01 X194.068 Y167.013
G01 X195.532 Y167.496
G01 X196.118 Y167.663
G01 X197.764 Y168.413
G01 X199.497 Y169.065
G01 X200.910 Y169.503
G01 X201.929 Y167.958
G01 X202.824 Y166.386
G01 X203.477 Y165.057
G01 X204.338 Y163.782
G01 X205.108 Y162.484
G01 X205.785 Y161.169
G01 X206.044 Y160.611
G01 X206.793 Y159.518
G01 X207.475 Y158.401
G01 X208.089 Y157.265
G01 X208.610 Y156.166
G01 X209.712 Y155.493
G01 X210.792 Y154.751
G01 X211.846 Y153.940
G01 X212.801 Y153.121
G01 X214.081 Y152.326
G01 X215.336 Y151.436
G01 X216.561 Y150.452
G01 X216.992 Y150.076
G01 X218.542 Y149.086
G01 X220.058 Y147.968
G01 X221.182 Y147.032
G01 X220.428 Y145.308
G01 X219.583 Y143.676
G01 X218.831 Y142.416
G01 X218.219 Y140.975
G01 X217.536 Y139.599
G01 X216.788 Y138.293
G01 X216.479 Y137.801
G01 X215.960 Y136.554
G01 X215.384 Y135.354
G01 X214.753 Y134.201
G01 X214.127 Y133.185
G01 X214.163 Y131.875
G01 X214.127 Y130.546
G01 X214.018 Y129.201
G01 X213.854 Y127.966
G01 X213.884 Y126.441
G01 X213.820 Y124.886
G01 X213.660 Y123.305
G01 X213.580 Y122.746
G01 X213.594 Y120.890
G01 X213.481 Y118.992
G01 X213.307 Y117.527
G01 X211.418 Y117.216
G01 X209.557 Y117.035
G01 X208.109 Y116.980
G01 X206.542 Y116.705
G01 X204.992 Y116.526
G01 X203.466 Y116.442
G01 X202.911 Y116.434
G01 X201.565 Y116.187
G01 X200.226 Y116.015
G01 X198.899 Y115.916
G01 X197.713 Y115.888
G01 X196.626 Y115.140
G01 X195.485 Y114.441
G01 X194.291 Y113.796
G01 X193.146 Y113.251
G01 X191.880 Y112.393
G01 X190.537 Y111.596
G01 X189.120 Y110.866
G01 X188.579 Y110.614
G01 X187.028 Y109.590
G01 X185.374 Y108.649
G01 X184.012 Y107.978
G01 X182.709 Y109.407
G01 X181.532 Y110.884
G01 X180.693 Y112.076
G01 X179.600 Y113.249
G01 X178.598 Y114.460
G01 X177.690 Y115.703
G01 X177.375 Y116.174
G01 X176.429 Y117.173
G01 X175.551 Y118.206
G01 X174.741 Y119.270
G01 X174.056 Y120.272
G01 X172.837 Y120.775
G01 X171.629 Y121.351
G01 X170.437 Y122.000
G01 X169.316 Y122.687
G01 X167.906 Y123.281
G01 X166.507 Y123.971
G01 X165.123 Y124.760
G01 X164.576 Y125.103
G01 X162.871 Y125.844
G01 X161.180 Y126.718
G01 X159.836 Y127.518
G01 X160.325 Y129.394
G01 X160.923 Y131.191
G01 X161.480 Y132.578
G01 X161.867 Y134.135
G01 X162.336 Y135.637
G01 X162.884 Y137.078
G01 X163.124 Y137.637
G01 X163.445 Y138.974
G01 X163.832 Y140.274
G01 X164.282 Y141.534
G01 X164.768 Y142.697
G01 X164.524 Y143.995
G01 X164.347 Y145.324
G01 X164.241 Y146.680
G01 X164.207 Y148.034
G01 X163.934 Y149.546
G01 X163.750 Y151.103
G01 X163.657 Y152.700
G01 X163.646 Y153.371
G01 X163.336 Y155.218
G01 X163.147 Y157.125
G01 X163.085 Y158.709
G01 X164.925 Y159.321
G01 X166.758 Y159.800
G01 X168.269 Y160.098
G01 X169.788 Y160.623
G01 X171.305 Y161.048
G01 X172.813 Y161.376
G01 X173.452 Y161.487
G01 X174.753 Y161.947
G01 X176.058 Y162.332
G01 X177.364 Y162.643
G01 X178.636 Y162.876
G01 X179.601 Y163.797
G01 X180.630 Y164.677
G01 X181.721 Y165.513
G01 X182.843 Y166.282
G01 X183.977 Y167.348
G01 X185.199 Y168.363
G01 X186.506 Y169.323
G01 X187.050 Y169.689
G01 X188.452 Y170.973
G01 X189.972 Y172.189
G01 X191.257 Y173.096
G01 X192.782 Y171.879
G01 X194.191 Y170.595
G01 X195.280 Y169.474
G01 X196.558 Y168.477
G01 X197.751 Y167.427
G01 X198.858 Y166.331
G01 X199.303 Y165.851
G01 X200.409 Y165.001
G01 X201.455 Y164.106
G01 X202.438 Y163.168
G01 X203.326 Y162.229
G01 X204.645 Y161.915
G01 X205.966 Y161.524
G01 X207.283 Y161.056
G01 X208.518 Y160.542
G01 X210.056 Y160.163
G01 X211.600 Y159.682
G01 X213.143 Y159.097
G01 X213.711 Y158.855
G01 X215.584 Y158.369
G01 X217.463 Y157.743
G01 X218.904 Y157.167
G01 X218.710 Y155.198
G01 X218.395 Y153.291
G01 X218.050 Y151.775
G01 X217.907 Y150.135
G01 X217.672 Y148.537
G01 X217.349 Y146.988
G01 X217.196 Y146.382
G01 X217.082 Y144.967
G01 X216.896 Y143.580
G01 X216.640 Y142.222
G01 X216.342 Y140.989
G01 X216.803 Y139.690
G01 X217.200 Y138.348
G01 X217.528 Y136.967
G01 X217.767 Y135.670
G01 X218.293 Y134.153
G01 X218.736 Y132.575
G01 X219.089 Y130.939
G01 X219.192 Y130.351
G01 X219.811 Y128.495
G01 X220.315 Y126.556
G01 X220.617 Y125.032
G01 X218.830 Y124.108
G01 X217.028 Y123.321
G01 X215.587 Y122.792
G01 X214.109 Y122.007
G01 X212.617 Y121.325
G01 X211.118 Y120.744
G01 X210.556 Y120.552
G01 X209.289 Y119.868
G01 X208.005 Y119.260
G01 X206.709 Y118.728
G01 X205.525 Y118.313
G01 X204.680 Y117.209
G01 X203.763 Y116.136
G01 X202.775 Y115.100
G01 X201.810 Y114.186
G01 X200.819 Y112.911
G01 X199.730 Y111.674
G01 X198.546 Y110.480
G01 X198.094 Y110.059
G01 X196.871 Y108.524
G01 X195.516 Y107.041
G01 X194.378 Y105.932
G01 X192.608 Y106.940
G01 X190.947 Y108.036
G01 X189.720 Y108.956
G01 X188.242 Y109.776
G01 X186.844 Y110.664
G01 X185.528 Y111.615
G01 X185.063 Y111.981
G01 X183.789 Y112.675
G01 X182.571 Y113.426
G01 X181.412 Y114.229
G01 X180.406 Y115.006
G01 X179.022 Y115.124
G01 X177.627 Y115.319
G01 X176.225 Y115.591
G01 X175.300 Y115.814
G01 X173.721 Y115.959
G01 X172.121 Y116.202
G01 X170.507 Y116.545
G01 X170.194 Y116.623
G01 X168.280 Y116.777
G01 X166.335 Y117.065
G01 X164.368 Y117.489
G01 X163.812 Y117.634
G01 X163.663 Y119.654
G01 X163.646 Y121.633
G01 X163.758 Y123.563
G01 X163.812 Y124.095
G01 X163.707 Y125.748
G01 X163.699 Y127.372
G01 X163.785 Y128.962
G01 X163.812 Y129.264
G01 X163.711 Y130.702
G01 X163.687 Y132.123
G01 X163.739 Y133.524
G01 X163.812 Y134.434
G01 X163.157 Y135.658
G01 X162.559 Y136.934
G01 X162.023 Y138.258
G01 X161.692 Y139.195
G01 X160.951 Y140.600
G01 X160.282 Y142.076
G01 X159.688 Y143.619
G01 X159.572 Y143.957
G01 X158.654 Y145.652
G01 X157.832 Y147.447
G01 X157.113 Y149.335
G01 X156.922 Y149.909
G01 X158.534 Y151.136
G01 X160.184 Y152.229
G01 X161.864 Y153.189
G01 X162.387 Y153.458
G01 X163.715 Y154.447
G01 X165.073 Y155.340
G01 X166.453 Y156.135
G01 X166.758 Y156.296
G01 X167.909 Y157.166
G01 X169.089 Y157.962
G01 X170.294 Y158.684
G01 X171.129 Y159.135
G01 X171.803 Y160.360
G01 X172.552 Y161.564
G01 X173.377 Y162.743
G01 X173.992 Y163.543
G01 X174.774 Y164.943
G01 X175.655 Y166.322
G01 X176.636 Y167.672
G01 X176.854 Y167.950
G01 X177.787 Y169.664
G01 X178.858 Y171.351
G01 X180.066 Y173.002
G01 X180.432 Y173.460
G01 X182.346 Y172.774
G01 X184.168 Y171.983
G01 X185.895 Y171.095
G01 X186.433 Y170.788
G01 X187.996 Y170.209
G01 X189.493 Y169.553
G01 X190.920 Y168.825
G01 X191.234 Y168.650
G01 X192.601 Y168.153
G01 X193.923 Y167.592
G01 X195.196 Y166.970
G01 X196.035 Y166.513
G01 X197.449 Y166.616
G01 X198.888 Y166.643
G01 X200.347 Y166.592
G01 X201.334 Y166.513
G01 X202.960 Y166.620
G01 X204.623 Y166.631
G01 X206.317 Y166.541
G01 X206.632 Y166.513
G01 X208.611 Y166.665
G01 X210.643 Y166.684
G01 X212.720 Y166.565
G01 X213.255 Y166.513
G01 X213.726 Y164.511
G01 X214.059 Y162.530
G01 X214.257 Y160.577
G01 X214.291 Y159.971
G01 X214.661 Y158.324
G01 X214.929 Y156.689
G01 X215.097 Y155.073
G01 X215.120 Y154.738
G01 X215.452 Y153.299
G01 X215.704 Y151.863
G01 X215.877 Y150.435
G01 X215.949 Y149.505
G01 X216.819 Y148.355
G01 X217.637 Y147.143
G01 X218.400 Y145.871
G01 X218.858 Y145.025
G01 X219.848 Y143.699
G01 X220.776 Y142.288
G01 X221.635 Y140.795
G01 X221.767 Y140.545
G01 X222.987 Y138.946
G01 X224.124 Y137.229
G01 X225.169 Y135.398
G01 X225.404 Y134.945
G01 X223.958 Y133.437
G01 X222.453 Y132.059
G01 X220.897 Y130.811
G01 X220.442 Y130.478
G01 X219.242 Y129.251
G01 X217.996 Y128.119
G01 X216.711 Y127.083
G01 X216.472 Y126.903
G01 X215.430 Y125.825
G01 X214.346 Y124.818
G01 X213.226 Y123.882
G01 X212.503 Y123.329
G01 X212.007 Y121.959
G01 X211.429 Y120.598
G01 X210.771 Y119.251
G01 X210.313 Y118.410
G01 X209.735 Y116.846
G01 X209.052 Y115.287
G01 X208.262 Y113.742
G01 X208.123 Y113.491
G01 X207.443 Y111.587
G01 X206.618 Y109.688
G01 X205.648 Y107.805
G01 X205.385 Y107.342
G01 X203.305 Y107.739
G01 X201.303 Y108.259
G01 X199.384 Y108.895
G01 X198.884 Y109.084
G01 X197.182 Y109.427
G01 X195.535 Y109.861
G01 X193.949 Y110.380
G01 X193.682 Y110.478
G01 X192.197 Y110.768
G01 X190.748 Y111.131
G01 X189.341 Y111.565
G01 X188.481 Y111.872
G01 X187.057 Y111.540
G01 X185.598 Y111.282
G01 X184.105 Y111.099
G01 X183.120 Y111.023
G01 X181.492 Y110.654
G01 X179.811 Y110.377
G01 X178.084 Y110.196
G01 X177.760 Y110.173
G01 X175.815 Y109.753
G01 X173.801 Y109.455
G01 X172.399 Y109.324
G01 X171.058 Y109.112
G01 X170.285 Y111.133
G01 X169.663 Y113.152
G01 X169.381 Y114.274
G01 X168.715 Y115.962
G01 X168.164 Y117.653
G01 X167.726 Y119.337
G01 X167.704 Y119.436
G01 X167.120 Y120.887
G01 X166.623 Y122.345
G01 X166.213 Y123.805
G01 X166.027 Y124.598
G01 X165.607 Y125.889
G01 X164.553 Y126.901
G01 X163.541 Y127.984
G01 X162.575 Y129.135
G01 X161.947 Y129.954
G01 X160.749 Y131.119
G01 X159.601 Y132.377
G01 X158.507 Y133.727
G01 X158.286 Y134.020
G01 X156.872 Y135.423
G01 X155.522 Y136.951
G01 X154.625 Y138.085
G01 X153.710 Y139.102
G01 X154.984 Y140.853
G01 X156.338 Y142.476
G01 X157.153 Y143.353
G01 X158.206 Y144.832
G01 X159.322 Y146.216
G01 X160.496 Y147.502
G01 X160.596 Y147.605
G01 X161.494 Y148.886
G01 X162.446 Y150.098
G01 X163.446 Y151.238
G01 X164.039 Y151.857
G01 X164.900 Y152.919
G01 X165.175 Y154.360
G01 X165.532 Y155.805
G01 X165.973 Y157.248
G01 X166.327 Y158.245
G01 X166.653 Y159.894
G01 X167.085 Y161.554
G01 X167.625 Y163.218
G01 X167.754 Y163.571
G01 X168.164 Y165.539
G01 X168.715 Y167.521
G01 X169.181 Y168.897
G01 X169.538 Y170.229
G01 X171.703 Y170.115
G01 X173.806 Y169.864
G01 X175.021 Y169.653
G01 X176.840 Y169.575
G01 X178.614 Y169.393
G01 X180.338 Y169.109
G01 X180.505 Y169.076
G01 X182.076 Y169.020
G01 X183.618 Y168.882
G01 X185.128 Y168.663
G01 X185.989 Y168.500
G01 X187.359 Y168.356
G01 X188.734 Y168.916
G01 X190.156 Y169.408
G01 X191.625 Y169.829
G01 X192.644 Y170.073
G01 X194.227 Y170.706
G01 X195.877 Y171.254
G01 X197.592 Y171.712
G01 X197.929 Y171.790
G01 X199.832 Y172.528
G01 X201.825 Y173.154
G01 X203.214 Y173.507
G01 X204.536 Y173.937
G01 X205.628 Y172.043
G01 X206.570 Y170.127
G01 X207.058 Y168.985
G01 X207.993 Y167.402
G01 X208.814 Y165.798
G01 X209.522 Y164.181
G01 X209.581 Y164.034
G01 X210.399 Y162.669
G01 X211.131 Y161.283
G01 X211.777 Y159.880
G01 X212.104 Y159.083
G01 X212.735 Y157.845
G01 X213.962 Y156.977
G01 X215.159 Y156.030
G01 X216.319 Y155.007
G01 X216.776 Y154.573
G01 X218.200 Y153.599
G01 X219.592 Y152.520
G01 X220.944 Y151.336
G01 X221.827 Y150.482
G01 X223.569 Y149.257
G01 X225.264 Y147.885
G01 X226.879 Y146.391
G01 X225.908 Y144.421
G01 X224.835 Y142.563
G01 X223.670 Y140.820
G01 X223.629 Y140.762
G01 X222.849 Y139.132
G01 X221.993 Y137.580
G01 X221.065 Y136.109
G01 X220.379 Y135.133
G01 X219.685 Y133.737
G01 X218.929 Y132.396
G01 X218.113 Y131.115
G01 X217.779 Y130.630
G01 X217.717 Y129.108
G01 X217.573 Y127.570
G01 X217.343 Y126.021
G01 X217.231 Y125.418
G01 X217.189 Y123.676
G01 X217.040 Y121.903
G01 X216.781 Y120.107
G01 X216.546 Y118.904
G01 X216.466 Y116.761
G01 X216.237 Y114.576
G01 X215.862 Y112.390
G01 X213.649 Y112.129
G01 X211.475 Y112.015
G01 X209.349 Y112.046
G01 X209.321 Y112.047
G01 X207.505 Y111.810
G01 X205.714 Y111.682
G01 X203.954 Y111.661
G01 X202.780 Y111.705
G01 X201.213 Y111.524
G01 X199.661 Y111.428
G01 X198.126 Y111.414
G01 X197.547 Y111.430
G01 X196.230 Y110.649
G01 X194.855 Y109.929
G01 X193.424 Y109.274
G01 X192.842 Y109.033
G01 X191.354 Y108.117
G01 X189.782 Y107.273
G01 X188.131 Y106.510
G01 X186.962 Y106.037
G01 X185.119 Y104.935
G01 X183.161 Y103.935
G01 X181.094 Y103.046
G01 X181.081 Y103.041
G01 X179.644 Y104.768
G01 X178.355 Y106.545
G01 X177.213 Y108.360
G01 X177.202 Y108.380
G01 X176.006 Y109.782
G01 X174.916 Y111.222
G01 X173.933 Y112.696
G01 X173.322 Y113.720
G01 X172.313 Y114.939
G01 X171.383 Y116.193
G01 X170.533 Y117.476
G01 X170.219 Y117.991
G01 X168.846 Y118.669
G01 X167.492 Y119.429
G01 X166.164 Y120.271
G01 X165.611 Y120.651
G01 X164.067 Y121.424
G01 X162.540 Y122.302
G01 X161.039 Y123.287
G01 X161.004 Y123.311
G01 X159.156 Y124.209
G01 X157.328 Y125.250
G01 X155.531 Y126.432
G01 X155.245 Y126.636
G01 X154.093 Y127.301
G01 X154.760 Y129.451
G01 X155.547 Y131.505
G01 X156.449 Y133.454
G01 X156.476 Y133.510
G01 X157.045 Y135.283
G01 X157.704 Y136.986
G01 X158.383 Y138.476
G01 X158.870 Y140.029
G01 X159.432 Y141.530
G01 X160.065 Y142.976
G01 X160.289 Y143.443
G01 X160.766 Y144.684
G01 X160.585 Y146.207
G01 X160.485 Y147.759
G01 X160.467 Y149.335
G01 X160.486 Y150.037
G01 X160.290 Y151.760
G01 X160.195 Y153.525
G01 X160.203 Y155.326
G01 X160.205 Y155.390
G01 X159.949 Y157.441
G01 X159.825 Y159.553
G01 X159.839 Y161.717
G01 X159.854 Y162.081
G01 X159.784 Y163.419
G01 X161.951 Y164.032
G01 X164.103 Y164.492
G01 X166.230 Y164.800
G01 X166.338 Y164.812
G01 X168.137 Y165.302
G01 X169.926 Y165.678
G01 X171.581 Y165.926
G01 X173.152 Y166.365
G01 X174.722 Y166.713
G01 X176.284 Y166.972
G01 X176.824 Y167.041
G01 X178.134 Y167.319
G01 X179.323 Y168.309
G01 X180.581 Y169.246
G01 X181.905 Y170.128
G01 X182.503 Y170.493
G01 X183.856 Y171.607
G01 X185.301 Y172.660
G01 X186.834 Y173.645
G01 X186.872 Y173.667
G01 X188.474 Y175.016
G01 X190.200 Y176.286
G01 X192.048 Y177.467
G01 X192.333 Y177.635
G01 X193.425 Y178.428
G01 X195.129 Y176.937
G01 X196.695 Y175.374
G01 X198.121 Y173.749
G01 X198.198 Y173.655
G01 X199.600 Y172.404
G01 X200.899 Y171.097
G01 X202.016 Y169.837
G01 X203.251 Y168.747
G01 X204.409 Y167.609
G01 X205.488 Y166.427
G01 X205.834 Y166.019
G01 X206.789 Y165.064
G01 X208.287 Y164.599
G01 X209.780 Y164.046
G01 X211.262 Y163.404
G01 X211.868 Y163.115
G01 X213.564 Y162.577
G01 X215.259 Y161.928
G01 X216.945 Y161.166
G01 X216.946 Y161.165
G01 X218.980 Y160.546
G01 X221.015 Y159.776
G01 X223.042 Y158.854
G01 X223.295 Y158.728
G01 X224.564 Y158.241
G01 X224.236 Y155.972
G01 X223.772 Y153.780
G01 X223.178 Y151.674
G01 X223.151 Y151.589
G01 X222.859 Y149.707
G01 X222.465 Y147.881
G01 X222.020 Y146.268
G01 X221.774 Y144.615
G01 X221.444 Y143.001
G01 X221.033 Y141.430
G01 X220.889 Y140.947
G01 X220.606 Y139.617
G01 X221.036 Y138.085
G01 X221.389 Y136.511
G01 X221.661 Y134.898
G01 X221.745 Y134.257
G01 X222.223 Y132.521
G01 X222.606 Y130.724
G01 X222.884 Y128.896
G01 X223.477 Y126.833
G01 X223.944 Y124.686
G01 X224.278 Y122.463
G01 X224.309 Y122.196
G01 X224.594 Y120.856
G01 X222.481 Y119.882
G01 X220.359 Y119.068
G01 X218.238 Y118.412
G01 X218.198 Y118.401
G01 X216.436 Y117.610
G01 X214.666 Y116.938
G01 X213.082 Y116.437
G01 X211.542 Y115.734
G01 X209.989 Y115.125
G01 X208.429 Y114.609
G01 X207.966 Y114.473
G01 X206.687 Y113.982
G01 X205.630 Y112.779
G01 X204.494 Y111.617
G01 X203.280 Y110.502
G01 X202.784 Y110.079
G01 X201.583 Y108.726
G01 X200.279 Y107.421
G01 X198.881 Y106.176
G01 X197.470 Y104.550
G01 X195.920 Y102.984
G01 X194.234 Y101.488
G01 X194.002 Y101.297
G01 X193.026 Y100.321
G01 X191.039 Y101.575
G01 X189.182 Y102.926
G01 X187.460 Y104.362
G01 X187.444 Y104.377
G01 X185.807 Y105.432
G01 X184.267 Y106.560
G01 X182.978 Y107.621
G01 X181.541 Y108.536
G01 X180.175 Y109.512
G01 X178.885 Y110.545
G01 X178.512 Y110.866
G01 X177.396 Y111.677
G01 X175.808 Y111.908
G01 X174.214 Y112.228
G01 X172.617 Y112.637
G01 X171.957 Y112.833
G01 X170.168 Y113.103
G01 X168.363 Y113.485
G01 X166.549 Y113.980
G01 X166.519 Y113.989
G01 X164.388 Y114.286
G01 X162.231 Y114.731
G01 X160.058 Y115.328
G01 X159.721 Y115.434
G01 X158.361 Y115.723
G01 X158.329 Y118.081
G01 X158.450 Y120.381
G01 X158.717 Y122.616
G01 X158.725 Y122.664
G01 X158.717 Y124.615
G01 X158.824 Y126.525
G01 X159.016 Y128.216
G01 X158.999 Y129.921
G01 X159.073 Y131.598
G01 X159.236 Y133.244
G01 X159.307 Y133.768
G01 X159.380 Y135.156
G01 X158.682 Y136.611
G01 X158.055 Y138.122
G01 X157.501 Y139.687
G01 X157.038 Y141.256
G01 X156.241 Y142.950
G01 X155.532 Y144.726
G01 X154.919 Y146.577
G01 X154.697 Y147.355
G01 X153.751 Y149.430
G01 X152.927 Y151.614
G01 X152.356 Y153.455
G01 X154.334 Y154.759
G01 X156.346 Y155.903
G01 X158.014 Y156.721
G01 X159.640 Y157.820
G01 X161.294 Y158.801
G01 X162.971 Y159.664
G01 X163.672 Y159.988
G01 X165.059 Y160.941
G01 X166.476 Y161.807
G01 X167.916 Y162.585
G01 X169.330 Y163.255
G01 X170.174 Y164.640
G01 X171.106 Y165.998
G01 X172.123 Y167.323
G01 X173.197 Y168.578
G01 X174.193 Y170.184
G01 X175.306 Y171.759
G01 X176.537 Y173.295
G01 X177.065 Y173.901
G01 X178.303 Y175.845
G01 X179.702 Y177.747
G01 X180.933 Y179.225
G01 X183.111 Y178.273
G01 X185.174 Y177.206
G01 X186.795 Y176.237
G01 X188.612 Y175.468
G01 X190.345 Y174.610
G01 X191.991 Y173.670
G01 X192.658 Y173.250
G01 X194.224 Y172.600
G01 X195.733 Y171.878
G01 X197.182 Y171.088
G01 X198.521 Y170.263
G01 X200.164 Y170.309
G01 X201.831 Y170.266
G01 X203.518 Y170.132
G01 X205.139 Y169.916
G01 X207.054 Y169.956
G01 X209.009 Y169.877
G01 X210.996 Y169.677
G01 X211.756 Y169.569
G01 X214.095 Y169.589
G01 X216.486 Y169.447
G01 X218.374 Y169.222
G01 X218.765 Y166.854
G01 X218.995 Y164.520
G01 X219.066 Y162.632
G01 X219.414 Y160.667
G01 X219.640 Y158.723
G01 X219.748 Y156.809
G01 X219.759 Y156.042
G01 X220.070 Y154.352
G01 X220.288 Y152.671
G01 X220.415 Y151.004
G01 X220.452 Y149.451
G01 X221.398 Y148.079
G01 X222.281 Y146.637
G01 X223.097 Y145.127
G01 X223.789 Y143.672
G01 X224.878 Y142.066
G01 X225.889 Y140.362
G01 X226.814 Y138.563
G01 X227.125 Y137.893
G01 X228.429 Y135.919
G01 X229.624 Y133.814
G01 X230.462 Y132.113
G01 X228.663 Y130.473
G01 X226.804 Y128.990
G01 X225.276 Y127.914
G01 X223.796 Y126.534
G01 X222.267 Y125.269
G01 X220.698 Y124.122
G01 X220.090 Y123.714
G01 X218.825 Y122.518
G01 X217.516 Y121.406
G01 X216.168 Y120.379
G01 X214.903 Y119.514
G01 X214.261 Y117.960
G01 X213.526 Y116.420
G01 X212.696 Y114.901
G01 X211.853 Y113.527
G01 X211.094 Y111.727
G01 X210.209 Y109.940
G01 X209.199 Y108.174
G01 X208.802 Y107.539
G01 X207.853 Y105.363
G01 X206.734 Y103.204
G01 X205.751 Y101.552
G01 X203.368 Y102.175
G01 X201.086 Y102.936
G01 X199.360 Y103.628
G01 X197.377 Y104.123
G01 X195.465 Y104.723
G01 X193.631 Y105.421
G01 X192.969 Y105.705
G01 X191.263 Y106.117
G01 X189.605 Y106.613
G01 X187.999 Y107.188
G01 X186.578 Y107.782
G01 X184.920 Y107.472
G01 X183.225 Y107.250
G01 X181.495 Y107.116
G01 X179.848 Y107.074
G01 X177.924 Y106.730
G01 X175.943 Y106.497
G01 X173.911 Y106.380
G01 X173.118 Y106.367
G01 X170.777 Y105.976
G01 X168.358 Y105.737
G01 X166.389 Y105.660
G01 X165.609 Y108.009
G01 X165.000 Y110.350
G01 X164.637 Y112.196
G01 X163.969 Y114.135
G01 X163.428 Y116.071
G01 X163.013 Y117.996
G01 X162.886 Y118.732
G01 X162.301 Y120.389
G01 X161.812 Y122.052
G01 X161.418 Y123.715
G01 X161.135 Y125.268
G01 X159.972 Y126.488
G01 X158.861 Y127.788
G01 X157.806 Y129.165
G01 X156.847 Y130.563
G01 X155.509 Y131.988
G01 X154.233 Y133.523
G01 X153.026 Y135.164
G01 X152.559 Y135.858
G01 X150.952 Y137.611
G01 X149.430 Y139.513
G01 X148.272 Y141.153
G01 X149.817 Y143.088
G01 X151.448 Y144.875
G01 X152.831 Y146.216
G01 X154.092 Y147.834
G01 X155.420 Y149.343
G01 X156.808 Y150.741
G01 X157.390 Y151.279
G01 X158.460 Y152.674
G01 X159.588 Y153.991
G01 X160.768 Y155.228
G01 X161.949 Y156.343
G01 X162.371 Y157.968
G01 X162.887 Y159.590
G01 X163.496 Y161.205
G01 X163.644 Y161.562
G01 X164.094 Y163.408
G01 X164.662 Y165.260
G01 X165.351 Y167.112
G01 X165.764 Y168.086
G01 X166.334 Y170.315
G01 X167.066 Y172.553
G01 X167.884 Y174.611
G01 X168.308 Y175.915
G01 X170.777 Y175.674
G01 X173.168 Y175.279
G01 X175.084 Y174.842
G01 X177.133 Y174.665
G01 X179.128 Y174.373
G01 X181.063 Y173.970
G01 X181.859 Y173.769
G01 X183.620 Y173.630
G01 X185.348 Y173.400
G01 X187.038 Y173.083
G01 X188.635 Y172.696
G01 X190.244 Y173.232
G01 X191.903 Y173.687
G01 X193.608 Y174.059
G01 X193.972 Y174.126
G01 X195.787 Y174.762
G01 X197.673 Y175.300
G01 X199.626 Y175.734
G01 X200.643 Y175.914
G01 X202.852 Y176.659
G01 X205.159 Y177.271
G01 X207.314 Y177.701
G01 X208.649 Y178.059
G01 X209.799 Y175.840
G01 X210.778 Y173.603
G01 X211.458 Y171.749
G01 X212.434 Y169.916
G01 X213.283 Y168.066
G01 X214.006 Y166.206
G01 X214.267 Y165.440
G01 X215.118 Y163.869
G01 X215.874 Y162.276
G01 X216.536 Y160.668
G01 X217.076 Y159.130
G01 X218.420 Y158.057
G01 X219.723 Y156.897
G01 X220.979 Y155.652
G01 X221.210 Y155.408
G01 X222.752 Y154.215
G01 X224.249 Y152.907
G01 X225.696 Y151.486
G01 X226.377 Y150.755
G01 X228.228 Y149.289
G01 X230.018 Y147.667
G01 X231.545 Y146.103
G01 X232.578 Y145.172
G01 X231.327 Y142.972
G01 X229.966 Y140.907
G01 X228.791 Y139.340
G01 X227.771 Y137.500
G01 X226.666 Y135.758
G01 X225.484 Y134.118
G01 X225.004 Y133.509
G01 X224.138 Y131.919
G01 X223.201 Y130.398
G01 X222.198 Y128.949
G01 X221.217 Y127.677
G01 X221.070 Y125.936
G01 X220.827 Y124.180
G01 X220.485 Y122.415
G01 X220.191 Y121.196
G01 X220.009 Y119.198
G01 X219.703 Y117.174
G01 X219.268 Y115.131
G01 X219.164 Y114.714
G01 X218.922 Y112.324
G01 X218.513 Y109.899
G01 X218.137 Y108.232
G01 X217.932 Y106.936
G01 X215.362 Y106.801
G01 X212.849 Y106.836
G01 X211.370 Y106.936
G01 X209.216 Y106.801
G01 X207.101 Y106.795
G01 X205.034 Y106.915
G01 X204.807 Y106.936
G01 X202.950 Y106.806
G01 X201.115 Y106.778
G01 X199.310 Y106.848
G01 X198.245 Y106.936
G01 X196.932 Y106.936
G01 X195.385 Y106.107
G01 X193.774 Y105.352
G01 X192.101 Y104.674
G01 X190.897 Y104.249
G01 X189.119 Y103.310
G01 X187.251 Y102.463
G01 X185.299 Y101.712
G01 X184.862 Y101.562
G01 X182.725 Y100.462
G01 X180.468 Y99.482
G01 X178.827 Y98.875
G01 X177.620 Y98.337
G01 X176.096 Y100.434
G01 X174.747 Y102.576
G01 X174.022 Y103.878
G01 X172.728 Y105.620
G01 X171.565 Y107.399
G01 X170.534 Y109.208
G01 X170.424 Y109.418
G01 X169.298 Y110.910
G01 X168.272 Y112.438
G01 X167.344 Y113.994
G01 X166.826 Y114.959
G01 X166.106 Y116.067
G01 X164.568 Y116.912
G01 X163.056 Y117.851
G01 X161.577 Y118.884
G01 X160.529 Y119.689
G01 X158.773 Y120.668
G01 X157.045 Y121.771
G01 X155.351 Y122.998
G01 X154.952 Y123.311
G01 X152.863 Y124.503
G01 X150.811 Y125.862
G01 X149.375 Y126.932
G01 X148.259 Y127.657
G01 X149.188 Y130.081
G01 X150.250 Y132.382
G01 X150.964 Y133.732
G01 X151.719 Y135.767
G01 X152.578 Y137.713
G01 X153.533 Y139.564
G01 X153.669 Y139.807
G01 X154.306 Y141.564
G01 X155.027 Y143.257
G01 X155.826 Y144.884
G01 X156.373 Y145.882
G01 X156.914 Y147.097
G01 X156.784 Y148.850
G01 X156.748 Y150.633
G01 X156.807 Y152.440
G01 X156.914 Y153.791
G01 X156.778 Y155.804
G01 X156.761 Y157.862
G01 X156.868 Y159.959
G01 X156.914 Y160.485
G01 X156.776 Y162.899
G01 X156.798 Y165.374
G01 X156.914 Y167.178
G01 X156.914 Y168.517
G01 X159.454 Y169.060
G01 X161.964 Y169.424
G01 X163.526 Y169.564
G01 X165.646 Y170.040
G01 X167.749 Y170.382
G01 X169.824 Y170.591
G01 X170.137 Y170.611
G01 X171.962 Y171.035
G01 X173.780 Y171.354
G01 X175.585 Y171.571
G01 X176.748 Y171.659
G01 X178.071 Y171.868
G01 X179.481 Y172.940
G01 X180.968 Y173.950
G01 X182.529 Y174.892
G01 X183.721 Y175.537
G01 X185.351 Y176.760
G01 X187.087 Y177.907
G01 X188.924 Y178.969
G01 X189.372 Y179.207
G01 X191.345 Y180.655
G01 X193.458 Y181.999
G01 X195.022 Y182.876
G01 X196.152 Y183.610
G01 X198.000 Y181.767
G01 X199.681 Y179.850
G01 X200.661 Y178.603
G01 X202.225 Y177.073
G01 X203.666 Y175.485
G01 X204.982 Y173.847
G01 X205.169 Y173.596
G01 X206.529 Y172.285
G01 X207.798 Y170.922
G01 X208.974 Y169.513
G01 X209.677 Y168.590
G01 X210.579 Y167.588
G01 X212.268 Y166.981
G01 X213.945 Y166.274
G01 X215.606 Y165.466
G01 X216.774 Y164.830
G01 X218.713 Y164.119
G01 X220.644 Y163.275
G01 X222.560 Y162.299
G01 X222.969 Y162.072
G01 X225.287 Y161.193
G01 X227.595 Y160.138
G01 X229.164 Y159.314
G01 X230.403 Y158.762
G01 X229.856 Y156.181
G01 X229.156 Y153.700
G01 X228.648 Y152.212
G01 X228.210 Y150.041
G01 X227.655 Y147.942
G01 X226.989 Y145.923
G01 X226.893 Y145.662
G01 X226.528 Y143.783
G01 X226.069 Y141.953
G01 X225.520 Y140.178
G01 X225.137 Y139.111
G01 X224.786 Y137.801
G01 X225.201 Y136.034
G01 X225.524 Y134.220
G01 X225.753 Y132.365
G01 X225.854 Y131.060
G01 X226.317 Y129.026
G01 X226.664 Y126.926
G01 X226.891 Y124.766
G01 X226.922 Y124.319
G01 X227.451 Y121.877
G01 X227.826 Y119.346
G01 X227.989 Y117.578
G01 X228.203 Y116.230
G01 X225.708 Y115.272
G01 X223.215 Y114.500
G01 X221.712 Y114.121
G01 X219.628 Y113.296
G01 X217.540 Y112.612
G01 X215.459 Y112.066
G01 X215.221 Y112.012
G01 X213.427 Y111.287
G01 X211.623 Y110.670
G01 X209.816 Y110.159
G01 X208.730 Y109.903
G01 X207.432 Y109.481
G01 X206.167 Y108.163
G01 X204.814 Y106.897
G01 X203.376 Y105.688
G01 X202.327 Y104.885
G01 X200.868 Y103.384
G01 X199.291 Y101.943
G01 X197.598 Y100.571
G01 X197.223 Y100.289
G01 X195.459 Y98.511
G01 X193.538 Y96.814
G01 X192.118 Y95.693
G01 X191.098 Y94.774
G01 X188.916 Y96.358
G01 X186.893 Y98.044
G01 X185.760 Y99.096
G01 X183.919 Y100.404
G01 X182.196 Y101.792
G01 X180.594 Y103.251
G01 X180.422 Y103.419
G01 X178.828 Y104.535
G01 X177.320 Y105.717
G01 X175.900 Y106.960
G01 X175.084 Y107.742
G01 X174.016 Y108.606
G01 X172.220 Y108.949
G01 X170.420 Y109.393
G01 X168.622 Y109.940
G01 X167.339 Y110.395
G01 X165.285 Y110.800
G01 X163.218 Y111.337
G01 X161.145 Y112.008
G01 X160.662 Y112.184
G01 X158.211 Y112.694
G01 X155.741 Y113.379
G01 X153.985 Y113.974
G01 X152.650 Y114.331
G01 X152.790 Y117.031
G01 X153.102 Y119.653
G01 X153.372 Y121.206
G01 X153.466 Y123.466
G01 X153.690 Y125.670
G01 X154.041 Y127.811
G01 X154.095 Y128.081
G01 X154.161 Y130.026
G01 X154.330 Y131.936
G01 X154.599 Y133.804
G01 X154.817 Y134.955
G01 X154.962 Y136.330
G01 X154.270 Y138.023
G01 X153.660 Y139.775
G01 X153.139 Y141.583
G01 X152.812 Y142.946
G01 X152.031 Y144.892
G01 X151.353 Y146.922
G01 X150.785 Y149.030
G01 X150.663 Y149.562
G01 X149.751 Y151.903
G01 X148.977 Y154.355
G01 X148.513 Y156.178
G01 X148.083 Y157.501
G01 X150.423 Y158.855
G01 X152.792 Y160.023
G01 X154.281 Y160.659
G01 X156.227 Y161.812
G01 X158.198 Y162.826
G01 X160.185 Y163.700
G01 X160.479 Y163.817
G01 X162.148 Y164.822
G01 X163.844 Y165.722
G01 X165.559 Y166.517
G01 X166.677 Y166.975
G01 X167.917 Y167.607
G01 X168.972 Y169.109
G01 X170.122 Y170.572
G01 X171.365 Y171.992
G01 X172.063 Y172.727
G01 X173.272 Y174.428
G01 X174.606 Y176.087
G01 X176.064 Y177.696
G01 X176.209 Y177.847
G01 X177.659 Y179.847
G01 X179.273 Y181.792
G01 X180.355 Y182.967
G01 X182.014 Y185.015
G01 X184.433 Y183.768
G01 X186.711 Y182.397
G01 X187.719 Y181.720
G01 X189.775 Y180.686
G01 X191.724 Y179.553
G01 X193.425 Y178.426
G01 X195.213 Y177.542
G01 X196.923 Y176.576
G01 X198.551 Y175.534
G01 X199.130 Y175.132
G01 X200.718 Y174.240
G01 X201.413 Y173.815
G01 X203.268 Y173.747
G01 X205.143 Y173.577
G01 X207.033 Y173.303
G01 X208.006 Y173.122
G01 X210.117 Y173.032
G01 X212.262 Y172.813
G01 X214.432 Y172.461
G01 X214.599 Y172.429
G01 X217.097 Y172.299
G01 X219.640 Y172.000
G01 X221.192 Y171.736
G01 X223.829 Y171.459
G01 X224.104 Y168.726
G01 X224.194 Y166.045
G01 X224.176 Y164.838
G01 X224.430 Y162.527
G01 X224.542 Y160.252
G01 X224.523 Y158.218
G01 X224.757 Y156.213
G01 X224.879 Y154.231
G01 X224.891 Y152.276
G01 X224.870 Y151.598
G01 X224.987 Y149.758
G01 X225.009 Y148.949
G01 X225.973 Y147.337
G01 X226.862 Y145.650
G01 X227.670 Y143.894
G01 X228.037 Y143.006
G01 X229.123 Y141.165
G01 X230.118 Y139.225
G01 X231.014 Y137.190
G01 X231.066 Y137.062
G01 X232.330 Y134.874
G01 X233.474 Y132.556
G01 X234.094 Y131.119
G01 X235.305 Y128.741
G01 X233.136 Y127.003
G01 X230.909 Y125.449
G01 X229.909 Y124.821
G01 X228.086 Y123.331
G01 X226.215 Y121.983
G01 X224.512 Y120.900
G01 X222.939 Y119.597
G01 X221.323 Y118.402
G01 X219.671 Y117.315
G01 X219.115 Y116.979
G01 X217.620 Y115.867
G01 X216.957 Y115.410
G01 X216.122 Y113.710
G01 X215.185 Y112.034
G01 X214.145 Y110.387
G01 X213.601 Y109.598
G01 X212.643 Y107.674
G01 X211.552 Y105.773
G01 X210.327 Y103.902
G01 X210.245 Y103.785
G01 X209.094 Y101.525
G01 X207.769 Y99.293
G01 X206.889 Y97.973
G01 X205.547 Y95.648
G01 X202.880 Y96.529
G01 X200.339 Y97.562
G01 X199.281 Y98.053
G01 X197.019 Y98.777
G01 X194.851 Y99.620
G01 X193.015 Y100.458
G01 X191.052 Y101.072
G01 X189.156 Y101.781
G01 X187.333 Y102.581
G01 X186.749 Y102.864
G01 X184.992 Y103.515
G01 X184.243 Y103.826
G01 X182.358 Y103.599
G01 X180.438 Y103.471
G01 X178.488 Y103.446
G01 X177.499 Y103.472
G01 X175.362 Y103.227
G01 X173.172 Y103.106
G01 X170.936 Y103.113
G01 X170.755 Y103.119
G01 X168.233 Y102.852
G01 X165.640 Y102.747
G01 X164.011 Y102.765
G01 X161.314 Y102.624
G01 X160.597 Y105.353
G01 X160.077 Y108.058
G01 X159.910 Y109.229
G01 X159.283 Y111.527
G01 X158.807 Y113.811
G01 X158.506 Y115.835
G01 X157.950 Y117.819
G01 X157.511 Y119.798
G01 X157.187 Y121.766
G01 X157.102 Y122.440
G01 X156.691 Y124.270
G01 X156.540 Y125.082
G01 X155.323 Y126.538
G01 X154.170 Y128.078
G01 X153.085 Y129.699
G01 X152.547 Y130.579
G01 X151.176 Y132.237
G01 X149.880 Y134.008
G01 X148.666 Y135.887
G01 X148.553 Y136.075
G01 X146.953 Y138.048
G01 X145.449 Y140.168
G01 X144.560 Y141.572
G01 X142.962 Y143.771
G01 X144.860 Y145.859
G01 X146.846 Y147.771
G01 X147.767 Y148.575
G01 X149.352 Y150.353
G01 X151.007 Y151.997
G01 X152.571 Y153.379
G01 X153.931 Y154.927
G01 X155.351 Y156.374
G01 X156.825 Y157.719
G01 X157.375 Y158.183
G01 X158.686 Y159.525
G01 X159.297 Y160.105
G01 X159.856 Y161.925
G01 X160.521 Y163.737
G01 X161.293 Y165.537
G01 X161.746 Y166.486
G01 X162.393 Y168.550
G01 X163.177 Y170.613
G01 X164.098 Y172.666
G01 X164.196 Y172.867
G01 X164.984 Y175.302
G01 X165.950 Y177.735
G01 X166.645 Y179.249
G01 X167.625 Y181.801
G01 X170.415 Y181.347
G01 X173.104 Y180.723
G01 X174.311 Y180.380
G01 X176.672 Y180.019
G01 X178.959 Y179.525
G01 X180.997 Y178.959
G01 X183.044 Y178.660
G01 X185.040 Y178.255
G01 X186.980 Y177.750
G01 X187.683 Y177.538
G01 X189.533 Y177.167
G01 X190.357 Y176.969
G01 X192.205 Y177.496
G01 X194.106 Y177.929
G01 X196.054 Y178.265
G01 X197.083 Y178.399
G01 X199.190 Y178.986
G01 X201.371 Y179.457
G01 X203.620 Y179.805
G01 X203.810 Y179.829
G01 X206.310 Y180.501
G01 X208.909 Y181.020
G01 X210.536 Y181.258
G01 X213.226 Y181.830
G01 X214.372 Y179.226
G01 X215.320 Y176.613
G01 X215.691 Y175.411
G01 X216.681 Y173.215
G01 X217.519 Y171.011
G01 X218.155 Y168.991
G01 X219.027 Y167.092
G01 X219.781 Y165.179
G01 X220.419 Y163.258
G01 X220.619 Y162.571
G01 X221.323 Y160.798
G01 X221.605 Y160.003
G01 X223.070 Y158.724
G01 X224.485 Y157.348
G01 X225.843 Y155.878
G01 X226.497 Y155.112
G01 X228.155 Y153.647
G01 X229.756 Y152.054
G01 X231.290 Y150.337
G01 X231.388 Y150.220
G01 X233.334 Y148.469
G01 X235.205 Y146.551
G01 X236.280 Y145.329
G01 X238.236 Y143.372
G01 X236.657 Y140.966
G01 X234.962 Y138.724
G01 X234.170 Y137.776
G01 X232.852 Y135.726
G01 X231.442 Y133.801
G01 X230.104 Y132.179
G01 X228.972 Y130.393
G01 X227.764 Y128.699
G01 X226.484 Y127.100
G01 X226.038 Y126.583
G01 X224.921 Y125.009
G01 X224.411 Y124.344
G01 X224.133 Y122.400
G01 X223.746 Y120.447
G01 X223.248 Y118.490
G01 X222.965 Y117.537
G01 X222.636 Y115.332
G01 X222.169 Y113.106
G01 X221.560 Y110.868
G01 X221.518 Y110.730
G01 X221.107 Y108.130
G01 X220.514 Y105.502
G01 X220.071 Y103.924
G01 X219.492 Y101.201
G01 X216.583 Y101.216
G01 X213.748 Y101.420
G01 X212.543 Y101.565
G01 X210.082 Y101.555
G01 X207.675 Y101.691
G01 X205.594 Y101.929
G01 X203.461 Y101.906
G01 X201.364 Y101.998
G01 X199.309 Y102.203
G01 X198.644 Y102.294
G01 X196.702 Y102.373
G01 X195.865 Y102.439
G01 X194.076 Y101.622
G01 X192.220 Y100.891
G01 X190.303 Y100.251
G01 X189.693 Y100.070
G01 X187.679 Y99.161
G01 X185.575 Y98.357
G01 X183.521 Y97.701
G01 X181.166 Y96.661
G01 X178.694 Y95.753
G01 X177.349 Y95.332
G01 X174.574 Y94.231
G01 X173.645 Y93.910
G01 X172.070 Y96.389
G01 X170.697 Y98.907
G01 X170.340 Y99.635
G01 X168.980 Y101.735
G01 X167.776 Y103.868
G01 X167.034 Y105.361
G01 X165.840 Y107.178
G01 X164.767 Y109.027
G01 X163.816 Y110.901
G01 X163.729 Y111.086
G01 X162.698 Y112.766
G01 X161.769 Y114.476
G01 X161.745 Y114.522
G01 X160.085 Y115.576
G01 X158.461 Y116.733
G01 X156.880 Y117.991
G01 X156.366 Y118.430
G01 X154.506 Y119.624
G01 X152.685 Y120.949
G01 X150.986 Y122.339
G01 X148.829 Y123.747
G01 X146.720 Y125.325
G01 X145.606 Y126.248
G01 X143.168 Y127.977
G01 X142.378 Y128.593
G01 X143.599 Y131.268
G01 X144.964 Y133.795
G01 X145.397 Y134.518
G01 X146.416 Y136.804
G01 X147.549 Y138.976
G01 X148.416 Y140.443
G01 X149.288 Y142.436
G01 X150.253 Y144.343
G01 X151.306 Y146.162
G01 X151.435 Y146.369
G01 X152.282 Y148.148
G01 X153.209 Y149.860
G01 X153.246 Y149.924
G01 X153.225 Y151.894
G01 X153.310 Y153.889
G01 X153.504 Y155.905
G01 X153.596 Y156.604
G01 X153.584 Y158.820
G01 X153.703 Y161.077
G01 X153.946 Y163.283
G01 X153.952 Y165.871
G01 X154.128 Y168.512
G01 X154.296 Y169.963
G01 X154.420 Y172.967
G01 X154.506 Y173.971
G01 X157.416 Y174.404
G01 X160.280 Y174.638
G01 X161.159 Y174.670
G01 X163.633 Y175.061
G01 X166.075 Y175.295
G01 X167.811 Y175.369
G01 X169.961 Y175.724
G01 X172.092 Y175.954
G01 X174.196 Y176.063
G01 X174.463 Y176.068
G01 X176.423 Y176.328
G01 X178.371 Y176.483
G01 X178.454 Y176.488
G01 X180.107 Y177.586
G01 X181.840 Y178.609
G01 X183.650 Y179.551
G01 X184.281 Y179.852
G01 X186.150 Y181.080
G01 X188.126 Y182.219
G01 X190.107 Y183.216
G01 X192.304 Y184.634
G01 X194.640 Y185.938
G01 X195.934 Y186.579
G01 X198.549 Y188.129
G01 X199.430 Y188.598
G01 X201.387 Y186.383
G01 X203.151 Y184.098
G01 X203.664 Y183.369
G01 X205.349 Y181.495
G01 X206.885 Y179.563
G01 X207.897 Y178.141
G01 X209.377 Y176.518
G01 X210.740 Y174.843
G01 X211.988 Y173.124
G01 X212.131 Y172.912
G01 X213.428 Y171.396
G01 X214.630 Y169.833
G01 X214.672 Y169.775
G01 X216.514 Y168.978
G01 X218.336 Y168.070
G01 X220.132 Y167.053
G01 X220.701 Y166.703
G01 X222.773 Y165.794
G01 X224.828 Y164.743
G01 X226.730 Y163.631
G01 X229.143 Y162.548
G01 X231.536 Y161.284
G01 X232.759 Y160.559
G01 X235.513 Y159.194
G01 X236.377 Y158.716
G01 X235.577 Y155.840
G01 X234.610 Y153.089
G01 X234.286 Y152.281
G01 X233.624 Y149.820
G01 X232.831 Y147.455
G01 X232.195 Y145.845
G01 X231.632 Y143.697
G01 X230.962 Y141.618
G01 X230.190 Y139.614
G01 X230.104 Y139.410
G01 X229.531 Y137.474
G01 X228.866 Y135.594
G01 X228.849 Y135.548
G01 X229.186 Y133.548
G01 X229.419 Y131.505
G01 X229.544 Y129.423
G01 X229.560 Y128.780
G01 X229.928 Y126.526
G01 X230.168 Y124.210
G01 X230.272 Y122.012
G01 X230.680 Y119.378
G01 X230.924 Y116.663
G01 X230.983 Y115.244
G01 X231.340 Y112.171
G01 X231.410 Y111.183
G01 X228.530 Y110.278
G01 X225.664 Y109.584
G01 X224.836 Y109.421
G01 X222.386 Y108.628
G01 X219.944 Y108.000
G01 X218.263 Y107.660
G01 X216.133 Y106.955
G01 X214.004 Y106.380
G01 X211.882 Y105.933
G01 X211.689 Y105.898
G01 X209.737 Y105.320
G01 X207.780 Y104.849
G01 X207.745 Y104.842
G01 X206.243 Y103.463
G01 X204.648 Y102.148
G01 X202.963 Y100.903
G01 X202.426 Y100.534
G01 X200.730 Y98.993
G01 X198.913 Y97.525
G01 X197.107 Y96.227
G01 X195.117 Y94.446
G01 X192.969 Y92.759
G01 X191.787 Y91.920
G01 X189.403 Y89.944
G01 X188.596 Y89.335
G01 X186.251 Y91.273
G01 X184.092 Y93.314
G01 X183.510 Y93.915
G01 X181.497 Y95.548
G01 X179.628 Y97.265
G01 X178.423 Y98.495
G01 X176.663 Y99.903
G01 X175.014 Y101.383
G01 X173.476 Y102.926
G01 X173.337 Y103.075
G01 X171.782 Y104.401
G01 X170.318 Y105.790
G01 X170.285 Y105.822
G01 X168.309 Y106.331
G01 X166.337 Y106.952
G01 X164.374 Y107.686
G01 X163.738 Y107.950
G01 X161.522 Y108.531
G01 X159.302 Y109.254
G01 X157.192 Y110.077
G01 X154.615 Y110.774
G01 X152.031 Y111.655
G01 X150.646 Y112.204
G01 X147.690 Y113.127
G01 X146.718 Y113.480
G01 X147.065 Y116.509
G01 X147.602 Y119.438
G01 X147.794 Y120.279
G01 X148.067 Y122.860
G01 X148.489 Y125.365
G01 X148.871 Y127.077
G01 X149.093 Y129.321
G01 X149.435 Y131.512
G01 X149.891 Y133.643
G01 X149.948 Y133.876
G01 X150.213 Y135.902
G01 X150.580 Y137.887
G01 X150.594 Y137.955
G01 X149.943 Y139.889
G01 X149.388 Y141.883
G01 X148.934 Y143.930
G01 X148.802 Y144.641
G01 X148.081 Y146.820
G01 X147.477 Y149.079
G01 X147.011 Y151.328
G01 X146.189 Y153.876
G01 X145.518 Y156.531
G01 X145.219 Y158.014
G01 X144.380 Y161.008
G01 X144.144 Y162.026
G01 X146.874 Y163.385
G01 X149.623 Y164.532
G01 X150.468 Y164.841
G01 X152.782 Y166.019
G01 X155.113 Y167.031
G01 X156.792 Y167.657
G01 X158.797 Y168.694
G01 X160.822 Y169.603
G01 X162.859 Y170.383
G01 X163.116 Y170.472
G01 X164.962 Y171.355
G01 X166.830 Y172.131
G01 X166.910 Y172.162
G01 X168.184 Y173.770
G01 X169.561 Y175.329
G01 X171.039 Y176.833
G01 X171.568 Y177.335
G01 X173.012 Y179.139
G01 X174.590 Y180.889
G01 X176.226 Y182.508
G01 X177.930 Y184.602
G01 X179.808 Y186.629
G01 X180.884 Y187.681
G01 X182.957 Y190.037
G01 X183.678 Y190.785
G01 X186.313 Y189.232
G01 X188.779 Y187.546
G01 X189.516 Y186.993
G01 X191.773 Y185.689
G01 X193.901 Y184.280
G01 X195.354 Y183.202
G01 X197.327 Y182.079
G01 X199.203 Y180.869
G01 X200.978 Y179.578
G01 X201.193 Y179.411
G01 X202.951 Y178.335
G01 X204.631 Y177.183
G01 X204.695 Y177.136
G01 X206.755 Y176.932
G01 X208.828 Y176.613
G01 X210.911 Y176.179
G01 X211.245 Y176.099
G01 X213.547 Y175.860
G01 X215.875 Y175.480
G01 X217.795 Y175.061
G01 X220.455 Y174.766
G01 X223.150 Y174.291
G01 X224.345 Y174.024
G01 X227.434 Y173.610
G01 X229.585 Y173.194
G01 X229.705 Y170.104
G01 X229.621 Y167.084
G01 X229.585 Y166.562
G01 X229.709 Y163.907
G01 X229.671 Y161.305
G01 X229.585 Y159.931
G01 X229.708 Y157.607
G01 X229.700 Y155.319
G01 X229.585 Y153.299
G01 X229.670 Y151.194
G01 X229.644 Y149.113
G01 X229.585 Y147.994
G01 X230.545 Y146.135
G01 X231.416 Y144.201
G01 X232.194 Y142.196
G01 X232.297 Y141.902
G01 X233.360 Y139.820
G01 X234.318 Y137.638
G01 X235.010 Y135.810
G01 X236.220 Y133.397
G01 X237.299 Y130.855
G01 X237.722 Y129.718
G01 X239.067 Y126.879
G01 X239.892 Y124.845
G01 X237.337 Y123.042
G01 X234.729 Y121.452
G01 X234.299 Y121.213
G01 X232.115 Y119.646
G01 X229.887 Y118.247
G01 X228.707 Y117.581
G01 X226.804 Y116.198
G01 X224.860 Y114.946
G01 X223.114 Y113.949
G01 X221.377 Y112.720
G01 X219.600 Y111.597
G01 X218.640 Y111.044
G01 X217.596 Y109.214
G01 X216.441 Y107.418
G01 X215.175 Y105.663
G01 X214.988 Y105.420
G01 X213.815 Y103.385
G01 X212.500 Y101.383
G01 X211.336 Y99.797
G01 X209.966 Y97.458
G01 X208.417 Y95.161
G01 X207.684 Y94.173
G01 X206.032 Y91.492
G01 X204.763 Y89.674
G01 X201.833 Y90.846
G01 X199.056 Y92.180
G01 X198.637 Y92.402
G01 X196.114 Y93.388
G01 X193.708 Y94.503
G01 X192.511 Y95.129
G01 X190.300 Y95.977
G01 X188.179 Y96.931
G01 X186.386 Y97.856
G01 X184.399 Y98.647
G01 X182.480 Y99.530
G01 X181.485 Y100.038
G01 X179.379 Y99.916
G01 X177.241 Y99.907
G01 X175.076 Y100.012
G01 X174.743 Y100.038
G01 X172.396 Y99.913
G01 X170.000 Y99.924
G01 X168.001 Y100.038
G01 X165.294 Y99.912
G01 X162.524 Y99.959
G01 X161.259 Y100.038
G01 X158.111 Y99.963
G01 X155.865 Y100.038
G01 X155.250 Y103.144
G01 X154.854 Y106.211
G01 X154.811 Y106.697
G01 X154.261 Y109.357
G01 X153.885 Y111.989
G01 X153.756 Y113.356
G01 X153.261 Y115.676
G01 X152.905 Y117.978
G01 X152.701 Y120.015
G01 X152.281 Y122.114
G01 X151.976 Y124.205
G01 X151.858 Y125.342
G01 X150.608 Y127.042
G01 X149.434 Y128.829
G01 X148.343 Y130.701
G01 X148.165 Y131.028
G01 X146.780 Y132.929
G01 X145.484 Y134.944
G01 X144.473 Y136.713
G01 X142.891 Y138.917
G01 X141.419 Y141.268
G01 X140.781 Y142.398
G01 X138.999 Y145.003
G01 X137.828 Y146.947
G01 X140.097 Y149.156
G01 X142.454 Y151.160
G01 X142.865 Y151.483
G01 X144.796 Y153.393
G01 X146.798 Y155.143
G01 X147.903 Y156.019
G01 X149.579 Y157.698
G01 X151.315 Y159.252
G01 X152.941 Y160.555
G01 X154.473 Y162.051
G01 X156.061 Y163.448
G01 X156.971 Y164.183
G01 X157.718 Y166.164
G01 X158.580 Y168.128
G01 X159.559 Y170.070
G01 X159.743 Y170.410
G01 X160.587 Y172.618
G01 X161.576 Y174.814
G01 X162.515 Y176.637
G01 X163.508 Y179.180
G01 X164.686 Y181.712
G01 X165.288 Y182.863
G01 X166.511 Y185.798
G01 X167.506 Y187.844
G01 X170.599 Y187.143
G01 X173.568 Y186.258
G01 X174.089 Y186.080
G01 X176.749 Y185.500
G01 X179.314 Y184.773
G01 X180.673 Y184.316
G01 X183.002 Y183.824
G01 X185.259 Y183.212
G01 X187.256 Y182.552
G01 X189.356 Y182.080
G01 X191.403 Y181.505
G01 X192.523 Y181.141
G01 X194.608 Y181.597
G01 X196.744 Y181.946
G01 X198.926 Y182.184
G01 X199.291 Y182.213
G01 X201.625 Y182.712
G01 X204.030 Y183.082
G01 X206.060 Y183.285
G01 X208.762 Y183.843
G01 X211.557 Y184.237
G01 X212.828 Y184.357
G01 X215.990 Y184.935
G01 X218.242 Y185.214
G01 X219.346 Y182.219
G01 X220.226 Y179.228
G01 X220.360 Y178.697
G01 X221.329 Y176.131
G01 X222.121 Y173.565
G01 X222.478 Y172.180
G01 X223.340 Y169.939
G01 X224.062 Y167.692
G01 X224.595 Y165.663
G01 X225.349 Y163.625
G01 X225.988 Y161.575
G01 X226.289 Y160.449
G01 X227.824 Y158.931
G01 X229.295 Y157.312
G01 X230.697 Y155.593
G01 X230.899 Y155.329
G01 X232.606 Y153.625
G01 X234.243 Y151.789
G01 X235.509 Y150.209
G01 X237.468 Y148.226
G01 X239.338 Y146.074
G01 X240.119 Y145.089
G01 X242.346 Y142.730
G01 X243.807 Y140.993
G01 X241.875 Y138.411
G01 X239.825 Y136.020
G01 X239.471 Y135.639
G01 X237.829 Y133.406
G01 X236.089 Y131.323
G01 X235.136 Y130.285
G01 X233.710 Y128.321
G01 X232.202 Y126.473
G01 X230.800 Y124.931
G01 X229.487 Y123.171
G01 X228.101 Y121.502
G01 X227.331 Y120.648
G01 X226.890 Y118.517
G01 X226.328 Y116.384
G01 X225.644 Y114.255
G01 X225.539 Y113.957
G01 X225.036 Y111.582
G01 X224.383 Y109.195
G01 X223.746 Y107.267
G01 X223.146 Y104.530
G01 X222.357 Y101.776
G01 X221.953 Y100.577
G01 X221.185 Y97.412
G01 X220.519 Y95.225
G01 X217.270 Y95.441
G01 X214.118 Y95.864
G01 X213.631 Y95.949
G01 X210.838 Y96.112
G01 X208.120 Y96.440
G01 X206.743 Y96.673
G01 X204.300 Y96.800
G01 X201.910 Y97.060
G01 X199.854 Y97.397
G01 X197.648 Y97.540
G01 X195.480 Y97.795
G01 X194.343 Y97.976
G01 X192.310 Y97.183
G01 X190.210 Y96.490
G01 X188.046 Y95.902
G01 X187.721 Y95.824
G01 X185.451 Y94.951
G01 X183.091 Y94.196
G01 X181.099 Y93.672
G01 X178.476 Y92.684
G01 X175.735 Y91.844
G01 X174.476 Y91.521
G01 X171.403 Y90.440
G01 X169.179 Y89.799
G01 X167.581 Y92.657
G01 X166.212 Y95.546
G01 X166.017 Y96.003
G01 X164.627 Y98.444
G01 X163.416 Y100.913
G01 X162.856 Y102.208
G01 X161.628 Y104.331
G01 X160.542 Y106.483
G01 X159.695 Y108.412
G01 X158.611 Y110.343
G01 X157.643 Y112.303
G01 X157.166 Y113.375
G01 X155.401 Y114.654
G01 X153.684 Y116.042
G01 X152.021 Y117.538
G01 X151.998 Y117.560
G01 X150.051 Y118.982
G01 X148.153 Y120.543
G01 X146.830 Y121.745
G01 X144.616 Y123.384
G01 X142.461 Y125.197
G01 X141.662 Y125.930
G01 X139.099 Y127.858
G01 X136.613 Y130.005
G01 X136.494 Y130.115
G01 X137.979 Y133.009
G01 X139.615 Y135.732
G01 X140.484 Y137.026
G01 X141.757 Y139.474
G01 X143.149 Y141.790
G01 X143.809 Y142.785
G01 X144.918 Y144.948
G01 X146.126 Y147.008
G01 X147.134 Y148.544
G01 X148.166 Y150.496
G01 X149.285 Y152.368
G01 X149.794 Y153.151
G01 X149.904 Y155.331
G01 X150.133 Y157.532
G01 X150.483 Y159.746
G01 X150.493 Y159.800
G01 X150.625 Y162.215
G01 X150.901 Y164.664
G01 X151.191 Y166.448
G01 X151.360 Y169.210
G01 X151.709 Y172.016
G01 X151.890 Y173.096
G01 X152.112 Y176.314
G01 X152.562 Y179.587
G01 X152.589 Y179.745
G01 X155.826 Y180.076
G01 X159.003 Y180.189
G01 X160.600 Y180.165
G01 X163.350 Y180.431
G01 X166.053 Y180.526
G01 X167.276 Y180.515
G01 X169.699 Y180.763
G01 X172.090 Y180.873
G01 X173.952 Y180.864
G01 X176.158 Y181.063
G01 X178.345 Y181.145
G01 X179.292 Y181.144
G01 X181.193 Y182.247
G01 X183.177 Y183.260
G01 X185.240 Y184.179
G01 X185.280 Y184.195
G01 X187.395 Y185.410
G01 X189.617 Y186.521
G01 X191.267 Y187.246
G01 X193.698 Y188.621
G01 X196.266 Y189.868
G01 X197.255 Y190.297
G01 X200.103 Y191.878
G01 X203.123 Y193.297
G01 X203.243 Y193.348
G01 X205.293 Y190.801
G01 X207.126 Y188.187
G01 X207.982 Y186.824
G01 X209.713 Y184.649
G01 X211.275 Y182.421
G01 X211.932 Y181.387
G01 X213.470 Y179.477
G01 X214.875 Y177.517
G01 X215.882 Y175.950
G01 X217.261 Y174.193
G01 X218.531 Y172.389
G01 X219.042 Y171.601
G01 X221.022 Y170.596
G01 X222.972 Y169.472
G01 X224.886 Y168.228
G01 X224.892 Y168.224
G01 X227.085 Y167.099
G01 X229.250 Y165.825
G01 X230.742 Y164.846
G01 X233.245 Y163.542
G01 X235.714 Y162.051
G01 X236.592 Y161.469
G01 X239.498 Y159.925
G01 X242.360 Y158.146
G01 X242.442 Y158.091
G01 X241.413 Y154.957
G01 X240.207 Y151.969
G01 X239.537 Y150.524
G01 X238.647 Y147.863
G01 X237.618 Y145.315
G01 X237.117 Y144.217
G01 X236.343 Y141.863
G01 X235.455 Y139.595
G01 X234.696 Y137.911
G01 X233.965 Y135.776
G01 X233.134 Y133.707
G01 X232.759 Y132.866
G01 X232.996 Y130.637
G01 X233.115 Y128.369
G01 X233.114 Y126.085
G01 X233.367 Y123.613
G01 X233.478 Y121.084
G01 X233.470 Y119.304
G01 X233.741 Y116.477
G01 X233.835 Y113.574
G01 X233.825 Y112.524
G01 X234.115 Y109.227
G01 X234.182 Y105.839
G01 X234.181 Y105.743
G01 X230.959 Y104.892
G01 X227.764 Y104.271
G01 X226.211 Y104.049
G01 X223.467 Y103.340
G01 X220.744 Y102.812
G01 X219.569 Y102.637
G01 X217.152 Y101.998
G01 X214.745 Y101.505
G01 X212.927 Y101.226
G01 X210.721 Y100.671
G01 X208.516 Y100.239
G01 X207.614 Y100.096
G01 X205.866 Y98.678
G01 X204.021 Y97.336
G01 X202.093 Y96.085
G01 X200.151 Y94.522
G01 X198.085 Y93.047
G01 X196.571 Y92.073
G01 X194.343 Y90.302
G01 X191.957 Y88.639
G01 X191.049 Y88.061
G01 X188.440 Y86.021
G01 X185.634 Y84.116
G01 X185.528 Y84.050
G01 X183.043 Y86.303
G01 X180.767 Y88.660
G01 X179.737 Y89.841
G01 X177.637 Y91.766
G01 X175.700 Y93.773
G01 X174.911 Y94.667
G01 X173.050 Y96.353
G01 X171.318 Y98.110
G01 X170.085 Y99.493
G01 X168.413 Y101.045
G01 X166.845 Y102.663
G01 X166.224 Y103.354
G01 X164.081 Y104.047
G01 X161.950 Y104.863
G01 X159.838 Y105.803
G01 X159.820 Y105.812
G01 X157.452 Y106.588
G01 X155.089 Y107.516
G01 X153.415 Y108.271
G01 X150.717 Y109.174
G01 X148.022 Y110.267
G01 X147.011 Y110.729
G01 X143.878 Y111.805
G01 X140.752 Y113.120
G01 X140.606 Y113.187
G01 X141.142 Y116.505
G01 X141.881 Y119.704
G01 X142.318 Y121.239
G01 X142.788 Y124.052
G01 X143.416 Y126.772
G01 X143.744 Y127.950
G01 X144.144 Y130.429
G01 X144.674 Y132.840
G01 X145.171 Y134.660
G01 X145.561 Y136.907
G01 X146.064 Y139.104
G01 X146.312 Y140.028
G01 X145.725 Y142.203
G01 X145.248 Y144.436
G01 X144.885 Y146.721
G01 X144.878 Y146.772
G01 X144.238 Y149.184
G01 X143.728 Y151.675
G01 X143.444 Y153.516
G01 X142.730 Y156.278
G01 X142.177 Y159.142
G01 X142.011 Y160.261
G01 X141.204 Y163.486
G01 X140.602 Y166.837
G01 X140.577 Y167.005
G01 X143.652 Y168.364
G01 X146.736 Y169.488
G01 X148.302 Y169.970
G01 X150.917 Y171.109
G01 X153.542 Y172.065
G01 X154.739 Y172.441
G01 X157.038 Y173.457
G01 X159.350 Y174.328
G01 X161.176 Y174.912
G01 X163.277 Y175.810
