;  Created by Sandify
;  https://sandify.org
;  Version: 0.2.4
;
;  Machine type: Rectangular
;    Min X (mm): 0
;    Max X (mm): 380
;    Min Y (mm): 0
;    Max Y (mm): 280
;  Content type: shape
;  Layer:
;    Shape: FileImport
;    Name: Spiral6.thr
;    From file:: Spiral6.thr
;    Aspect Ratio: true
;    Comments: 
;    Visible: true
;    Initial width: 10
;    Initial height: 10
;    X offset: 0
;    Y offset: 0
;    Rotate (degrees): 0
;    Reverse path: false
;    Fine tuning:
;      Connect to next layer: line
;      Draw portion of path (%): 100
;      Backtrack at end (%): 0
;      Rotate starting point (%): 0
;  Reverse export path: false
;
; File name: 'Spiral6'
;

G01 X190.000 Y140.000
G01 X189.999 Y140.015
G01 X189.997 Y140.029
G01 X189.994 Y140.044
G01 X189.988 Y140.058
G01 X189.982 Y140.072
G01 X189.974 Y140.085
G01 X189.965 Y140.097
G01 X189.955 Y140.109
G01 X189.949 Y140.115
G01 X189.954 Y140.119
G01 X189.959 Y140.123
G01 X189.965 Y140.127
G01 X189.971 Y140.130
G01 X189.976 Y140.133
G01 X189.980 Y140.156
G01 X189.986 Y140.179
G01 X189.994 Y140.202
G01 X190.004 Y140.225
G01 X190.017 Y140.247
G01 X190.032 Y140.268
G01 X190.048 Y140.289
G01 X190.067 Y140.308
G01 X190.088 Y140.326
G01 X190.111 Y140.343
G01 X190.113 Y140.344
G01 X190.130 Y140.338
G01 X190.146 Y140.331
G01 X190.162 Y140.323
G01 X190.173 Y140.318
G01 X190.201 Y140.330
G01 X190.231 Y140.340
G01 X190.262 Y140.348
G01 X190.295 Y140.353
G01 X190.328 Y140.356
G01 X190.363 Y140.357
G01 X190.398 Y140.355
G01 X190.434 Y140.351
G01 X190.471 Y140.343
G01 X190.507 Y140.333
G01 X190.544 Y140.320
G01 X190.551 Y140.318
G01 X190.558 Y140.286
G01 X190.563 Y140.255
G01 X190.566 Y140.223
G01 X190.566 Y140.221
G01 X190.596 Y140.199
G01 X190.625 Y140.176
G01 X190.653 Y140.149
G01 X190.680 Y140.121
G01 X190.706 Y140.090
G01 X190.730 Y140.057
G01 X190.753 Y140.021
G01 X190.774 Y139.984
G01 X190.793 Y139.944
G01 X190.810 Y139.903
G01 X190.824 Y139.860
G01 X190.837 Y139.815
G01 X190.841 Y139.798
G01 X190.807 Y139.764
G01 X190.771 Y139.733
G01 X190.744 Y139.711
G01 X190.741 Y139.669
G01 X190.737 Y139.627
G01 X190.730 Y139.584
G01 X190.720 Y139.541
G01 X190.708 Y139.498
G01 X190.694 Y139.456
G01 X190.676 Y139.413
G01 X190.657 Y139.371
G01 X190.635 Y139.330
G01 X190.610 Y139.289
G01 X190.583 Y139.249
G01 X190.554 Y139.209
G01 X190.522 Y139.171
G01 X190.488 Y139.135
G01 X190.427 Y139.148
G01 X190.368 Y139.164
G01 X190.330 Y139.177
G01 X190.292 Y139.154
G01 X190.252 Y139.132
G01 X190.212 Y139.112
G01 X190.169 Y139.094
G01 X190.126 Y139.079
G01 X190.081 Y139.065
G01 X190.036 Y139.053
G01 X189.989 Y139.044
G01 X189.942 Y139.037
G01 X189.894 Y139.032
G01 X189.845 Y139.030
G01 X189.796 Y139.030
G01 X189.746 Y139.032
G01 X189.696 Y139.038
G01 X189.646 Y139.046
G01 X189.596 Y139.056
G01 X189.583 Y139.059
G01 X189.558 Y139.121
G01 X189.538 Y139.184
G01 X189.523 Y139.246
G01 X189.481 Y139.262
G01 X189.439 Y139.281
G01 X189.398 Y139.302
G01 X189.358 Y139.325
G01 X189.319 Y139.351
G01 X189.280 Y139.379
G01 X189.243 Y139.409
G01 X189.207 Y139.441
G01 X189.173 Y139.476
G01 X189.139 Y139.512
G01 X189.108 Y139.551
G01 X189.078 Y139.591
G01 X189.050 Y139.633
G01 X189.024 Y139.677
G01 X189.000 Y139.723
G01 X188.979 Y139.770
G01 X188.959 Y139.819
G01 X188.942 Y139.869
G01 X188.932 Y139.901
G01 X188.969 Y139.955
G01 X189.008 Y140.006
G01 X189.050 Y140.052
G01 X189.076 Y140.079
G01 X189.065 Y140.126
G01 X189.055 Y140.175
G01 X189.049 Y140.225
G01 X189.045 Y140.276
G01 X189.043 Y140.328
G01 X189.045 Y140.381
G01 X189.050 Y140.434
G01 X189.057 Y140.488
G01 X189.068 Y140.542
G01 X189.081 Y140.597
G01 X189.098 Y140.651
G01 X189.118 Y140.705
G01 X189.141 Y140.758
G01 X189.167 Y140.811
G01 X189.196 Y140.864
G01 X189.229 Y140.915
G01 X189.265 Y140.965
G01 X189.303 Y141.014
G01 X189.337 Y141.052
G01 X189.408 Y141.051
G01 X189.477 Y141.046
G01 X189.544 Y141.036
G01 X189.597 Y141.025
G01 X189.640 Y141.068
G01 X189.686 Y141.109
G01 X189.735 Y141.148
G01 X189.787 Y141.184
G01 X189.842 Y141.219
G01 X189.900 Y141.250
G01 X189.960 Y141.279
G01 X190.024 Y141.305
G01 X190.089 Y141.328
G01 X190.157 Y141.347
G01 X190.228 Y141.363
G01 X190.300 Y141.375
G01 X190.373 Y141.383
G01 X190.449 Y141.387
G01 X190.525 Y141.387
G01 X190.603 Y141.383
G01 X190.676 Y141.376
G01 X190.721 Y141.302
G01 X190.760 Y141.227
G01 X190.794 Y141.151
G01 X190.809 Y141.114
G01 X190.880 Y141.095
G01 X190.952 Y141.071
G01 X191.023 Y141.043
G01 X191.094 Y141.011
G01 X191.164 Y140.974
G01 X191.233 Y140.933
G01 X191.300 Y140.887
G01 X191.366 Y140.837
G01 X191.431 Y140.783
G01 X191.493 Y140.724
G01 X191.552 Y140.661
G01 X191.609 Y140.594
G01 X191.664 Y140.523
G01 X191.715 Y140.447
G01 X191.762 Y140.369
G01 X191.788 Y140.321
G01 X191.741 Y140.225
G01 X191.690 Y140.134
G01 X191.633 Y140.049
G01 X191.625 Y140.038
G01 X191.649 Y139.957
G01 X191.669 Y139.875
G01 X191.684 Y139.790
G01 X191.696 Y139.703
G01 X191.703 Y139.615
G01 X191.705 Y139.526
G01 X191.702 Y139.435
G01 X191.695 Y139.344
G01 X191.683 Y139.252
G01 X191.665 Y139.159
G01 X191.643 Y139.066
G01 X191.615 Y138.974
G01 X191.583 Y138.882
G01 X191.545 Y138.791
G01 X191.502 Y138.701
G01 X191.480 Y138.659
G01 X191.356 Y138.644
G01 X191.235 Y138.638
G01 X191.121 Y138.641
G01 X191.064 Y138.573
G01 X191.003 Y138.507
G01 X190.938 Y138.444
G01 X190.869 Y138.384
G01 X190.796 Y138.327
G01 X190.720 Y138.273
G01 X190.641 Y138.223
G01 X190.558 Y138.176
G01 X190.472 Y138.133
G01 X190.384 Y138.094
G01 X190.293 Y138.060
G01 X190.199 Y138.030
G01 X190.103 Y138.004
G01 X190.005 Y137.983
G01 X189.905 Y137.967
G01 X189.804 Y137.956
G01 X189.774 Y137.954
G01 X189.688 Y138.056
G01 X189.612 Y138.161
G01 X189.545 Y138.269
G01 X189.544 Y138.271
G01 X189.460 Y138.298
G01 X189.378 Y138.330
G01 X189.298 Y138.365
G01 X189.220 Y138.404
G01 X189.144 Y138.447
G01 X189.071 Y138.493
G01 X188.999 Y138.543
G01 X188.931 Y138.596
G01 X188.865 Y138.652
G01 X188.834 Y138.681
G01 X188.743 Y138.711
G01 X188.652 Y138.747
G01 X188.561 Y138.788
G01 X188.471 Y138.836
G01 X188.383 Y138.890
G01 X188.296 Y138.949
G01 X188.212 Y139.015
G01 X188.129 Y139.086
G01 X188.125 Y139.090
G01 X188.162 Y139.217
G01 X188.208 Y139.338
G01 X188.260 Y139.453
G01 X188.277 Y139.487
G01 X188.253 Y139.572
G01 X188.233 Y139.658
G01 X188.218 Y139.745
G01 X188.207 Y139.832
G01 X188.200 Y139.920
G01 X188.197 Y140.009
G01 X188.199 Y140.097
G01 X188.205 Y140.186
G01 X188.215 Y140.274
G01 X188.230 Y140.361
G01 X188.231 Y140.367
G01 X188.204 Y140.466
G01 X188.182 Y140.568
G01 X188.166 Y140.674
G01 X188.157 Y140.782
G01 X188.153 Y140.893
G01 X188.156 Y141.006
G01 X188.166 Y141.120
G01 X188.183 Y141.237
G01 X188.185 Y141.248
G01 X188.312 Y141.287
G01 X188.439 Y141.316
G01 X188.565 Y141.336
G01 X188.632 Y141.343
G01 X188.695 Y141.414
G01 X188.761 Y141.483
G01 X188.830 Y141.548
G01 X188.904 Y141.609
G01 X188.980 Y141.668
G01 X189.059 Y141.723
G01 X189.142 Y141.773
G01 X189.227 Y141.820
G01 X189.314 Y141.863
G01 X189.397 Y141.899
G01 X189.475 Y141.986
G01 X189.560 Y142.069
G01 X189.652 Y142.149
G01 X189.751 Y142.224
G01 X189.857 Y142.295
G01 X189.969 Y142.361
G01 X190.087 Y142.421
G01 X190.161 Y142.454
G01 X190.272 Y142.360
G01 X190.374 Y142.261
G01 X190.467 Y142.158
G01 X190.508 Y142.108
G01 X190.614 Y142.091
G01 X190.719 Y142.068
G01 X190.824 Y142.041
G01 X190.927 Y142.008
G01 X191.030 Y141.970
G01 X191.131 Y141.926
G01 X191.230 Y141.877
G01 X191.327 Y141.823
G01 X191.422 Y141.765
G01 X191.449 Y141.747
G01 X191.579 Y141.724
G01 X191.710 Y141.693
G01 X191.843 Y141.652
G01 X191.975 Y141.603
G01 X192.106 Y141.545
G01 X192.237 Y141.478
G01 X192.366 Y141.401
G01 X192.390 Y141.385
G01 X192.368 Y141.221
G01 X192.335 Y141.063
G01 X192.293 Y140.911
G01 X192.281 Y140.874
G01 X192.328 Y140.763
G01 X192.370 Y140.650
G01 X192.407 Y140.535
G01 X192.438 Y140.417
G01 X192.463 Y140.298
G01 X192.482 Y140.177
G01 X192.495 Y140.056
G01 X192.502 Y139.933
G01 X192.504 Y139.826
G01 X192.558 Y139.696
G01 X192.606 Y139.560
G01 X192.647 Y139.418
G01 X192.679 Y139.271
G01 X192.703 Y139.120
G01 X192.719 Y138.965
G01 X192.726 Y138.806
G01 X192.727 Y138.779
G01 X192.558 Y138.700
G01 X192.389 Y138.635
G01 X192.219 Y138.583
G01 X192.208 Y138.580
G01 X192.136 Y138.473
G01 X192.059 Y138.370
G01 X191.977 Y138.270
G01 X191.890 Y138.175
G01 X191.798 Y138.084
G01 X191.703 Y137.998
G01 X191.603 Y137.916
G01 X191.499 Y137.840
G01 X191.406 Y137.778
G01 X191.325 Y137.659
G01 X191.236 Y137.542
G01 X191.139 Y137.429
G01 X191.033 Y137.320
G01 X190.919 Y137.215
G01 X190.798 Y137.114
G01 X190.668 Y137.019
G01 X190.604 Y136.976
G01 X190.436 Y137.081
G01 X190.279 Y137.195
G01 X190.134 Y137.317
G01 X190.129 Y137.322
G01 X189.997 Y137.323
G01 X189.866 Y137.330
G01 X189.736 Y137.344
G01 X189.606 Y137.364
G01 X189.478 Y137.391
G01 X189.352 Y137.424
G01 X189.227 Y137.462
G01 X189.105 Y137.507
G01 X188.985 Y137.558
G01 X188.958 Y137.571
G01 X188.814 Y137.572
G01 X188.668 Y137.582
G01 X188.520 Y137.600
G01 X188.371 Y137.627
G01 X188.221 Y137.663
G01 X188.071 Y137.708
G01 X187.921 Y137.763
G01 X187.787 Y137.820
G01 X187.782 Y138.019
G01 X187.791 Y138.214
G01 X187.814 Y138.403
G01 X187.819 Y138.439
G01 X187.747 Y138.549
G01 X187.681 Y138.663
G01 X187.620 Y138.779
G01 X187.565 Y138.898
G01 X187.516 Y139.020
G01 X187.473 Y139.144
G01 X187.436 Y139.269
G01 X187.405 Y139.397
G01 X187.381 Y139.525
G01 X187.368 Y139.616
G01 X187.288 Y139.739
G01 X187.213 Y139.869
G01 X187.145 Y140.006
G01 X187.084 Y140.150
G01 X187.031 Y140.299
G01 X186.985 Y140.454
G01 X186.947 Y140.614
G01 X186.918 Y140.779
G01 X186.916 Y140.792
G01 X187.079 Y140.905
G01 X187.246 Y141.004
G01 X187.415 Y141.089
G01 X187.482 Y141.119
G01 X187.536 Y141.243
G01 X187.597 Y141.364
G01 X187.663 Y141.483
G01 X187.735 Y141.598
G01 X187.813 Y141.710
G01 X187.896 Y141.818
G01 X187.985 Y141.922
G01 X188.079 Y142.021
G01 X188.177 Y142.116
G01 X188.260 Y142.189
G01 X188.324 Y142.334
G01 X188.399 Y142.478
G01 X188.484 Y142.620
G01 X188.580 Y142.760
G01 X188.685 Y142.896
G01 X188.800 Y143.029
G01 X188.926 Y143.157
G01 X189.037 Y143.259
G01 X189.228 Y143.181
G01 X189.409 Y143.092
G01 X189.578 Y142.993
G01 X189.649 Y142.948
G01 X189.793 Y142.971
G01 X189.939 Y142.986
G01 X190.086 Y142.995
G01 X190.233 Y142.996
G01 X190.381 Y142.990
G01 X190.529 Y142.977
G01 X190.677 Y142.956
G01 X190.823 Y142.928
G01 X190.969 Y142.893
G01 X191.033 Y142.875
G01 X191.206 Y142.901
G01 X191.384 Y142.916
G01 X191.566 Y142.921
G01 X191.752 Y142.915
G01 X191.941 Y142.897
G01 X192.132 Y142.868
G01 X192.325 Y142.826
G01 X192.417 Y142.803
G01 X192.457 Y142.582
G01 X192.482 Y142.364
G01 X192.492 Y142.150
G01 X192.492 Y142.088
G01 X192.607 Y141.975
G01 X192.717 Y141.856
G01 X192.822 Y141.731
G01 X192.920 Y141.600
G01 X193.013 Y141.463
G01 X193.099 Y141.321
G01 X193.179 Y141.174
G01 X193.251 Y141.023
G01 X193.317 Y140.867
G01 X193.375 Y140.707
G01 X193.425 Y140.544
G01 X193.458 Y140.415
G01 X193.578 Y140.252
G01 X193.691 Y140.078
G01 X193.795 Y139.894
G01 X193.889 Y139.700
G01 X193.941 Y139.578
G01 X193.761 Y139.410
G01 X193.575 Y139.258
G01 X193.383 Y139.122
G01 X193.357 Y139.105
G01 X193.322 Y138.938
G01 X193.279 Y138.771
G01 X193.227 Y138.606
G01 X193.167 Y138.444
G01 X193.099 Y138.284
G01 X193.022 Y138.126
G01 X192.938 Y137.973
G01 X192.846 Y137.823
G01 X192.746 Y137.677
G01 X192.639 Y137.535
G01 X192.524 Y137.399
G01 X192.442 Y137.309
G01 X192.370 Y137.116
G01 X192.284 Y136.924
G01 X192.186 Y136.733
G01 X192.074 Y136.545
G01 X191.984 Y136.411
G01 X191.729 Y136.474
G01 X191.486 Y136.553
G01 X191.254 Y136.646
G01 X191.239 Y136.653
G01 X191.075 Y136.589
G01 X190.909 Y136.532
G01 X190.739 Y136.484
G01 X190.567 Y136.444
G01 X190.393 Y136.412
G01 X190.217 Y136.389
G01 X190.039 Y136.375
G01 X189.861 Y136.369
G01 X189.682 Y136.372
G01 X189.504 Y136.384
G01 X189.325 Y136.405
G01 X189.150 Y136.434
G01 X188.950 Y136.388
G01 X188.743 Y136.354
G01 X188.530 Y136.332
G01 X188.312 Y136.322
G01 X188.106 Y136.324
G01 X188.017 Y136.576
G01 X187.949 Y136.828
G01 X187.900 Y137.077
G01 X187.894 Y137.113
G01 X187.750 Y137.213
G01 X187.610 Y137.321
G01 X187.476 Y137.435
G01 X187.347 Y137.556
G01 X187.224 Y137.684
G01 X187.107 Y137.818
G01 X186.996 Y137.958
G01 X186.893 Y138.103
G01 X186.796 Y138.254
G01 X186.707 Y138.410
G01 X186.625 Y138.570
G01 X186.551 Y138.735
G01 X186.520 Y138.810
G01 X186.370 Y138.955
G01 X186.226 Y139.111
G01 X186.089 Y139.279
G01 X185.959 Y139.459
G01 X185.838 Y139.650
G01 X185.833 Y139.659
G01 X185.994 Y139.869
G01 X186.165 Y140.063
G01 X186.345 Y140.240
G01 X186.401 Y140.290
G01 X186.433 Y140.465
G01 X186.473 Y140.637
G01 X186.521 Y140.806
G01 X186.578 Y140.972
G01 X186.642 Y141.135
G01 X186.714 Y141.293
G01 X186.752 Y141.369
G01 X186.783 Y141.545
G01 X186.825 Y141.722
G01 X186.876 Y141.898
G01 X186.937 Y142.073
G01 X187.008 Y142.247
G01 X187.088 Y142.419
G01 X187.102 Y142.447
G01 X187.144 Y142.663
G01 X187.200 Y142.880
G01 X187.270 Y143.098
G01 X187.356 Y143.316
G01 X187.452 Y143.526
G01 X187.720 Y143.505
G01 X187.980 Y143.467
G01 X188.230 Y143.413
G01 X188.324 Y143.388
G01 X188.495 Y143.459
G01 X188.669 Y143.521
G01 X188.846 Y143.575
G01 X189.025 Y143.620
G01 X189.205 Y143.656
G01 X189.387 Y143.684
G01 X189.460 Y143.692
G01 X189.636 Y143.765
G01 X189.819 Y143.830
G01 X190.007 Y143.886
G01 X190.201 Y143.933
G01 X190.399 Y143.970
G01 X190.595 Y143.996
G01 X190.815 Y144.084
G01 X191.045 Y144.160
G01 X191.284 Y144.223
G01 X191.532 Y144.272
G01 X191.731 Y144.301
G01 X191.867 Y144.051
G01 X191.982 Y143.799
G01 X192.077 Y143.546
G01 X192.103 Y143.465
G01 X192.267 Y143.352
G01 X192.424 Y143.231
G01 X192.575 Y143.102
G01 X192.720 Y142.967
G01 X192.857 Y142.825
G01 X192.987 Y142.677
G01 X193.009 Y142.650
G01 X193.177 Y142.533
G01 X193.342 Y142.406
G01 X193.501 Y142.268
G01 X193.655 Y142.121
G01 X193.803 Y141.964
G01 X193.914 Y141.835
G01 X194.118 Y141.690
G01 X194.318 Y141.529
G01 X194.511 Y141.352
G01 X194.697 Y141.160
G01 X194.819 Y141.020
G01 X194.672 Y140.752
G01 X194.510 Y140.500
G01 X194.336 Y140.266
G01 X194.303 Y140.226
G01 X194.296 Y140.014
G01 X194.278 Y139.804
G01 X194.250 Y139.595
G01 X194.213 Y139.389
G01 X194.165 Y139.186
G01 X194.107 Y138.986
G01 X194.106 Y138.981
G01 X194.099 Y138.766
G01 X194.080 Y138.550
G01 X194.050 Y138.333
G01 X194.009 Y138.115
G01 X193.956 Y137.897
G01 X193.909 Y137.737
G01 X193.898 Y137.480
G01 X193.871 Y137.219
G01 X193.827 Y136.955
G01 X193.767 Y136.688
G01 X193.712 Y136.492
G01 X193.387 Y136.468
G01 X193.070 Y136.467
G01 X192.761 Y136.489
G01 X192.732 Y136.492
G01 X192.544 Y136.379
G01 X192.353 Y136.276
G01 X192.157 Y136.183
G01 X191.958 Y136.100
G01 X191.756 Y136.027
G01 X191.551 Y135.965
G01 X191.542 Y135.963
G01 X191.356 Y135.850
G01 X191.162 Y135.746
G01 X190.962 Y135.651
G01 X190.754 Y135.565
G01 X190.541 Y135.490
G01 X190.353 Y135.433
G01 X190.132 Y135.302
G01 X189.898 Y135.181
G01 X189.654 Y135.073
G01 X189.398 Y134.977
G01 X189.163 Y134.903
G01 X188.961 Y135.169
G01 X188.783 Y135.441
G01 X188.629 Y135.719
G01 X188.612 Y135.753
G01 X188.413 Y135.848
G01 X188.221 Y135.952
G01 X188.035 Y136.065
G01 X187.856 Y136.187
G01 X187.684 Y136.317
G01 X187.519 Y136.454
G01 X187.485 Y136.485
G01 X187.288 Y136.578
G01 X187.095 Y136.683
G01 X186.906 Y136.799
G01 X186.721 Y136.925
G01 X186.541 Y137.061
G01 X186.367 Y137.208
G01 X186.357 Y137.217
G01 X186.125 Y137.330
G01 X185.896 Y137.460
G01 X185.670 Y137.605
G01 X185.449 Y137.767
G01 X185.234 Y137.945
G01 X185.230 Y137.949
G01 X185.341 Y138.262
G01 X185.471 Y138.559
G01 X185.618 Y138.839
G01 X185.655 Y138.904
G01 X185.626 Y139.122
G01 X185.608 Y139.341
G01 X185.601 Y139.559
G01 X185.604 Y139.776
G01 X185.618 Y139.992
G01 X185.643 Y140.206
G01 X185.655 Y140.290
G01 X185.626 Y140.508
G01 X185.608 Y140.730
G01 X185.601 Y140.955
G01 X185.605 Y141.183
G01 X185.622 Y141.412
G01 X185.650 Y141.643
G01 X185.655 Y141.676
G01 X185.623 Y141.940
G01 X185.606 Y142.212
G01 X185.605 Y142.489
G01 X185.621 Y142.772
G01 X185.655 Y143.060
G01 X185.655 Y143.062
G01 X185.979 Y143.140
G01 X186.299 Y143.194
G01 X186.614 Y143.225
G01 X186.720 Y143.230
G01 X186.880 Y143.390
G01 X187.048 Y143.542
G01 X187.223 Y143.686
G01 X187.405 Y143.821
G01 X187.593 Y143.947
G01 X187.788 Y144.064
G01 X187.988 Y144.171
G01 X188.194 Y144.268
G01 X188.404 Y144.355
G01 X188.517 Y144.397
G01 X188.701 Y144.580
G01 X188.901 Y144.755
G01 X189.114 Y144.921
G01 X189.341 Y145.077
G01 X189.581 Y145.223
G01 X189.835 Y145.357
G01 X190.100 Y145.479
G01 X190.313 Y145.563
G01 X190.563 Y145.327
G01 X190.790 Y145.079
G01 X190.995 Y144.823
G01 X191.056 Y144.738
G01 X191.289 Y144.687
G01 X191.520 Y144.625
G01 X191.747 Y144.551
G01 X191.971 Y144.466
G01 X192.191 Y144.370
G01 X192.406 Y144.263
G01 X192.616 Y144.146
G01 X192.820 Y144.018
G01 X193.018 Y143.880
G01 X193.071 Y143.841
G01 X193.339 Y143.781
G01 X193.609 Y143.703
G01 X193.879 Y143.608
G01 X194.148 Y143.495
G01 X194.415 Y143.364
G01 X194.679 Y143.215
G01 X194.939 Y143.048
G01 X195.085 Y142.944
G01 X195.017 Y142.585
G01 X194.927 Y142.240
G01 X194.816 Y141.910
G01 X194.789 Y141.840
G01 X194.877 Y141.604
G01 X194.952 Y141.363
G01 X195.017 Y141.120
G01 X195.069 Y140.873
G01 X195.108 Y140.623
G01 X195.136 Y140.372
G01 X195.151 Y140.120
G01 X195.154 Y139.867
G01 X195.145 Y139.614
G01 X195.144 Y139.600
G01 X195.242 Y139.332
G01 X195.325 Y139.054
G01 X195.394 Y138.766
G01 X195.447 Y138.469
G01 X195.484 Y138.164
G01 X195.503 Y137.852
G01 X195.505 Y137.533
G01 X195.499 Y137.360
G01 X195.141 Y137.213
G01 X194.782 Y137.096
G01 X194.425 Y137.006
G01 X194.380 Y136.996
G01 X194.224 Y136.788
G01 X194.059 Y136.587
G01 X193.883 Y136.394
G01 X193.699 Y136.211
G01 X193.506 Y136.037
G01 X193.305 Y135.873
G01 X193.096 Y135.718
G01 X192.880 Y135.575
G01 X192.658 Y135.442
G01 X192.648 Y135.437
G01 X192.475 Y135.207
G01 X192.287 Y134.982
G01 X192.082 Y134.766
G01 X191.861 Y134.557
G01 X191.624 Y134.358
G01 X191.373 Y134.169
G01 X191.107 Y133.992
G01 X190.916 Y133.877
G01 X190.588 Y134.104
G01 X190.284 Y134.348
G01 X190.006 Y134.607
G01 X189.976 Y134.638
G01 X189.714 Y134.653
G01 X189.452 Y134.682
G01 X189.193 Y134.723
G01 X188.937 Y134.777
G01 X188.684 Y134.844
G01 X188.435 Y134.922
G01 X188.191 Y135.013
G01 X187.951 Y135.115
G01 X187.718 Y135.229
G01 X187.664 Y135.257
G01 X187.377 Y135.275
G01 X187.086 Y135.310
G01 X186.793 Y135.362
G01 X186.498 Y135.431
G01 X186.202 Y135.519
G01 X185.906 Y135.625
G01 X185.612 Y135.750
G01 X185.351 Y135.877
G01 X185.362 Y136.277
G01 X185.401 Y136.665
G01 X185.466 Y137.040
G01 X185.481 Y137.111
G01 X185.350 Y137.340
G01 X185.230 Y137.574
G01 X185.123 Y137.813
G01 X185.027 Y138.057
G01 X184.943 Y138.305
G01 X184.872 Y138.557
G01 X184.813 Y138.812
G01 X184.767 Y139.069
G01 X184.733 Y139.328
G01 X184.722 Y139.448
G01 X184.577 Y139.701
G01 X184.445 Y139.967
G01 X184.327 Y140.245
G01 X184.222 Y140.534
G01 X184.132 Y140.834
G01 X184.059 Y141.145
G01 X184.002 Y141.464
G01 X183.963 Y141.785
G01 X184.302 Y141.993
G01 X184.647 Y142.173
G01 X184.995 Y142.324
G01 X185.098 Y142.363
G01 X185.219 Y142.601
G01 X185.352 Y142.833
G01 X185.496 Y143.058
G01 X185.651 Y143.276
G01 X185.817 Y143.485
G01 X185.992 Y143.687
G01 X186.178 Y143.879
G01 X186.372 Y144.063
G01 X186.576 Y144.236
G01 X186.684 Y144.322
G01 X186.822 Y144.591
G01 X186.980 Y144.856
G01 X187.156 Y145.118
G01 X187.350 Y145.373
G01 X187.563 Y145.621
G01 X187.794 Y145.861
G01 X188.043 Y146.091
G01 X188.270 Y146.280
G01 X188.636 Y146.106
G01 X188.981 Y145.911
G01 X189.304 Y145.698
G01 X189.401 Y145.627
G01 X189.678 Y145.655
G01 X189.955 Y145.669
G01 X190.234 Y145.669
G01 X190.512 Y145.656
G01 X190.790 Y145.630
G01 X191.066 Y145.589
G01 X191.340 Y145.535
G01 X191.612 Y145.468
G01 X191.880 Y145.387
G01 X191.970 Y145.357
G01 X192.287 Y145.387
G01 X192.612 Y145.399
G01 X192.943 Y145.391
G01 X193.279 Y145.364
G01 X193.620 Y145.316
G01 X193.964 Y145.248
G01 X194.310 Y145.158
G01 X194.539 Y145.087
G01 X194.594 Y144.666
G01 X194.619 Y144.252
G01 X194.614 Y143.847
G01 X194.609 Y143.749
G01 X194.790 Y143.521
G01 X194.960 Y143.283
G01 X195.119 Y143.038
G01 X195.265 Y142.785
G01 X195.398 Y142.525
G01 X195.519 Y142.258
G01 X195.627 Y141.986
G01 X195.721 Y141.708
G01 X195.801 Y141.427
G01 X195.810 Y141.392
G01 X196.015 Y141.132
G01 X196.207 Y140.855
G01 X196.387 Y140.562
G01 X196.552 Y140.254
G01 X196.702 Y139.931
G01 X196.836 Y139.593
G01 X196.952 Y139.243
G01 X197.011 Y139.034
G01 X196.670 Y138.745
G01 X196.318 Y138.487
G01 X195.958 Y138.260
G01 X195.902 Y138.228
G01 X195.805 Y137.941
G01 X195.694 Y137.660
G01 X195.569 Y137.385
G01 X195.432 Y137.116
G01 X195.281 Y136.854
G01 X195.118 Y136.601
G01 X194.943 Y136.355
G01 X194.756 Y136.119
G01 X194.557 Y135.893
G01 X194.547 Y135.882
G01 X194.439 Y135.564
G01 X194.310 Y135.248
G01 X194.161 Y134.934
G01 X193.991 Y134.623
G01 X193.800 Y134.317
G01 X193.589 Y134.017
G01 X193.357 Y133.724
G01 X193.193 Y133.535
G01 X192.749 Y133.669
G01 X192.326 Y133.829
G01 X191.927 Y134.015
G01 X191.881 Y134.039
G01 X191.584 Y133.962
G01 X191.284 Y133.900
G01 X190.982 Y133.853
G01 X190.678 Y133.821
G01 X190.374 Y133.804
G01 X190.069 Y133.802
G01 X189.765 Y133.815
G01 X189.463 Y133.843
G01 X189.163 Y133.885
G01 X189.113 Y133.894
G01 X188.788 Y133.811
G01 X188.453 Y133.745
G01 X188.109 Y133.697
G01 X187.756 Y133.669
G01 X187.396 Y133.660
G01 X187.030 Y133.672
G01 X186.659 Y133.705
G01 X186.345 Y133.749
G01 X186.213 Y134.197
G01 X186.116 Y134.642
G01 X186.053 Y135.083
G01 X186.046 Y135.155
G01 X185.828 Y135.371
G01 X185.622 Y135.598
G01 X185.428 Y135.833
G01 X185.246 Y136.077
G01 X185.078 Y136.328
G01 X184.922 Y136.587
G01 X184.780 Y136.852
G01 X184.713 Y136.989
G01 X184.490 Y137.211
G01 X184.275 Y137.447
G01 X184.071 Y137.698
G01 X183.878 Y137.963
G01 X183.697 Y138.241
G01 X183.529 Y138.532
G01 X183.380 Y138.824
G01 X183.133 Y139.126
G01 X182.900 Y139.448
G01 X182.713 Y139.742
G01 X183.015 Y140.095
G01 X183.333 Y140.419
G01 X183.666 Y140.711
G01 X183.753 Y140.781
G01 X183.815 Y141.084
G01 X183.893 Y141.382
G01 X183.984 Y141.676
G01 X184.090 Y141.963
G01 X184.209 Y142.245
G01 X184.342 Y142.519
G01 X184.488 Y142.786
G01 X184.583 Y142.946
G01 X184.649 Y143.260
G01 X184.732 Y143.575
G01 X184.833 Y143.890
G01 X184.953 Y144.204
G01 X185.091 Y144.514
G01 X185.248 Y144.821
G01 X185.414 Y145.110
G01 X185.537 Y145.494
G01 X185.686 Y145.877
G01 X185.830 Y146.192
G01 X186.294 Y146.132
G01 X186.743 Y146.041
G01 X187.173 Y145.921
G01 X187.300 Y145.880
G01 X187.596 Y145.995
G01 X187.896 Y146.095
G01 X188.201 Y146.179
G01 X188.509 Y146.249
G01 X188.820 Y146.303
G01 X189.132 Y146.342
G01 X189.445 Y146.366
G01 X189.617 Y146.372
G01 X189.929 Y146.493
G01 X190.251 Y146.599
G01 X190.584 Y146.688
G01 X190.927 Y146.760
G01 X191.278 Y146.814
G01 X191.636 Y146.850
G01 X191.934 Y146.865
G01 X192.340 Y146.975
G01 X192.761 Y147.062
G01 X193.092 Y147.111
G01 X193.300 Y146.674
G01 X193.473 Y146.234
G01 X193.612 Y145.794
G01 X193.642 Y145.678
G01 X193.910 Y145.483
G01 X194.167 Y145.276
G01 X194.414 Y145.056
G01 X194.649 Y144.826
G01 X194.872 Y144.584
G01 X195.082 Y144.332
G01 X195.280 Y144.071
G01 X195.353 Y143.967
G01 X195.635 Y143.762
G01 X195.909 Y143.539
G01 X196.175 Y143.298
G01 X196.431 Y143.039
G01 X196.676 Y142.762
G01 X196.909 Y142.469
G01 X197.064 Y142.256
G01 X197.388 Y141.966
G01 X197.699 Y141.649
G01 X197.919 Y141.401
G01 X197.653 Y140.970
G01 X197.364 Y140.568
G01 X197.055 Y140.197
G01 X196.997 Y140.133
G01 X196.978 Y139.790
G01 X196.942 Y139.449
G01 X196.890 Y139.111
G01 X196.821 Y138.777
G01 X196.737 Y138.448
G01 X196.636 Y138.124
G01 X196.519 Y137.806
G01 X196.484 Y137.717
G01 X196.464 Y137.361
G01 X196.425 Y137.001
G01 X196.366 Y136.639
G01 X196.286 Y136.275
G01 X196.186 Y135.912
G01 X196.065 Y135.549
G01 X195.970 Y135.301
G01 X195.903 Y134.866
G01 X195.806 Y134.427
G01 X195.714 Y134.094
G01 X195.188 Y134.082
G01 X194.675 Y134.107
G01 X194.178 Y134.167
G01 X194.115 Y134.177
G01 X193.811 Y134.003
G01 X193.501 Y133.844
G01 X193.183 Y133.701
G01 X192.861 Y133.575
G01 X192.533 Y133.465
G01 X192.202 Y133.371
G01 X191.867 Y133.295
G01 X191.763 Y133.274
G01 X191.452 Y133.095
G01 X191.127 Y132.931
G01 X190.790 Y132.782
G01 X190.441 Y132.649
G01 X190.081 Y132.533
G01 X189.711 Y132.435
G01 X189.410 Y132.371
G01 X189.009 Y132.191
G01 X188.588 Y132.032
G01 X188.234 Y131.920
G01 X187.932 Y132.360
G01 X187.670 Y132.810
G01 X187.446 Y133.267
G01 X187.417 Y133.334
G01 X187.104 Y133.493
G01 X186.800 Y133.667
G01 X186.506 Y133.855
G01 X186.223 Y134.056
G01 X185.951 Y134.270
G01 X185.692 Y134.497
G01 X185.444 Y134.735
G01 X185.337 Y134.845
G01 X185.017 Y135.007
G01 X184.702 Y135.188
G01 X184.393 Y135.389
G01 X184.091 Y135.608
G01 X183.797 Y135.846
G01 X183.512 Y136.102
G01 X183.258 Y136.356
G01 X182.886 Y136.595
G01 X182.522 Y136.861
G01 X182.218 Y137.111
G01 X182.422 Y137.603
G01 X182.655 Y138.067
G01 X182.914 Y138.503
G01 X182.975 Y138.596
G01 X182.936 Y138.945
G01 X182.915 Y139.295
G01 X182.912 Y139.645
G01 X182.925 Y139.993
G01 X182.956 Y140.339
G01 X183.004 Y140.682
G01 X183.068 Y141.022
G01 X183.112 Y141.213
G01 X183.072 Y141.574
G01 X183.051 Y141.941
G01 X183.050 Y142.315
G01 X183.070 Y142.693
G01 X183.109 Y143.075
G01 X183.170 Y143.459
G01 X183.249 Y143.830
G01 X183.246 Y144.283
G01 X183.273 Y144.744
G01 X183.317 Y145.139
G01 X183.841 Y145.236
G01 X184.358 Y145.295
G01 X184.865 Y145.317
G01 X185.007 Y145.316
G01 X185.284 Y145.542
G01 X185.572 Y145.754
G01 X185.869 Y145.951
G01 X186.174 Y146.133
G01 X186.487 Y146.300
G01 X186.808 Y146.450
G01 X187.135 Y146.584
G01 X187.320 Y146.652
G01 X187.610 Y146.889
G01 X187.918 Y147.113
G01 X188.241 Y147.323
G01 X188.580 Y147.519
G01 X188.934 Y147.698
G01 X189.303 Y147.861
G01 X189.633 Y147.987
G01 X190.027 Y148.245
G01 X190.444 Y148.483
G01 X190.790 Y148.655
G01 X191.165 Y148.260
G01 X191.503 Y147.850
G01 X191.804 Y147.427
G01 X191.880 Y147.310
G01 X192.232 Y147.195
G01 X192.578 Y147.064
G01 X192.916 Y146.917
G01 X193.246 Y146.753
G01 X193.567 Y146.573
G01 X193.878 Y146.378
G01 X194.178 Y146.169
G01 X194.305 Y146.074
G01 X194.675 Y145.954
G01 X195.043 Y145.812
G01 X195.409 Y145.648
G01 X195.771 Y145.462
G01 X196.127 Y145.253
G01 X196.476 Y145.023
G01 X196.730 Y144.839
G01 X197.174 Y144.642
G01 X197.616 Y144.413
G01 X197.942 Y144.221
G01 X197.809 Y143.670
G01 X197.641 Y143.144
G01 X197.442 Y142.643
G01 X197.397 Y142.543
G01 X197.495 Y142.172
G01 X197.575 Y141.797
G01 X197.637 Y141.420
G01 X197.679 Y141.041
G01 X197.703 Y140.662
G01 X197.708 Y140.282
G01 X197.695 Y139.904
G01 X197.687 Y139.786
G01 X197.789 Y139.400
G01 X197.872 Y139.003
G01 X197.935 Y138.597
G01 X197.976 Y138.182
G01 X197.995 Y137.759
G01 X197.992 Y137.331
G01 X197.976 Y137.029
G01 X198.055 Y136.541
G01 X198.104 Y136.038
G01 X198.121 Y135.651
G01 X197.567 Y135.457
G01 X197.013 Y135.306
G01 X196.464 Y135.198
G01 X196.386 Y135.186
G01 X196.113 Y134.902
G01 X195.829 Y134.634
G01 X195.532 Y134.381
G01 X195.225 Y134.144
G01 X194.908 Y133.923
G01 X194.582 Y133.720
G01 X194.558 Y133.706
G01 X194.287 Y133.423
G01 X193.999 Y133.152
G01 X193.695 Y132.893
G01 X193.375 Y132.648
G01 X193.040 Y132.418
G01 X192.730 Y132.226
G01 X192.407 Y131.894
G01 X192.058 Y131.576
G01 X191.683 Y131.273
G01 X191.283 Y130.987
G01 X190.902 Y130.746
G01 X190.428 Y131.112
G01 X189.992 Y131.501
G01 X189.595 Y131.911
G01 X189.543 Y131.970
G01 X189.154 Y132.043
G01 X188.771 Y132.136
G01 X188.395 Y132.246
G01 X188.027 Y132.375
G01 X187.668 Y132.521
G01 X187.318 Y132.683
G01 X187.266 Y132.709
G01 X186.881 Y132.782
G01 X186.497 Y132.874
G01 X186.114 Y132.988
G01 X185.734 Y133.121
G01 X185.358 Y133.276
G01 X184.989 Y133.449
G01 X184.535 Y133.539
G01 X184.077 Y133.657
G01 X183.619 Y133.805
G01 X183.161 Y133.984
G01 X182.712 Y134.189
G01 X182.760 Y134.787
G01 X182.848 Y135.366
G01 X182.975 Y135.923
G01 X183.004 Y136.028
G01 X182.853 Y136.394
G01 X182.721 Y136.765
G01 X182.608 Y137.141
G01 X182.514 Y137.519
G01 X182.440 Y137.900
G01 X182.384 Y138.282
G01 X182.373 Y138.381
G01 X182.223 Y138.744
G01 X182.090 Y139.118
G01 X181.975 Y139.503
G01 X181.879 Y139.896
G01 X181.802 Y140.297
G01 X181.746 Y140.706
G01 X181.743 Y140.734
G01 X181.567 Y141.169
G01 X181.415 Y141.623
G01 X181.288 Y142.094
G01 X181.186 Y142.582
G01 X181.113 Y143.085
G01 X181.112 Y143.087
G01 X181.638 Y143.373
G01 X182.169 Y143.615
G01 X182.704 Y143.813
G01 X182.843 Y143.858
G01 X183.070 Y144.187
G01 X183.311 Y144.503
G01 X183.567 Y144.806
G01 X183.837 Y145.094
G01 X184.119 Y145.368
G01 X184.413 Y145.626
G01 X184.501 Y145.699
G01 X184.728 Y146.030
G01 X184.975 Y146.352
G01 X185.240 Y146.664
G01 X185.524 Y146.965
G01 X185.827 Y147.254
G01 X186.147 Y147.530
G01 X186.159 Y147.541
G01 X186.437 Y147.936
G01 X186.744 Y148.322
G01 X187.081 Y148.696
G01 X187.447 Y149.057
G01 X187.817 Y149.382
G01 X188.350 Y149.093
G01 X188.849 Y148.775
G01 X189.313 Y148.431
G01 X189.434 Y148.332
G01 X189.844 Y148.321
G01 X190.252 Y148.289
G01 X190.656 Y148.237
G01 X191.055 Y148.166
G01 X191.449 Y148.075
G01 X191.837 Y147.965
G01 X191.923 Y147.938
G01 X192.337 Y147.927
G01 X192.755 Y147.893
G01 X193.175 Y147.838
G01 X193.596 Y147.760
G01 X194.018 Y147.659
G01 X194.412 Y147.544
G01 X194.911 Y147.525
G01 X195.419 Y147.474
G01 X195.934 Y147.392
G01 X196.453 Y147.276
G01 X196.901 Y147.150
G01 X196.949 Y146.526
G01 X196.953 Y145.916
G01 X196.915 Y145.321
G01 X196.901 Y145.190
G01 X197.121 Y144.827
G01 X197.321 Y144.455
G01 X197.503 Y144.075
G01 X197.665 Y143.688
G01 X197.807 Y143.295
G01 X197.930 Y142.897
G01 X197.943 Y142.849
G01 X198.165 Y142.484
G01 X198.369 Y142.104
G01 X198.556 Y141.709
G01 X198.724 Y141.301
G01 X198.873 Y140.881
G01 X198.985 Y140.509
G01 X199.246 Y140.069
G01 X199.485 Y139.605
G01 X199.700 Y139.118
G01 X199.890 Y138.609
G01 X200.027 Y138.168
G01 X199.511 Y137.775
G01 X198.983 Y137.428
G01 X198.444 Y137.127
G01 X198.356 Y137.083
G01 X198.166 Y136.691
G01 X197.958 Y136.311
G01 X197.733 Y135.943
G01 X197.490 Y135.589
G01 X197.232 Y135.248
G01 X196.958 Y134.922
G01 X196.938 Y134.899
G01 X196.749 Y134.508
G01 X196.538 Y134.123
G01 X196.306 Y133.746
G01 X196.052 Y133.378
G01 X195.777 Y133.020
G01 X195.519 Y132.715
G01 X195.291 Y132.254
G01 X195.031 Y131.798
G01 X194.739 Y131.349
G01 X194.414 Y130.909
G01 X194.101 Y130.531
G01 X193.476 Y130.755
G01 X192.883 Y131.016
G01 X192.325 Y131.312
G01 X192.251 Y131.355
G01 X191.815 Y131.300
G01 X191.378 Y131.266
G01 X190.943 Y131.255
G01 X190.510 Y131.264
G01 X190.081 Y131.295
G01 X189.655 Y131.348
G01 X189.605 Y131.355
G01 X189.173 Y131.300
G01 X188.735 Y131.266
G01 X188.291 Y131.255
G01 X187.844 Y131.266
G01 X187.393 Y131.300
G01 X186.959 Y131.355
G01 X186.448 Y131.294
G01 X185.924 Y131.263
G01 X185.389 Y131.262
G01 X184.845 Y131.294
G01 X184.313 Y131.355
G01 X184.158 Y132.004
G01 X184.053 Y132.647
G01 X183.996 Y133.279
G01 X183.991 Y133.388
G01 X183.706 Y133.723
G01 X183.439 Y134.070
G01 X183.192 Y134.428
G01 X182.963 Y134.796
G01 X182.754 Y135.173
G01 X182.565 Y135.557
G01 X182.527 Y135.642
G01 X182.244 Y135.974
G01 X181.976 Y136.323
G01 X181.724 Y136.688
G01 X181.488 Y137.070
G01 X181.271 Y137.466
G01 X181.072 Y137.877
G01 X181.063 Y137.896
G01 X180.731 Y138.293
G01 X180.416 Y138.718
G01 X180.122 Y139.169
G01 X179.849 Y139.646
G01 X179.600 Y140.148
G01 X179.599 Y140.151
G01 X180.057 Y140.633
G01 X180.536 Y141.071
G01 X181.032 Y141.463
G01 X181.153 Y141.550
G01 X181.278 Y141.973
G01 X181.424 Y142.388
G01 X181.590 Y142.793
G01 X181.775 Y143.188
G01 X181.978 Y143.571
G01 X182.198 Y143.943
G01 X182.263 Y144.044
G01 X182.388 Y144.467
G01 X182.537 Y144.887
G01 X182.708 Y145.304
G01 X182.903 Y145.715
G01 X183.120 Y146.120
G01 X183.360 Y146.518
G01 X183.373 Y146.538
G01 X183.529 Y147.044
G01 X183.718 Y147.550
G01 X183.942 Y148.054
G01 X184.200 Y148.554
G01 X184.484 Y149.032
G01 X185.142 Y148.910
G01 X185.774 Y148.746
G01 X186.378 Y148.543
G01 X186.535 Y148.482
G01 X186.967 Y148.609
G01 X187.403 Y148.714
G01 X187.842 Y148.797
G01 X188.283 Y148.859
G01 X188.724 Y148.898
G01 X189.166 Y148.915
G01 X189.273 Y148.916
G01 X189.708 Y149.044
G01 X190.153 Y149.151
G01 X190.609 Y149.236
G01 X191.073 Y149.297
G01 X191.545 Y149.335
G01 X192.010 Y149.349
G01 X192.536 Y149.499
G01 X193.081 Y149.618
G01 X193.643 Y149.706
G01 X194.222 Y149.762
G01 X194.748 Y149.783
G01 X195.010 Y149.150
G01 X195.221 Y148.515
G01 X195.383 Y147.883
G01 X195.415 Y147.733
G01 X195.778 Y147.445
G01 X196.126 Y147.141
G01 X196.459 Y146.821
G01 X196.775 Y146.485
G01 X197.073 Y146.135
G01 X197.354 Y145.771
G01 X197.615 Y145.394
G01 X197.835 Y145.044
G01 X198.222 Y144.739
G01 X198.596 Y144.407
G01 X198.958 Y144.051
G01 X199.305 Y143.669
G01 X199.635 Y143.263
G01 X199.948 Y142.833
G01 X200.241 Y142.380
G01 X200.256 Y142.355
G01 X200.684 Y141.907
G01 X201.063 Y141.459
G01 X200.661 Y140.876
G01 X200.229 Y140.337
G01 X199.771 Y139.842
G01 X199.686 Y139.758
G01 X199.641 Y139.285
G01 X199.573 Y138.815
G01 X199.483 Y138.350
G01 X199.369 Y137.892
G01 X199.234 Y137.440
G01 X199.077 Y136.997
G01 X198.899 Y136.563
G01 X198.736 Y136.211
G01 X198.688 Y135.713
G01 X198.613 Y135.211
G01 X198.509 Y134.707
G01 X198.376 Y134.201
G01 X198.214 Y133.695
G01 X198.021 Y133.192
G01 X197.799 Y132.693
G01 X197.785 Y132.664
G01 X197.642 Y132.057
G01 X197.468 Y131.482
G01 X196.742 Y131.503
G01 X196.036 Y131.574
G01 X195.355 Y131.693
G01 X195.259 Y131.714
G01 X194.832 Y131.491
G01 X194.396 Y131.289
G01 X193.952 Y131.110
G01 X193.501 Y130.953
G01 X193.044 Y130.819
G01 X192.582 Y130.708
G01 X192.117 Y130.620
G01 X191.716 Y130.563
G01 X191.272 Y130.330
G01 X190.809 Y130.118
G01 X190.328 Y129.929
G01 X189.831 Y129.764
G01 X189.318 Y129.623
G01 X188.791 Y129.509
G01 X188.252 Y129.422
G01 X188.172 Y129.411
G01 X187.585 Y129.201
G01 X186.991 Y129.028
G01 X186.609 Y129.654
G01 X186.280 Y130.291
G01 X186.006 Y130.933
G01 X185.967 Y131.036
G01 X185.546 Y131.271
G01 X185.138 Y131.527
G01 X184.745 Y131.801
G01 X184.366 Y132.093
G01 X184.004 Y132.403
G01 X183.658 Y132.729
G01 X183.330 Y133.071
G01 X183.030 Y133.415
G01 X182.592 Y133.659
G01 X182.161 Y133.931
G01 X181.740 Y134.230
G01 X181.330 Y134.556
G01 X180.932 Y134.909
G01 X180.547 Y135.287
G01 X180.179 Y135.692
G01 X180.092 Y135.794
G01 X179.593 Y136.173
G01 X179.113 Y136.587
G01 X179.429 Y137.247
G01 X179.782 Y137.868
G01 X180.169 Y138.448
G01 X180.256 Y138.567
G01 X180.223 Y139.049
G01 X180.214 Y139.531
G01 X180.229 Y140.012
G01 X180.267 Y140.490
G01 X180.328 Y140.965
G01 X180.413 Y141.434
G01 X180.520 Y141.898
G01 X180.649 Y142.354
G01 X180.657 Y142.380
G01 X180.622 Y142.885
G01 X180.615 Y143.400
G01 X180.636 Y143.922
G01 X180.686 Y144.450
G01 X180.766 Y144.983
G01 X180.876 Y145.518
G01 X181.017 Y146.054
G01 X181.058 Y146.193
G01 X181.105 Y146.830
G01 X181.192 Y147.464
G01 X181.918 Y147.560
G01 X182.632 Y147.603
G01 X183.331 Y147.595
G01 X183.508 Y147.585
G01 X183.900 Y147.879
G01 X184.305 Y148.153
G01 X184.722 Y148.406
G01 X185.150 Y148.638
G01 X185.589 Y148.849
G01 X186.036 Y149.037
G01 X186.491 Y149.202
G01 X186.953 Y149.345
G01 X186.972 Y149.350
G01 X187.387 Y149.662
G01 X187.826 Y149.955
G01 X188.287 Y150.227
G01 X188.770 Y150.478
G01 X189.274 Y150.706
G01 X189.796 Y150.909
G01 X190.337 Y151.087
G01 X190.436 Y151.115
G01 X191.012 Y151.431
G01 X191.591 Y151.704
G01 X192.075 Y151.137
G01 X192.507 Y150.551
G01 X192.887 Y149.952
G01 X192.973 Y149.801
G01 X193.445 Y149.627
G01 X193.906 Y149.430
G01 X194.357 Y149.212
G01 X194.796 Y148.972
G01 X195.221 Y148.711
G01 X195.633 Y148.430
G01 X196.029 Y148.129
G01 X196.387 Y147.830
G01 X196.888 Y147.645
G01 X197.385 Y147.429
G01 X197.878 Y147.183
G01 X198.364 Y146.906
G01 X198.842 Y146.598
G01 X199.309 Y146.260
G01 X199.763 Y145.891
G01 X199.801 Y145.859
G01 X200.394 Y145.540
G01 X200.939 Y145.202
G01 X200.720 Y144.467
G01 X200.456 Y143.766
G01 X200.150 Y143.102
G01 X200.084 Y142.976
G01 X200.197 Y142.472
G01 X200.285 Y141.965
G01 X200.347 Y141.455
G01 X200.385 Y140.943
G01 X200.397 Y140.432
G01 X200.383 Y139.921
G01 X200.345 Y139.413
G01 X200.294 Y138.985
G01 X200.412 Y138.454
G01 X200.503 Y137.910
G01 X200.566 Y137.352
G01 X200.598 Y136.784
G01 X200.600 Y136.206
G01 X200.570 Y135.621
G01 X200.507 Y135.029
G01 X200.503 Y134.995
G01 X200.558 Y134.316
G01 X200.572 Y133.664
G01 X199.816 Y133.443
G01 X199.064 Y133.279
G01 X198.320 Y133.173
G01 X198.208 Y133.162
G01 X197.841 Y132.787
G01 X197.457 Y132.432
G01 X197.058 Y132.097
G01 X196.643 Y131.783
G01 X196.215 Y131.490
G01 X195.774 Y131.220
G01 X195.321 Y130.972
G01 X194.931 Y130.781
G01 X194.549 Y130.390
G01 X194.140 Y130.015
G01 X193.705 Y129.657
G01 X193.244 Y129.318
G01 X192.759 Y129.000
G01 X192.251 Y128.704
G01 X191.720 Y128.432
G01 X191.655 Y128.401
G01 X191.116 Y127.984
G01 X190.563 Y127.607
G01 X189.956 Y128.128
G01 X189.402 Y128.678
G01 X188.901 Y129.251
G01 X188.830 Y129.340
G01 X188.319 Y129.476
G01 X187.819 Y129.637
G01 X187.330 Y129.822
G01 X186.854 Y130.029
G01 X186.392 Y130.258
G01 X186.276 Y130.320
G01 X185.778 Y130.453
G01 X185.284 Y130.610
G01 X184.796 Y130.794
G01 X184.314 Y131.003
G01 X183.840 Y131.237
G01 X183.722 Y131.301
G01 X183.167 Y131.450
G01 X182.613 Y131.634
G01 X182.061 Y131.852
G01 X181.512 Y132.104
G01 X181.167 Y132.281
G01 X180.524 Y132.506
G01 X179.890 Y132.771
G01 X179.996 Y133.564
G01 X180.153 Y134.329
G01 X180.361 Y135.061
G01 X180.407 Y135.200
G01 X180.242 Y135.703
G01 X180.103 Y136.210
G01 X179.991 Y136.720
G01 X179.905 Y137.232
G01 X179.844 Y137.745
G01 X179.830 Y137.911
G01 X179.669 Y138.402
G01 X179.531 Y138.903
G01 X179.418 Y139.414
G01 X179.330 Y139.934
G01 X179.268 Y140.460
G01 X179.254 Y140.623
G01 X179.075 Y141.173
G01 X178.926 Y141.742
G01 X178.806 Y142.329
G01 X178.718 Y142.932
G01 X178.678 Y143.334
G01 X178.513 Y144.005
G01 X178.389 Y144.690
G01 X179.110 Y145.034
G01 X179.835 Y145.319
G01 X180.561 Y145.545
G01 X180.738 Y145.591
G01 X181.054 Y146.018
G01 X181.389 Y146.428
G01 X181.744 Y146.819
G01 X182.115 Y147.191
G01 X182.504 Y147.544
G01 X182.908 Y147.875
G01 X183.326 Y148.185
G01 X183.344 Y148.197
G01 X183.666 Y148.634
G01 X184.015 Y149.058
G01 X184.391 Y149.469
G01 X184.794 Y149.864
G01 X185.221 Y150.242
G01 X185.673 Y150.602
G01 X185.950 Y150.803
G01 X186.382 Y151.311
G01 X186.854 Y151.802
G01 X187.366 Y152.273
G01 X187.687 Y152.541
G01 X188.375 Y152.119
G01 X189.016 Y151.661
G01 X189.607 Y151.171
G01 X189.748 Y151.043
G01 X190.290 Y151.009
G01 X190.827 Y150.949
G01 X191.359 Y150.862
G01 X191.885 Y150.750
G01 X192.403 Y150.612
G01 X192.912 Y150.449
G01 X193.400 Y150.267
G01 X193.955 Y150.232
G01 X194.515 Y150.168
G01 X195.079 Y150.072
G01 X195.643 Y149.946
G01 X196.208 Y149.788
G01 X196.770 Y149.598
G01 X197.051 Y149.491
G01 X197.729 Y149.402
G01 X198.415 Y149.269
G01 X199.105 Y149.091
G01 X199.485 Y148.973
G01 X199.505 Y148.147
G01 X199.468 Y147.341
G01 X199.376 Y146.559
G01 X199.350 Y146.396
G01 X199.622 Y145.911
G01 X199.869 Y145.415
G01 X200.091 Y144.908
G01 X200.286 Y144.393
G01 X200.456 Y143.871
G01 X200.599 Y143.342
G01 X200.705 Y142.867
G01 X200.983 Y142.371
G01 X201.239 Y141.855
G01 X201.469 Y141.319
G01 X201.674 Y140.764
G01 X201.852 Y140.193
G01 X202.002 Y139.606
G01 X202.059 Y139.339
G01 X202.358 Y138.712
G01 X202.624 Y138.054
G01 X202.854 Y137.367
G01 X202.962 Y136.986
G01 X202.261 Y136.507
G01 X201.545 Y136.089
G01 X200.819 Y135.732
G01 X200.699 Y135.679
G01 X200.435 Y135.178
G01 X200.148 Y134.691
G01 X199.838 Y134.222
G01 X199.506 Y133.769
G01 X199.154 Y133.336
G01 X198.783 Y132.922
G01 X198.449 Y132.583
G01 X198.182 Y132.074
G01 X197.885 Y131.573
G01 X197.558 Y131.083
G01 X197.202 Y130.605
G01 X196.817 Y130.140
G01 X196.403 Y129.691
G01 X196.200 Y129.487
G01 X195.836 Y128.892
G01 X195.428 Y128.309
G01 X194.976 Y127.739
G01 X194.700 Y127.422
G01 X193.902 Y127.755
G01 X193.149 Y128.135
G01 X192.443 Y128.557
G01 X192.342 Y128.624
G01 X191.774 Y128.571
G01 X191.206 Y128.546
G01 X190.640 Y128.550
G01 X190.077 Y128.581
G01 X189.518 Y128.640
G01 X188.966 Y128.726
G01 X188.473 Y128.826
G01 X187.900 Y128.772
G01 X187.318 Y128.748
G01 X186.729 Y128.754
G01 X186.134 Y128.791
G01 X185.534 Y128.860
G01 X184.933 Y128.960
G01 X184.604 Y129.029
G01 X183.907 Y129.010
G01 X183.196 Y129.033
G01 X182.473 Y129.101
G01 X182.025 Y129.164
G01 X181.868 Y130.017
G01 X181.775 Y130.858
G01 X181.744 Y131.684
G01 X181.745 Y131.828
G01 X181.390 Y132.276
G01 X181.059 Y132.738
G01 X180.752 Y133.214
G01 X180.471 Y133.703
G01 X180.215 Y134.203
G01 X179.985 Y134.712
G01 X179.784 Y135.225
G01 X179.425 Y135.676
G01 X179.086 Y136.151
G01 X178.768 Y136.649
G01 X178.474 Y137.168
G01 X178.204 Y137.709
G01 X177.959 Y138.270
G01 X177.823 Y138.621
G01 X177.424 Y139.198
G01 X177.054 Y139.811
G01 X176.714 Y140.459
G01 X176.516 Y140.885
G01 X177.143 Y141.480
G01 X177.795 Y142.016
G01 X178.468 Y142.492
G01 X178.623 Y142.592
G01 X178.805 Y143.135
G01 X179.013 Y143.667
G01 X179.245 Y144.186
G01 X179.503 Y144.692
G01 X179.784 Y145.182
G01 X180.087 Y145.656
G01 X180.413 Y146.112
G01 X180.425 Y146.128
G01 X180.609 Y146.681
G01 X180.825 Y147.231
G01 X181.073 Y147.775
G01 X181.352 Y148.313
G01 X181.663 Y148.841
G01 X182.005 Y149.358
G01 X182.227 Y149.664
G01 X182.499 Y150.325
G01 X182.817 Y150.982
G01 X183.183 Y151.632
G01 X183.428 Y152.022
G01 X184.273 Y151.819
G01 X185.082 Y151.563
G01 X185.852 Y151.258
G01 X186.037 Y151.174
G01 X186.601 Y151.319
G01 X187.170 Y151.436
G01 X187.742 Y151.524
G01 X188.315 Y151.584
G01 X188.889 Y151.616
G01 X189.462 Y151.619
G01 X190.032 Y151.594
G01 X190.609 Y151.743
G01 X191.201 Y151.863
G01 X191.806 Y151.953
G01 X192.423 Y152.011
G01 X193.050 Y152.037
G01 X193.685 Y152.031
G01 X194.026 Y152.014
G01 X194.746 Y152.148
G01 X195.488 Y152.240
G01 X196.251 Y152.287
G01 X196.689 Y152.294
G01 X196.984 Y151.458
G01 X197.213 Y150.624
G01 X197.379 Y149.797
G01 X197.407 Y149.611
G01 X197.846 Y149.208
G01 X198.262 Y148.784
G01 X198.656 Y148.341
G01 X199.026 Y147.882
G01 X199.372 Y147.406
G01 X199.693 Y146.915
G01 X199.965 Y146.454
G01 X200.413 Y146.040
G01 X200.845 Y145.598
G01 X201.258 Y145.129
G01 X201.651 Y144.632
G01 X202.022 Y144.108
G01 X202.369 Y143.559
G01 X202.522 Y143.296
G01 X203.035 Y142.755
G01 X203.525 Y142.171
G01 X203.988 Y141.546
G01 X204.227 Y141.190
G01 X203.672 Y140.470
G01 X203.081 Y139.808
G01 X202.461 Y139.204
G01 X202.347 Y139.103
G01 X202.244 Y138.503
G01 X202.112 Y137.912
G01 X201.952 Y137.330
G01 X201.763 Y136.758
G01 X201.548 Y136.199
G01 X201.306 Y135.653
G01 X201.077 Y135.193
G01 X200.973 Y134.584
G01 X200.835 Y133.973
G01 X200.664 Y133.363
G01 X200.458 Y132.756
G01 X200.218 Y132.153
G01 X199.944 Y131.556
G01 X199.806 Y131.283
G01 X199.631 Y130.553
G01 X199.407 Y129.820
G01 X199.134 Y129.087
G01 X198.960 Y128.677
G01 X198.035 Y128.752
G01 X197.140 Y128.890
G01 X196.279 Y129.087
G01 X196.153 Y129.122
G01 X195.588 Y128.879
G01 X195.015 Y128.665
G01 X194.434 Y128.481
G01 X193.848 Y128.326
G01 X193.257 Y128.200
G01 X192.662 Y128.105
G01 X192.136 Y128.046
G01 X191.567 Y127.800
G01 X190.979 Y127.581
G01 X190.373 Y127.392
G01 X189.751 Y127.232
G01 X189.114 Y127.103
G01 X188.464 Y127.007
G01 X188.120 Y126.969
G01 X187.413 Y126.718
G01 X186.677 Y126.506
G01 X185.914 Y126.334
G01 X185.442 Y126.252
G01 X184.998 Y127.074
G01 X184.623 Y127.904
G01 X184.317 Y128.740
G01 X184.273 Y128.878
G01 X183.767 Y129.229
G01 X183.281 Y129.602
G01 X182.816 Y129.997
G01 X182.375 Y130.412
G01 X181.956 Y130.846
G01 X181.562 Y131.298
G01 X181.495 Y131.379
G01 X180.994 Y131.725
G01 X180.506 Y132.100
G01 X180.033 Y132.503
G01 X179.577 Y132.933
G01 X179.140 Y133.390
G01 X178.723 Y133.874
G01 X178.717 Y133.880
G01 X178.127 Y134.295
G01 X177.551 Y134.754
G01 X176.991 Y135.256
G01 X176.452 Y135.800
G01 X175.939 Y136.382
G01 X176.385 Y137.201
G01 X176.875 Y137.967
G01 X177.406 Y138.678
G01 X177.523 Y138.820
G01 X177.540 Y139.436
G01 X177.588 Y140.048
G01 X177.665 Y140.654
G01 X177.772 Y141.252
G01 X177.908 Y141.842
G01 X178.072 Y142.421
G01 X178.114 Y142.553
G01 X178.131 Y143.166
G01 X178.179 Y143.784
G01 X178.260 Y144.404
G01 X178.373 Y145.025
G01 X178.519 Y145.646
G01 X178.698 Y146.264
G01 X178.706 Y146.287
G01 X178.732 Y147.018
G01 X178.804 Y147.761
G01 X178.922 Y148.513
G01 X179.087 Y149.272
G01 X179.297 Y150.020
G01 X180.227 Y150.093
G01 X181.138 Y150.101
G01 X182.025 Y150.044
G01 X182.237 Y150.020
G01 X182.769 Y150.345
G01 X183.314 Y150.641
G01 X183.871 Y150.909
G01 X184.438 Y151.148
G01 X185.013 Y151.358
G01 X185.596 Y151.538
G01 X185.728 Y151.575
G01 X186.261 Y151.900
G01 X186.815 Y152.201
G01 X187.390 Y152.476
G01 X187.984 Y152.723
G01 X188.596 Y152.942
G01 X189.220 Y153.129
G01 X189.861 Y153.513
G01 X190.539 Y153.864
G01 X191.250 Y154.181
G01 X191.994 Y154.460
G01 X192.712 Y154.684
G01 X193.287 Y153.933
G01 X193.796 Y153.162
G01 X194.237 Y152.376
G01 X194.331 Y152.191
G01 X194.903 Y151.915
G01 X195.460 Y151.612
G01 X195.998 Y151.284
G01 X196.518 Y150.930
G01 X197.017 Y150.554
G01 X197.495 Y150.154
G01 X197.571 Y150.086
G01 X198.146 Y149.810
G01 X198.712 Y149.501
G01 X199.267 Y149.161
G01 X199.809 Y148.788
G01 X200.337 Y148.384
G01 X200.812 Y147.982
G01 X201.496 Y147.645
G01 X202.173 Y147.260
G01 X202.838 Y146.826
G01 X203.490 Y146.344
G01 X204.052 Y145.877
G01 X203.727 Y144.965
G01 X203.348 Y144.099
G01 X202.918 Y143.283
G01 X202.830 Y143.132
G01 X202.911 Y142.488
G01 X202.961 Y141.843
G01 X202.978 Y141.199
G01 X202.963 Y140.559
G01 X202.917 Y139.922
G01 X202.840 Y139.292
G01 X202.830 Y139.226
G01 X202.912 Y138.582
G01 X202.962 Y137.929
G01 X202.978 Y137.268
G01 X202.960 Y136.599
G01 X202.907 Y135.927
G01 X202.830 Y135.320
G01 X202.921 Y134.555
G01 X202.966 Y133.769
G01 X202.965 Y132.967
G01 X202.916 Y132.150
G01 X202.830 Y131.414
G01 X201.867 Y131.185
G01 X200.914 Y131.030
G01 X199.976 Y130.946
G01 X199.830 Y130.939
G01 X199.327 Y130.514
G01 X198.807 Y130.117
G01 X198.270 Y129.748
G01 X197.718 Y129.407
G01 X197.153 Y129.096
G01 X196.576 Y128.815
G01 X196.518 Y128.788
G01 X196.020 Y128.366
G01 X195.496 Y127.966
G01 X194.948 Y127.590
G01 X194.375 Y127.239
G01 X193.780 Y126.915
G01 X193.207 Y126.638
G01 X192.614 Y126.144
G01 X191.981 Y125.677
G01 X191.307 Y125.240
G01 X190.595 Y124.835
G01 X189.896 Y124.488
G01 X189.172 Y125.178
G01 X188.516 Y125.900
G01 X187.928 Y126.649
G01 X187.842 Y126.770
G01 X187.210 Y126.960
G01 X186.591 Y127.180
G01 X185.987 Y127.429
G01 X185.400 Y127.706
G01 X184.829 Y128.010
G01 X184.278 Y128.341
G01 X184.197 Y128.393
G01 X183.571 Y128.580
G01 X182.950 Y128.800
G01 X182.335 Y129.055
G01 X181.729 Y129.343
G01 X181.132 Y129.664
G01 X180.552 Y130.016
G01 X179.814 Y130.243
G01 X179.076 Y130.519
G01 X178.342 Y130.845
G01 X177.614 Y131.220
G01 X176.906 Y131.639
G01 X177.090 Y132.621
G01 X177.337 Y133.565
G01 X177.643 Y134.466
G01 X177.710 Y134.636
G01 X177.524 Y135.269
G01 X177.370 Y135.908
G01 X177.249 Y136.550
G01 X177.160 Y137.194
G01 X177.104 Y137.838
G01 X177.080 Y138.482
G01 X177.079 Y138.619
G01 X176.894 Y139.247
G01 X176.739 Y139.889
G01 X176.616 Y140.546
G01 X176.526 Y141.214
G01 X176.470 Y141.892
G01 X176.448 Y142.578
G01 X176.448 Y142.601
G01 X176.234 Y143.350
G01 X176.063 Y144.126
G01 X175.934 Y144.926
G01 X175.852 Y145.749
G01 X175.817 Y146.583
G01 X176.740 Y146.965
G01 X177.665 Y147.273
G01 X178.586 Y147.508
G01 X178.800 Y147.552
G01 X179.232 Y148.057
G01 X179.687 Y148.537
G01 X180.163 Y148.991
G01 X180.659 Y149.420
G01 X181.173 Y149.822
G01 X181.704 Y150.197
G01 X181.828 Y150.278
G01 X182.259 Y150.782
G01 X182.720 Y151.269
G01 X183.211 Y151.735
G01 X183.730 Y152.180
G01 X184.276 Y152.603
G01 X184.849 Y153.000
G01 X184.855 Y153.004
G01 X185.377 Y153.602
G01 X185.945 Y154.179
G01 X186.559 Y154.733
G01 X187.217 Y155.259
G01 X187.883 Y155.730
G01 X188.713 Y155.159
G01 X189.482 Y154.546
G01 X190.187 Y153.896
G01 X190.345 Y153.736
G01 X191.015 Y153.646
G01 X191.676 Y153.523
G01 X192.328 Y153.368
G01 X192.968 Y153.182
G01 X193.596 Y152.966
G01 X194.210 Y152.719
G01 X194.321 Y152.671
G01 X194.992 Y152.581
G01 X195.664 Y152.455
G01 X196.336 Y152.294
G01 X197.006 Y152.096
G01 X197.671 Y151.862
G01 X198.297 Y151.606
G01 X199.098 Y151.490
G01 X199.908 Y151.324
G01 X200.723 Y151.104
G01 X201.539 Y150.832
G01 X202.272 Y150.540
G01 X202.244 Y149.513
G01 X202.145 Y148.515
G01 X201.980 Y147.550
G01 X201.938 Y147.357
G01 X202.232 Y146.733
G01 X202.493 Y146.098
G01 X202.722 Y145.454
G01 X202.918 Y144.802
G01 X203.080 Y144.144
G01 X203.209 Y143.482
G01 X203.223 Y143.402
G01 X203.517 Y142.779
G01 X203.782 Y142.135
G01 X204.016 Y141.471
G01 X204.217 Y140.790
G01 X204.385 Y140.092
G01 X204.508 Y139.448
G01 X204.851 Y138.703
G01 X205.156 Y137.922
G01 X205.419 Y137.110
G01 X205.637 Y136.266
G01 X205.792 Y135.493
G01 X204.896 Y134.947
G01 X203.985 Y134.477
G01 X203.065 Y134.083
G01 X202.911 Y134.025
G01 X202.533 Y133.435
G01 X202.128 Y132.868
G01 X201.698 Y132.324
G01 X201.244 Y131.806
G01 X200.767 Y131.313
G01 X200.532 Y131.087
G01 X200.161 Y130.507
G01 X199.759 Y129.942
G01 X199.325 Y129.394
G01 X198.861 Y128.865
G01 X198.367 Y128.355
G01 X198.153 Y128.150
G01 X197.729 Y127.494
G01 X197.260 Y126.851
G01 X196.745 Y126.226
G01 X196.187 Y125.619
G01 X195.774 Y125.212
G01 X195.197 Y124.483
G01 X194.982 Y124.233
G01 X194.022 Y124.694
G01 X193.119 Y125.209
G01 X192.278 Y125.774
G01 X192.153 Y125.866
G01 X191.448 Y125.861
G01 X190.748 Y125.892
G01 X190.054 Y125.956
G01 X189.369 Y126.055
G01 X188.693 Y126.186
G01 X188.356 Y126.265
G01 X187.666 Y126.260
G01 X186.972 Y126.289
G01 X186.276 Y126.353
G01 X185.578 Y126.453
G01 X184.882 Y126.589
G01 X184.559 Y126.664
G01 X183.778 Y126.662
G01 X182.984 Y126.705
G01 X182.179 Y126.794
G01 X181.367 Y126.931
G01 X180.762 Y127.063
G01 X179.836 Y127.150
G01 X179.496 Y127.196
G01 X179.359 Y128.255
G01 X179.298 Y129.294
G01 X179.313 Y130.310
G01 X179.324 Y130.491
G01 X178.935 Y131.079
G01 X178.578 Y131.682
G01 X178.254 Y132.298
G01 X177.962 Y132.926
G01 X177.704 Y133.564
G01 X177.573 Y133.927
G01 X177.192 Y134.502
G01 X176.837 Y135.099
G01 X176.511 Y135.719
G01 X176.214 Y136.359
G01 X175.947 Y137.017
G01 X175.823 Y137.362
G01 X175.393 Y138.018
G01 X174.994 Y138.709
G01 X174.629 Y139.436
G01 X174.299 Y140.194
G01 X174.072 Y140.797
G01 X173.637 Y141.627
G01 X173.489 Y141.943
G01 X174.299 Y142.634
G01 X175.136 Y143.250
G01 X175.993 Y143.792
G01 X176.185 Y143.901
G01 X176.466 Y144.549
G01 X176.779 Y145.180
G01 X177.120 Y145.790
G01 X177.489 Y146.380
G01 X177.884 Y146.947
G01 X178.131 Y147.273
G01 X178.408 Y147.911
G01 X178.719 Y148.539
G01 X179.063 Y149.156
G01 X179.442 Y149.760
G01 X179.853 Y150.348
G01 X180.078 Y150.645
G01 X180.398 Y151.372
G01 X180.766 Y152.093
G01 X181.183 Y152.805
G01 X181.647 Y153.504
G01 X182.025 Y154.016
G01 X182.491 Y154.847
G01 X182.674 Y155.140
G01 X183.699 Y154.836
G01 X184.677 Y154.469
G01 X185.603 Y154.044
G01 X185.815 Y153.934
G01 X186.521 Y154.052
G01 X187.229 Y154.134
G01 X187.936 Y154.181
G01 X188.641 Y154.192
G01 X189.343 Y154.169
G01 X189.741 Y154.140
G01 X190.438 Y154.257
G01 X191.147 Y154.340
G01 X191.865 Y154.387
G01 X192.590 Y154.397
G01 X193.321 Y154.371
G01 X193.666 Y154.346
G01 X194.467 Y154.475
G01 X195.288 Y154.560
G01 X196.129 Y154.598
G01 X196.985 Y154.588
G01 X197.592 Y154.552
G01 X198.562 Y154.613
G01 X198.901 Y154.620
G01 X199.208 Y153.577
G01 X199.436 Y152.541
G01 X199.585 Y151.516
G01 X199.607 Y151.297
G01 X200.099 Y150.758
G01 X200.561 Y150.198
G01 X200.993 Y149.619
G01 X201.394 Y149.022
G01 X201.762 Y148.409
G01 X201.940 Y148.086
G01 X202.427 Y147.554
G01 X202.890 Y146.993
G01 X203.327 Y146.405
G01 X203.738 Y145.791
G01 X204.121 Y145.152
G01 X204.273 Y144.875
G01 X204.826 Y144.264
G01 X205.352 Y143.610
G01 X205.849 Y142.915
G01 X206.314 Y142.179
G01 X206.606 Y141.664
G01 X207.193 Y140.874
G01 X207.383 Y140.594
G01 X206.660 Y139.751
G01 X205.898 Y138.981
G01 X205.103 Y138.284
G01 X204.958 Y138.169
G01 X204.770 Y137.451
G01 X204.548 Y136.747
G01 X204.293 Y136.058
G01 X204.005 Y135.387
G01 X203.686 Y134.735
G01 X203.522 Y134.428
G01 X203.338 Y133.721
G01 X203.117 Y133.019
G01 X202.859 Y132.324
G01 X202.565 Y131.638
G01 X202.233 Y130.962
G01 X202.086 Y130.687
G01 X201.873 Y129.885
G01 X201.610 Y129.083
G01 X201.295 Y128.282
G01 X200.930 Y127.486
G01 X200.650 Y126.947
G01 X200.306 Y126.020
G01 X200.172 Y125.700
G01 X199.053 Y125.850
G01 X197.975 Y126.074
G01 X196.942 Y126.367
G01 X196.785 Y126.420
G01 X196.075 Y126.184
G01 X195.358 Y125.985
G01 X194.636 Y125.823
G01 X193.912 Y125.697
G01 X193.186 Y125.609
G01 X192.829 Y125.579
G01 X192.134 Y125.347
G01 X191.423 Y125.149
G01 X190.697 Y124.985
G01 X189.960 Y124.858
G01 X189.211 Y124.767
G01 X188.872 Y124.738
G01 X188.084 Y124.479
G01 X187.267 Y124.262
G01 X186.425 Y124.088
G01 X185.559 Y123.960
G01 X184.916 Y123.897
G01 X183.952 Y123.681
G01 X183.597 Y123.617
G01 X183.111 Y124.641
G01 X182.709 Y125.672
G01 X182.391 Y126.704
G01 X182.345 Y126.880
G01 X181.759 Y127.346
G01 X181.201 Y127.839
G01 X180.671 Y128.355
G01 X180.170 Y128.894
G01 X179.700 Y129.454
G01 X179.458 Y129.766
G01 X178.885 Y130.222
G01 X178.331 Y130.710
G01 X177.798 Y131.228
G01 X177.289 Y131.777
G01 X176.804 Y132.354
G01 X176.571 Y132.653
G01 X175.923 Y133.174
G01 X175.295 Y133.740
G01 X174.689 Y134.353
G01 X174.108 Y135.010
G01 X173.685 Y135.540
G01 X172.975 Y136.233
G01 X172.722 Y136.502
G01 X173.315 Y137.467
G01 X173.958 Y138.365
G01 X174.648 Y139.193
G01 X174.796 Y139.356
G01 X174.868 Y140.102
G01 X174.976 Y140.840
G01 X175.121 Y141.567
G01 X175.300 Y142.282
G01 X175.513 Y142.984
G01 X175.653 Y143.386
G01 X175.722 Y144.119
G01 X175.830 Y144.853
G01 X175.975 Y145.586
G01 X176.158 Y146.317
G01 X176.380 Y147.043
G01 X176.509 Y147.417
G01 X176.594 Y148.252
G01 X176.728 Y149.096
G01 X176.913 Y149.947
G01 X177.151 Y150.801
G01 X177.366 Y151.447
G01 X177.564 Y152.432
G01 X177.652 Y152.790
G01 X178.785 Y152.819
G01 X179.890 Y152.770
G01 X180.963 Y152.644
G01 X181.207 Y152.604
G01 X181.879 Y152.953
G01 X182.563 Y153.266
G01 X183.258 Y153.544
G01 X183.963 Y153.786
G01 X184.675 Y153.992
G01 X185.089 Y154.094
G01 X185.751 Y154.439
G01 X186.435 Y154.753
G01 X187.140 Y155.034
G01 X187.863 Y155.281
G01 X188.604 Y155.494
G01 X188.971 Y155.584
G01 X189.731 Y155.975
G01 X190.527 Y156.327
G01 X191.356 Y156.640
G01 X192.218 Y156.909
G01 X192.853 Y157.074
G01 X193.805 Y157.451
G01 X194.147 Y157.571
G01 X194.796 Y156.625
G01 X195.363 Y155.659
G01 X195.847 Y154.679
G01 X195.943 Y154.459
G01 X196.612 Y154.079
G01 X197.259 Y153.668
G01 X197.880 Y153.228
G01 X198.477 Y152.760
G01 X199.046 Y152.266
G01 X199.338 Y151.993
G01 X199.999 Y151.618
G01 X200.646 Y151.207
G01 X201.277 Y150.760
G01 X201.889 Y150.278
G01 X202.481 Y149.762
G01 X202.732 Y149.526
G01 X203.486 Y149.094
G01 X204.228 Y148.609
G01 X204.953 Y148.074
G01 X205.660 Y147.487
G01 X206.127 Y147.060
G01 X206.974 Y146.458
G01 X207.258 Y146.238
G01 X206.809 Y145.158
G01 X206.296 Y144.138
G01 X205.726 Y143.181
G01 X205.612 Y143.007
G01 X205.648 Y142.224
G01 X205.646 Y141.445
G01 X205.604 Y140.672
G01 X205.525 Y139.906
G01 X205.411 Y139.164
G01 X205.447 Y138.399
G01 X205.445 Y137.628
G01 X205.405 Y136.854
G01 X205.325 Y136.078
G01 X205.209 Y135.320
G01 X205.246 Y134.476
G01 X205.237 Y133.618
G01 X205.179 Y132.747
G01 X205.071 Y131.867
G01 X205.008 Y131.477
G01 X205.003 Y130.477
G01 X204.935 Y129.457
G01 X204.874 Y128.915
G01 X203.703 Y128.700
G01 X202.548 Y128.573
G01 X201.415 Y128.531
G01 X201.235 Y128.532
G01 X200.591 Y128.071
G01 X199.930 Y127.644
G01 X199.252 Y127.254
G01 X198.560 Y126.900
G01 X197.872 Y126.591
G01 X197.247 Y126.141
G01 X196.596 Y125.720
G01 X195.921 Y125.330
G01 X195.223 Y124.972
G01 X194.509 Y124.649
G01 X193.820 Y124.157
G01 X193.094 Y123.696
G01 X192.331 Y123.269
G01 X191.534 Y122.879
G01 X191.146 Y122.708
G01 X190.305 Y122.166
G01 X189.414 Y121.667
G01 X188.905 Y121.413
G01 X188.080 Y122.286
G01 X187.339 Y123.192
G01 X186.681 Y124.127
G01 X186.582 Y124.282
G01 X185.842 Y124.570
G01 X185.122 Y124.893
G01 X184.424 Y125.249
G01 X183.749 Y125.637
G01 X183.098 Y126.055
G01 X183.091 Y126.060
G01 X182.372 Y126.339
G01 X181.665 Y126.655
G01 X180.970 Y127.008
G01 X180.289 Y127.397
G01 X179.626 Y127.822
G01 X179.601 Y127.839
G01 X178.812 Y128.148
G01 X178.030 Y128.505
G01 X177.256 Y128.911
G01 X176.494 Y129.366
G01 X176.110 Y129.617
G01 X175.197 Y130.028
G01 X174.291 Y130.504
G01 X173.783 Y130.803
G01 X174.064 Y131.969
G01 X174.419 Y133.085
G01 X174.844 Y134.145
G01 X174.934 Y134.345
G01 X174.772 Y135.122
G01 X174.650 Y135.901
G01 X174.567 Y136.681
G01 X174.524 Y137.459
G01 X174.520 Y138.233
G01 X174.521 Y138.275
G01 X174.362 Y139.031
G01 X174.241 Y139.798
G01 X174.158 Y140.575
G01 X174.113 Y141.359
G01 X174.107 Y142.150
G01 X174.108 Y142.205
G01 X173.936 Y143.039
G01 X173.808 Y143.895
G01 X173.727 Y144.770
G01 X173.693 Y145.663
G01 X173.695 Y146.135
G01 X173.540 Y147.134
G01 X173.445 Y148.162
G01 X173.419 Y148.755
G01 X174.550 Y149.155
G01 X175.677 Y149.466
G01 X176.797 Y149.689
G01 X177.048 Y149.728
G01 X177.615 Y150.290
G01 X178.206 Y150.820
G01 X178.818 Y151.317
G01 X179.451 Y151.781
G01 X180.103 Y152.209
G01 X180.146 Y152.236
G01 X180.699 Y152.786
G01 X181.283 Y153.311
G01 X181.895 Y153.810
G01 X182.536 Y154.280
G01 X183.204 Y154.720
G01 X183.244 Y154.745
G01 X183.858 Y155.351
G01 X184.516 Y155.932
G01 X185.217 Y156.485
G01 X185.958 Y157.007
G01 X186.341 Y157.253
G01 X187.108 Y157.938
G01 X187.932 Y158.587
G01 X188.407 Y158.926
G01 X189.365 Y158.189
G01 X190.247 Y157.407
G01 X191.051 Y156.583
G01 X191.223 Y156.390
G01 X192.014 Y156.218
G01 X192.791 Y156.008
G01 X193.553 Y155.760
G01 X194.297 Y155.477
G01 X195.022 Y155.159
G01 X195.047 Y155.148
G01 X195.822 Y154.980
G01 X196.593 Y154.772
G01 X197.357 Y154.525
G01 X198.113 Y154.238
G01 X198.858 Y153.911
G01 X198.870 Y153.905
G01 X199.728 Y153.716
G01 X200.589 Y153.476
G01 X201.449 Y153.183
G01 X202.305 Y152.838
G01 X202.694 Y152.663
G01 X203.702 Y152.388
G01 X204.712 Y152.044
G01 X205.243 Y151.835
G01 X205.145 Y150.610
G01 X204.965 Y149.424
G01 X204.706 Y148.282
G01 X204.645 Y148.060
G01 X204.936 Y147.289
G01 X205.186 Y146.509
G01 X205.397 Y145.722
G01 X205.566 Y144.931
G01 X205.695 Y144.143
G01 X205.980 Y143.389
G01 X206.229 Y142.617
G01 X206.440 Y141.829
G01 X206.613 Y141.027
G01 X206.744 Y140.226
G01 X207.056 Y139.393
G01 X207.326 Y138.530
G01 X207.551 Y137.638
G01 X207.730 Y136.722
G01 X207.794 Y136.310
G01 X208.115 Y135.305
G01 X208.379 Y134.261
G01 X208.493 Y133.698
G01 X207.392 Y133.104
G01 X206.279 Y132.601
G01 X205.160 Y132.191
G01 X204.972 Y132.131
G01 X204.477 Y131.459
G01 X203.953 Y130.816
G01 X203.401 Y130.205
G01 X202.823 Y129.625
G01 X202.236 Y129.092
G01 X201.755 Y128.436
G01 X201.239 Y127.802
G01 X200.689 Y127.191
G01 X200.106 Y126.605
G01 X199.500 Y126.053
G01 X198.968 Y125.334
G01 X198.389 Y124.635
G01 X197.763 Y123.957
G01 X197.089 Y123.305
G01 X196.763 Y123.014
G01 X196.095 Y122.196
G01 X195.362 Y121.404
G01 X194.939 Y120.988
G01 X193.829 Y121.594
G01 X192.790 Y122.261
G01 X191.826 Y122.984
G01 X191.679 Y123.105
G01 X190.842 Y123.153
G01 X190.015 Y123.243
G01 X189.198 Y123.373
G01 X188.394 Y123.543
G01 X187.606 Y123.750
G01 X186.794 Y123.796
G01 X185.980 Y123.883
G01 X185.167 Y124.011
G01 X184.357 Y124.180
G01 X183.552 Y124.390
G01 X183.533 Y124.395
G01 X182.641 Y124.448
G01 X181.740 Y124.552
G01 X180.831 Y124.708
G01 X179.918 Y124.916
G01 X179.460 Y125.040
G01 X178.411 Y125.155
G01 X177.347 Y125.337
G01 X176.745 Y125.470
G01 X176.647 Y126.734
G01 X176.640 Y127.970
G01 X176.721 Y129.174
G01 X176.745 Y129.390
G01 X176.329 Y130.118
G01 X175.953 Y130.860
G01 X175.616 Y131.616
G01 X175.320 Y132.382
G01 X175.063 Y133.158
G01 X175.054 Y133.189
G01 X174.649 Y133.895
G01 X174.278 Y134.625
G01 X173.941 Y135.376
G01 X173.641 Y136.148
G01 X173.378 Y136.938
G01 X173.363 Y136.987
G01 X172.920 Y137.766
G01 X172.514 Y138.581
G01 X172.148 Y139.431
G01 X171.823 Y140.313
G01 X171.671 Y140.786
G01 X171.193 Y141.734
G01 X170.764 Y142.731
G01 X170.544 Y143.318
G01 X171.548 Y144.088
G01 X172.579 Y144.767
G01 X173.630 Y145.356
G01 X173.859 Y145.471
G01 X174.244 Y146.218
G01 X174.662 Y146.941
G01 X175.114 Y147.638
G01 X175.597 Y148.307
G01 X176.109 Y148.948
G01 X176.142 Y148.987
G01 X176.516 Y149.716
G01 X176.929 Y150.430
G01 X177.379 Y151.127
G01 X177.867 Y151.805
G01 X178.390 Y152.461
G01 X178.426 Y152.503
G01 X178.842 Y153.308
G01 X179.310 Y154.101
G01 X179.829 Y154.879
G01 X180.400 Y155.641
G01 X180.709 Y156.019
G01 X181.251 Y156.950
G01 X181.863 Y157.865
G01 X182.231 Y158.363
G01 X183.429 Y157.938
G01 X184.565 Y157.442
G01 X185.636 Y156.879
G01 X185.872 Y156.742
G01 X186.719 Y156.818
G01 X187.564 Y156.852
G01 X188.404 Y156.843
G01 X189.237 Y156.793
G01 X189.746 Y156.742
G01 X190.571 Y156.817
G01 X191.402 Y156.851
G01 X192.238 Y156.844
G01 X193.077 Y156.796
G01 X193.621 Y156.742
G01 X194.512 Y156.821
G01 X195.420 Y156.852
G01 X196.341 Y156.834
G01 X197.274 Y156.766
G01 X197.495 Y156.742
G01 X198.548 Y156.826
G01 X199.626 Y156.846
G01 X200.726 Y156.800
G01 X201.370 Y156.742
G01 X201.669 Y155.489
G01 X201.874 Y154.248
G01 X201.986 Y153.026
G01 X201.998 Y152.774
G01 X202.532 Y152.093
G01 X203.027 Y151.391
G01 X203.484 Y150.670
G01 X203.902 Y149.932
G01 X204.126 Y149.498
G01 X204.646 Y148.836
G01 X205.134 Y148.146
G01 X205.591 Y147.429
G01 X206.013 Y146.687
G01 X206.253 Y146.222
G01 X206.812 Y145.506
G01 X207.340 Y144.751
G01 X207.833 Y143.957
G01 X208.289 Y143.125
G01 X208.381 Y142.946
G01 X209.031 Y142.099
G01 X209.642 Y141.195
G01 X210.209 Y140.236
G01 X210.508 Y139.670
G01 X209.603 Y138.721
G01 X208.656 Y137.859
G01 X207.675 Y137.087
G01 X207.498 Y136.960
G01 X207.213 Y136.130
G01 X206.890 Y135.322
G01 X206.528 Y134.536
G01 X206.131 Y133.773
G01 X205.896 Y133.363
G01 X205.621 Y132.557
G01 X205.305 Y131.763
G01 X204.948 Y130.983
G01 X204.552 Y130.217
G01 X204.295 Y129.766
G01 X203.997 Y128.901
G01 X203.648 Y128.041
G01 X203.248 Y127.189
G01 X202.797 Y126.348
G01 X202.693 Y126.168
G01 X202.336 Y125.157
G01 X201.909 Y124.149
G01 X201.412 Y123.147
G01 X201.092 Y122.571
G01 X199.785 Y122.817
G01 X198.531 Y123.146
G01 X197.334 Y123.555
G01 X197.147 Y123.628
G01 X196.291 Y123.414
G01 X195.432 Y123.243
G01 X194.570 Y123.117
G01 X193.710 Y123.034
G01 X193.227 Y123.007
G01 X192.399 Y122.799
G01 X191.559 Y122.630
G01 X190.708 Y122.503
G01 X189.848 Y122.418
G01 X189.307 Y122.386
G01 X188.419 Y122.164
G01 X187.508 Y121.988
G01 X186.575 Y121.858
G01 X185.624 Y121.778
G01 X185.387 Y121.766
G01 X184.345 Y121.514
G01 X183.267 Y121.322
G01 X182.158 Y121.192
G01 X181.467 Y121.145
G01 X180.958 Y122.378
G01 X180.549 Y123.614
G01 X180.239 Y124.846
G01 X180.195 Y125.059
G01 X179.548 Y125.660
G01 X178.936 Y126.288
G01 X178.360 Y126.941
G01 X177.821 Y127.618
G01 X177.518 Y128.032
G01 X176.892 Y128.612
G01 X176.292 Y129.225
G01 X175.722 Y129.869
G01 X175.181 Y130.543
G01 X174.841 Y131.005
G01 X174.170 Y131.629
G01 X173.525 Y132.297
G01 X172.907 Y133.008
G01 X172.321 Y133.762
G01 X172.164 Y133.978
G01 X171.383 Y134.716
G01 X170.632 Y135.517
G01 X169.917 Y136.380
G01 X169.487 Y136.951
G01 X170.243 Y138.048
G01 X171.054 Y139.064
G01 X171.916 Y139.995
G01 X172.098 Y140.175
G01 X172.249 Y141.046
G01 X172.442 Y141.903
G01 X172.677 Y142.743
G01 X172.951 Y143.565
G01 X173.142 Y144.070
G01 X173.287 Y144.914
G01 X173.475 Y145.754
G01 X173.705 Y146.587
G01 X173.977 Y147.411
G01 X174.185 Y147.964
G01 X174.344 Y148.873
G01 X174.554 Y149.785
G01 X174.817 Y150.698
G01 X175.132 Y151.608
G01 X175.229 Y151.859
G01 X175.425 Y152.928
G01 X175.691 Y154.005
G01 X176.028 Y155.086
G01 X176.273 Y155.754
G01 X177.606 Y155.718
G01 X178.902 Y155.591
G01 X180.154 Y155.377
G01 X180.431 Y155.316
G01 X181.250 Y155.667
G01 X182.081 Y155.974
G01 X182.920 Y156.237
G01 X183.766 Y156.457
G01 X184.296 Y156.572
G01 X185.092 Y156.914
G01 X185.908 Y157.217
G01 X186.742 Y157.481
G01 X187.592 Y157.704
G01 X188.160 Y157.828
G01 X189.021 Y158.195
G01 X189.914 Y158.519
G01 X190.836 Y158.799
G01 X191.785 Y159.033
G01 X192.025 Y159.084
G01 X193.044 Y159.508
G01 X194.110 Y159.876
G01 X195.218 Y160.186
G01 X195.889 Y160.339
G01 X196.593 Y159.189
G01 X197.198 Y158.020
G01 X197.706 Y156.841
G01 X197.803 Y156.585
G01 X198.553 Y156.080
G01 X199.273 Y155.543
G01 X199.961 Y154.973
G01 X200.615 Y154.374
G01 X200.985 Y154.007
G01 X201.716 Y153.517
G01 X202.425 Y152.989
G01 X203.111 Y152.424
G01 X203.771 Y151.822
G01 X204.167 Y151.430
G01 X204.955 Y150.899
G01 X205.725 Y150.318
G01 X206.473 Y149.687
G01 X207.196 Y149.008
G01 X207.350 Y148.853
G01 X208.272 Y148.220
G01 X209.173 Y147.518
G01 X210.048 Y146.746
G01 X210.532 Y146.276
G01 X209.940 Y145.040
G01 X209.277 Y143.877
G01 X208.551 Y142.792
G01 X208.409 Y142.599
G01 X208.394 Y141.681
G01 X208.333 Y140.772
G01 X208.228 Y139.872
G01 X208.079 Y138.984
G01 X207.978 Y138.495
G01 X207.964 Y137.603
G01 X207.906 Y136.710
G01 X207.804 Y135.816
G01 X207.656 Y134.925
G01 X207.546 Y134.391
G01 X207.529 Y133.432
G01 X207.460 Y132.461
G01 X207.337 Y131.482
G01 X207.160 Y130.497
G01 X207.115 Y130.287
G01 X207.086 Y129.162
G01 X206.987 Y128.017
G01 X206.816 Y126.856
G01 X206.684 Y126.183
G01 X205.304 Y126.005
G01 X203.948 Y125.927
G01 X202.623 Y125.947
G01 X202.410 Y125.959
G01 X201.626 Y125.468
G01 X200.823 Y125.019
G01 X200.005 Y124.614
G01 X199.173 Y124.253
G01 X198.705 Y124.071
G01 X197.946 Y123.595
G01 X197.162 Y123.154
G01 X196.353 Y122.751
G01 X195.522 Y122.388
G01 X195.000 Y122.184
G01 X194.185 Y121.674
G01 X193.332 Y121.202
G01 X192.443 Y120.770
G01 X191.519 Y120.381
G01 X191.296 Y120.296
G01 X190.336 Y119.707
G01 X189.322 Y119.165
G01 X188.256 Y118.676
G01 X187.591 Y118.408
G01 X186.683 Y119.475
G01 X185.874 Y120.577
G01 X185.165 Y121.706
G01 X185.056 Y121.897
G01 X184.215 Y122.287
G01 X183.400 Y122.716
G01 X182.613 Y123.182
G01 X181.856 Y123.683
G01 X181.428 Y123.991
G01 X180.615 Y124.368
G01 X179.818 Y124.785
G01 X179.039 Y125.243
G01 X178.281 Y125.741
G01 X177.800 Y126.086
G01 X176.928 Y126.491
G01 X176.068 Y126.949
G01 X175.221 Y127.459
G01 X174.391 Y128.021
G01 X174.172 Y128.181
G01 X173.154 Y128.664
G01 X172.146 Y129.220
G01 X171.153 Y129.847
G01 X170.543 Y130.276
G01 X170.942 Y131.617
G01 X171.424 Y132.895
G01 X171.983 Y134.105
G01 X172.100 Y134.332
G01 X171.977 Y135.252
G01 X171.900 Y136.171
G01 X171.870 Y137.085
G01 X171.885 Y137.993
G01 X171.897 Y138.223
G01 X171.776 Y139.111
G01 X171.699 Y140.006
G01 X171.667 Y140.907
G01 X171.679 Y141.810
G01 X171.693 Y142.114
G01 X171.567 Y143.051
G01 X171.490 Y144.006
G01 X171.462 Y144.975
G01 X171.486 Y145.957
G01 X171.489 Y146.005
G01 X171.351 Y147.078
G01 X171.276 Y148.179
G01 X171.265 Y149.304
G01 X171.285 Y149.896
G01 X171.218 Y151.143
G01 X171.217 Y151.193
G01 X172.558 Y151.589
G01 X173.892 Y151.882
G01 X175.210 Y152.074
G01 X175.498 Y152.103
G01 X176.206 Y152.711
G01 X176.939 Y153.278
G01 X177.694 Y153.805
G01 X178.468 Y154.290
G01 X178.674 Y154.410
G01 X179.359 Y154.999
G01 X180.074 Y155.556
G01 X180.818 Y156.078
G01 X181.590 Y156.565
G01 X181.850 Y156.717
G01 X182.576 Y157.340
G01 X183.344 Y157.932
G01 X184.152 Y158.489
G01 X184.999 Y159.009
G01 X185.026 Y159.025
G01 X185.863 Y159.734
G01 X186.758 Y160.406
G01 X187.709 Y161.036
G01 X188.201 Y161.332
G01 X189.226 Y162.078
G01 X189.260 Y162.101
G01 X190.331 Y161.185
G01 X191.310 Y160.219
G01 X192.195 Y159.211
G01 X192.378 Y158.983
G01 X193.285 Y158.716
G01 X194.170 Y158.407
G01 X195.034 Y158.056
G01 X195.873 Y157.665
G01 X196.070 Y157.566
G01 X196.949 Y157.308
G01 X197.818 Y157.006
G01 X198.674 Y156.661
G01 X199.514 Y156.273
G01 X199.762 Y156.148
G01 X200.693 Y155.874
G01 X201.621 Y155.546
G01 X202.542 Y155.166
G01 X203.453 Y154.731
G01 X204.520 Y154.410
G01 X205.586 Y154.019
G01 X206.647 Y153.557
G01 X207.145 Y153.314
G01 X208.346 Y152.854
G01 X208.376 Y152.842
G01 X208.187 Y151.424
G01 X207.905 Y150.057
G01 X207.535 Y148.746
G01 X207.452 Y148.496
G01 X207.726 Y147.577
G01 X207.951 Y146.652
G01 X208.129 Y145.723
G01 X208.259 Y144.793
G01 X208.281 Y144.600
G01 X208.547 Y143.710
G01 X208.769 Y142.804
G01 X208.947 Y141.886
G01 X209.080 Y140.958
G01 X209.109 Y140.703
G01 X209.389 Y139.761
G01 X209.621 Y138.794
G01 X209.805 Y137.803
G01 X209.937 Y136.807
G01 X210.250 Y135.728
G01 X210.505 Y134.611
G01 X210.697 Y133.459
G01 X210.765 Y132.910
G01 X211.035 Y131.644
G01 X211.041 Y131.611
G01 X209.729 Y130.989
G01 X208.408 Y130.474
G01 X207.086 Y130.066
G01 X206.863 Y130.008
G01 X206.235 Y129.270
G01 X205.575 Y128.570
G01 X204.886 Y127.909
G01 X204.169 Y127.287
G01 X204.026 Y127.170
G01 X203.420 Y126.457
G01 X202.777 Y125.772
G01 X202.099 Y125.118
G01 X201.388 Y124.497
G01 X201.189 Y124.333
G01 X200.548 Y123.582
G01 X199.861 Y122.856
G01 X199.127 Y122.159
G01 X198.351 Y121.495
G01 X197.616 Y120.643
G01 X196.817 Y119.820
G01 X195.955 Y119.029
G01 X195.514 Y118.658
G01 X194.599 Y117.741
G01 X194.568 Y117.712
G01 X193.320 Y118.481
G01 X192.159 Y119.316
G01 X191.088 Y120.210
G01 X190.921 Y120.362
G01 X189.957 Y120.487
G01 X189.007 Y120.660
G01 X188.074 Y120.878
G01 X187.160 Y121.141
G01 X186.968 Y121.202
G01 X186.038 Y121.322
G01 X185.113 Y121.488
G01 X184.194 Y121.699
G01 X183.285 Y121.957
G01 X183.014 Y122.043
G01 X182.036 Y122.170
G01 X181.053 Y122.351
G01 X180.069 Y122.585
G01 X179.087 Y122.875
G01 X179.061 Y122.883
G01 X177.946 Y123.035
G01 X176.820 Y123.255
G01 X175.688 Y123.547
G01 X175.108 Y123.723
G01 X173.840 Y123.991
G01 X173.790 Y124.003
G01 X173.753 Y125.470
G01 X173.820 Y126.900
G01 X173.986 Y128.287
G01 X174.027 Y128.538
G01 X173.607 Y129.415
G01 X173.233 Y130.305
G01 X172.907 Y131.206
G01 X172.629 Y132.115
G01 X172.569 Y132.338
G01 X172.162 Y133.183
G01 X171.796 Y134.049
G01 X171.473 Y134.935
G01 X171.192 Y135.838
G01 X171.110 Y136.139
G01 X170.682 Y137.030
G01 X170.297 Y137.954
G01 X169.957 Y138.909
G01 X169.663 Y139.893
G01 X169.651 Y139.939
G01 X169.168 Y140.961
G01 X168.738 Y142.030
G01 X168.364 Y143.143
G01 X168.192 Y143.739
G01 X167.723 Y144.956
G01 X167.706 Y145.006
G01 X168.914 Y145.835
G01 X170.147 Y146.558
G01 X171.398 Y147.175
G01 X171.666 Y147.293
G01 X172.174 Y148.126
G01 X172.718 Y148.926
G01 X173.298 Y149.693
G01 X173.911 Y150.425
G01 X174.076 Y150.610
G01 X174.566 Y151.415
G01 X175.096 Y152.199
G01 X175.666 Y152.957
G01 X176.275 Y153.689
G01 X176.486 Y153.927
G01 X177.005 Y154.778
G01 X177.576 Y155.612
G01 X178.197 Y156.425
G01 X178.869 Y157.214
G01 X178.896 Y157.243
G01 X179.497 Y158.216
G01 X180.167 Y159.170
G01 X180.906 Y160.100
G01 X181.306 Y160.560
G01 X182.081 Y161.629
G01 X182.109 Y161.666
G01 X183.468 Y161.102
G01 X184.752 Y160.459
G01 X185.956 Y159.743
G01 X186.213 Y159.575
G01 X187.197 Y159.603
G01 X188.175 Y159.582
G01 X189.144 Y159.512
G01 X190.102 Y159.395
G01 X190.336 Y159.359
G01 X191.290 Y159.387
G01 X192.248 Y159.368
G01 X193.207 Y159.301
G01 X194.164 Y159.187
G01 X194.460 Y159.143
G01 X195.470 Y159.171
G01 X196.495 Y159.145
G01 X197.530 Y159.065
G01 X198.572 Y158.928
G01 X198.583 Y158.927
G01 X199.742 Y158.952
G01 X200.924 Y158.907
G01 X202.125 Y158.792
G01 X202.706 Y158.710
G01 X204.044 Y158.642
G01 X204.080 Y158.638
G01 X204.350 Y157.173
G01 X204.511 Y155.729
G01 X204.567 Y154.311
G01 X204.565 Y154.025
G01 X205.132 Y153.203
G01 X205.654 Y152.359
G01 X206.129 Y151.496
G01 X206.558 Y150.617
G01 X206.644 Y150.424
G01 X207.195 Y149.628
G01 X207.707 Y148.803
G01 X208.179 Y147.950
G01 X208.610 Y147.073
G01 X208.723 Y146.823
G01 X209.304 Y145.980
G01 X209.847 Y145.095
G01 X210.349 Y144.172
G01 X210.802 Y143.222
G01 X211.461 Y142.253
G01 X212.074 Y141.227
G01 X212.637 Y140.145
G01 X212.881 Y139.621
G01 X213.558 Y138.452
G01 X213.574 Y138.421
G01 X212.475 Y137.382
G01 X211.333 Y136.447
G01 X210.155 Y135.617
G01 X209.944 Y135.481
G01 X209.558 Y134.547
G01 X209.129 Y133.640
G01 X208.659 Y132.762
G01 X208.148 Y131.914
G01 X208.043 Y131.751
G01 X207.671 Y130.847
G01 X207.254 Y129.960
G01 X206.792 Y129.092
G01 X206.286 Y128.245
G01 X206.142 Y128.020
G01 X205.748 Y127.067
G01 X205.299 Y126.124
G01 X204.795 Y125.195
G01 X204.241 Y124.289
G01 X203.786 Y123.204
G01 X203.257 Y122.128
G01 X202.655 Y121.063
G01 X202.340 Y120.559
G01 X201.727 Y119.351
G01 X201.707 Y119.315
G01 X200.220 Y119.675
G01 X198.798 Y120.129
G01 X197.447 Y120.672
G01 X197.233 Y120.769
G01 X196.242 Y120.558
G01 X195.248 Y120.398
G01 X194.253 Y120.288
G01 X193.260 Y120.228
G01 X192.271 Y120.218
G01 X192.042 Y120.223
G01 X191.076 Y120.016
G01 X190.095 Y119.857
G01 X189.100 Y119.746
G01 X188.095 Y119.684
G01 X187.082 Y119.673
G01 X186.850 Y119.677
G01 X185.774 Y119.451
G01 X184.667 Y119.283
G01 X183.534 Y119.174
G01 X182.379 Y119.128
G01 X181.659 Y119.132
G01 X180.365 Y118.956
G01 X179.063 Y118.859
G01 X178.553 Y120.306
G01 X178.158 Y121.750
G01 X177.875 Y123.183
G01 X177.837 Y123.434
G01 X177.120 Y124.150
G01 X176.443 Y124.896
G01 X175.808 Y125.671
G01 X175.216 Y126.471
G01 X174.669 Y127.294
G01 X174.529 Y127.519
G01 X173.829 Y128.215
G01 X173.161 Y128.951
G01 X172.525 Y129.724
G01 X171.926 Y130.533
G01 X171.364 Y131.376
G01 X171.222 Y131.603
G01 X170.444 Y132.384
G01 X169.699 Y133.220
G01 X168.989 Y134.112
G01 X168.319 Y135.058
G01 X167.914 Y135.688
G01 X167.059 Y136.680
G01 X166.260 Y137.730
G01 X167.194 Y138.945
G01 X168.187 Y140.062
G01 X169.233 Y141.080
G01 X169.452 Y141.275
G01 X169.661 Y142.268
G01 X169.918 Y143.244
G01 X170.222 Y144.199
G01 X170.570 Y145.134
G01 X170.963 Y146.044
G01 X171.087 Y146.308
G01 X171.290 Y147.278
G01 X171.543 Y148.244
G01 X171.847 Y149.202
G01 X172.200 Y150.151
G01 X172.603 Y151.086
G01 X172.722 Y151.341
G01 X172.954 Y152.426
G01 X173.253 Y153.516
G01 X173.617 Y154.605
G01 X174.049 Y155.691
G01 X174.357 Y156.374
G01 X174.727 Y157.644
G01 X175.175 Y158.890
G01 X176.705 Y158.769
G01 X178.186 Y158.545
G01 X179.611 Y158.223
G01 X179.918 Y158.139
G01 X180.887 Y158.477
G01 X181.865 Y158.763
G01 X182.848 Y158.998
G01 X183.778 Y159.173
G01 X184.714 Y159.500
G01 X185.667 Y159.782
G01 X186.635 Y160.017
G01 X187.616 Y160.204
G01 X187.638 Y160.208
G01 X188.613 Y160.583
G01 X189.619 Y160.912
G01 X190.655 Y161.190
G01 X191.716 Y161.416
G01 X192.784 Y161.587
G01 X193.947 Y162.023
G01 X195.160 Y162.395
G01 X196.418 Y162.700
G01 X197.718 Y162.935
G01 X197.931 Y162.965
G01 X198.668 Y161.603
G01 X199.293 Y160.226
G01 X199.803 Y158.841
G01 X199.897 Y158.549
G01 X200.718 Y157.911
G01 X201.500 Y157.238
G01 X202.242 Y156.532
G01 X202.887 Y155.857
G01 X203.681 Y155.241
G01 X204.446 Y154.586
G01 X205.180 Y153.892
G01 X205.876 Y153.165
G01 X206.734 Y152.543
G01 X207.567 Y151.868
G01 X208.375 Y151.141
G01 X209.153 Y150.363
G01 X209.863 Y149.576
G01 X210.873 Y148.828
G01 X211.857 Y148.004
G01 X212.808 Y147.105
G01 X213.723 Y146.130
G01 X213.849 Y145.987
G01 X213.096 Y144.606
G01 X212.268 Y143.315
G01 X211.371 Y142.116
G01 X211.198 Y141.904
G01 X211.109 Y140.856
G01 X210.968 Y139.820
G01 X210.777 Y138.801
G01 X210.564 Y137.904
G01 X210.479 Y136.891
G01 X210.344 Y135.882
G01 X210.159 Y134.878
G01 X209.931 Y133.904
G01 X209.841 Y132.849
G01 X209.696 Y131.789
G01 X209.493 Y130.726
G01 X209.297 Y129.904
G01 X209.228 Y128.706
G01 X209.086 Y127.490
G01 X208.870 Y126.262
G01 X208.579 Y125.026
G01 X208.452 Y124.571
G01 X208.241 Y123.237
G01 X206.654 Y123.116
G01 X205.100 Y123.108
G01 X203.587 Y123.210
G01 X203.341 Y123.237
G01 X202.406 Y122.737
G01 X201.454 Y122.288
G01 X200.489 Y121.890
G01 X199.617 Y121.579
G01 X198.717 Y121.096
G01 X197.792 Y120.657
G01 X196.846 Y120.264
G01 X195.892 Y119.921
G01 X194.957 Y119.420
G01 X193.986 Y118.963
G01 X192.982 Y118.553
G01 X192.168 Y118.262
G01 X191.124 Y117.667
G01 X190.028 Y117.123
G01 X188.881 Y116.634
G01 X187.686 Y116.204
G01 X187.202 Y116.051
G01 X185.960 Y115.499
G01 X184.988 Y116.770
G01 X184.130 Y118.076
G01 X183.388 Y119.407
G01 X183.274 Y119.635
G01 X182.343 Y120.147
G01 X181.447 Y120.701
G01 X180.586 Y121.295
G01 X179.832 Y121.871
G01 X178.936 Y122.362
G01 X178.064 Y122.898
G01 X177.218 Y123.477
G01 X176.400 Y124.098
G01 X176.390 Y124.106
G01 X175.460 Y124.617
G01 X174.548 Y125.182
G01 X173.657 Y125.799
G01 X172.948 Y126.341
G01 X171.880 Y126.891
G01 X170.825 Y127.514
G01 X169.789 Y128.210
G01 X168.776 Y128.977
G01 X168.359 Y129.321
G01 X167.211 Y130.066
G01 X167.747 Y131.574
G01 X168.373 Y133.003
G01 X169.084 Y134.350
G01 X169.231 Y134.602
G01 X169.153 Y135.662
G01 X169.129 Y136.716
G01 X169.157 Y137.761
G01 X169.231 Y138.733
G01 X169.155 Y139.754
G01 X169.129 Y140.778
G01 X169.153 Y141.805
G01 X169.228 Y142.831
G01 X169.231 Y142.864
G01 X169.153 Y143.926
G01 X169.129 Y145.002
G01 X169.161 Y146.090
G01 X169.231 Y146.995
G01 X169.149 Y148.183
G01 X169.134 Y149.395
G01 X169.189 Y150.628
G01 X169.231 Y151.126
G01 X169.189 Y152.501
G01 X169.231 Y153.880
G01 X170.786 Y154.253
G01 X172.326 Y154.507
G01 X173.843 Y154.647
G01 X174.167 Y154.662
G01 X175.017 Y155.308
G01 X175.892 Y155.905
G01 X176.789 Y156.454
G01 X177.655 Y156.927
G01 X178.475 Y157.551
G01 X179.326 Y158.135
G01 X180.207 Y158.678
G01 X181.116 Y159.178
G01 X181.142 Y159.192
G01 X181.998 Y159.842
G01 X182.897 Y160.453
G01 X183.837 Y161.024
G01 X184.629 Y161.456
G01 X185.592 Y162.180
G01 X186.613 Y162.860
G01 X187.690 Y163.492
G01 X188.116 Y163.721
G01 X189.260 Y164.514
G01 X190.441 Y165.230
G01 X191.608 Y164.121
G01 X192.667 Y162.960
G01 X193.617 Y161.757
G01 X193.807 Y161.492
G01 X194.822 Y161.126
G01 X195.811 Y160.713
G01 X196.770 Y160.254
G01 X197.630 Y159.790
G01 X198.612 Y159.437
G01 X199.578 Y159.035
G01 X200.525 Y158.586
G01 X201.451 Y158.089
G01 X201.454 Y158.088
G01 X202.478 Y157.718
G01 X203.494 Y157.291
G01 X204.498 Y156.807
G01 X205.277 Y156.385
G01 X206.423 Y155.966
G01 X207.563 Y155.474
G01 X208.695 Y154.906
G01 X209.100 Y154.683
G01 X210.404 Y154.149
G01 X211.649 Y153.548
G01 X211.349 Y151.945
G01 X210.946 Y150.404
G01 X210.446 Y148.933
G01 X210.338 Y148.658
G01 X210.611 Y147.602
G01 X210.830 Y146.541
G01 X210.995 Y145.477
G01 X211.105 Y144.412
G01 X211.158 Y143.481
G01 X211.426 Y142.452
G01 X211.643 Y141.406
G01 X211.809 Y140.344
G01 X211.922 Y139.270
G01 X211.978 Y138.303
G01 X212.268 Y137.176
G01 X212.498 Y136.017
G01 X212.668 Y134.829
G01 X212.774 Y133.614
G01 X212.798 Y133.126
G01 X213.089 Y131.783
G01 X213.301 Y130.394
G01 X213.413 Y129.244
G01 X211.884 Y128.614
G01 X210.352 Y128.107
G01 X208.825 Y127.722
G01 X208.567 Y127.669
G01 X207.823 Y126.858
G01 X207.046 Y126.090
G01 X206.236 Y125.367
G01 X205.397 Y124.689
G01 X204.646 Y124.139
G01 X203.925 Y123.350
G01 X203.162 Y122.594
G01 X202.357 Y121.873
G01 X201.514 Y121.189
G01 X200.726 Y120.609
G01 X199.936 Y119.750
G01 X199.088 Y118.923
G01 X198.182 Y118.131
G01 X197.219 Y117.378
G01 X196.806 Y117.079
G01 X195.837 Y116.103
G01 X194.788 Y115.167
G01 X193.866 Y114.432
G01 X192.494 Y115.379
G01 X191.226 Y116.395
G01 X190.063 Y117.475
G01 X189.880 Y117.660
G01 X188.792 Y117.841
G01 X187.722 Y118.075
G01 X186.671 Y118.361
G01 X185.643 Y118.696
G01 X184.752 Y119.034
G01 X183.697 Y119.208
G01 X182.646 Y119.436
G01 X181.603 Y119.717
G01 X180.569 Y120.051
G01 X179.624 Y120.408
G01 X178.474 Y120.601
G01 X177.318 Y120.861
G01 X176.160 Y121.189
G01 X175.005 Y121.585
G01 X174.496 Y121.782
G01 X173.149 Y122.062
G01 X171.793 Y122.431
G01 X170.650 Y122.812
G01 X170.696 Y124.479
G01 X170.857 Y126.097
G01 X171.128 Y127.662
G01 X171.190 Y127.945
G01 X170.749 Y128.956
G01 X170.361 Y129.981
G01 X170.028 Y131.017
G01 X169.748 Y132.062
G01 X169.539 Y133.026
G01 X169.110 Y134.007
G01 X168.727 Y135.012
G01 X168.394 Y136.041
G01 X168.110 Y137.091
G01 X167.888 Y138.107
G01 X167.422 Y139.180
G01 X167.009 Y140.294
G01 X166.652 Y141.446
G01 X166.353 Y142.635
G01 X166.237 Y143.188
G01 X165.735 Y144.477
G01 X165.304 Y145.822
G01 X164.999 Y146.999
G01 X166.419 Y147.868
G01 X167.862 Y148.615
G01 X169.319 Y149.241
G01 X169.627 Y149.357
G01 X170.236 Y150.280
G01 X170.886 Y151.166
G01 X171.575 Y152.013
G01 X172.301 Y152.820
G01 X173.010 Y153.535
G01 X173.602 Y154.434
G01 X174.241 Y155.308
G01 X174.926 Y156.153
G01 X175.657 Y156.968
G01 X176.393 Y157.713
G01 X177.045 Y158.696
G01 X177.761 Y159.658
G01 X178.541 Y160.594
G01 X179.383 Y161.500
G01 X179.777 Y161.891
G01 X180.593 Y163.026
G01 X181.498 Y164.132
G01 X182.314 Y165.024
G01 X183.823 Y164.303
G01 X185.241 Y163.497
G01 X186.565 Y162.613
G01 X186.840 Y162.411
G01 X187.956 Y162.402
G01 X189.064 Y162.338
G01 X190.160 Y162.220
G01 X191.242 Y162.049
G01 X192.220 Y161.845
G01 X193.309 Y161.838
G01 X194.402 Y161.777
G01 X195.497 Y161.660
G01 X196.592 Y161.488
G01 X197.600 Y161.280
G01 X198.795 Y161.268
G01 X200.007 Y161.190
G01 X201.232 Y161.043
G01 X202.466 Y160.825
G01 X202.980 Y160.714
G01 X204.395 Y160.646
G01 X205.833 Y160.487
G01 X207.015 Y160.290
G01 X207.234 Y158.614
G01 X207.330 Y156.966
G01 X207.309 Y155.356
G01 X207.290 Y155.038
G01 X207.898 Y154.085
G01 X208.454 Y153.109
G01 X208.957 Y152.113
G01 X209.407 Y151.099
G01 X209.762 Y150.188
G01 X210.355 Y149.260
G01 X210.905 Y148.297
G01 X211.409 Y147.303
G01 X211.865 Y146.279
G01 X212.233 Y145.338
G01 X212.880 Y144.319
G01 X213.480 Y143.248
G01 X214.028 Y142.129
G01 X214.523 Y140.964
G01 X214.704 Y140.488
G01 X215.423 Y139.254
G01 X216.078 Y137.951
G01 X216.557 Y136.851
G01 X215.252 Y135.740
G01 X213.904 Y134.750
G01 X212.522 Y133.881
G01 X212.276 Y133.740
G01 X211.803 Y132.702
G01 X211.281 Y131.694
G01 X210.714 Y130.720
G01 X210.102 Y129.781
G01 X209.538 Y128.997
G01 X209.078 Y127.986
G01 X208.567 Y126.994
G01 X208.003 Y126.023
G01 X207.389 Y125.077
G01 X206.799 Y124.254
G01 X206.294 Y123.151
G01 X205.721 Y122.061
G01 X205.079 Y120.986
G01 X204.369 Y119.933
G01 X204.061 Y119.511
G01 X203.416 Y118.233
G01 X202.679 Y116.971
G01 X202.007 Y115.954
G01 X200.349 Y116.449
G01 X198.770 Y117.046
G01 X197.275 Y117.739
G01 X197.036 Y117.862
G01 X195.902 Y117.692
G01 X194.768 Y117.580
G01 X193.638 Y117.525
G01 X192.514 Y117.526
G01 X191.533 Y117.574
G01 X190.433 Y117.407
G01 X189.321 Y117.295
G01 X188.198 Y117.238
G01 X187.068 Y117.237
G01 X186.030 Y117.285
G01 X184.830 Y117.107
G01 X183.603 Y116.994
G01 X182.353 Y116.946
G01 X181.083 Y116.966
G01 X180.527 Y116.997
G01 X179.105 Y116.841
G01 X177.646 Y116.771
G01 X176.400 Y116.781
G01 X175.910 Y118.444
G01 X175.549 Y120.098
G01 X175.315 Y121.733
G01 X175.286 Y122.021
G01 X174.526 Y122.879
G01 X173.813 Y123.768
G01 X173.151 Y124.686
G01 X172.539 Y125.629
G01 X172.028 Y126.506
G01 X171.289 Y127.337
G01 X170.588 Y128.209
G01 X169.928 Y129.119
G01 X169.311 Y130.065
G01 X168.769 Y130.991
G01 X167.965 Y131.901
G01 X167.200 Y132.869
G01 X166.477 Y133.892
G01 X165.801 Y134.970
G01 X165.510 Y135.476
G01 X164.602 Y136.587
G01 X163.745 Y137.777
G01 X163.066 Y138.840
G01 X164.192 Y140.156
G01 X165.380 Y141.359
G01 X166.621 Y142.446
G01 X166.878 Y142.652
G01 X167.183 Y143.759
G01 X167.541 Y144.842
G01 X167.950 Y145.900
G01 X168.408 Y146.929
G01 X168.877 Y147.859
G01 X169.172 Y148.935
G01 X169.522 Y150.002
G01 X169.927 Y151.055
G01 X170.387 Y152.093
G01 X170.875 Y153.066
G01 X171.202 Y154.244
G01 X171.600 Y155.421
G01 X172.068 Y156.592
G01 X172.608 Y157.754
G01 X172.874 Y158.273
G01 X173.315 Y159.652
G01 X173.851 Y161.031
G01 X174.373 Y162.178
G01 X176.094 Y161.951
G01 X177.752 Y161.610
G01 X179.343 Y161.162
G01 X179.678 Y161.051
G01 X180.783 Y161.392
G01 X181.898 Y161.675
G01 X183.017 Y161.901
G01 X184.139 Y162.070
G01 X184.823 Y162.145
G01 X185.897 Y162.477
G01 X186.991 Y162.757
G01 X188.102 Y162.984
G01 X189.229 Y163.156
G01 X189.969 Y163.238
G01 X191.127 Y163.594
G01 X192.321 Y163.891
G01 X193.546 Y164.127
G01 X194.799 Y164.300
G01 X195.114 Y164.332
G01 X196.482 Y164.740
G01 X197.902 Y165.070
G01 X199.369 Y165.318
G01 X200.260 Y165.426
G01 X201.012 Y163.845
G01 X201.634 Y162.254
G01 X202.128 Y160.662
G01 X202.215 Y160.333
G01 X203.113 Y159.582
G01 X203.966 Y158.792
G01 X204.775 Y157.966
G01 X205.536 Y157.106
G01 X205.957 Y156.591
G01 X206.830 Y155.862
G01 X207.671 Y155.087
G01 X208.475 Y154.268
G01 X209.242 Y153.406
G01 X209.699 Y152.849
G01 X210.638 Y152.061
G01 X211.547 Y151.212
G01 X212.422 Y150.302
G01 X213.258 Y149.333
G01 X213.441 Y149.107
G01 X214.538 Y148.172
G01 X215.598 Y147.150
G01 X216.615 Y146.044
G01 X217.183 Y145.365
G01 X216.253 Y143.854
G01 X215.244 Y142.448
G01 X214.163 Y141.151
G01 X213.957 Y140.925
G01 X213.814 Y139.750
G01 X213.614 Y138.591
G01 X213.358 Y137.452
G01 X213.047 Y136.334
G01 X212.850 Y135.718
G01 X212.713 Y134.578
G01 X212.519 Y133.441
G01 X212.267 Y132.310
G01 X211.959 Y131.188
G01 X211.743 Y130.511
G01 X211.593 Y129.286
G01 X211.374 Y128.053
G01 X211.086 Y126.816
G01 X210.727 Y125.580
G01 X210.637 Y125.303
G01 X210.449 Y123.868
G01 X210.169 Y122.417
G01 X209.794 Y120.956
G01 X209.530 Y120.096
G01 X207.737 Y120.053
G01 X205.989 Y120.136
G01 X204.294 Y120.340
G01 X204.017 Y120.385
G01 X202.947 Y119.862
G01 X201.860 Y119.396
G01 X200.758 Y118.987
G01 X199.645 Y118.637
G01 X199.017 Y118.466
G01 X197.983 Y117.958
G01 X196.920 Y117.500
G01 X195.832 Y117.094
G01 X194.720 Y116.740
G01 X194.018 Y116.547
G01 X192.908 Y116.005
G01 X191.754 Y115.516
G01 X190.559 Y115.083
G01 X189.325 Y114.710
G01 X189.019 Y114.628
G01 X187.713 Y114.003
G01 X186.344 Y113.447
G01 X184.915 Y112.964
G01 X184.019 Y112.709
G01 X183.002 Y114.195
G01 X182.115 Y115.712
G01 X181.360 Y117.252
G01 X181.243 Y117.518
G01 X180.220 Y118.130
G01 X179.235 Y118.788
G01 X178.292 Y119.490
G01 X177.391 Y120.232
G01 X176.885 Y120.684
G01 X175.895 Y121.275
G01 X174.932 Y121.916
G01 X173.998 Y122.606
G01 X173.096 Y123.345
G01 X172.527 Y123.851
G01 X171.467 Y124.486
G01 X170.428 Y125.187
G01 X169.414 Y125.953
G01 X168.428 Y126.783
G01 X168.169 Y127.017
G01 X166.932 Y127.771
G01 X165.718 Y128.617
G01 X164.533 Y129.553
G01 X163.812 Y130.183
G01 X164.502 Y131.844
G01 X165.290 Y133.414
G01 X166.167 Y134.885
G01 X166.348 Y135.160
G01 X166.303 Y136.352
G01 X166.318 Y137.536
G01 X166.392 Y138.710
G01 X166.523 Y139.871
G01 X166.631 Y140.570
G01 X166.586 Y141.724
G01 X166.599 Y142.883
G01 X166.669 Y144.045
G01 X166.797 Y145.207
G01 X166.915 Y145.981
G01 X166.869 Y147.221
G01 X166.891 Y148.480
G01 X166.981 Y149.753
G01 X167.142 Y151.038
G01 X167.198 Y151.392
G01 X167.157 Y152.850
G01 X167.206 Y154.339
G01 X167.347 Y155.853
G01 X167.482 Y156.802
G01 X169.252 Y157.129
G01 X170.997 Y157.324
G01 X172.709 Y157.391
G01 X173.070 Y157.389
G01 X174.049 Y158.079
G01 X175.056 Y158.715
G01 X176.086 Y159.295
G01 X177.137 Y159.820
G01 X177.789 Y160.114
G01 X178.739 Y160.785
G01 X179.726 Y161.410
G01 X180.746 Y161.988
G01 X181.799 Y162.518
G01 X182.509 Y162.839
G01 X183.534 Y163.559
G01 X184.612 Y164.233
G01 X185.741 Y164.856
G01 X186.918 Y165.426
G01 X187.228 Y165.564
G01 X188.442 Y166.401
G01 X189.733 Y167.180
G01 X191.095 Y167.893
G01 X191.947 Y168.288
G01 X193.193 Y166.974
G01 X194.314 Y165.607
G01 X195.310 Y164.199
G01 X195.504 Y163.897
G01 X196.627 Y163.445
G01 X197.719 Y162.942
G01 X198.777 Y162.388
G01 X199.800 Y161.786
G01 X200.387 Y161.408
G01 X201.479 Y160.971
G01 X202.553 Y160.478
G01 X203.606 Y159.930
G01 X204.635 Y159.328
G01 X205.271 Y158.920
G01 X206.447 Y158.446
G01 X207.612 Y157.901
G01 X208.763 Y157.286
G01 X209.895 Y156.601
G01 X210.155 Y156.432
G01 X211.533 Y155.862
G01 X212.903 Y155.196
G01 X214.258 Y154.433
G01 X215.038 Y153.943
G01 X214.607 Y152.162
G01 X214.065 Y150.457
G01 X213.417 Y148.837
G01 X213.282 Y148.537
G01 X213.517 Y147.336
G01 X213.691 Y146.133
G01 X213.803 Y144.930
G01 X213.855 Y143.731
G01 X213.858 Y143.055
G01 X214.088 Y141.889
G01 X214.260 Y140.708
G01 X214.374 Y139.515
G01 X214.430 Y138.312
G01 X214.434 Y137.573
G01 X214.678 Y136.318
G01 X214.857 Y135.034
G01 X214.969 Y133.724
G01 X215.011 Y132.390
G01 X215.010 Y132.091
G01 X215.285 Y130.616
G01 X215.474 Y129.096
G01 X215.572 Y127.535
G01 X215.587 Y126.608
G01 X213.837 Y125.993
G01 X212.091 Y125.515
G01 X210.359 Y125.174
G01 X210.065 Y125.129
G01 X209.178 Y124.271
G01 X208.257 Y123.464
G01 X207.302 Y122.709
G01 X206.318 Y122.008
G01 X205.756 Y121.640
G01 X204.899 Y120.808
G01 X203.998 Y120.016
G01 X203.055 Y119.267
G01 X202.072 Y118.562
G01 X201.448 Y118.151
G01 X200.526 Y117.260
G01 X199.545 Y116.408
G01 X198.504 Y115.599
G01 X197.407 Y114.836
G01 X197.139 Y114.662
G01 X196.051 Y113.627
G01 X194.879 Y112.640
G01 X193.624 Y111.706
G01 X192.831 Y111.173
G01 X191.352 Y112.312
G01 X189.992 Y113.524
G01 X188.755 Y114.799
G01 X188.558 Y115.020
G01 X187.353 Y115.296
G01 X186.171 Y115.630
G01 X185.016 Y116.019
G01 X183.890 Y116.464
G01 X183.256 Y116.743
G01 X182.090 Y117.008
G01 X180.935 Y117.332
G01 X179.792 Y117.714
G01 X178.665 Y118.154
G01 X177.953 Y118.466
G01 X176.704 Y118.753
G01 X175.455 Y119.111
G01 X174.210 Y119.542
G01 X172.972 Y120.045
G01 X172.650 Y120.189
G01 X171.190 Y120.537
G01 X169.723 Y120.982
G01 X168.255 Y121.525
G01 X167.348 Y121.912
G01 X167.497 Y123.773
G01 X167.771 Y125.574
G01 X168.166 Y127.307
G01 X168.252 Y127.622
G01 X167.834 Y128.787
G01 X167.478 Y129.963
G01 X167.183 Y131.146
G01 X166.949 Y132.334
G01 X166.886 Y132.720
G01 X166.482 Y133.843
G01 X166.131 Y134.988
G01 X165.837 Y136.153
G01 X165.600 Y137.335
G01 X165.521 Y137.817
G01 X165.094 Y139.007
G01 X164.726 Y140.234
G01 X164.419 Y141.494
G01 X164.175 Y142.785
G01 X164.155 Y142.915
G01 X163.673 Y144.286
G01 X163.265 Y145.712
G01 X162.935 Y147.187
G01 X162.789 Y148.012
G01 X162.447 Y149.286
G01 X164.087 Y150.175
G01 X165.745 Y150.926
G01 X167.412 Y151.541
G01 X167.759 Y151.651
G01 X168.510 Y152.639
G01 X169.304 Y153.581
G01 X170.138 Y154.476
G01 X171.010 Y155.322
G01 X171.310 Y155.595
G01 X172.035 Y156.551
G01 X172.809 Y157.473
G01 X173.631 Y158.360
G01 X174.498 Y159.207
G01 X174.861 Y159.539
G01 X175.633 Y160.552
G01 X176.467 Y161.537
G01 X177.364 Y162.488
G01 X178.323 Y163.402
G01 X178.412 Y163.483
G01 X179.309 Y164.645
G01 X180.292 Y165.774
G01 X181.361 Y166.864
G01 X181.963 Y167.426
G01 X182.851 Y168.412
G01 X184.496 Y167.517
G01 X186.035 Y166.532
G01 X187.465 Y165.465
G01 X187.755 Y165.227
G01 X189.002 Y165.134
G01 X190.235 Y164.980
G01 X191.451 Y164.766
G01 X192.645 Y164.493
G01 X193.026 Y164.393
G01 X194.234 Y164.304
G01 X195.442 Y164.155
G01 X196.645 Y163.946
G01 X197.840 Y163.677
G01 X198.296 Y163.558
G01 X199.581 Y163.461
G01 X200.875 Y163.295
G01 X202.176 Y163.057
G01 X203.480 Y162.747
G01 X203.567 Y162.723
G01 X205.047 Y162.602
G01 X206.546 Y162.389
G01 X208.060 Y162.082
G01 X208.838 Y161.888
G01 X210.156 Y161.680
G01 X210.302 Y159.793
G01 X210.313 Y157.947
G01 X210.194 Y156.149
G01 X210.156 Y155.800
G01 X210.763 Y154.690
G01 X211.311 Y153.559
G01 X211.798 Y152.410
G01 X212.223 Y151.246
G01 X212.338 Y150.897
G01 X212.928 Y149.823
G01 X213.466 Y148.717
G01 X213.950 Y147.582
G01 X214.380 Y146.421
G01 X214.521 Y145.995
G01 X215.145 Y144.854
G01 X215.715 Y143.666
G01 X216.228 Y142.434
G01 X216.682 Y141.160
G01 X216.704 Y141.093
G01 X217.413 Y139.776
G01 X218.055 Y138.392
G01 X218.627 Y136.944
G01 X218.886 Y136.191
G01 X219.432 Y134.965
G01 X217.910 Y133.802
G01 X216.348 Y132.776
G01 X214.756 Y131.887
G01 X214.473 Y131.745
G01 X213.868 Y130.621
G01 X213.211 Y129.537
G01 X212.506 Y128.494
G01 X211.756 Y127.495
G01 X211.534 Y127.220
G01 X210.950 Y126.133
G01 X210.311 Y125.072
G01 X209.619 Y124.041
G01 X208.874 Y123.043
G01 X208.595 Y122.694
G01 X207.975 Y121.545
G01 X207.287 Y120.415
G01 X206.530 Y119.308
G01 X205.706 Y118.230
G01 X205.657 Y118.169
G01 X204.937 Y116.854
G01 X204.124 Y115.558
G01 X203.220 Y114.287
G01 X202.718 Y113.644
G01 X201.983 Y112.513
G01 X200.165 Y113.161
G01 X198.439 Y113.918
G01 X196.814 Y114.778
G01 X196.552 Y114.931
G01 X195.275 Y114.826
G01 X194.004 Y114.785
G01 X192.741 Y114.808
G01 X191.490 Y114.894
G01 X191.127 Y114.931
G01 X189.895 Y114.828
G01 X188.656 Y114.786
G01 X187.412 Y114.804
G01 X186.167 Y114.885
G01 X185.701 Y114.931
G01 X184.399 Y114.824
G01 X183.076 Y114.785
G01 X181.736 Y114.817
G01 X180.382 Y114.920
G01 X180.276 Y114.931
G01 X178.781 Y114.818
G01 X177.252 Y114.792
G01 X175.695 Y114.857
G01 X174.850 Y114.931
G01 X173.494 Y114.931
G01 X173.045 Y116.812
G01 X172.740 Y118.675
G01 X172.574 Y120.509
G01 X172.559 Y120.835
G01 X171.775 Y121.849
G01 X171.047 Y122.892
G01 X170.378 Y123.964
G01 X169.768 Y125.059
G01 X169.588 Y125.410
G01 X168.830 Y126.387
G01 X168.119 Y127.402
G01 X167.457 Y128.455
G01 X166.846 Y129.543
G01 X166.617 Y129.985
G01 X165.817 Y131.019
G01 X165.062 Y132.108
G01 X164.358 Y133.250
G01 X163.706 Y134.442
G01 X163.646 Y134.560
G01 X162.734 Y135.754
G01 X161.878 Y137.025
G01 X161.082 Y138.370
G01 X160.675 Y139.135
G01 X159.932 Y140.279
G01 X161.263 Y141.679
G01 X162.656 Y142.949
G01 X164.102 Y144.087
G01 X164.399 Y144.301
G01 X164.822 Y145.512
G01 X165.301 Y146.693
G01 X165.836 Y147.839
G01 X166.423 Y148.950
G01 X166.630 Y149.311
G01 X167.037 Y150.482
G01 X167.503 Y151.636
G01 X168.027 Y152.769
G01 X168.608 Y153.878
G01 X168.860 Y154.322
G01 X169.294 Y155.563
G01 X169.800 Y156.796
G01 X170.377 Y158.016
G01 X171.026 Y159.219
G01 X171.091 Y159.332
G01 X171.600 Y160.759
G01 X172.205 Y162.180
G01 X172.905 Y163.591
G01 X173.322 Y164.343
G01 X173.880 Y165.596
G01 X175.783 Y165.241
G01 X177.611 Y164.765
G01 X179.356 Y164.172
G01 X179.717 Y164.031
G01 X180.971 Y164.338
G01 X182.231 Y164.580
G01 X183.492 Y164.758
G01 X184.752 Y164.871
G01 X185.164 Y164.894
G01 X186.378 Y165.193
G01 X187.610 Y165.432
G01 X188.856 Y165.610
G01 X190.115 Y165.728
G01 X190.610 Y165.757
G01 X191.901 Y166.072
G01 X193.223 Y166.321
G01 X194.575 Y166.503
G01 X195.952 Y166.614
G01 X196.057 Y166.619
G01 X197.546 Y166.972
G01 X199.085 Y167.242
G01 X200.667 Y167.423
G01 X201.503 Y167.482
G01 X202.865 Y167.698
G01 X203.609 Y165.894
G01 X204.209 Y164.086
G01 X204.666 Y162.284
G01 X204.742 Y161.919
G01 X205.692 Y161.024
G01 X206.590 Y160.090
G01 X207.434 Y159.118
G01 X208.222 Y158.112
G01 X208.452 Y157.799
G01 X209.373 Y156.933
G01 X210.253 Y156.020
G01 X211.091 Y155.061
G01 X211.882 Y154.058
G01 X212.162 Y153.679
G01 X213.138 Y152.758
G01 X214.077 Y151.774
G01 X214.974 Y150.728
G01 X215.825 Y149.622
G01 X215.871 Y149.559
G01 X216.988 Y148.492
G01 X218.061 Y147.337
G01 X219.084 Y146.098
G01 X219.581 Y145.439
G01 X220.508 Y144.409
G01 X219.387 Y142.784
G01 X218.182 Y141.279
G01 X216.904 Y139.899
G01 X216.664 Y139.662
G01 X216.428 Y138.365
G01 X216.130 Y137.091
G01 X215.770 Y135.843
G01 X215.352 Y134.622
G01 X215.221 Y134.278
G01 X214.995 Y133.024
G01 X214.706 Y131.778
G01 X214.354 Y130.544
G01 X213.941 Y129.325
G01 X213.779 Y128.894
G01 X213.537 Y127.566
G01 X213.220 Y126.235
G01 X212.830 Y124.905
G01 X212.364 Y123.582
G01 X212.336 Y123.511
G01 X212.048 Y121.987
G01 X211.663 Y120.452
G01 X211.180 Y118.914
G01 X210.894 Y118.127
G01 X210.533 Y116.781
G01 X208.540 Y116.837
G01 X206.604 Y117.031
G01 X204.733 Y117.356
G01 X204.425 Y117.423
G01 X203.199 Y116.919
G01 X201.959 Y116.480
G01 X200.707 Y116.107
G01 X199.448 Y115.800
G01 X199.392 Y115.787
G01 X198.211 Y115.300
G01 X197.005 Y114.870
G01 X195.777 Y114.500
G01 X194.529 Y114.189
G01 X194.359 Y114.152
G01 X193.124 Y113.644
G01 X191.850 Y113.196
G01 X190.539 Y112.810
G01 X189.326 Y112.517
G01 X187.932 Y111.951
G01 X186.481 Y111.458
G01 X184.976 Y111.041
G01 X184.293 Y110.882
G01 X182.654 Y110.319
G01 X181.777 Y110.064
G01 X180.734 Y111.772
G01 X179.838 Y113.507
G01 X179.089 Y115.259
G01 X178.974 Y115.565
G01 X177.882 Y116.319
G01 X176.837 Y117.120
G01 X175.842 Y117.967
G01 X174.897 Y118.856
G01 X174.840 Y118.913
G01 X173.787 Y119.637
G01 X172.770 Y120.414
G01 X171.789 Y121.242
G01 X170.849 Y122.119
G01 X170.705 Y122.261
G01 X169.606 Y123.019
G01 X168.536 Y123.843
G01 X167.497 Y124.732
G01 X166.571 Y125.609
G01 X165.336 Y126.470
G01 X164.130 Y127.419
G01 X162.960 Y128.454
G01 X162.436 Y128.957
G01 X161.070 Y130.027
G01 X160.369 Y130.631
G01 X161.232 Y132.434
G01 X162.197 Y134.130
G01 X163.256 Y135.712
G01 X163.472 Y136.006
G01 X163.509 Y137.333
G01 X163.612 Y138.646
G01 X163.779 Y139.943
G01 X164.010 Y141.220
G01 X164.031 Y141.325
G01 X164.065 Y142.604
G01 X164.162 Y143.882
G01 X164.323 Y145.158
G01 X164.546 Y146.427
G01 X164.590 Y146.643
G01 X164.628 Y147.983
G01 X164.736 Y149.334
G01 X164.916 Y150.694
G01 X165.149 Y151.962
G01 X165.199 Y153.475
G01 X165.339 Y155.011
G01 X165.571 Y156.566
G01 X165.708 Y157.281
G01 X165.863 Y159.022
G01 X165.988 Y159.940
G01 X167.971 Y160.200
G01 X169.919 Y160.315
G01 X171.824 Y160.289
G01 X172.219 Y160.267
G01 X173.356 Y160.961
G01 X174.519 Y161.593
G01 X175.704 Y162.162
G01 X176.906 Y162.668
G01 X177.009 Y162.707
G01 X178.107 Y163.380
G01 X179.240 Y163.999
G01 X180.405 Y164.563
G01 X181.600 Y165.070
G01 X181.799 Y165.148
G01 X182.952 Y165.852
G01 X184.155 Y166.503
G01 X185.405 Y167.097
G01 X186.589 Y167.589
G01 X187.898 Y168.378
G01 X189.277 Y169.105
G01 X190.722 Y169.762
G01 X191.379 Y170.029
G01 X192.939 Y170.857
G01 X193.774 Y171.250
G01 X195.079 Y169.718
G01 X196.244 Y168.137
G01 X197.266 Y166.517
G01 X197.461 Y166.175
G01 X198.674 Y165.594
G01 X199.848 Y164.957
G01 X200.980 Y164.266
G01 X202.069 Y163.525
G01 X202.141 Y163.473
G01 X203.314 Y162.912
G01 X204.462 Y162.292
G01 X205.581 Y161.615
G01 X206.668 Y160.881
G01 X206.821 Y160.771
G01 X208.052 Y160.181
G01 X209.265 Y159.519
G01 X210.456 Y158.786
G01 X211.501 Y158.069
G01 X212.890 Y157.394
G01 X214.263 Y156.625
G01 X215.614 Y155.762
G01 X216.181 Y155.367
G01 X217.738 Y154.501
G01 X218.521 Y154.016
G01 X217.940 Y152.067
G01 X217.239 Y150.210
G01 X216.427 Y148.451
G01 X216.261 Y148.131
G01 X216.435 Y146.783
G01 X216.541 Y145.437
G01 X216.578 Y144.098
G01 X216.549 Y142.768
G01 X216.546 Y142.706
G01 X216.715 Y141.404
G01 X216.821 Y140.092
G01 X216.862 Y138.772
G01 X216.837 Y137.449
G01 X216.830 Y137.281
G01 X217.006 Y135.917
G01 X217.112 Y134.528
G01 X217.146 Y133.119
G01 X217.114 Y131.857
G01 X217.305 Y130.315
G01 X217.408 Y128.736
G01 X217.421 Y127.124
G01 X217.398 Y126.432
G01 X217.521 Y124.646
G01 X217.541 Y123.720
G01 X215.568 Y123.140
G01 X213.608 Y122.713
G01 X211.671 Y122.435
G01 X211.342 Y122.402
G01 X210.299 Y121.516
G01 X209.221 Y120.690
G01 X208.111 Y119.925
G01 X206.972 Y119.221
G01 X206.924 Y119.193
G01 X205.920 Y118.338
G01 X204.872 Y117.531
G01 X203.783 Y116.775
G01 X202.656 Y116.071
G01 X202.507 Y115.984
G01 X201.456 Y115.090
G01 X200.346 Y114.243
G01 X199.181 Y113.445
G01 X198.090 Y112.775
G01 X196.900 Y111.774
G01 X195.631 Y110.825
G01 X194.285 Y109.935
G01 X193.673 Y109.565
G01 X192.241 Y108.489
G01 X191.464 Y107.961
G01 X189.895 Y109.373
G01 X188.468 Y110.859
G01 X187.861 Y111.564
G01 X186.960 Y112.465
G01 X185.646 Y112.857
G01 X184.363 Y113.312
G01 X183.115 Y113.826
G01 X181.903 Y114.398
G01 X181.836 Y114.432
G01 X180.571 Y114.808
G01 X179.323 Y115.247
G01 X178.095 Y115.747
G01 X176.891 Y116.309
G01 X176.713 Y116.398
G01 X175.391 Y116.793
G01 X174.076 Y117.261
G01 X172.772 Y117.803
G01 X171.589 Y118.365
G01 X170.102 Y118.817
G01 X168.615 Y119.364
G01 X167.135 Y120.007
G01 X166.466 Y120.332
G01 X164.783 Y120.946
G01 X163.904 Y121.315
G01 X164.233 Y123.401
G01 X164.701 Y125.407
G01 X164.969 Y126.325
G01 X165.235 Y127.578
G01 X164.848 Y128.893
G01 X164.530 Y130.216
G01 X164.281 Y131.543
G01 X164.100 Y132.871
G01 X164.088 Y132.973
G01 X163.714 Y134.240
G01 X163.401 Y135.526
G01 X163.152 Y136.829
G01 X162.966 Y138.146
G01 X162.942 Y138.369
G01 X162.551 Y139.695
G01 X162.227 Y141.055
G01 X161.970 Y142.446
G01 X161.795 Y143.764
G01 X161.362 Y145.263
G01 X161.009 Y146.814
G01 X160.742 Y148.411
G01 X160.648 Y149.160
G01 X160.245 Y150.915
G01 X160.075 Y151.857
G01 X162.001 Y152.717
G01 X163.936 Y153.418
G01 X164.881 Y153.702
G01 X166.082 Y154.164
G01 X166.977 Y155.207
G01 X167.916 Y156.198
G01 X168.896 Y157.133
G01 X169.914 Y158.012
G01 X170.003 Y158.084
G01 X170.865 Y159.092
G01 X171.778 Y160.060
G01 X172.740 Y160.984
G01 X173.749 Y161.861
G01 X173.923 Y162.004
G01 X174.828 Y163.061
G01 X175.799 Y164.081
G01 X176.834 Y165.060
G01 X177.843 Y165.924
G01 X178.873 Y167.114
G01 X179.992 Y168.264
G01 X181.197 Y169.367
G01 X181.763 Y169.844
G01 X183.028 Y171.151
G01 X183.723 Y171.805
G01 X185.500 Y170.653
G01 X187.148 Y169.407
G01 X187.910 Y168.763
G01 X188.956 Y168.003
G01 X190.329 Y167.819
G01 X191.681 Y167.569
G01 X193.010 Y167.254
G01 X194.312 Y166.875
G01 X194.406 Y166.844
G01 X195.734 Y166.668
G01 X197.055 Y166.427
G01 X198.366 Y166.120
G01 X199.663 Y165.747
G01 X199.857 Y165.686
G01 X201.250 Y165.499
G01 X202.648 Y165.237
G01 X204.048 Y164.899
G01 X205.307 Y164.527
G01 X206.882 Y164.308
G01 X208.471 Y163.992
G01 X210.069 Y163.578
G01 X210.757 Y163.369
G01 X212.559 Y163.016
G01 X213.482 Y162.790
G01 X213.483 Y160.652
G01 X213.334 Y158.572
G01 X213.210 Y157.596
G01 X213.142 Y156.298
G01 X213.735 Y155.029
G01 X214.260 Y153.742
G01 X214.715 Y152.440
G01 X215.043 Y151.345
G01 X215.617 Y150.121
G01 X216.131 Y148.868
G01 X216.583 Y147.589
G01 X216.944 Y146.392
G01 X217.539 Y145.121
G01 X218.073 Y143.806
G01 X218.544 Y142.451
G01 X218.846 Y141.439
G01 X219.501 Y140.023
G01 X220.086 Y138.545
G01 X220.595 Y137.010
G01 X220.747 Y136.486
G01 X221.454 Y134.831
G01 X222.070 Y133.099
G01 X222.173 Y132.772
G01 X220.360 Y131.595
G01 X218.514 Y130.577
G01 X217.646 Y130.158
G01 X216.515 Y129.505
G01 X215.768 Y128.307
G01 X214.968 Y127.158
G01 X214.117 Y126.058
