;  Created by Sandify
;  https://sandify.org
;  Version: 0.2.4
;
;  Machine type: Rectangular
;    Min X (mm): 0
;    Max X (mm): 380
;    Min Y (mm): 0
;    Max Y (mm): 280
;  Content type: shape
;  Layer:
;    Shape: FileImport
;    Name: Spiral7.thr
;    From file:: Spiral7.thr
;    Aspect Ratio: true
;    Comments: 
;    Visible: true
;    Initial width: 10
;    Initial height: 10
;    X offset: 0
;    Y offset: 0
;    Rotate (degrees): 0
;    Reverse path: false
;    Fine tuning:
;      Connect to next layer: line
;      Draw portion of path (%): 100
;      Backtrack at end (%): 0
;      Rotate starting point (%): 0
;  Reverse export path: false
;
; File name: 'Spiral7'
;

G01 X190.000 Y140.000
G01 X190.010 Y140.204
G01 X190.040 Y140.406
G01 X190.090 Y140.605
G01 X190.159 Y140.800
G01 X190.248 Y140.989
G01 X190.355 Y141.171
G01 X190.452 Y141.307
G01 X191.810 Y144.506
G01 X193.480 Y147.567
G01 X195.451 Y150.467
G01 X197.712 Y153.184
G01 X200.248 Y155.698
G01 X203.044 Y157.987
G01 X206.086 Y160.034
G01 X209.354 Y161.818
G01 X212.830 Y163.324
G01 X214.832 Y164.030
G01 X218.223 Y164.748
G01 X221.738 Y165.187
G01 X225.359 Y165.335
G01 X229.065 Y165.185
G01 X231.265 Y164.956
G01 X234.641 Y164.089
G01 X238.027 Y162.948
G01 X241.402 Y161.530
G01 X244.152 Y160.158
G01 X247.010 Y158.091
G01 X249.790 Y155.789
G01 X252.478 Y153.258
G01 X252.627 Y153.107
G01 X254.734 Y150.263
G01 X256.709 Y147.242
G01 X258.539 Y144.052
G01 X258.639 Y143.866
G01 X259.960 Y140.502
G01 X260.140 Y140.000
G01 X261.636 Y136.481
G01 X262.237 Y134.886
G01 X264.587 Y131.024
G01 X265.076 Y130.142
G01 X268.591 Y125.876
G01 X272.705 Y122.184
G01 X277.324 Y119.148
G01 X282.346 Y116.837
G01 X289.015 Y115.044
G01 X295.902 Y114.527
G01 X302.764 Y115.302
G01 X310.628 Y117.898
G01 X317.715 Y122.184
G01 X323.667 Y127.943
G01 X327.864 Y134.363
G01 X328.183 Y134.886
G01 X330.000 Y140.000
G01 X327.212 Y146.741
G01 X326.852 Y147.539
G01 X322.090 Y153.803
G01 X321.829 Y154.124
G01 X315.462 Y159.421
G01 X308.074 Y163.163
G01 X301.405 Y164.956
G01 X294.518 Y165.473
G01 X287.656 Y164.698
G01 X281.059 Y162.656
G01 X276.128 Y160.158
G01 X271.625 Y156.951
G01 X267.653 Y153.107
G01 X264.396 Y148.830
G01 X264.300 Y148.713
G01 X262.250 Y144.895
G01 X261.641 Y143.866
G01 X260.283 Y140.339
G01 X260.140 Y140.000
G01 X258.716 Y136.624
G01 X257.133 Y133.388
G01 X255.980 Y131.287
G01 X253.704 Y128.383
G01 X251.305 Y125.680
G01 X248.800 Y123.184
G01 X248.655 Y123.049
G01 X245.602 Y120.929
G01 X242.488 Y119.066
G01 X239.329 Y117.460
G01 X237.934 Y116.837
G01 X234.320 Y115.832
G01 X230.729 Y115.123
G01 X227.180 Y114.705
G01 X223.694 Y114.572
G01 X222.996 Y114.579
G01 X219.237 Y115.096
G01 X215.614 Y115.916
G01 X212.148 Y117.026
G01 X208.857 Y118.412
G01 X205.762 Y120.061
G01 X202.878 Y121.955
G01 X202.565 Y122.184
G01 X199.768 Y124.598
G01 X197.242 Y127.235
G01 X195.003 Y130.076
G01 X193.065 Y133.099
G01 X191.438 Y136.280
G01 X190.452 Y138.693
G01 X190.500 Y138.755
G01 X190.544 Y138.818
G01 X190.582 Y138.882
G01 X190.616 Y138.948
G01 X190.644 Y139.013
G01 X190.668 Y139.079
G01 X190.686 Y139.145
G01 X190.700 Y139.211
G01 X190.709 Y139.275
G01 X190.714 Y139.339
G01 X190.714 Y139.401
G01 X190.710 Y139.461
G01 X190.702 Y139.520
G01 X190.690 Y139.577
G01 X190.674 Y139.631
G01 X190.654 Y139.682
G01 X190.631 Y139.731
G01 X190.605 Y139.776
G01 X190.576 Y139.818
G01 X190.545 Y139.857
G01 X190.511 Y139.893
G01 X190.475 Y139.924
G01 X190.438 Y139.952
G01 X190.399 Y139.976
G01 X190.358 Y139.996
G01 X190.317 Y140.012
G01 X190.275 Y140.024
G01 X190.233 Y140.032
G01 X190.191 Y140.036
G01 X190.149 Y140.036
G01 X190.108 Y140.031
G01 X190.067 Y140.023
G01 X190.028 Y140.011
G01 X190.000 Y140.000
G01 X190.041 Y140.021
G01 X190.079 Y140.045
G01 X190.116 Y140.073
G01 X190.149 Y140.105
G01 X190.180 Y140.141
G01 X190.207 Y140.179
G01 X190.231 Y140.221
G01 X190.252 Y140.265
G01 X190.268 Y140.312
G01 X190.281 Y140.361
G01 X190.289 Y140.411
G01 X190.293 Y140.464
G01 X190.292 Y140.517
G01 X190.287 Y140.572
G01 X190.277 Y140.627
G01 X190.263 Y140.683
G01 X190.243 Y140.738
G01 X190.219 Y140.793
G01 X190.189 Y140.847
G01 X190.155 Y140.901
G01 X190.117 Y140.953
G01 X190.073 Y141.003
G01 X190.025 Y141.051
G01 X189.972 Y141.097
G01 X189.915 Y141.139
G01 X189.853 Y141.179
G01 X189.788 Y141.216
G01 X189.718 Y141.248
G01 X189.645 Y141.277
G01 X189.569 Y141.302
G01 X189.548 Y141.307
G01 X188.190 Y144.506
G01 X186.520 Y147.567
G01 X184.549 Y150.467
G01 X182.288 Y153.184
G01 X179.752 Y155.698
G01 X176.956 Y157.987
G01 X173.914 Y160.034
G01 X170.646 Y161.818
G01 X167.170 Y163.324
G01 X165.168 Y164.030
G01 X161.777 Y164.748
G01 X158.262 Y165.187
G01 X154.641 Y165.335
G01 X150.935 Y165.185
G01 X148.735 Y164.956
G01 X145.359 Y164.089
G01 X141.973 Y162.948
G01 X138.598 Y161.530
G01 X135.848 Y160.158
G01 X132.990 Y158.091
G01 X130.210 Y155.789
G01 X127.522 Y153.258
G01 X127.373 Y153.107
G01 X125.266 Y150.263
G01 X123.291 Y147.242
G01 X121.461 Y144.052
G01 X121.361 Y143.866
G01 X120.040 Y140.502
G01 X119.860 Y140.000
G01 X118.364 Y136.481
G01 X117.763 Y134.886
G01 X115.413 Y131.024
G01 X114.924 Y130.142
G01 X111.409 Y125.876
G01 X107.295 Y122.184
G01 X102.676 Y119.148
G01 X97.654 Y116.837
G01 X90.985 Y115.044
G01 X84.098 Y114.527
G01 X77.236 Y115.302
G01 X69.372 Y117.898
G01 X62.285 Y122.184
G01 X56.333 Y127.943
G01 X52.136 Y134.363
G01 X51.817 Y134.886
G01 X50.000 Y140.000
G01 X52.788 Y146.741
G01 X53.148 Y147.539
G01 X57.910 Y153.803
G01 X58.171 Y154.124
G01 X64.538 Y159.421
G01 X71.926 Y163.163
G01 X78.595 Y164.956
G01 X85.482 Y165.473
G01 X92.344 Y164.698
G01 X98.941 Y162.656
G01 X103.872 Y160.158
G01 X108.375 Y156.951
G01 X112.347 Y153.107
G01 X115.604 Y148.830
G01 X115.700 Y148.713
G01 X117.750 Y144.895
G01 X118.359 Y143.866
G01 X119.717 Y140.339
G01 X119.860 Y140.000
G01 X121.284 Y136.624
G01 X122.867 Y133.388
G01 X124.020 Y131.287
G01 X126.296 Y128.383
G01 X128.695 Y125.680
G01 X131.200 Y123.184
G01 X131.345 Y123.049
G01 X134.398 Y120.929
G01 X137.512 Y119.066
G01 X140.671 Y117.460
G01 X142.066 Y116.837
G01 X145.680 Y115.832
G01 X149.271 Y115.123
G01 X152.820 Y114.705
G01 X156.306 Y114.572
G01 X157.004 Y114.579
G01 X160.763 Y115.096
G01 X164.386 Y115.916
G01 X167.852 Y117.026
G01 X171.143 Y118.412
G01 X174.238 Y120.061
G01 X177.122 Y121.955
G01 X177.435 Y122.184
G01 X180.232 Y124.598
G01 X182.758 Y127.235
G01 X184.997 Y130.076
G01 X186.935 Y133.099
G01 X188.562 Y136.280
G01 X189.548 Y138.693
G01 X189.494 Y138.740
G01 X189.443 Y138.789
G01 X189.396 Y138.841
G01 X189.353 Y138.893
G01 X189.313 Y138.948
G01 X189.277 Y139.003
G01 X189.245 Y139.060
G01 X189.216 Y139.117
G01 X189.192 Y139.174
G01 X189.171 Y139.232
G01 X189.153 Y139.290
G01 X189.140 Y139.348
G01 X189.130 Y139.405
G01 X189.123 Y139.462
G01 X189.120 Y139.517
G01 X189.120 Y139.572
G01 X189.123 Y139.626
G01 X189.130 Y139.678
G01 X189.139 Y139.729
G01 X189.151 Y139.778
G01 X189.166 Y139.825
G01 X189.184 Y139.870
G01 X189.203 Y139.913
G01 X189.225 Y139.954
G01 X189.249 Y139.992
G01 X189.275 Y140.028
G01 X189.302 Y140.061
G01 X189.331 Y140.092
G01 X189.362 Y140.120
G01 X189.393 Y140.145
G01 X189.425 Y140.168
G01 X189.458 Y140.188
G01 X189.491 Y140.204
G01 X189.525 Y140.219
G01 X189.558 Y140.230
G01 X189.592 Y140.239
G01 X189.625 Y140.245
G01 X189.658 Y140.248
G01 X189.691 Y140.248
G01 X189.722 Y140.246
G01 X189.753 Y140.242
G01 X189.782 Y140.235
G01 X189.810 Y140.226
G01 X189.837 Y140.215
G01 X189.862 Y140.202
G01 X189.885 Y140.187
G01 X189.907 Y140.170
G01 X189.926 Y140.152
G01 X189.944 Y140.132
G01 X189.959 Y140.111
G01 X189.972 Y140.089
G01 X189.983 Y140.066
G01 X189.991 Y140.042
G01 X189.997 Y140.017
G01 X190.000 Y140.000
G01 X189.992 Y140.102
G01 X189.995 Y140.204
G01 X190.007 Y140.305
G01 X190.029 Y140.406
G01 X190.062 Y140.505
G01 X190.103 Y140.602
G01 X190.155 Y140.696
G01 X190.216 Y140.786
G01 X190.286 Y140.871
G01 X190.365 Y140.951
G01 X190.452 Y141.025
G01 X190.548 Y141.092
G01 X190.651 Y141.153
G01 X190.714 Y141.185
G01 X192.707 Y144.031
G01 X194.977 Y146.678
G01 X197.508 Y149.105
G01 X200.284 Y151.293
G01 X203.288 Y153.224
G01 X206.499 Y154.882
G01 X209.899 Y156.251
G01 X213.467 Y157.317
G01 X217.181 Y158.068
G01 X219.286 Y158.342
G01 X222.751 Y158.340
G01 X226.281 Y158.038
G01 X229.854 Y157.430
G01 X233.448 Y156.513
G01 X235.552 Y155.831
G01 X238.674 Y154.281
G01 X241.748 Y152.461
G01 X244.755 Y150.373
G01 X247.160 Y148.459
G01 X249.525 Y145.842
G01 X251.767 Y143.013
G01 X253.869 Y139.978
G01 X253.984 Y139.800
G01 X255.453 Y136.579
G01 X256.757 Y133.214
G01 X257.884 Y129.713
G01 X257.942 Y129.511
G01 X258.536 Y125.946
G01 X258.607 Y125.417
G01 X259.339 Y121.664
G01 X259.596 Y119.978
G01 X261.091 Y115.712
G01 X261.386 Y114.749
G01 X263.937 Y109.845
G01 X267.194 Y105.378
G01 X271.081 Y101.448
G01 X275.512 Y98.143
G01 X281.663 Y95.003
G01 X288.291 Y93.065
G01 X295.165 Y92.397
G01 X303.397 Y93.301
G01 X311.220 Y96.020
G01 X318.239 Y100.416
G01 X323.680 Y105.822
G01 X324.100 Y106.268
G01 X326.941 Y110.892
G01 X325.615 Y118.065
G01 X325.429 Y118.921
G01 X322.073 Y126.039
G01 X321.884 Y126.406
G01 X316.758 Y132.911
G01 X310.310 Y138.108
G01 X304.159 Y141.248
G01 X297.531 Y143.186
G01 X290.657 Y143.854
G01 X283.779 Y143.229
G01 X278.437 Y141.811
G01 X273.366 Y139.610
G01 X268.681 Y136.676
G01 X264.606 Y133.169
G01 X264.488 Y133.074
G01 X261.688 Y129.766
G01 X260.880 Y128.887
G01 X258.818 Y125.719
G01 X258.607 Y125.417
G01 X256.512 Y122.411
G01 X254.291 Y119.575
G01 X252.727 Y117.760
G01 X249.896 Y115.392
G01 X246.989 Y113.247
G01 X244.019 Y111.326
G01 X243.849 Y111.224
G01 X240.422 Y109.785
G01 X236.988 Y108.610
G01 X233.565 Y107.696
G01 X232.071 Y107.377
G01 X228.327 Y107.146
G01 X224.667 Y107.199
G01 X221.109 Y107.528
G01 X217.671 Y108.122
G01 X216.990 Y108.274
G01 X213.420 Y109.561
G01 X210.047 Y111.117
G01 X206.887 Y112.923
G01 X203.957 Y114.963
G01 X201.272 Y117.219
G01 X198.845 Y119.671
G01 X198.586 Y119.961
G01 X196.352 Y122.903
G01 X194.430 Y126.009
G01 X192.831 Y129.253
G01 X191.563 Y132.612
G01 X190.633 Y136.062
G01 X190.170 Y138.627
G01 X190.101 Y138.648
G01 X190.034 Y138.672
G01 X189.969 Y138.699
G01 X189.907 Y138.730
G01 X189.848 Y138.763
G01 X189.792 Y138.799
G01 X189.740 Y138.837
G01 X189.690 Y138.878
G01 X189.644 Y138.920
G01 X189.601 Y138.964
G01 X189.562 Y139.010
G01 X189.526 Y139.057
G01 X189.494 Y139.105
G01 X189.465 Y139.154
G01 X189.440 Y139.204
G01 X189.419 Y139.254
G01 X189.401 Y139.304
G01 X189.386 Y139.354
G01 X189.375 Y139.404
G01 X189.367 Y139.453
G01 X189.363 Y139.502
G01 X189.361 Y139.549
G01 X189.363 Y139.596
G01 X189.368 Y139.641
G01 X189.375 Y139.685
G01 X189.386 Y139.727
G01 X189.399 Y139.767
G01 X189.414 Y139.806
G01 X189.431 Y139.842
G01 X189.451 Y139.876
G01 X189.473 Y139.908
G01 X189.496 Y139.937
G01 X189.521 Y139.964
G01 X189.547 Y139.989
G01 X189.574 Y140.010
G01 X189.602 Y140.029
G01 X189.631 Y140.045
G01 X189.661 Y140.059
G01 X189.691 Y140.069
G01 X189.721 Y140.077
G01 X189.751 Y140.082
G01 X189.781 Y140.084
G01 X189.810 Y140.084
G01 X189.839 Y140.081
G01 X189.867 Y140.075
G01 X189.894 Y140.067
G01 X189.920 Y140.056
G01 X189.944 Y140.043
G01 X189.967 Y140.028
G01 X189.988 Y140.011
G01 X190.000 Y140.000
G01 X189.931 Y140.077
G01 X189.870 Y140.160
G01 X189.817 Y140.249
G01 X189.772 Y140.344
G01 X189.736 Y140.443
G01 X189.710 Y140.546
G01 X189.694 Y140.653
G01 X189.687 Y140.763
G01 X189.690 Y140.874
G01 X189.704 Y140.987
G01 X189.728 Y141.101
G01 X189.763 Y141.214
G01 X189.808 Y141.326
G01 X189.830 Y141.373
G01 X189.166 Y144.784
G01 X188.169 Y148.125
G01 X186.844 Y151.371
G01 X185.198 Y154.500
G01 X183.240 Y157.485
G01 X180.980 Y160.306
G01 X178.431 Y162.940
G01 X175.605 Y165.365
G01 X172.518 Y167.561
G01 X170.707 Y168.668
G01 X167.539 Y170.075
G01 X164.192 Y171.235
G01 X160.681 Y172.133
G01 X157.025 Y172.757
G01 X154.825 Y172.990
G01 X151.343 Y172.844
G01 X147.794 Y172.432
G01 X144.197 Y171.747
G01 X141.222 Y170.977
G01 X137.997 Y169.548
G01 X134.799 Y167.876
G01 X131.644 Y165.958
G01 X131.467 Y165.842
G01 X128.814 Y163.497
G01 X126.255 Y160.953
G01 X123.801 Y158.214
G01 X123.665 Y158.052
G01 X121.673 Y155.037
G01 X121.393 Y154.583
G01 X119.198 Y151.452
G01 X118.278 Y150.016
G01 X115.177 Y146.728
G01 X114.515 Y145.967
G01 X110.190 Y142.525
G01 X105.398 Y139.769
G01 X100.249 Y137.760
G01 X94.856 Y136.543
G01 X87.960 Y136.176
G01 X81.116 Y137.101
G01 X74.565 Y139.287
G01 X67.412 Y143.461
G01 X61.372 Y149.127
G01 X56.748 Y155.998
G01 X53.976 Y163.149
G01 X53.774 Y163.727
G01 X53.059 Y169.108
G01 X57.188 Y175.122
G01 X57.706 Y175.828
G01 X63.667 Y180.965
G01 X63.988 Y181.224
G01 X71.317 Y185.081
G01 X79.322 Y187.206
G01 X86.218 Y187.573
G01 X93.062 Y186.647
G01 X99.613 Y184.462
G01 X105.642 Y181.093
G01 X109.946 Y177.625
G01 X113.683 Y173.552
G01 X116.769 Y168.966
G01 X119.065 Y164.104
G01 X119.135 Y163.970
G01 X120.347 Y159.809
G01 X120.728 Y158.677
G01 X121.323 Y154.944
G01 X121.393 Y154.583
G01 X122.084 Y150.985
G01 X122.959 Y147.490
G01 X123.650 Y145.196
G01 X125.273 Y141.882
G01 X127.057 Y138.739
G01 X128.989 Y135.777
G01 X129.103 Y135.614
G01 X131.648 Y132.906
G01 X134.307 Y130.436
G01 X137.062 Y128.209
G01 X138.297 Y127.309
G01 X141.624 Y125.575
G01 X144.989 Y124.135
G01 X148.373 Y122.988
G01 X151.755 Y122.133
G01 X152.439 Y121.994
G01 X156.224 Y121.719
G01 X159.938 Y121.767
G01 X163.560 Y122.133
G01 X167.066 Y122.805
G01 X170.437 Y123.773
G01 X173.652 Y125.026
G01 X174.006 Y125.186
G01 X177.243 Y126.965
G01 X180.262 Y129.020
G01 X183.043 Y131.334
G01 X185.568 Y133.887
G01 X187.820 Y136.660
G01 X189.286 Y138.815
G01 X189.244 Y138.875
G01 X189.206 Y138.935
G01 X189.172 Y138.996
G01 X189.143 Y139.059
G01 X189.117 Y139.121
G01 X189.095 Y139.184
G01 X189.078 Y139.247
G01 X189.064 Y139.309
G01 X189.054 Y139.371
G01 X189.048 Y139.432
G01 X189.045 Y139.493
G01 X189.046 Y139.552
G01 X189.051 Y139.610
G01 X189.059 Y139.666
G01 X189.070 Y139.720
G01 X189.084 Y139.773
G01 X189.101 Y139.823
G01 X189.120 Y139.872
G01 X189.143 Y139.918
G01 X189.167 Y139.961
G01 X189.194 Y140.002
G01 X189.222 Y140.040
G01 X189.252 Y140.075
G01 X189.284 Y140.108
G01 X189.317 Y140.138
G01 X189.351 Y140.164
G01 X189.386 Y140.188
G01 X189.422 Y140.208
G01 X189.458 Y140.226
G01 X189.495 Y140.240
G01 X189.532 Y140.252
G01 X189.568 Y140.260
G01 X189.604 Y140.266
G01 X189.640 Y140.269
G01 X189.674 Y140.269
G01 X189.708 Y140.266
G01 X189.741 Y140.260
G01 X189.773 Y140.252
G01 X189.803 Y140.242
G01 X189.831 Y140.229
G01 X189.858 Y140.214
G01 X189.882 Y140.197
G01 X189.905 Y140.179
G01 X189.926 Y140.158
G01 X189.944 Y140.136
G01 X189.960 Y140.113
G01 X189.973 Y140.089
G01 X189.984 Y140.063
G01 X189.993 Y140.037
G01 X189.999 Y140.010
G01 X190.000 Y140.000
G01 X189.994 Y140.077
G01 X189.996 Y140.154
G01 X190.005 Y140.232
G01 X190.021 Y140.308
G01 X190.046 Y140.384
G01 X190.077 Y140.457
G01 X190.116 Y140.528
G01 X190.162 Y140.596
G01 X190.215 Y140.661
G01 X190.275 Y140.722
G01 X190.341 Y140.779
G01 X190.414 Y140.830
G01 X190.492 Y140.876
G01 X190.575 Y140.916
G01 X190.664 Y140.950
G01 X190.757 Y140.978
G01 X190.854 Y140.998
G01 X190.945 Y141.010
G01 X193.486 Y143.380
G01 X196.257 Y145.497
G01 X199.237 Y147.345
G01 X202.408 Y148.908
G01 X205.747 Y150.173
G01 X209.233 Y151.127
G01 X212.843 Y151.759
G01 X216.555 Y152.060
G01 X220.343 Y152.022
G01 X222.459 Y151.852
G01 X225.849 Y151.129
G01 X229.239 Y150.100
G01 X232.607 Y148.763
G01 X235.932 Y147.119
G01 X237.848 Y146.014
G01 X240.580 Y143.849
G01 X243.208 Y141.430
G01 X245.715 Y138.762
G01 X247.670 Y136.390
G01 X249.439 Y133.338
G01 X251.043 Y130.105
G01 X252.469 Y126.700
G01 X252.544 Y126.501
G01 X253.311 Y123.046
G01 X253.887 Y119.483
G01 X254.262 Y115.824
G01 X254.277 Y115.614
G01 X254.116 Y112.003
G01 X254.076 Y111.471
G01 X254.011 Y107.648
G01 X253.912 Y105.946
G01 X254.488 Y101.463
G01 X254.576 Y100.458
G01 X256.052 Y95.132
G01 X258.308 Y90.085
G01 X261.294 Y85.433
G01 X264.941 Y81.279
G01 X270.304 Y76.929
G01 X276.385 Y73.655
G01 X282.969 Y71.572
G01 X291.210 Y70.745
G01 X299.427 Y71.778
G01 X307.207 Y74.619
G01 X313.653 Y78.775
G01 X314.156 Y79.124
G01 X317.896 Y83.057
G01 X318.091 Y90.349
G01 X318.087 Y91.225
G01 X316.284 Y98.884
G01 X316.176 Y99.283
G01 X312.515 Y106.711
G01 X307.288 Y113.135
G01 X301.924 Y117.486
G01 X295.843 Y120.760
G01 X289.259 Y122.842
G01 X282.401 Y123.661
G01 X276.881 Y123.384
G01 X271.463 Y122.286
G01 X266.271 Y120.390
G01 X261.556 Y117.807
G01 X261.420 Y117.739
G01 X257.994 Y115.085
G01 X257.020 Y114.393
G01 X254.345 Y111.723
G01 X254.076 Y111.471
G01 X251.402 Y108.967
G01 X248.640 Y106.654
G01 X246.732 Y105.204
G01 X243.471 Y103.477
G01 X240.181 Y101.983
G01 X236.877 Y100.722
G01 X236.689 Y100.657
G01 X233.038 Y99.962
G01 X229.435 Y99.527
G01 X225.897 Y99.345
G01 X224.369 Y99.343
G01 X220.659 Y99.895
G01 X217.089 Y100.708
G01 X213.678 Y101.769
G01 X210.439 Y103.065
G01 X209.804 Y103.356
G01 X206.580 Y105.357
G01 X203.604 Y107.580
G01 X200.888 Y110.004
G01 X198.447 Y112.609
G01 X196.289 Y115.374
G01 X194.425 Y118.277
G01 X194.232 Y118.614
G01 X192.659 Y121.956
G01 X191.424 Y125.393
G01 X190.534 Y128.899
G01 X189.993 Y132.449
G01 X189.800 Y136.016
G01 X189.881 Y138.622
G01 X189.817 Y138.652
G01 X189.755 Y138.686
G01 X189.696 Y138.722
G01 X189.640 Y138.761
G01 X189.588 Y138.802
G01 X189.538 Y138.845
G01 X189.491 Y138.890
G01 X189.448 Y138.937
G01 X189.408 Y138.985
G01 X189.372 Y139.035
G01 X189.339 Y139.085
G01 X189.309 Y139.137
G01 X189.283 Y139.189
G01 X189.260 Y139.242
G01 X189.241 Y139.295
G01 X189.225 Y139.348
G01 X189.212 Y139.401
G01 X189.203 Y139.453
G01 X189.197 Y139.505
G01 X189.194 Y139.556
G01 X189.194 Y139.607
G01 X189.197 Y139.656
G01 X189.203 Y139.704
G01 X189.211 Y139.750
G01 X189.222 Y139.795
G01 X189.236 Y139.838
G01 X189.252 Y139.880
G01 X189.270 Y139.919
G01 X189.290 Y139.956
G01 X189.311 Y139.992
G01 X189.335 Y140.025
G01 X189.360 Y140.055
G01 X189.387 Y140.083
G01 X189.414 Y140.109
G01 X189.443 Y140.132
G01 X189.472 Y140.153
G01 X189.502 Y140.171
G01 X189.533 Y140.187
G01 X189.563 Y140.200
G01 X189.594 Y140.211
G01 X189.625 Y140.218
G01 X189.656 Y140.224
G01 X189.686 Y140.227
G01 X189.715 Y140.228
G01 X189.744 Y140.226
G01 X189.772 Y140.222
G01 X189.799 Y140.216
G01 X189.825 Y140.208
G01 X189.849 Y140.198
G01 X189.872 Y140.186
G01 X189.894 Y140.172
G01 X189.914 Y140.157
G01 X189.932 Y140.140
G01 X189.948 Y140.122
G01 X189.962 Y140.103
G01 X189.974 Y140.083
G01 X189.984 Y140.061
G01 X189.992 Y140.039
G01 X189.997 Y140.017
G01 X190.000 Y140.000
G01 X189.947 Y140.711
G01 X189.964 Y141.426
G01 X190.052 Y142.139
G01 X190.186 Y142.760
G01 X190.113 Y146.231
G01 X189.700 Y149.694
G01 X188.947 Y153.124
G01 X187.858 Y156.494
G01 X186.437 Y159.781
G01 X184.689 Y162.959
G01 X182.623 Y166.006
G01 X180.247 Y168.898
G01 X177.573 Y171.610
G01 X177.089 Y172.053
G01 X174.283 Y174.088
G01 X171.250 Y175.918
G01 X168.003 Y177.527
G01 X164.556 Y178.897
G01 X162.453 Y179.582
G01 X159.016 Y180.164
G01 X155.459 Y180.498
G01 X151.799 Y180.576
G01 X148.728 Y180.441
G01 X145.277 Y179.715
G01 X141.801 Y178.743
G01 X138.316 Y177.524
G01 X138.119 Y177.447
G01 X135.037 Y175.705
G01 X132.004 Y173.749
G01 X129.034 Y171.579
G01 X128.868 Y171.450
G01 X126.292 Y168.914
G01 X125.924 Y168.529
G01 X123.126 Y165.922
G01 X121.928 Y164.709
G01 X118.210 Y162.137
G01 X117.405 Y161.531
G01 X112.459 Y159.063
G01 X107.199 Y157.364
G01 X101.744 Y156.469
G01 X96.217 Y156.400
G01 X89.395 Y157.475
G01 X82.893 Y159.803
G01 X76.940 Y163.303
G01 X70.811 Y168.873
G01 X66.080 Y175.671
G01 X62.986 Y183.353
G01 X61.762 Y190.924
G01 X61.684 Y191.532
G01 X62.104 Y196.943
G01 X67.392 Y201.967
G01 X68.046 Y202.550
G01 X74.945 Y206.336
G01 X75.313 Y206.522
G01 X83.284 Y208.772
G01 X91.555 Y209.186
G01 X98.377 Y208.111
G01 X104.879 Y205.783
G01 X110.832 Y202.283
G01 X116.029 Y197.735
G01 X119.518 Y193.447
G01 X122.326 Y188.686
G01 X124.392 Y183.558
G01 X125.627 Y178.326
G01 X125.667 Y178.180
G01 X125.988 Y173.858
G01 X126.125 Y172.671
G01 X125.931 Y168.897
G01 X125.924 Y168.529
G01 X125.852 Y164.865
G01 X125.982 Y161.265
G01 X126.180 Y158.877
G01 X127.079 Y155.298
G01 X128.170 Y151.853
G01 X129.444 Y148.554
G01 X129.522 Y148.371
G01 X131.448 Y145.193
G01 X133.535 Y142.224
G01 X135.768 Y139.473
G01 X136.789 Y138.336
G01 X139.682 Y135.948
G01 X142.674 Y133.840
G01 X145.746 Y132.015
G01 X148.876 Y130.475
G01 X149.517 Y130.197
G01 X153.161 Y129.141
G01 X156.804 Y128.416
G01 X160.423 Y128.020
G01 X163.992 Y127.949
G01 X167.491 Y128.195
G01 X170.896 Y128.753
G01 X171.275 Y128.835
G01 X174.812 Y129.902
G01 X178.192 Y131.285
G01 X181.393 Y132.969
G01 X184.393 Y134.942
G01 X187.173 Y137.186
G01 X189.055 Y138.990
G01 X189.028 Y139.057
G01 X189.004 Y139.125
G01 X188.985 Y139.193
G01 X188.970 Y139.260
G01 X188.959 Y139.327
G01 X188.952 Y139.394
G01 X188.949 Y139.459
G01 X188.950 Y139.523
G01 X188.954 Y139.586
G01 X188.962 Y139.647
G01 X188.974 Y139.706
G01 X188.988 Y139.763
G01 X189.006 Y139.818
G01 X189.027 Y139.871
G01 X189.050 Y139.921
G01 X189.076 Y139.969
G01 X189.105 Y140.014
G01 X189.135 Y140.056
G01 X189.167 Y140.095
G01 X189.201 Y140.131
G01 X189.237 Y140.164
G01 X189.273 Y140.194
G01 X189.311 Y140.221
G01 X189.350 Y140.244
G01 X189.389 Y140.264
G01 X189.428 Y140.281
G01 X189.468 Y140.295
G01 X189.507 Y140.306
G01 X189.547 Y140.313
G01 X189.585 Y140.318
G01 X189.623 Y140.319
G01 X189.660 Y140.318
G01 X189.696 Y140.313
G01 X189.731 Y140.306
G01 X189.764 Y140.297
G01 X189.796 Y140.285
G01 X189.825 Y140.270
G01 X189.853 Y140.254
G01 X189.879 Y140.235
G01 X189.903 Y140.215
G01 X189.924 Y140.192
G01 X189.943 Y140.169
G01 X189.959 Y140.144
G01 X189.972 Y140.118
G01 X189.983 Y140.091
G01 X189.992 Y140.063
G01 X189.997 Y140.035
G01 X190.000 Y140.006
G01 X190.000 Y140.000
G01 X190.002 Y140.069
G01 X190.010 Y140.138
G01 X190.026 Y140.205
G01 X190.048 Y140.272
G01 X190.076 Y140.336
G01 X190.111 Y140.399
G01 X190.152 Y140.458
G01 X190.199 Y140.515
G01 X190.252 Y140.567
G01 X190.311 Y140.616
G01 X190.375 Y140.660
G01 X190.444 Y140.699
G01 X190.517 Y140.732
G01 X190.595 Y140.760
G01 X190.677 Y140.782
G01 X190.762 Y140.798
G01 X190.850 Y140.807
G01 X190.941 Y140.810
G01 X191.034 Y140.805
G01 X191.129 Y140.793
G01 X191.134 Y140.792
G01 X194.113 Y142.581
G01 X197.263 Y144.076
G01 X200.563 Y145.263
G01 X203.989 Y146.133
G01 X207.518 Y146.676
G01 X211.126 Y146.885
G01 X214.789 Y146.753
G01 X218.482 Y146.275
G01 X222.179 Y145.450
G01 X224.214 Y144.845
G01 X227.379 Y143.433
G01 X230.481 Y141.721
G01 X233.498 Y139.713
G01 X236.408 Y137.413
G01 X238.053 Y135.935
G01 X240.275 Y133.249
G01 X242.343 Y130.336
G01 X244.240 Y127.205
G01 X245.659 Y124.478
G01 X246.755 Y121.126
G01 X247.652 Y117.630
G01 X248.338 Y114.002
G01 X248.371 Y113.793
G01 X248.403 Y110.253
G01 X248.225 Y106.649
G01 X247.831 Y102.992
G01 X247.802 Y102.783
G01 X246.894 Y99.285
G01 X246.744 Y98.773
G01 X245.886 Y95.046
G01 X245.435 Y93.402
G01 X245.066 Y88.897
G01 X244.943 Y87.897
G01 X245.280 Y82.379
G01 X246.438 Y76.974
G01 X248.390 Y71.803
G01 X251.094 Y66.981
G01 X255.436 Y61.611
G01 X260.703 Y57.144
G01 X266.711 Y53.738
G01 X274.599 Y51.216
G01 X282.852 Y50.518
G01 X291.052 Y51.679
G01 X298.221 Y54.405
G01 X298.786 Y54.641
G01 X303.262 Y57.710
G01 X304.969 Y64.802
G01 X305.147 Y65.660
G01 X304.976 Y73.527
G01 X304.953 Y73.939
G01 X302.916 Y81.967
G01 X299.139 Y89.337
G01 X294.797 Y94.707
G01 X289.530 Y99.174
G01 X283.522 Y102.580
G01 X276.985 Y104.806
G01 X271.527 Y105.684
G01 X266.000 Y105.736
G01 X260.527 Y104.961
G01 X255.378 Y103.414
G01 X255.231 Y103.376
G01 X251.328 Y101.493
G01 X250.232 Y101.018
G01 X247.059 Y98.963
G01 X246.744 Y98.773
G01 X243.608 Y96.879
G01 X240.425 Y95.191
G01 X238.258 Y94.169
G01 X234.709 Y93.158
G01 X231.180 Y92.381
G01 X227.686 Y91.834
G01 X227.489 Y91.810
G01 X223.773 Y91.889
G01 X220.158 Y92.212
G01 X216.660 Y92.770
G01 X215.165 Y93.086
G01 X211.650 Y94.397
G01 X208.328 Y95.935
G01 X205.212 Y97.682
G01 X202.313 Y99.623
G01 X201.752 Y100.039
G01 X199.015 Y102.667
G01 X196.566 Y105.460
G01 X194.414 Y108.395
G01 X192.567 Y111.451
G01 X191.031 Y114.604
G01 X189.812 Y117.831
G01 X189.693 Y118.201
G01 X188.849 Y121.798
G01 X188.356 Y125.416
G01 X188.215 Y129.031
G01 X188.423 Y132.616
G01 X188.977 Y136.145
G01 X189.597 Y138.677
G01 X189.668 Y138.679
G01 X189.737 Y138.685
G01 X189.805 Y138.694
G01 X189.872 Y138.707
G01 X189.936 Y138.723
G01 X189.999 Y138.743
G01 X190.060 Y138.765
G01 X190.118 Y138.791
G01 X190.174 Y138.819
G01 X190.228 Y138.849
G01 X190.279 Y138.882
G01 X190.327 Y138.917
G01 X190.373 Y138.954
G01 X190.416 Y138.993
G01 X190.456 Y139.034
G01 X190.493 Y139.076
G01 X190.527 Y139.119
G01 X190.558 Y139.164
G01 X190.586 Y139.209
G01 X190.610 Y139.255
G01 X190.632 Y139.301
G01 X190.651 Y139.348
G01 X190.667 Y139.395
G01 X190.679 Y139.442
G01 X190.689 Y139.488
G01 X190.696 Y139.534
G01 X190.700 Y139.580
G01 X190.701 Y139.624
G01 X190.700 Y139.668
G01 X190.696 Y139.711
G01 X190.689 Y139.753
G01 X190.681 Y139.793
G01 X190.670 Y139.832
G01 X190.657 Y139.869
G01 X190.641 Y139.904
G01 X190.624 Y139.938
G01 X190.606 Y139.970
G01 X190.586 Y139.999
G01 X190.564 Y140.027
G01 X190.541 Y140.053
G01 X190.517 Y140.076
G01 X190.492 Y140.097
G01 X190.466 Y140.116
G01 X190.440 Y140.133
G01 X190.413 Y140.147
G01 X190.386 Y140.159
G01 X190.359 Y140.169
G01 X190.331 Y140.177
G01 X190.304 Y140.182
G01 X190.278 Y140.185
G01 X190.251 Y140.186
G01 X190.226 Y140.185
G01 X190.201 Y140.182
G01 X190.177 Y140.176
G01 X190.154 Y140.169
G01 X190.132 Y140.160
G01 X190.111 Y140.150
G01 X190.092 Y140.138
G01 X190.075 Y140.124
G01 X190.058 Y140.109
G01 X190.044 Y140.093
G01 X190.031 Y140.076
G01 X190.021 Y140.057
G01 X190.012 Y140.038
G01 X190.005 Y140.018
G01 X190.000 Y140.000
G01 X191.309 Y145.370
G01 X191.694 Y148.808
G01 X191.744 Y152.288
G01 X191.454 Y155.785
G01 X190.825 Y159.276
G01 X189.857 Y162.734
G01 X188.551 Y166.136
G01 X186.911 Y169.456
G01 X184.943 Y172.670
G01 X183.165 Y175.112
G01 X180.747 Y177.592
G01 X178.072 Y179.912
G01 X175.148 Y182.053
G01 X171.987 Y183.996
G01 X170.034 Y185.035
G01 X166.745 Y186.191
G01 X163.298 Y187.128
G01 X159.705 Y187.833
G01 X156.658 Y188.229
G01 X153.132 Y188.100
G01 X149.541 Y187.738
G01 X145.900 Y187.135
G01 X145.693 Y187.094
G01 X142.357 Y185.902
G01 X139.035 Y184.493
G01 X135.738 Y182.867
G01 X135.553 Y182.768
G01 X133.256 Y181.227
G01 X129.977 Y179.259
G01 X128.553 Y178.322
G01 X124.382 Y176.579
G01 X123.468 Y176.153
G01 X118.117 Y174.769
G01 X112.618 Y174.199
G01 X107.097 Y174.458
G01 X101.676 Y175.540
G01 X95.227 Y178.010
G01 X89.351 Y181.639
G01 X84.255 Y186.300
G01 X79.419 Y193.023
G01 X76.204 Y200.656
G01 X74.775 Y208.813
G01 X75.152 Y216.474
G01 X75.202 Y217.084
G01 X76.738 Y222.290
G01 X82.955 Y226.105
G01 X83.716 Y226.539
G01 X91.251 Y228.807
G01 X91.650 Y228.913
G01 X99.914 Y229.456
G01 X108.091 Y228.142
G01 X114.540 Y225.672
G01 X120.416 Y222.043
G01 X125.512 Y217.382
G01 X129.649 Y211.852
G01 X132.170 Y206.933
G01 X133.927 Y201.692
G01 X134.882 Y196.247
G01 X135.002 Y190.872
G01 X135.011 Y190.721
G01 X134.426 Y186.427
G01 X134.313 Y185.238
G01 X133.339 Y181.586
G01 X133.256 Y181.227
G01 X132.423 Y177.659
G01 X131.802 Y174.110
G01 X131.500 Y171.733
G01 X131.634 Y168.046
G01 X131.986 Y164.450
G01 X132.546 Y160.957
G01 X132.584 Y160.762
G01 X133.807 Y157.253
G01 X135.232 Y153.915
G01 X136.843 Y150.760
G01 X137.605 Y149.436
G01 X139.939 Y146.499
G01 X142.427 Y143.814
G01 X145.052 Y141.390
G01 X147.794 Y139.233
G01 X148.363 Y138.828
G01 X151.708 Y137.037
G01 X155.121 Y135.571
G01 X158.578 Y134.432
G01 X162.055 Y133.619
G01 X165.528 Y133.133
G01 X168.975 Y132.970
G01 X169.363 Y132.972
G01 X173.044 Y133.280
G01 X176.638 Y133.930
G01 X180.119 Y134.913
G01 X183.464 Y136.218
G01 X186.650 Y137.835
G01 X188.866 Y139.208
G01 X188.920 Y139.164
G01 X188.976 Y139.124
G01 X189.034 Y139.087
G01 X189.092 Y139.054
G01 X189.152 Y139.024
G01 X189.212 Y138.998
G01 X189.272 Y138.975
G01 X189.333 Y138.956
G01 X189.394 Y138.940
G01 X189.455 Y138.928
G01 X189.516 Y138.919
G01 X189.576 Y138.913
G01 X189.635 Y138.911
G01 X189.694 Y138.912
G01 X189.752 Y138.915
G01 X189.809 Y138.922
G01 X189.864 Y138.932
G01 X189.918 Y138.945
G01 X189.970 Y138.960
G01 X190.021 Y138.978
G01 X190.070 Y138.998
G01 X190.117 Y139.021
G01 X190.162 Y139.045
G01 X190.204 Y139.072
G01 X190.245 Y139.101
G01 X190.283 Y139.131
G01 X190.319 Y139.163
G01 X190.353 Y139.196
G01 X190.384 Y139.230
G01 X190.412 Y139.266
G01 X190.438 Y139.302
G01 X190.461 Y139.339
G01 X190.482 Y139.377
G01 X190.501 Y139.415
G01 X190.516 Y139.453
G01 X190.529 Y139.492
G01 X190.540 Y139.530
G01 X190.548 Y139.568
G01 X190.554 Y139.606
G01 X190.558 Y139.644
G01 X190.559 Y139.680
G01 X190.558 Y139.716
G01 X190.555 Y139.752
G01 X190.549 Y139.786
G01 X190.542 Y139.819
G01 X190.533 Y139.850
G01 X190.522 Y139.881
G01 X190.509 Y139.909
G01 X190.495 Y139.937
G01 X190.480 Y139.963
G01 X190.463 Y139.987
G01 X190.445 Y140.009
G01 X190.426 Y140.030
G01 X190.406 Y140.048
G01 X190.386 Y140.065
G01 X190.364 Y140.080
G01 X190.343 Y140.093
G01 X190.321 Y140.104
G01 X190.298 Y140.114
G01 X190.276 Y140.121
G01 X190.253 Y140.126
G01 X190.231 Y140.130
G01 X190.209 Y140.131
G01 X190.188 Y140.131
G01 X190.167 Y140.129
G01 X190.147 Y140.125
G01 X190.127 Y140.120
G01 X190.109 Y140.113
G01 X190.091 Y140.105
G01 X190.075 Y140.095
G01 X190.059 Y140.084
G01 X190.046 Y140.071
G01 X190.033 Y140.058
G01 X190.022 Y140.043
G01 X190.012 Y140.028
G01 X190.005 Y140.012
G01 X190.000 Y140.000
G01 X190.031 Y140.076
G01 X190.069 Y140.148
G01 X190.114 Y140.216
G01 X190.166 Y140.281
G01 X190.225 Y140.340
G01 X190.289 Y140.395
G01 X190.360 Y140.443
G01 X190.436 Y140.486
G01 X190.516 Y140.522
G01 X190.601 Y140.551
G01 X190.690 Y140.573
G01 X190.783 Y140.587
G01 X190.878 Y140.594
G01 X190.976 Y140.592
G01 X191.076 Y140.583
G01 X191.177 Y140.564
G01 X191.274 Y140.539
G01 X194.560 Y141.670
G01 X197.952 Y142.477
G01 X201.426 Y142.952
G01 X204.958 Y143.091
G01 X208.523 Y142.888
G01 X212.096 Y142.342
G01 X215.651 Y141.451
G01 X219.164 Y140.217
G01 X222.609 Y138.641
G01 X224.474 Y137.625
G01 X227.276 Y135.586
G01 X229.954 Y133.267
G01 X232.488 Y130.676
G01 X234.856 Y127.821
G01 X236.157 Y126.033
G01 X237.772 Y122.944
G01 X239.190 Y119.664
G01 X240.395 Y116.207
G01 X241.216 Y113.246
G01 X241.591 Y109.738
G01 X241.741 Y106.132
G01 X241.658 Y102.441
G01 X241.646 Y102.230
G01 X240.942 Y98.760
G01 X240.019 Y95.272
G01 X238.873 Y91.777
G01 X238.801 Y91.579
G01 X237.186 Y88.345
G01 X236.933 Y87.876
G01 X235.318 Y84.409
G01 X234.536 Y82.895
G01 X233.238 Y78.565
G01 X232.910 Y77.612
G01 X232.092 Y72.145
G01 X232.101 Y66.617
G01 X232.935 Y61.153
G01 X234.578 Y55.875
G01 X237.708 Y49.719
G01 X241.932 Y44.255
G01 X247.100 Y39.674
G01 X254.291 Y35.567
G01 X262.218 Y33.168
G01 X270.481 Y32.599
G01 X278.060 Y33.775
G01 X278.661 Y33.888
G01 X283.678 Y35.960
G01 X286.822 Y42.542
G01 X287.175 Y43.344
G01 X288.643 Y51.075
G01 X288.706 Y51.483
G01 X288.383 Y59.758
G01 X286.221 Y67.753
G01 X283.090 Y73.909
G01 X278.867 Y79.373
G01 X273.699 Y83.953
G01 X267.767 Y87.490
G01 X262.611 Y89.483
G01 X257.215 Y90.683
G01 X251.701 Y91.063
G01 X246.342 Y90.621
G01 X246.191 Y90.614
G01 X241.982 Y89.583
G01 X240.811 Y89.347
G01 X237.281 Y87.997
G01 X236.933 Y87.876
G01 X233.471 Y86.675
G01 X230.007 Y85.686
G01 X227.675 Y85.137
G01 X223.993 Y84.886
G01 X220.380 Y84.859
G01 X216.848 Y85.051
G01 X216.650 Y85.068
G01 X213.032 Y85.918
G01 X209.564 Y86.986
G01 X206.257 Y88.259
G01 X204.861 Y88.879
G01 X201.696 Y90.892
G01 X198.766 Y93.087
G01 X196.081 Y95.444
G01 X193.649 Y97.945
G01 X193.187 Y98.469
G01 X191.056 Y101.608
G01 X189.241 Y104.849
G01 X187.747 Y108.168
G01 X186.575 Y111.541
G01 X185.729 Y114.945
G01 X185.207 Y118.355
G01 X185.168 Y118.741
G01 X185.090 Y122.435
G01 X185.360 Y126.077
G01 X185.973 Y129.642
G01 X186.922 Y133.105
G01 X188.197 Y136.442
G01 X189.331 Y138.789
G01 X189.400 Y138.775
G01 X189.468 Y138.765
G01 X189.536 Y138.758
G01 X189.603 Y138.755
G01 X189.670 Y138.756
G01 X189.735 Y138.760
G01 X189.800 Y138.768
G01 X189.862 Y138.778
G01 X189.924 Y138.792
G01 X189.983 Y138.809
G01 X190.041 Y138.829
G01 X190.097 Y138.852
G01 X190.151 Y138.877
G01 X190.202 Y138.905
G01 X190.251 Y138.934
G01 X190.298 Y138.967
G01 X190.342 Y139.001
G01 X190.383 Y139.036
G01 X190.422 Y139.074
G01 X190.458 Y139.113
G01 X190.492 Y139.153
G01 X190.522 Y139.194
G01 X190.550 Y139.237
G01 X190.575 Y139.279
G01 X190.597 Y139.323
G01 X190.616 Y139.367
G01 X190.632 Y139.411
G01 X190.645 Y139.455
G01 X190.656 Y139.499
G01 X190.664 Y139.543
G01 X190.669 Y139.586
G01 X190.672 Y139.629
G01 X190.672 Y139.671
G01 X190.670 Y139.712
G01 X190.665 Y139.751
G01 X190.658 Y139.790
G01 X190.649 Y139.828
G01 X190.638 Y139.864
G01 X190.625 Y139.898
G01 X190.610 Y139.931
G01 X190.594 Y139.963
G01 X190.575 Y139.992
G01 X190.556 Y140.020
G01 X190.535 Y140.045
G01 X190.513 Y140.069
G01 X190.490 Y140.090
G01 X190.467 Y140.110
G01 X190.442 Y140.127
G01 X190.417 Y140.143
G01 X190.392 Y140.156
G01 X190.366 Y140.167
G01 X190.340 Y140.176
G01 X190.315 Y140.183
G01 X190.289 Y140.188
G01 X190.264 Y140.190
G01 X190.239 Y140.191
G01 X190.215 Y140.190
G01 X190.192 Y140.187
G01 X190.170 Y140.182
G01 X190.148 Y140.175
G01 X190.128 Y140.167
G01 X190.108 Y140.157
G01 X190.090 Y140.146
G01 X190.074 Y140.133
G01 X190.059 Y140.120
G01 X190.045 Y140.105
G01 X190.033 Y140.089
G01 X190.023 Y140.072
G01 X190.014 Y140.054
G01 X190.008 Y140.036
G01 X190.003 Y140.018
G01 X190.000 Y140.000
G01 X190.029 Y140.172
G01 X190.074 Y140.341
G01 X190.136 Y140.505
G01 X190.214 Y140.664
G01 X190.308 Y140.816
G01 X190.417 Y140.960
G01 X190.541 Y141.095
G01 X190.669 Y141.211
G01 X192.137 Y144.360
G01 X193.294 Y147.649
G01 X194.131 Y151.055
G01 X194.638 Y154.553
G01 X194.809 Y158.120
G01 X194.639 Y161.730
G01 X194.124 Y165.359
G01 X193.264 Y168.982
G01 X192.057 Y172.573
G01 X191.242 Y174.533
G01 X189.507 Y177.533
G01 X187.480 Y180.439
G01 X185.168 Y183.230
G01 X182.576 Y185.884
G01 X180.934 Y187.365
G01 X178.031 Y189.294
G01 X174.917 Y191.046
G01 X171.605 Y192.606
G01 X168.746 Y193.732
G01 X165.297 Y194.472
G01 X161.726 Y194.998
G01 X158.047 Y195.301
G01 X157.835 Y195.311
G01 X154.311 Y194.974
G01 X150.745 Y194.420
G01 X147.150 Y193.646
G01 X146.945 Y193.595
G01 X143.561 Y192.327
G01 X143.067 Y192.124
G01 X139.451 Y190.881
G01 X137.863 Y190.261
G01 X133.421 Y189.423
G01 X132.439 Y189.196
G01 X126.916 Y188.954
G01 X121.420 Y189.541
G01 X116.073 Y190.942
G01 X110.995 Y193.127
G01 X105.200 Y196.884
G01 X100.208 Y201.655
G01 X96.192 Y207.274
G01 X92.859 Y214.855
G01 X91.302 Y222.990
G01 X91.600 Y231.266
G01 X93.561 Y238.681
G01 X93.737 Y239.268
G01 X96.322 Y244.040
G01 X103.197 Y246.479
G01 X104.031 Y246.746
G01 X111.873 Y247.398
G01 X112.285 Y247.418
G01 X120.482 Y246.232
G01 X128.206 Y243.245
G01 X134.001 Y239.489
G01 X138.994 Y234.717
G01 X143.009 Y229.099
G01 X145.907 Y222.830
G01 X147.350 Y217.494
G01 X147.979 Y212.002
G01 X147.781 Y206.478
G01 X146.781 Y201.195
G01 X146.758 Y201.046
G01 X145.293 Y196.967
G01 X144.936 Y195.827
G01 X143.224 Y192.457
G01 X143.067 Y192.124
G01 X141.511 Y188.807
G01 X140.166 Y185.465
G01 X139.376 Y183.203
G01 X138.741 Y179.568
G01 X138.337 Y175.977
G01 X138.159 Y172.445
G01 X138.155 Y172.246
G01 X138.622 Y168.559
G01 X139.322 Y164.998
G01 X140.242 Y161.577
G01 X140.712 Y160.123
G01 X142.384 Y156.765
G01 X144.260 Y153.622
G01 X146.324 Y150.705
G01 X148.557 Y148.025
G01 X149.029 Y147.511
G01 X151.929 Y145.063
G01 X154.963 Y142.919
G01 X158.107 Y141.086
G01 X161.339 Y139.569
G01 X164.636 Y138.371
G01 X167.973 Y137.495
G01 X168.353 Y137.416
G01 X172.018 Y136.953
G01 X175.668 Y136.841
G01 X179.277 Y137.078
G01 X182.821 Y137.660
G01 X186.273 Y138.579
G01 X188.726 Y139.461
G01 X188.769 Y139.406
G01 X188.813 Y139.354
G01 X188.860 Y139.305
G01 X188.909 Y139.259
G01 X188.960 Y139.217
G01 X189.012 Y139.177
G01 X189.065 Y139.140
G01 X189.120 Y139.107
G01 X189.176 Y139.077
G01 X189.232 Y139.050
G01 X189.289 Y139.027
G01 X189.347 Y139.006
G01 X189.405 Y138.990
G01 X189.462 Y138.976
G01 X189.520 Y138.965
G01 X189.577 Y138.958
G01 X189.634 Y138.954
G01 X189.691 Y138.953
G01 X189.746 Y138.955
G01 X189.801 Y138.959
G01 X189.855 Y138.967
G01 X189.907 Y138.977
G01 X189.958 Y138.990
G01 X190.007 Y139.005
G01 X190.055 Y139.023
G01 X190.101 Y139.043
G01 X190.146 Y139.065
G01 X190.188 Y139.089
G01 X190.229 Y139.115
G01 X190.267 Y139.143
G01 X190.303 Y139.172
G01 X190.337 Y139.203
G01 X190.369 Y139.235
G01 X190.398 Y139.268
G01 X190.425 Y139.302
G01 X190.450 Y139.338
G01 X190.472 Y139.373
G01 X190.492 Y139.410
G01 X190.509 Y139.446
G01 X190.524 Y139.483
G01 X190.537 Y139.521
G01 X190.547 Y139.558
G01 X190.555 Y139.595
G01 X190.561 Y139.631
G01 X190.564 Y139.667
G01 X190.566 Y139.703
G01 X190.565 Y139.738
G01 X190.562 Y139.772
G01 X190.557 Y139.805
G01 X190.551 Y139.837
G01 X190.542 Y139.868
G01 X190.532 Y139.898
G01 X190.521 Y139.927
G01 X190.507 Y139.954
G01 X190.493 Y139.979
G01 X190.477 Y140.004
G01 X190.460 Y140.026
G01 X190.442 Y140.047
G01 X190.424 Y140.066
G01 X190.404 Y140.083
G01 X190.384 Y140.099
G01 X190.363 Y140.113
G01 X190.342 Y140.125
G01 X190.320 Y140.135
G01 X190.299 Y140.144
G01 X190.277 Y140.151
G01 X190.255 Y140.156
G01 X190.234 Y140.159
G01 X190.213 Y140.161
G01 X190.193 Y140.160
G01 X190.173 Y140.159
G01 X190.153 Y140.156
G01 X190.135 Y140.151
G01 X190.117 Y140.145
G01 X190.100 Y140.137
G01 X190.084 Y140.128
G01 X190.070 Y140.118
G01 X190.056 Y140.107
G01 X190.044 Y140.095
G01 X190.033 Y140.082
G01 X190.024 Y140.069
G01 X190.016 Y140.054
G01 X190.010 Y140.039
G01 X190.005 Y140.024
G01 X190.001 Y140.008
G01 X190.000 Y140.000
G01 X190.009 Y140.053
G01 X190.023 Y140.105
G01 X190.042 Y140.156
G01 X190.066 Y140.204
G01 X190.095 Y140.251
G01 X190.128 Y140.295
G01 X190.167 Y140.337
G01 X190.209 Y140.375
G01 X190.256 Y140.410
G01 X190.306 Y140.441
G01 X190.360 Y140.468
G01 X190.417 Y140.491
G01 X190.478 Y140.509
G01 X190.541 Y140.522
G01 X190.606 Y140.530
G01 X190.673 Y140.533
G01 X190.742 Y140.531
G01 X190.813 Y140.523
G01 X190.884 Y140.509
G01 X190.956 Y140.490
G01 X191.027 Y140.464
G01 X191.099 Y140.433
G01 X191.170 Y140.396
G01 X191.239 Y140.353
G01 X191.307 Y140.304
G01 X191.358 Y140.262
G01 X194.807 Y140.685
G01 X198.293 Y140.769
G01 X201.790 Y140.512
G01 X205.274 Y139.913
G01 X208.719 Y138.974
G01 X212.100 Y137.697
G01 X215.392 Y136.086
G01 X218.572 Y134.148
G01 X221.614 Y131.890
G01 X223.227 Y130.510
G01 X225.544 Y127.933
G01 X227.682 Y125.107
G01 X229.621 Y122.046
G01 X231.344 Y118.761
G01 X232.245 Y116.741
G01 X233.182 Y113.384
G01 X233.887 Y109.882
G01 X234.347 Y106.249
G01 X234.534 Y103.182
G01 X234.172 Y99.673
G01 X233.569 Y96.115
G01 X232.720 Y92.522
G01 X232.665 Y92.317
G01 X231.255 Y89.070
G01 X229.626 Y85.850
G01 X227.779 Y82.669
G01 X227.667 Y82.490
G01 X225.415 Y79.664
G01 X225.070 Y79.257
G01 X222.770 Y76.202
G01 X221.690 Y74.883
G01 X219.520 Y70.918
G01 X219.001 Y70.054
G01 X217.064 Y64.876
G01 X215.923 Y59.467
G01 X215.604 Y53.949
G01 X216.113 Y48.445
G01 X217.895 Y41.773
G01 X220.890 Y35.550
G01 X224.993 Y29.995
G01 X231.174 Y24.482
G01 X238.429 Y20.488
G01 X246.392 Y18.213
G01 X254.050 Y17.787
G01 X254.662 Y17.773
G01 X260.000 Y18.756
G01 X264.444 Y24.541
G01 X264.955 Y25.252
G01 X267.999 Y32.509
G01 X268.146 Y32.895
G01 X269.550 Y41.057
G01 X269.097 Y49.326
G01 X267.315 Y55.998
G01 X264.320 Y62.221
G01 X260.217 Y67.776
G01 X255.150 Y72.469
G01 X250.521 Y75.491
G01 X245.493 Y77.786
G01 X240.178 Y79.304
G01 X234.845 Y79.986
G01 X234.695 Y80.011
G01 X230.364 Y79.877
G01 X229.169 Y79.890
G01 X225.435 Y79.303
G01 X225.070 Y79.257
G01 X221.434 Y78.802
G01 X217.840 Y78.555
G01 X215.445 Y78.503
G01 X211.791 Y79.022
G01 X208.252 Y79.748
G01 X204.837 Y80.670
G01 X204.647 Y80.728
G01 X201.285 Y82.312
G01 X198.114 Y84.077
G01 X195.145 Y86.010
G01 X193.907 Y86.906
G01 X191.230 Y89.534
G01 X188.821 Y92.289
G01 X186.684 Y95.153
G01 X184.826 Y98.106
G01 X184.482 Y98.714
G01 X183.051 Y102.228
G01 X181.949 Y105.775
G01 X181.178 Y109.332
G01 X180.733 Y112.875
G01 X180.613 Y116.380
G01 X180.811 Y119.825
G01 X180.853 Y120.210
G01 X181.545 Y123.840
G01 X182.567 Y127.346
G01 X183.908 Y130.705
G01 X185.556 Y133.895
G01 X187.497 Y136.895
G01 X189.094 Y138.955
G01 X189.158 Y138.926
G01 X189.222 Y138.901
G01 X189.287 Y138.880
G01 X189.352 Y138.863
G01 X189.417 Y138.849
G01 X189.482 Y138.838
G01 X189.546 Y138.832
G01 X189.610 Y138.828
G01 X189.673 Y138.828
G01 X189.735 Y138.832
G01 X189.795 Y138.838
G01 X189.855 Y138.848
G01 X189.913 Y138.861
G01 X189.970 Y138.876
G01 X190.024 Y138.895
G01 X190.077 Y138.916
G01 X190.128 Y138.939
G01 X190.177 Y138.965
G01 X190.223 Y138.993
G01 X190.268 Y139.023
G01 X190.310 Y139.055
G01 X190.349 Y139.088
G01 X190.386 Y139.124
G01 X190.420 Y139.160
G01 X190.452 Y139.198
G01 X190.481 Y139.237
G01 X190.507 Y139.276
G01 X190.530 Y139.317
G01 X190.551 Y139.358
G01 X190.569 Y139.399
G01 X190.585 Y139.440
G01 X190.598 Y139.482
G01 X190.608 Y139.523
G01 X190.615 Y139.564
G01 X190.620 Y139.605
G01 X190.623 Y139.645
G01 X190.623 Y139.684
G01 X190.621 Y139.723
G01 X190.617 Y139.760
G01 X190.610 Y139.797
G01 X190.601 Y139.832
G01 X190.591 Y139.866
G01 X190.579 Y139.898
G01 X190.564 Y139.929
G01 X190.549 Y139.958
G01 X190.532 Y139.986
G01 X190.513 Y140.011
G01 X190.494 Y140.035
G01 X190.473 Y140.057
G01 X190.451 Y140.077
G01 X190.429 Y140.095
G01 X190.406 Y140.111
G01 X190.382 Y140.125
G01 X190.359 Y140.137
G01 X190.334 Y140.147
G01 X190.310 Y140.155
G01 X190.286 Y140.161
G01 X190.262 Y140.165
G01 X190.239 Y140.167
G01 X190.216 Y140.167
G01 X190.193 Y140.166
G01 X190.171 Y140.162
G01 X190.150 Y140.157
G01 X190.130 Y140.150
G01 X190.111 Y140.142
G01 X190.094 Y140.132
G01 X190.077 Y140.121
G01 X190.062 Y140.108
G01 X190.048 Y140.095
G01 X190.036 Y140.080
G01 X190.025 Y140.065
G01 X190.016 Y140.048
G01 X190.009 Y140.031
G01 X190.003 Y140.013
G01 X190.000 Y140.000
G01 X190.030 Y140.125
G01 X190.072 Y140.247
G01 X190.127 Y140.365
G01 X190.192 Y140.478
G01 X190.270 Y140.584
G01 X190.358 Y140.685
G01 X190.456 Y140.777
G01 X190.564 Y140.862
G01 X190.681 Y140.937
G01 X190.807 Y141.003
G01 X190.906 Y141.045
G01 X192.997 Y143.821
G01 X194.813 Y146.797
G01 X196.339 Y149.954
G01 X197.562 Y153.271
G01 X198.471 Y156.724
G01 X199.055 Y160.291
G01 X199.307 Y163.947
G01 X199.218 Y167.670
G01 X198.784 Y171.433
G01 X198.395 Y173.520
G01 X197.321 Y176.816
G01 X195.943 Y180.080
G01 X194.262 Y183.290
G01 X192.278 Y186.424
G01 X190.980 Y188.214
G01 X188.541 Y190.705
G01 X185.860 Y193.066
G01 X182.945 Y195.281
G01 X180.381 Y196.977
G01 X177.162 Y198.417
G01 X173.779 Y199.675
G01 X170.243 Y200.736
G01 X170.038 Y200.790
G01 X166.521 Y201.192
G01 X162.917 Y201.392
G01 X159.240 Y201.383
G01 X159.029 Y201.376
G01 X155.455 Y200.839
G01 X154.930 Y200.743
G01 X151.134 Y200.279
G01 X149.452 Y200.002
G01 X144.933 Y200.106
G01 X143.925 Y200.089
G01 X138.473 Y201.000
G01 X133.219 Y202.717
G01 X128.280 Y205.199
G01 X123.767 Y208.392
G01 X118.880 Y213.272
G01 X114.989 Y218.977
G01 X112.229 Y225.307
G01 X110.545 Y233.416
G01 X110.713 Y241.697
G01 X112.725 Y249.730
G01 X116.186 Y256.575
G01 X116.480 Y257.112
G01 X120.000 Y261.244
G01 X127.232 Y262.200
G01 X128.103 Y262.287
G01 X135.909 Y261.295
G01 X136.317 Y261.229
G01 X144.088 Y258.364
G01 X151.023 Y253.837
G01 X155.910 Y248.957
G01 X159.801 Y243.252
G01 X162.561 Y236.922
G01 X164.092 Y230.187
G01 X164.394 Y224.668
G01 X163.868 Y219.165
G01 X162.525 Y213.803
G01 X160.449 Y208.844
G01 X160.395 Y208.702
G01 X158.114 Y205.017
G01 X157.527 Y203.976
G01 X155.152 Y201.036
G01 X154.930 Y200.743
G01 X152.718 Y197.822
G01 X150.707 Y194.833
G01 X149.465 Y192.784
G01 X148.088 Y189.361
G01 X146.946 Y185.932
G01 X146.037 Y182.514
G01 X145.992 Y182.321
G01 X145.683 Y178.617
G01 X145.626 Y174.988
G01 X145.815 Y171.451
G01 X145.973 Y169.931
G01 X146.910 Y166.299
G01 X148.092 Y162.834
G01 X149.504 Y159.552
G01 X151.131 Y156.466
G01 X151.486 Y155.865
G01 X153.814 Y152.868
G01 X156.335 Y150.140
G01 X159.030 Y147.693
G01 X161.876 Y145.537
G01 X164.851 Y143.680
G01 X167.933 Y142.130
G01 X168.289 Y141.974
G01 X171.777 Y140.758
G01 X175.324 Y139.890
G01 X178.904 Y139.371
G01 X182.491 Y139.203
G01 X186.059 Y139.385
G01 X188.642 Y139.738
G01 X188.673 Y139.675
G01 X188.706 Y139.615
G01 X188.742 Y139.558
G01 X188.781 Y139.503
G01 X188.822 Y139.451
G01 X188.865 Y139.401
G01 X188.910 Y139.355
G01 X188.957 Y139.311
G01 X189.005 Y139.271
G01 X189.055 Y139.233
G01 X189.106 Y139.199
G01 X189.158 Y139.168
G01 X189.211 Y139.140
G01 X189.265 Y139.115
G01 X189.320 Y139.093
G01 X189.374 Y139.075
G01 X189.429 Y139.059
G01 X189.484 Y139.047
G01 X189.538 Y139.038
G01 X189.592 Y139.032
G01 X189.646 Y139.029
G01 X189.699 Y139.028
G01 X189.751 Y139.031
G01 X189.803 Y139.036
G01 X189.853 Y139.044
G01 X189.901 Y139.054
G01 X189.949 Y139.067
G01 X189.995 Y139.083
G01 X190.039 Y139.100
G01 X190.082 Y139.120
G01 X190.122 Y139.141
G01 X190.161 Y139.164
G01 X190.198 Y139.190
G01 X190.233 Y139.216
G01 X190.266 Y139.244
G01 X190.296 Y139.274
G01 X190.324 Y139.304
G01 X190.350 Y139.336
G01 X190.374 Y139.368
G01 X190.395 Y139.401
G01 X190.415 Y139.434
G01 X190.431 Y139.468
G01 X190.446 Y139.503
G01 X190.458 Y139.537
G01 X190.468 Y139.571
G01 X190.476 Y139.605
G01 X190.481 Y139.639
G01 X190.484 Y139.672
G01 X190.486 Y139.705
G01 X190.485 Y139.737
G01 X190.482 Y139.769
G01 X190.478 Y139.799
G01 X190.471 Y139.828
G01 X190.463 Y139.857
G01 X190.454 Y139.884
G01 X190.443 Y139.909
G01 X190.430 Y139.934
G01 X190.416 Y139.957
G01 X190.401 Y139.978
G01 X190.385 Y139.998
G01 X190.368 Y140.016
G01 X190.350 Y140.033
G01 X190.332 Y140.047
G01 X190.313 Y140.060
G01 X190.293 Y140.072
G01 X190.274 Y140.081
G01 X190.254 Y140.089
G01 X190.234 Y140.095
G01 X190.214 Y140.100
G01 X190.194 Y140.102
G01 X190.174 Y140.103
G01 X190.155 Y140.102
G01 X190.136 Y140.100
G01 X190.118 Y140.096
G01 X190.101 Y140.091
G01 X190.085 Y140.084
G01 X190.069 Y140.076
G01 X190.055 Y140.066
G01 X190.042 Y140.055
G01 X190.029 Y140.044
G01 X190.019 Y140.031
G01 X190.009 Y140.017
G01 X190.001 Y140.002
G01 X190.000 Y140.000
G01 X190.028 Y140.052
G01 X190.060 Y140.101
G01 X190.098 Y140.147
G01 X190.140 Y140.190
G01 X190.187 Y140.229
G01 X190.237 Y140.263
G01 X190.291 Y140.293
G01 X190.349 Y140.318
G01 X190.410 Y140.338
G01 X190.473 Y140.353
G01 X190.539 Y140.362
G01 X190.607 Y140.366
G01 X190.676 Y140.363
G01 X190.746 Y140.355
G01 X190.817 Y140.341
G01 X190.889 Y140.320
G01 X190.960 Y140.294
G01 X191.030 Y140.261
G01 X191.100 Y140.221
G01 X191.167 Y140.176
G01 X191.233 Y140.124
G01 X191.297 Y140.067
G01 X191.358 Y140.003
G01 X191.383 Y139.974
G01 X194.845 Y139.671
G01 X198.272 Y139.028
G01 X201.639 Y138.050
G01 X204.922 Y136.740
G01 X208.096 Y135.105
G01 X211.138 Y133.152
G01 X214.024 Y130.892
G01 X216.731 Y128.336
G01 X219.237 Y125.495
G01 X220.528 Y123.809
G01 X222.258 Y120.806
G01 X223.762 Y117.598
G01 X225.022 Y114.200
G01 X226.025 Y110.629
G01 X226.486 Y108.466
G01 X226.705 Y104.987
G01 X226.666 Y101.415
G01 X226.361 Y97.767
G01 X225.906 Y94.727
G01 X224.822 Y91.371
G01 X223.493 Y88.015
G01 X221.916 Y84.677
G01 X221.819 Y84.489
G01 X219.764 Y81.606
G01 X217.502 Y78.794
G01 X215.034 Y76.067
G01 X214.887 Y75.916
G01 X212.097 Y73.619
G01 X211.674 Y73.293
G01 X208.790 Y70.783
G01 X207.459 Y69.718
G01 X204.512 Y66.290
G01 X203.824 Y65.553
G01 X200.854 Y60.891
G01 X198.613 Y55.838
G01 X197.153 Y50.506
G01 X196.507 Y45.016
G01 X196.863 Y38.119
G01 X198.499 Y31.410
G01 X201.357 Y25.123
G01 X206.256 Y18.446
G01 X212.522 Y13.030
G01 X219.839 Y9.150
G01 X227.241 Y7.141
G01 X227.837 Y7.000
G01 X233.262 Y6.852
G01 X238.812 Y11.586
G01 X239.460 Y12.175
G01 X243.946 Y18.641
G01 X244.170 Y18.988
G01 X247.240 Y26.680
G01 X248.516 Y34.862
G01 X248.160 Y41.759
G01 X246.525 Y48.469
G01 X243.666 Y54.756
G01 X239.686 Y60.399
G01 X235.787 Y64.317
G01 X231.345 Y67.608
G01 X226.462 Y70.198
G01 X221.387 Y71.974
G01 X221.246 Y72.029
G01 X216.981 Y72.799
G01 X215.815 Y73.060
G01 X212.041 Y73.262
G01 X211.674 Y73.293
G01 X208.024 Y73.604
G01 X204.457 Y74.110
G01 X202.103 Y74.557
G01 X198.637 Y75.824
G01 X195.326 Y77.270
G01 X192.177 Y78.882
G01 X192.004 Y78.978
G01 X189.044 Y81.226
G01 X186.310 Y83.612
G01 X183.807 Y86.120
G01 X182.783 Y87.254
G01 X180.711 Y90.381
G01 X178.927 Y93.577
G01 X177.433 Y96.823
G01 X176.228 Y100.097
G01 X176.019 Y100.763
G01 X175.349 Y104.498
G01 X175.010 Y108.197
G01 X174.994 Y111.837
G01 X175.296 Y115.395
G01 X175.907 Y118.848
G01 X176.817 Y122.176
G01 X176.939 Y122.545
G01 X178.370 Y125.951
G01 X180.098 Y129.168
G01 X182.108 Y132.175
G01 X184.384 Y134.953
G01 X186.906 Y137.483
G01 X188.896 Y139.166
G01 X188.953 Y139.125
G01 X189.010 Y139.087
G01 X189.069 Y139.052
G01 X189.129 Y139.022
G01 X189.190 Y138.994
G01 X189.251 Y138.970
G01 X189.312 Y138.950
G01 X189.374 Y138.934
G01 X189.435 Y138.920
G01 X189.497 Y138.911
G01 X189.557 Y138.904
G01 X189.618 Y138.901
G01 X189.677 Y138.901
G01 X189.736 Y138.904
G01 X189.793 Y138.911
G01 X189.850 Y138.920
G01 X189.904 Y138.932
G01 X189.958 Y138.947
G01 X190.009 Y138.965
G01 X190.059 Y138.984
G01 X190.107 Y139.007
G01 X190.153 Y139.031
G01 X190.196 Y139.058
G01 X190.238 Y139.086
G01 X190.277 Y139.117
G01 X190.313 Y139.148
G01 X190.348 Y139.182
G01 X190.379 Y139.216
G01 X190.409 Y139.252
G01 X190.435 Y139.288
G01 X190.459 Y139.326
G01 X190.481 Y139.364
G01 X190.500 Y139.402
G01 X190.516 Y139.441
G01 X190.530 Y139.479
G01 X190.541 Y139.518
G01 X190.550 Y139.557
G01 X190.556 Y139.595
G01 X190.560 Y139.633
G01 X190.562 Y139.670
G01 X190.561 Y139.707
G01 X190.558 Y139.742
G01 X190.553 Y139.777
G01 X190.546 Y139.810
G01 X190.537 Y139.842
G01 X190.526 Y139.873
G01 X190.514 Y139.903
G01 X190.500 Y139.930
G01 X190.485 Y139.957
G01 X190.468 Y139.981
G01 X190.450 Y140.004
G01 X190.431 Y140.025
G01 X190.411 Y140.044
G01 X190.390 Y140.061
G01 X190.369 Y140.077
G01 X190.347 Y140.090
G01 X190.325 Y140.102
G01 X190.302 Y140.111
G01 X190.280 Y140.119
G01 X190.257 Y140.124
G01 X190.234 Y140.128
G01 X190.212 Y140.130
G01 X190.190 Y140.130
G01 X190.169 Y140.128
G01 X190.149 Y140.124
G01 X190.129 Y140.119
G01 X190.110 Y140.112
G01 X190.092 Y140.104
G01 X190.076 Y140.094
G01 X190.060 Y140.083
G01 X190.046 Y140.070
G01 X190.033 Y140.057
G01 X190.022 Y140.042
G01 X190.012 Y140.027
G01 X190.004 Y140.010
G01 X190.000 Y140.000
G01 X190.047 Y140.110
G01 X190.104 Y140.215
G01 X190.172 Y140.314
G01 X190.250 Y140.407
G01 X190.337 Y140.492
G01 X190.432 Y140.570
G01 X190.537 Y140.640
G01 X190.648 Y140.700
G01 X190.767 Y140.751
G01 X190.892 Y140.791
G01 X191.023 Y140.821
G01 X191.104 Y140.834
G01 X193.726 Y143.114
G01 X196.121 Y145.648
G01 X198.270 Y148.419
G01 X200.156 Y151.409
G01 X201.763 Y154.597
G01 X203.076 Y157.964
G01 X204.082 Y161.489
G01 X204.770 Y165.149
G01 X205.127 Y168.920
G01 X205.180 Y171.042
G01 X204.816 Y174.489
G01 X204.146 Y177.968
G01 X203.169 Y181.458
G01 X201.881 Y184.936
G01 X200.983 Y186.957
G01 X199.115 Y189.900
G01 X196.984 Y192.767
G01 X194.592 Y195.540
G01 X192.438 Y197.731
G01 X189.588 Y199.810
G01 X186.540 Y201.743
G01 X183.302 Y203.517
G01 X183.113 Y203.612
G01 X179.756 Y204.737
G01 X176.273 Y205.682
G01 X172.674 Y206.437
G01 X172.466 Y206.474
G01 X168.859 Y206.692
G01 X168.326 Y206.707
G01 X164.516 Y207.042
G01 X162.813 Y207.121
G01 X158.414 Y208.163
G01 X157.425 Y208.355
G01 X152.282 Y210.380
G01 X147.499 Y213.152
G01 X143.184 Y216.607
G01 X139.434 Y220.668
G01 X135.668 Y226.457
G01 X133.048 Y232.847
G01 X131.665 Y239.613
G01 X131.704 Y247.895
G01 X133.590 Y255.959
G01 X137.228 Y263.399
G01 X142.036 Y269.375
G01 X142.435 Y269.839
G01 X146.738 Y273.148
G01 X154.010 Y272.580
G01 X154.881 Y272.484
G01 X162.310 Y269.890
G01 X162.695 Y269.741
G01 X169.700 Y265.323
G01 X175.542 Y259.453
G01 X179.308 Y253.664
G01 X181.929 Y247.275
G01 X183.312 Y240.509
G01 X183.409 Y233.603
G01 X182.557 Y228.141
G01 X180.898 Y222.869
G01 X178.470 Y217.903
G01 X175.408 Y213.483
G01 X175.326 Y213.356
G01 X172.329 Y210.226
G01 X171.539 Y209.330
G01 X168.604 Y206.948
G01 X168.326 Y206.707
G01 X165.555 Y204.310
G01 X162.966 Y201.804
G01 X161.325 Y200.058
G01 X159.266 Y196.996
G01 X157.437 Y193.880
G01 X155.837 Y190.725
G01 X155.753 Y190.546
G01 X154.680 Y186.987
G01 X153.871 Y183.450
G01 X153.320 Y179.950
G01 X153.158 Y178.430
G01 X153.319 Y174.683
G01 X153.755 Y171.048
G01 X154.454 Y167.544
G01 X155.404 Y164.188
G01 X155.626 Y163.526
G01 X157.280 Y160.110
G01 X159.179 Y156.918
G01 X161.306 Y153.964
G01 X163.642 Y151.263
G01 X166.166 Y148.829
G01 X168.858 Y146.671
G01 X169.173 Y146.445
G01 X172.333 Y144.530
G01 X175.622 Y142.943
G01 X179.016 Y141.692
G01 X182.490 Y140.782
G01 X186.017 Y140.218
G01 X188.617 Y140.026
G01 X188.654 Y140.091
G01 X188.694 Y140.153
G01 X188.737 Y140.212
G01 X188.782 Y140.266
G01 X188.830 Y140.317
G01 X188.879 Y140.363
G01 X188.930 Y140.406
G01 X188.983 Y140.444
G01 X189.036 Y140.478
G01 X189.091 Y140.508
G01 X189.146 Y140.534
G01 X189.201 Y140.556
G01 X189.256 Y140.573
G01 X189.311 Y140.587
G01 X189.366 Y140.597
G01 X189.420 Y140.603
G01 X189.472 Y140.605
G01 X189.524 Y140.603
G01 X189.574 Y140.598
G01 X189.622 Y140.589
G01 X189.668 Y140.577
G01 X189.713 Y140.563
G01 X189.755 Y140.545
G01 X189.794 Y140.524
G01 X189.831 Y140.502
G01 X189.865 Y140.476
G01 X189.896 Y140.449
G01 X189.925 Y140.420
G01 X189.950 Y140.389
G01 X189.972 Y140.357
G01 X189.990 Y140.324
G01 X190.005 Y140.290
G01 X190.017 Y140.255
G01 X190.026 Y140.220
G01 X190.031 Y140.185
G01 X190.033 Y140.150
G01 X190.031 Y140.115
G01 X190.026 Y140.081
G01 X190.018 Y140.048
G01 X190.007 Y140.015
G01 X190.000 Y140.000
G01 X190.023 Y140.044
G01 X190.051 Y140.086
G01 X190.082 Y140.125
G01 X190.118 Y140.161
G01 X190.157 Y140.193
G01 X190.199 Y140.223
G01 X190.245 Y140.248
G01 X190.294 Y140.269
G01 X190.345 Y140.286
G01 X190.398 Y140.299
G01 X190.454 Y140.307
G01 X190.511 Y140.310
G01 X190.569 Y140.309
G01 X190.628 Y140.302
G01 X190.688 Y140.290
G01 X190.749 Y140.273
G01 X190.809 Y140.251
G01 X190.868 Y140.223
G01 X190.927 Y140.190
G01 X190.984 Y140.152
G01 X191.040 Y140.109
G01 X191.094 Y140.060
G01 X191.145 Y140.007
G01 X191.194 Y139.949
G01 X191.240 Y139.886
G01 X191.282 Y139.818
G01 X191.320 Y139.746
G01 X191.347 Y139.687
G01 X194.670 Y138.671
G01 X197.889 Y137.330
G01 X200.979 Y135.672
G01 X203.918 Y133.709
G01 X206.683 Y131.449
G01 X209.252 Y128.907
G01 X211.605 Y126.097
G01 X213.722 Y123.033
G01 X215.582 Y119.733
G01 X216.494 Y117.816
G01 X217.563 Y114.519
G01 X218.366 Y111.068
G01 X218.893 Y107.483
G01 X219.131 Y103.781
G01 X219.132 Y101.570
G01 X218.623 Y98.121
G01 X217.842 Y94.635
G01 X216.785 Y91.130
G01 X215.708 Y88.251
G01 X213.951 Y85.193
G01 X211.953 Y82.188
G01 X209.716 Y79.250
G01 X209.582 Y79.086
G01 X206.973 Y76.693
G01 X204.175 Y74.414
G01 X201.194 Y72.260
G01 X201.020 Y72.142
G01 X197.812 Y70.475
G01 X197.332 Y70.244
G01 X193.988 Y68.389
G01 X192.465 Y67.624
G01 X188.869 Y64.883
G01 X188.044 Y64.305
G01 X184.169 Y60.363
G01 X180.927 Y55.886
G01 X178.390 Y50.974
G01 X176.617 Y45.739
G01 X175.531 Y38.919
G01 X175.736 Y32.016
G01 X177.225 Y25.272
G01 X180.628 Y17.722
G01 X185.632 Y11.122
G01 X191.981 Y5.805
G01 X198.804 Y2.301
G01 X199.358 Y2.040
G01 X204.634 Y0.767
G01 X211.046 Y4.244
G01 X211.803 Y4.685
G01 X217.535 Y10.077
G01 X217.826 Y10.370
G01 X222.429 Y17.255
G01 X225.378 Y24.994
G01 X226.464 Y31.814
G01 X226.259 Y38.717
G01 X224.770 Y45.461
G01 X222.050 Y51.808
G01 X219.051 Y56.451
G01 X215.391 Y60.594
G01 X211.152 Y64.143
G01 X206.558 Y66.934
G01 X206.431 Y67.018
G01 X202.420 Y68.658
G01 X201.334 Y69.155
G01 X197.684 Y70.138
G01 X197.332 Y70.244
G01 X193.825 Y71.308
G01 X190.442 Y72.544
G01 X188.232 Y73.471
G01 X185.105 Y75.431
G01 X182.167 Y77.534
G01 X179.422 Y79.765
G01 X179.273 Y79.895
G01 X176.845 Y82.709
G01 X174.667 Y85.612
G01 X172.740 Y88.585
G01 X171.974 Y89.907
G01 X170.597 Y93.396
G01 X169.517 Y96.894
G01 X168.730 Y100.379
G01 X168.233 Y103.832
G01 X168.167 Y104.527
G01 X168.288 Y108.320
G01 X168.725 Y112.009
G01 X169.467 Y115.572
G01 X170.502 Y118.989
G01 X171.817 Y122.240
G01 X173.399 Y125.306
G01 X173.595 Y125.642
G01 X175.703 Y128.676
G01 X178.062 Y131.463
G01 X180.654 Y133.987
G01 X183.457 Y136.231
G01 X186.450 Y138.181
G01 X188.747 Y139.414
G01 X188.794 Y139.362
G01 X188.842 Y139.312
G01 X188.892 Y139.266
G01 X188.944 Y139.224
G01 X188.998 Y139.184
G01 X189.053 Y139.148
G01 X189.108 Y139.116
G01 X189.165 Y139.086
G01 X189.223 Y139.061
G01 X189.280 Y139.038
G01 X189.339 Y139.019
G01 X189.397 Y139.003
G01 X189.455 Y138.991
G01 X189.513 Y138.982
G01 X189.571 Y138.976
G01 X189.628 Y138.973
G01 X189.684 Y138.974
G01 X189.739 Y138.977
G01 X189.793 Y138.983
G01 X189.846 Y138.992
G01 X189.898 Y139.004
G01 X189.948 Y139.019
G01 X189.996 Y139.035
G01 X190.043 Y139.054
G01 X190.087 Y139.076
G01 X190.130 Y139.099
G01 X190.170 Y139.125
G01 X190.209 Y139.152
G01 X190.245 Y139.180
G01 X190.279 Y139.210
G01 X190.310 Y139.242
G01 X190.339 Y139.275
G01 X190.366 Y139.308
G01 X190.390 Y139.343
G01 X190.412 Y139.378
G01 X190.431 Y139.413
G01 X190.448 Y139.449
G01 X190.462 Y139.486
G01 X190.474 Y139.522
G01 X190.484 Y139.558
G01 X190.491 Y139.594
G01 X190.496 Y139.629
G01 X190.498 Y139.664
G01 X190.498 Y139.698
G01 X190.497 Y139.732
G01 X190.493 Y139.764
G01 X190.487 Y139.796
G01 X190.479 Y139.826
G01 X190.470 Y139.855
G01 X190.459 Y139.883
G01 X190.446 Y139.909
G01 X190.432 Y139.934
G01 X190.417 Y139.957
G01 X190.400 Y139.979
G01 X190.382 Y139.998
G01 X190.364 Y140.016
G01 X190.344 Y140.032
G01 X190.324 Y140.047
G01 X190.304 Y140.059
G01 X190.283 Y140.070
G01 X190.262 Y140.078
G01 X190.240 Y140.085
G01 X190.219 Y140.090
G01 X190.198 Y140.093
G01 X190.177 Y140.094
G01 X190.157 Y140.093
G01 X190.137 Y140.091
G01 X190.118 Y140.086
G01 X190.099 Y140.081
G01 X190.081 Y140.073
G01 X190.065 Y140.064
G01 X190.049 Y140.054
G01 X190.035 Y140.042
G01 X190.022 Y140.029
G01 X190.010 Y140.015
G01 X190.000 Y140.000
G01 X190.064 Y140.095
G01 X190.138 Y140.184
G01 X190.220 Y140.266
G01 X190.310 Y140.340
G01 X190.408 Y140.406
G01 X190.513 Y140.462
G01 X190.625 Y140.509
G01 X190.742 Y140.546
G01 X190.863 Y140.573
G01 X190.989 Y140.588
G01 X191.119 Y140.593
G01 X191.251 Y140.586
G01 X191.253 Y140.586
G01 X194.292 Y142.271
G01 X197.161 Y144.252
G01 X199.840 Y146.516
G01 X202.306 Y149.048
G01 X204.541 Y151.833
G01 X206.525 Y154.853
G01 X208.242 Y158.092
G01 X209.676 Y161.528
G01 X210.810 Y165.143
G01 X211.303 Y167.208
G01 X211.663 Y170.655
G01 X211.731 Y174.197
G01 X211.501 Y177.814
G01 X210.964 Y181.484
G01 X210.506 Y183.648
G01 X209.291 Y186.915
G01 X207.802 Y190.162
G01 X206.039 Y193.371
G01 X204.387 Y195.963
G01 X202.032 Y198.589
G01 X199.453 Y201.113
G01 X196.654 Y203.521
G01 X196.489 Y203.654
G01 X193.440 Y205.452
G01 X190.229 Y207.100
G01 X186.866 Y208.587
G01 X186.670 Y208.667
G01 X183.187 Y209.630
G01 X182.668 Y209.756
G01 X179.012 Y210.876
G01 X177.363 Y211.307
G01 X173.277 Y213.240
G01 X172.349 Y213.634
G01 X167.739 Y216.684
G01 X163.637 Y220.390
G01 X160.135 Y224.666
G01 X157.311 Y229.419
G01 X154.831 Y235.864
G01 X153.596 Y242.659
G01 X153.650 Y249.565
G01 X155.410 Y257.657
G01 X158.932 Y265.153
G01 X164.037 Y271.674
G01 X169.983 Y276.520
G01 X170.470 Y276.891
G01 X175.366 Y279.233
G01 X182.361 Y277.165
G01 X183.193 Y276.891
G01 X189.921 Y272.809
G01 X190.266 Y272.583
G01 X196.200 Y266.805
G01 X200.694 Y259.849
G01 X203.174 Y253.403
G01 X204.409 Y246.609
G01 X204.355 Y239.703
G01 X203.014 Y232.928
G01 X201.045 Y227.763
G01 X198.326 Y222.950
G01 X194.919 Y218.598
G01 X191.005 Y214.912
G01 X190.898 Y214.804
G01 X187.316 Y212.365
G01 X186.356 Y211.653
G01 X182.991 Y209.933
G01 X182.668 Y209.756
G01 X179.460 Y207.987
G01 X176.407 Y206.074
G01 X174.438 Y204.708
G01 X171.788 Y202.140
G01 X169.351 Y199.473
G01 X167.130 Y196.720
G01 X167.010 Y196.561
G01 X165.221 Y193.304
G01 X163.694 Y190.012
G01 X162.427 Y186.703
G01 X161.953 Y185.251
G01 X161.332 Y181.551
G01 X161.002 Y177.905
G01 X160.957 Y174.333
G01 X161.189 Y170.852
G01 X161.269 Y170.158
G01 X162.176 Y166.474
G01 X163.370 Y162.956
G01 X164.837 Y159.625
G01 X166.559 Y156.498
G01 X168.522 Y153.591
G01 X170.707 Y150.921
G01 X170.968 Y150.634
G01 X173.661 Y148.104
G01 X176.548 Y145.868
G01 X179.608 Y143.939
G01 X182.816 Y142.326
G01 X186.150 Y141.041
G01 X188.653 Y140.313
G01 X188.704 Y140.369
G01 X188.757 Y140.421
G01 X188.812 Y140.468
G01 X188.868 Y140.512
G01 X188.926 Y140.550
G01 X188.985 Y140.585
G01 X189.045 Y140.615
G01 X189.105 Y140.640
G01 X189.165 Y140.661
G01 X189.225 Y140.678
G01 X189.285 Y140.691
G01 X189.344 Y140.699
G01 X189.402 Y140.704
G01 X189.459 Y140.704
G01 X189.514 Y140.701
G01 X189.568 Y140.694
G01 X189.619 Y140.684
G01 X189.669 Y140.670
G01 X189.716 Y140.653
G01 X189.761 Y140.633
G01 X189.803 Y140.610
G01 X189.843 Y140.585
G01 X189.879 Y140.557
G01 X189.912 Y140.528
G01 X189.942 Y140.496
G01 X189.969 Y140.463
G01 X189.993 Y140.429
G01 X190.013 Y140.394
G01 X190.029 Y140.357
G01 X190.042 Y140.320
G01 X190.051 Y140.283
G01 X190.057 Y140.246
G01 X190.059 Y140.209
G01 X190.058 Y140.172
G01 X190.054 Y140.136
G01 X190.046 Y140.101
G01 X190.035 Y140.067
G01 X190.020 Y140.035
G01 X190.003 Y140.004
G01 X190.000 Y140.000
G01 X190.028 Y140.038
G01 X190.060 Y140.074
G01 X190.095 Y140.107
G01 X190.133 Y140.136
G01 X190.174 Y140.161
G01 X190.218 Y140.183
G01 X190.265 Y140.201
G01 X190.314 Y140.214
G01 X190.364 Y140.223
G01 X190.417 Y140.228
G01 X190.470 Y140.228
G01 X190.524 Y140.223
G01 X190.579 Y140.214
G01 X190.634 Y140.200
G01 X190.689 Y140.180
G01 X190.744 Y140.156
G01 X190.797 Y140.127
G01 X190.850 Y140.092
G01 X190.901 Y140.054
G01 X190.950 Y140.010
G01 X190.997 Y139.961
G01 X191.041 Y139.908
G01 X191.082 Y139.851
G01 X191.120 Y139.789
G01 X191.155 Y139.723
G01 X191.185 Y139.654
G01 X191.212 Y139.580
G01 X191.234 Y139.504
G01 X191.251 Y139.424
G01 X191.253 Y139.414
G01 X194.292 Y137.729
G01 X197.161 Y135.748
G01 X199.840 Y133.484
G01 X202.306 Y130.952
G01 X204.541 Y128.167
G01 X206.525 Y125.147
G01 X208.242 Y121.908
G01 X209.676 Y118.472
G01 X210.810 Y114.857
G01 X211.303 Y112.792
G01 X211.663 Y109.345
G01 X211.731 Y105.803
G01 X211.501 Y102.186
G01 X210.964 Y98.516
G01 X210.506 Y96.352
G01 X209.291 Y93.085
G01 X207.802 Y89.838
G01 X206.039 Y86.629
G01 X204.387 Y84.037
G01 X202.032 Y81.411
G01 X199.453 Y78.887
G01 X196.654 Y76.479
G01 X196.489 Y76.346
G01 X193.440 Y74.548
G01 X190.229 Y72.900
G01 X186.866 Y71.413
G01 X186.670 Y71.333
G01 X183.187 Y70.370
G01 X182.668 Y70.244
G01 X179.012 Y69.124
G01 X177.363 Y68.693
G01 X173.277 Y66.760
G01 X172.349 Y66.366
G01 X167.739 Y63.316
G01 X163.637 Y59.610
G01 X160.135 Y55.334
G01 X157.311 Y50.581
G01 X154.831 Y44.136
G01 X153.596 Y37.341
G01 X153.650 Y30.435
G01 X155.410 Y22.343
G01 X158.932 Y14.847
G01 X164.037 Y8.326
G01 X169.983 Y3.480
G01 X170.470 Y3.109
G01 X175.366 Y0.767
G01 X182.361 Y2.835
G01 X183.193 Y3.109
G01 X189.921 Y7.191
G01 X190.266 Y7.417
G01 X196.200 Y13.195
G01 X200.694 Y20.151
G01 X203.174 Y26.597
G01 X204.409 Y33.391
G01 X204.355 Y40.297
G01 X203.014 Y47.072
G01 X201.045 Y52.237
G01 X198.326 Y57.050
G01 X194.919 Y61.402
G01 X191.005 Y65.088
G01 X190.898 Y65.196
G01 X187.316 Y67.635
G01 X186.356 Y68.347
G01 X182.991 Y70.067
G01 X182.668 Y70.244
G01 X179.460 Y72.013
G01 X176.407 Y73.926
G01 X174.438 Y75.292
G01 X171.788 Y77.860
G01 X169.351 Y80.527
G01 X167.130 Y83.280
G01 X167.010 Y83.439
G01 X165.221 Y86.696
G01 X163.694 Y89.988
G01 X162.427 Y93.297
G01 X161.953 Y94.749
G01 X161.332 Y98.449
G01 X161.002 Y102.095
G01 X160.957 Y105.667
G01 X161.189 Y109.148
G01 X161.269 Y109.842
G01 X162.176 Y113.526
G01 X163.370 Y117.044
G01 X164.837 Y120.375
G01 X166.559 Y123.502
G01 X168.522 Y126.409
G01 X170.707 Y129.079
G01 X170.968 Y129.366
G01 X173.661 Y131.896
G01 X176.548 Y134.132
G01 X179.608 Y136.061
G01 X182.816 Y137.674
G01 X186.150 Y138.959
G01 X188.653 Y139.687
G01 X188.687 Y139.626
G01 X188.724 Y139.568
G01 X188.764 Y139.513
G01 X188.805 Y139.460
G01 X188.849 Y139.410
G01 X188.895 Y139.364
G01 X188.943 Y139.320
G01 X188.992 Y139.279
G01 X189.043 Y139.242
G01 X189.095 Y139.208
G01 X189.148 Y139.177
G01 X189.202 Y139.149
G01 X189.256 Y139.125
G01 X189.311 Y139.104
G01 X189.366 Y139.086
G01 X189.421 Y139.071
G01 X189.476 Y139.060
G01 X189.531 Y139.051
G01 X189.585 Y139.046
G01 X189.639 Y139.044
G01 X189.692 Y139.044
G01 X189.744 Y139.048
G01 X189.795 Y139.054
G01 X189.844 Y139.063
G01 X189.893 Y139.074
G01 X189.939 Y139.088
G01 X189.985 Y139.104
G01 X190.028 Y139.122
G01 X190.070 Y139.143
G01 X190.109 Y139.165
G01 X190.147 Y139.189
G01 X190.182 Y139.215
G01 X190.216 Y139.242
G01 X190.247 Y139.271
G01 X190.276 Y139.301
G01 X190.302 Y139.331
G01 X190.326 Y139.363
G01 X190.348 Y139.396
G01 X190.368 Y139.429
G01 X190.385 Y139.462
G01 X190.400 Y139.496
G01 X190.412 Y139.529
G01 X190.422 Y139.563
G01 X190.430 Y139.597
G01 X190.435 Y139.630
G01 X190.439 Y139.663
G01 X190.440 Y139.695
G01 X190.439 Y139.727
G01 X190.436 Y139.757
G01 X190.431 Y139.787
G01 X190.425 Y139.815
G01 X190.416 Y139.843
G01 X190.406 Y139.869
G01 X190.395 Y139.894
G01 X190.382 Y139.917
G01 X190.368 Y139.939
G01 X190.352 Y139.959
G01 X190.336 Y139.978
G01 X190.319 Y139.995
G01 X190.300 Y140.010
G01 X190.282 Y140.023
G01 X190.262 Y140.034
G01 X190.243 Y140.044
G01 X190.223 Y140.052
G01 X190.202 Y140.058
G01 X190.182 Y140.062
G01 X190.162 Y140.064
G01 X190.142 Y140.064
G01 X190.123 Y140.063
G01 X190.104 Y140.060
G01 X190.086 Y140.055
G01 X190.068 Y140.049
G01 X190.052 Y140.041
G01 X190.036 Y140.032
G01 X190.022 Y140.021
G01 X190.008 Y140.009
G01 X190.000 Y140.000
G01 X190.076 Y140.078
G01 X190.160 Y140.149
G01 X190.250 Y140.212
G01 X190.347 Y140.266
G01 X190.449 Y140.310
G01 X190.557 Y140.345
G01 X190.669 Y140.371
G01 X190.784 Y140.386
G01 X190.902 Y140.390
G01 X191.023 Y140.384
G01 X191.144 Y140.366
G01 X191.267 Y140.338
G01 X191.347 Y140.313
G01 X194.670 Y141.329
G01 X197.889 Y142.670
G01 X200.979 Y144.328
G01 X203.918 Y146.291
G01 X206.683 Y148.551
G01 X209.252 Y151.093
G01 X211.605 Y153.903
G01 X213.722 Y156.967
G01 X215.582 Y160.267
G01 X216.494 Y162.184
G01 X217.563 Y165.481
G01 X218.366 Y168.932
G01 X218.893 Y172.517
G01 X219.131 Y176.219
G01 X219.132 Y178.430
G01 X218.623 Y181.879
G01 X217.842 Y185.365
G01 X216.785 Y188.870
G01 X215.708 Y191.749
G01 X213.951 Y194.807
G01 X211.953 Y197.812
G01 X209.716 Y200.750
G01 X209.582 Y200.914
G01 X206.973 Y203.307
G01 X204.175 Y205.586
G01 X201.194 Y207.740
G01 X201.020 Y207.858
G01 X197.812 Y209.525
G01 X197.332 Y209.756
G01 X193.988 Y211.611
G01 X192.465 Y212.376
G01 X188.869 Y215.117
G01 X188.044 Y215.695
G01 X184.169 Y219.637
G01 X180.927 Y224.114
G01 X178.390 Y229.026
G01 X176.617 Y234.261
G01 X175.531 Y241.081
G01 X175.736 Y247.984
G01 X177.225 Y254.728
G01 X180.628 Y262.278
G01 X185.632 Y268.878
G01 X191.981 Y274.195
G01 X198.804 Y277.699
G01 X199.358 Y277.960
G01 X204.634 Y279.233
G01 X211.046 Y275.756
G01 X211.803 Y275.315
G01 X217.535 Y269.923
G01 X217.826 Y269.630
G01 X222.429 Y262.745
G01 X225.378 Y255.006
G01 X226.464 Y248.186
G01 X226.259 Y241.283
G01 X224.770 Y234.539
G01 X222.050 Y228.192
G01 X219.051 Y223.549
G01 X215.391 Y219.406
G01 X211.152 Y215.857
G01 X206.558 Y213.066
G01 X206.431 Y212.982
G01 X202.420 Y211.342
G01 X201.334 Y210.845
G01 X197.684 Y209.862
G01 X197.332 Y209.756
G01 X193.825 Y208.692
G01 X190.442 Y207.456
G01 X188.232 Y206.529
G01 X185.105 Y204.569
G01 X182.167 Y202.466
G01 X179.422 Y200.235
G01 X179.273 Y200.105
G01 X176.845 Y197.291
G01 X174.667 Y194.388
G01 X172.740 Y191.415
G01 X171.974 Y190.093
G01 X170.597 Y186.604
G01 X169.517 Y183.106
G01 X168.730 Y179.621
G01 X168.233 Y176.168
G01 X168.167 Y175.473
G01 X168.288 Y171.680
G01 X168.725 Y167.991
G01 X169.467 Y164.428
G01 X170.502 Y161.011
G01 X171.817 Y157.760
G01 X173.399 Y154.694
G01 X173.595 Y154.358
G01 X175.703 Y151.324
G01 X178.062 Y148.537
G01 X180.654 Y146.013
G01 X183.457 Y143.769
G01 X186.450 Y141.819
G01 X188.747 Y140.586
G01 X188.809 Y140.630
G01 X188.871 Y140.670
G01 X188.935 Y140.705
G01 X188.999 Y140.736
G01 X189.064 Y140.762
G01 X189.128 Y140.784
G01 X189.193 Y140.801
G01 X189.257 Y140.813
G01 X189.320 Y140.822
G01 X189.382 Y140.826
G01 X189.443 Y140.826
G01 X189.502 Y140.822
G01 X189.560 Y140.815
G01 X189.616 Y140.804
G01 X189.669 Y140.789
G01 X189.720 Y140.771
G01 X189.769 Y140.750
G01 X189.815 Y140.727
G01 X189.858 Y140.701
G01 X189.897 Y140.672
G01 X189.934 Y140.641
G01 X189.968 Y140.608
G01 X189.998 Y140.574
G01 X190.024 Y140.538
G01 X190.047 Y140.502
G01 X190.067 Y140.464
G01 X190.083 Y140.425
G01 X190.095 Y140.387
G01 X190.104 Y140.348
G01 X190.109 Y140.309
G01 X190.111 Y140.271
G01 X190.109 Y140.233
G01 X190.104 Y140.197
G01 X190.096 Y140.161
G01 X190.084 Y140.127
G01 X190.069 Y140.094
G01 X190.052 Y140.063
G01 X190.031 Y140.035
G01 X190.008 Y140.008
G01 X190.000 Y140.000
G01 X190.036 Y140.032
G01 X190.075 Y140.060
G01 X190.116 Y140.084
G01 X190.160 Y140.104
G01 X190.206 Y140.120
G01 X190.254 Y140.132
G01 X190.304 Y140.139
G01 X190.355 Y140.142
G01 X190.407 Y140.140
G01 X190.459 Y140.133
G01 X190.511 Y140.122
G01 X190.564 Y140.105
G01 X190.616 Y140.084
G01 X190.667 Y140.058
G01 X190.716 Y140.027
G01 X190.765 Y139.991
G01 X190.811 Y139.951
G01 X190.855 Y139.906
G01 X190.897 Y139.856
G01 X190.935 Y139.803
G01 X190.971 Y139.745
G01 X191.002 Y139.683
G01 X191.030 Y139.618
G01 X191.054 Y139.549
G01 X191.074 Y139.477
G01 X191.089 Y139.401
G01 X191.099 Y139.324
G01 X191.104 Y139.244
G01 X191.104 Y139.166
G01 X193.726 Y136.886
G01 X196.121 Y134.352
G01 X198.270 Y131.581
G01 X200.156 Y128.591
G01 X201.763 Y125.403
G01 X203.076 Y122.036
G01 X204.082 Y118.511
G01 X204.770 Y114.851
G01 X205.127 Y111.080
G01 X205.180 Y108.958
G01 X204.816 Y105.511
G01 X204.146 Y102.032
G01 X203.169 Y98.542
G01 X201.881 Y95.064
G01 X200.983 Y93.043
G01 X199.115 Y90.100
G01 X196.984 Y87.233
G01 X194.592 Y84.460
G01 X192.438 Y82.269
G01 X189.588 Y80.190
G01 X186.540 Y78.257
G01 X183.302 Y76.483
G01 X183.113 Y76.388
G01 X179.756 Y75.263
G01 X176.273 Y74.318
G01 X172.674 Y73.563
G01 X172.466 Y73.526
G01 X168.859 Y73.308
G01 X168.326 Y73.293
G01 X164.516 Y72.958
G01 X162.813 Y72.879
G01 X158.414 Y71.837
G01 X157.425 Y71.645
G01 X152.282 Y69.620
G01 X147.499 Y66.848
G01 X143.184 Y63.393
G01 X139.434 Y59.332
G01 X135.668 Y53.543
G01 X133.048 Y47.153
G01 X131.665 Y40.387
G01 X131.704 Y32.105
G01 X133.590 Y24.041
G01 X137.228 Y16.601
G01 X142.036 Y10.625
G01 X142.435 Y10.161
G01 X146.738 Y6.852
G01 X154.010 Y7.420
G01 X154.881 Y7.516
G01 X162.310 Y10.110
G01 X162.695 Y10.259
G01 X169.700 Y14.677
G01 X175.542 Y20.547
G01 X179.308 Y26.336
G01 X181.929 Y32.725
G01 X183.312 Y39.491
G01 X183.409 Y46.397
G01 X182.557 Y51.859
G01 X180.898 Y57.131
G01 X178.470 Y62.097
G01 X175.408 Y66.517
G01 X175.326 Y66.644
G01 X172.329 Y69.774
G01 X171.539 Y70.670
G01 X168.604 Y73.052
G01 X168.326 Y73.293
G01 X165.555 Y75.690
G01 X162.966 Y78.196
G01 X161.325 Y79.942
G01 X159.266 Y83.004
G01 X157.437 Y86.120
G01 X155.837 Y89.275
G01 X155.753 Y89.454
G01 X154.680 Y93.013
G01 X153.871 Y96.550
G01 X153.320 Y100.050
G01 X153.158 Y101.570
G01 X153.319 Y105.317
G01 X153.755 Y108.952
G01 X154.454 Y112.456
G01 X155.404 Y115.812
G01 X155.626 Y116.474
G01 X157.280 Y119.890
G01 X159.179 Y123.082
G01 X161.306 Y126.036
G01 X163.642 Y128.737
G01 X166.166 Y131.171
G01 X168.858 Y133.329
G01 X169.173 Y133.555
G01 X172.333 Y135.470
G01 X175.622 Y137.057
G01 X179.016 Y138.308
G01 X182.490 Y139.218
G01 X186.017 Y139.782
G01 X188.617 Y139.974
G01 X188.638 Y139.907
G01 X188.662 Y139.843
G01 X188.689 Y139.780
G01 X188.719 Y139.720
G01 X188.751 Y139.662
G01 X188.787 Y139.607
G01 X188.824 Y139.554
G01 X188.864 Y139.504
G01 X188.906 Y139.457
G01 X188.949 Y139.413
G01 X188.994 Y139.371
G01 X189.041 Y139.333
G01 X189.089 Y139.298
G01 X189.139 Y139.266
G01 X189.189 Y139.236
G01 X189.240 Y139.210
G01 X189.291 Y139.188
G01 X189.343 Y139.168
G01 X189.395 Y139.151
G01 X189.447 Y139.138
G01 X189.499 Y139.127
G01 X189.550 Y139.120
G01 X189.602 Y139.115
G01 X189.652 Y139.113
G01 X189.702 Y139.114
G01 X189.750 Y139.118
G01 X189.798 Y139.124
G01 X189.844 Y139.133
G01 X189.889 Y139.144
G01 X189.933 Y139.158
G01 X189.975 Y139.173
G01 X190.015 Y139.191
G01 X190.054 Y139.211
G01 X190.090 Y139.232
G01 X190.125 Y139.255
G01 X190.157 Y139.280
G01 X190.188 Y139.305
G01 X190.216 Y139.333
G01 X190.242 Y139.361
G01 X190.266 Y139.390
G01 X190.288 Y139.420
G01 X190.307 Y139.450
G01 X190.324 Y139.481
G01 X190.339 Y139.512
G01 X190.352 Y139.544
G01 X190.362 Y139.575
G01 X190.370 Y139.607
G01 X190.376 Y139.638
G01 X190.380 Y139.668
G01 X190.382 Y139.699
G01 X190.381 Y139.728
G01 X190.379 Y139.757
G01 X190.375 Y139.785
G01 X190.369 Y139.811
G01 X190.362 Y139.837
G01 X190.353 Y139.862
G01 X190.342 Y139.885
G01 X190.330 Y139.907
G01 X190.317 Y139.927
G01 X190.302 Y139.946
G01 X190.287 Y139.963
G01 X190.270 Y139.978
G01 X190.253 Y139.992
G01 X190.235 Y140.004
G01 X190.217 Y140.015
G01 X190.198 Y140.023
G01 X190.179 Y140.030
G01 X190.160 Y140.035
G01 X190.140 Y140.038
G01 X190.121 Y140.039
G01 X190.103 Y140.039
G01 X190.084 Y140.037
G01 X190.066 Y140.033
G01 X190.049 Y140.027
G01 X190.032 Y140.020
G01 X190.016 Y140.011
G01 X190.002 Y140.001
G01 X190.000 Y140.000
G01 X190.086 Y140.061
G01 X190.178 Y140.113
G01 X190.275 Y140.156
G01 X190.377 Y140.190
G01 X190.482 Y140.214
G01 X190.591 Y140.228
G01 X190.701 Y140.231
G01 X190.813 Y140.225
G01 X190.926 Y140.208
G01 X191.039 Y140.180
G01 X191.152 Y140.142
G01 X191.262 Y140.093
G01 X191.371 Y140.033
G01 X191.383 Y140.026
G01 X194.845 Y140.329
G01 X198.272 Y140.972
G01 X201.639 Y141.950
G01 X204.922 Y143.260
G01 X208.096 Y144.895
G01 X211.138 Y146.848
G01 X214.024 Y149.108
G01 X216.731 Y151.664
G01 X219.237 Y154.505
G01 X220.528 Y156.191
G01 X222.258 Y159.194
G01 X223.762 Y162.402
G01 X225.022 Y165.800
G01 X226.025 Y169.371
G01 X226.486 Y171.534
G01 X226.705 Y175.013
G01 X226.666 Y178.585
G01 X226.361 Y182.233
G01 X225.906 Y185.273
G01 X224.822 Y188.629
G01 X223.493 Y191.985
G01 X221.916 Y195.323
G01 X221.819 Y195.511
G01 X219.764 Y198.394
G01 X217.502 Y201.206
G01 X215.034 Y203.933
G01 X214.887 Y204.084
G01 X212.097 Y206.381
G01 X211.674 Y206.707
G01 X208.790 Y209.217
G01 X207.459 Y210.282
G01 X204.512 Y213.710
G01 X203.824 Y214.447
G01 X200.854 Y219.109
G01 X198.613 Y224.162
G01 X197.153 Y229.494
G01 X196.507 Y234.984
G01 X196.863 Y241.881
G01 X198.499 Y248.590
G01 X201.357 Y254.877
G01 X206.256 Y261.554
G01 X212.522 Y266.970
G01 X219.839 Y270.850
G01 X227.241 Y272.859
G01 X227.837 Y273.000
G01 X233.262 Y273.148
G01 X238.812 Y268.414
G01 X239.460 Y267.825
G01 X243.946 Y261.359
G01 X244.170 Y261.012
G01 X247.240 Y253.320
G01 X248.516 Y245.138
G01 X248.160 Y238.241
G01 X246.525 Y231.531
G01 X243.666 Y225.244
G01 X239.686 Y219.601
G01 X235.787 Y215.683
G01 X231.345 Y212.392
G01 X226.462 Y209.802
G01 X221.387 Y208.026
G01 X221.246 Y207.971
G01 X216.981 Y207.201
G01 X215.815 Y206.940
G01 X212.041 Y206.738
G01 X211.674 Y206.707
G01 X208.024 Y206.396
G01 X204.457 Y205.890
G01 X202.103 Y205.443
G01 X198.637 Y204.176
G01 X195.326 Y202.730
G01 X192.177 Y201.118
G01 X192.004 Y201.022
G01 X189.044 Y198.774
G01 X186.310 Y196.388
G01 X183.807 Y193.880
G01 X182.783 Y192.746
G01 X180.711 Y189.619
G01 X178.927 Y186.423
G01 X177.433 Y183.177
G01 X176.228 Y179.903
G01 X176.019 Y179.237
G01 X175.349 Y175.502
G01 X175.010 Y171.803
G01 X174.994 Y168.163
G01 X175.296 Y164.605
G01 X175.907 Y161.152
G01 X176.817 Y157.824
G01 X176.939 Y157.455
G01 X178.370 Y154.049
G01 X180.098 Y150.832
G01 X182.108 Y147.825
G01 X184.384 Y145.047
G01 X186.906 Y142.517
G01 X188.896 Y140.834
G01 X188.965 Y140.865
G01 X189.034 Y140.892
G01 X189.103 Y140.914
G01 X189.171 Y140.931
G01 X189.239 Y140.944
G01 X189.307 Y140.952
G01 X189.373 Y140.957
G01 X189.438 Y140.957
G01 X189.502 Y140.953
G01 X189.563 Y140.945
G01 X189.623 Y140.934
G01 X189.680 Y140.919
G01 X189.736 Y140.901
G01 X189.788 Y140.879
G01 X189.838 Y140.855
G01 X189.885 Y140.828
G01 X189.929 Y140.799
G01 X189.969 Y140.767
G01 X190.007 Y140.733
G01 X190.041 Y140.698
G01 X190.071 Y140.661
G01 X190.098 Y140.623
G01 X190.122 Y140.584
G01 X190.142 Y140.544
G01 X190.158 Y140.504
G01 X190.171 Y140.464
G01 X190.180 Y140.423
G01 X190.185 Y140.383
G01 X190.188 Y140.344
G01 X190.186 Y140.305
G01 X190.182 Y140.267
G01 X190.174 Y140.231
G01 X190.163 Y140.196
G01 X190.150 Y140.162
G01 X190.133 Y140.131
G01 X190.114 Y140.101
G01 X190.092 Y140.074
G01 X190.068 Y140.049
G01 X190.042 Y140.027
G01 X190.013 Y140.008
G01 X190.000 Y140.000
G01 X190.045 Y140.022
G01 X190.091 Y140.040
G01 X190.140 Y140.053
G01 X190.189 Y140.061
G01 X190.240 Y140.065
G01 X190.292 Y140.063
G01 X190.343 Y140.057
G01 X190.395 Y140.046
G01 X190.447 Y140.030
G01 X190.497 Y140.009
G01 X190.547 Y139.983
G01 X190.595 Y139.952
G01 X190.641 Y139.917
G01 X190.685 Y139.876
G01 X190.727 Y139.832
G01 X190.765 Y139.783
G01 X190.801 Y139.729
G01 X190.833 Y139.672
G01 X190.861 Y139.611
G01 X190.885 Y139.547
G01 X190.905 Y139.479
G01 X190.920 Y139.408
G01 X190.931 Y139.335
G01 X190.936 Y139.259
G01 X190.936 Y139.182
G01 X190.930 Y139.102
G01 X190.919 Y139.021
G01 X190.906 Y138.955
G01 X192.997 Y136.179
G01 X194.813 Y133.203
G01 X196.339 Y130.046
G01 X197.562 Y126.729
G01 X198.471 Y123.276
G01 X199.055 Y119.709
G01 X199.307 Y116.053
G01 X199.218 Y112.330
G01 X198.784 Y108.567
G01 X198.395 Y106.480
G01 X197.321 Y103.184
G01 X195.943 Y99.920
G01 X194.262 Y96.710
G01 X192.278 Y93.576
G01 X190.980 Y91.786
G01 X188.541 Y89.295
G01 X185.860 Y86.934
G01 X182.945 Y84.719
G01 X180.381 Y83.023
G01 X177.162 Y81.583
G01 X173.779 Y80.325
G01 X170.243 Y79.264
G01 X170.038 Y79.210
G01 X166.521 Y78.808
G01 X162.917 Y78.608
G01 X159.240 Y78.617
G01 X159.029 Y78.624
G01 X155.455 Y79.161
G01 X154.930 Y79.257
G01 X151.134 Y79.721
G01 X149.452 Y79.998
G01 X144.933 Y79.894
G01 X143.925 Y79.911
G01 X138.473 Y79.000
G01 X133.219 Y77.283
G01 X128.280 Y74.801
G01 X123.767 Y71.608
G01 X118.880 Y66.728
G01 X114.989 Y61.023
G01 X112.229 Y54.693
G01 X110.545 Y46.584
G01 X110.713 Y38.303
G01 X112.725 Y30.270
G01 X116.186 Y23.425
G01 X116.480 Y22.888
G01 X120.000 Y18.756
G01 X127.232 Y17.800
G01 X128.103 Y17.713
G01 X135.909 Y18.705
G01 X136.317 Y18.771
G01 X144.088 Y21.636
G01 X151.023 Y26.163
G01 X155.910 Y31.043
G01 X159.801 Y36.748
G01 X162.561 Y43.078
G01 X164.092 Y49.813
G01 X164.394 Y55.332
G01 X163.868 Y60.835
G01 X162.525 Y66.197
G01 X160.449 Y71.156
G01 X160.395 Y71.298
G01 X158.114 Y74.983
G01 X157.527 Y76.024
G01 X155.152 Y78.964
G01 X154.930 Y79.257
G01 X152.718 Y82.178
G01 X150.707 Y85.167
G01 X149.465 Y87.216
G01 X148.088 Y90.639
G01 X146.946 Y94.068
G01 X146.037 Y97.486
G01 X145.992 Y97.679
G01 X145.683 Y101.383
G01 X145.626 Y105.012
G01 X145.815 Y108.549
G01 X145.973 Y110.069
G01 X146.910 Y113.701
G01 X148.092 Y117.166
G01 X149.504 Y120.448
G01 X151.131 Y123.534
G01 X151.486 Y124.135
G01 X153.814 Y127.132
G01 X156.335 Y129.860
G01 X159.030 Y132.307
G01 X161.876 Y134.463
G01 X164.851 Y136.320
G01 X167.933 Y137.870
G01 X168.289 Y138.026
G01 X171.777 Y139.242
G01 X175.324 Y140.110
G01 X178.904 Y140.629
G01 X182.491 Y140.797
G01 X186.059 Y140.615
G01 X188.642 Y140.262
G01 X188.684 Y140.322
G01 X188.728 Y140.378
G01 X188.775 Y140.431
G01 X188.824 Y140.479
G01 X188.874 Y140.525
G01 X188.926 Y140.566
G01 X188.980 Y140.604
G01 X189.034 Y140.638
G01 X189.089 Y140.668
G01 X189.145 Y140.694
G01 X189.201 Y140.716
G01 X189.257 Y140.735
G01 X189.313 Y140.749
G01 X189.369 Y140.760
G01 X189.424 Y140.768
G01 X189.478 Y140.772
G01 X189.531 Y140.772
G01 X189.583 Y140.770
G01 X189.633 Y140.764
G01 X189.682 Y140.755
G01 X189.729 Y140.743
G01 X189.774 Y140.729
G01 X189.818 Y140.711
G01 X189.858 Y140.692
G01 X189.897 Y140.670
G01 X189.933 Y140.646
G01 X189.966 Y140.621
G01 X189.997 Y140.593
G01 X190.025 Y140.565
G01 X190.050 Y140.535
G01 X190.072 Y140.504
G01 X190.091 Y140.472
G01 X190.107 Y140.439
G01 X190.121 Y140.407
G01 X190.131 Y140.374
G01 X190.139 Y140.341
G01 X190.143 Y140.308
G01 X190.145 Y140.275
G01 X190.144 Y140.244
G01 X190.140 Y140.213
G01 X190.134 Y140.183
G01 X190.125 Y140.154
G01 X190.114 Y140.127
G01 X190.100 Y140.101
G01 X190.084 Y140.077
G01 X190.066 Y140.055
G01 X190.046 Y140.035
G01 X190.024 Y140.016
G01 X190.001 Y140.001
G01 X190.000 Y140.000
G01 X190.081 Y140.044
G01 X190.167 Y140.080
G01 X190.256 Y140.107
G01 X190.348 Y140.126
G01 X190.442 Y140.136
G01 X190.538 Y140.137
G01 X190.634 Y140.129
G01 X190.731 Y140.111
G01 X190.828 Y140.085
G01 X190.923 Y140.049
G01 X191.017 Y140.004
G01 X191.108 Y139.950
G01 X191.197 Y139.887
G01 X191.281 Y139.815
G01 X191.358 Y139.738
G01 X194.807 Y139.315
G01 X198.293 Y139.231
G01 X201.790 Y139.488
G01 X205.274 Y140.087
G01 X208.719 Y141.026
G01 X212.100 Y142.303
G01 X215.392 Y143.914
G01 X218.572 Y145.852
G01 X221.614 Y148.110
G01 X223.227 Y149.490
G01 X225.544 Y152.067
G01 X227.682 Y154.893
G01 X229.621 Y157.954
G01 X231.344 Y161.239
G01 X232.245 Y163.259
G01 X233.182 Y166.616
G01 X233.887 Y170.118
G01 X234.347 Y173.751
G01 X234.534 Y176.818
G01 X234.172 Y180.327
G01 X233.569 Y183.885
G01 X232.720 Y187.478
G01 X232.665 Y187.683
G01 X231.255 Y190.930
G01 X229.626 Y194.150
G01 X227.779 Y197.331
G01 X227.667 Y197.510
G01 X225.415 Y200.336
G01 X225.070 Y200.743
G01 X222.770 Y203.798
G01 X221.690 Y205.117
G01 X219.520 Y209.082
G01 X219.001 Y209.946
G01 X217.064 Y215.124
G01 X215.923 Y220.533
G01 X215.604 Y226.051
G01 X216.113 Y231.555
G01 X217.895 Y238.227
G01 X220.890 Y244.450
G01 X224.993 Y250.005
G01 X231.174 Y255.518
G01 X238.429 Y259.512
G01 X246.392 Y261.787
G01 X254.050 Y262.213
G01 X254.662 Y262.227
G01 X260.000 Y261.244
G01 X264.444 Y255.459
G01 X264.955 Y254.748
G01 X267.999 Y247.491
G01 X268.146 Y247.105
G01 X269.550 Y238.943
G01 X269.097 Y230.674
G01 X267.315 Y224.002
G01 X264.320 Y217.779
G01 X260.217 Y212.224
G01 X255.150 Y207.531
G01 X250.521 Y204.509
G01 X245.493 Y202.214
G01 X240.178 Y200.696
G01 X234.845 Y200.014
G01 X234.695 Y199.989
G01 X230.364 Y200.123
G01 X229.169 Y200.110
G01 X225.435 Y200.697
G01 X225.070 Y200.743
G01 X221.434 Y201.198
G01 X217.840 Y201.445
G01 X215.445 Y201.497
G01 X211.791 Y200.978
G01 X208.252 Y200.252
G01 X204.837 Y199.330
G01 X204.647 Y199.272
G01 X201.285 Y197.688
G01 X198.114 Y195.923
G01 X195.145 Y193.990
G01 X193.907 Y193.094
G01 X191.230 Y190.466
G01 X188.821 Y187.711
G01 X186.684 Y184.847
G01 X184.826 Y181.895
G01 X184.482 Y181.286
G01 X183.051 Y177.772
G01 X181.949 Y174.225
G01 X181.178 Y170.668
G01 X180.733 Y167.125
G01 X180.613 Y163.620
G01 X180.811 Y160.175
G01 X180.853 Y159.790
G01 X181.545 Y156.160
G01 X182.567 Y152.654
G01 X183.908 Y149.295
G01 X185.556 Y146.105
G01 X187.497 Y143.105
G01 X189.094 Y141.045
G01 X189.170 Y141.058
G01 X189.246 Y141.065
G01 X189.320 Y141.068
G01 X189.392 Y141.066
G01 X189.463 Y141.060
G01 X189.532 Y141.050
G01 X189.598 Y141.035
G01 X189.661 Y141.016
G01 X189.722 Y140.994
G01 X189.780 Y140.969
G01 X189.834 Y140.940
G01 X189.886 Y140.908
G01 X189.933 Y140.874
G01 X189.977 Y140.837
G01 X190.018 Y140.798
G01 X190.054 Y140.758
G01 X190.086 Y140.715
G01 X190.115 Y140.672
G01 X190.139 Y140.627
G01 X190.160 Y140.582
G01 X190.176 Y140.537
G01 X190.188 Y140.491
G01 X190.196 Y140.446
G01 X190.200 Y140.401
G01 X190.201 Y140.356
G01 X190.197 Y140.313
G01 X190.190 Y140.271
G01 X190.179 Y140.231
G01 X190.165 Y140.192
G01 X190.147 Y140.155
G01 X190.126 Y140.121
G01 X190.103 Y140.089
G01 X190.076 Y140.060
G01 X190.047 Y140.034
G01 X190.016 Y140.010
G01 X190.000 Y140.000
G01 X190.037 Y140.020
G01 X190.076 Y140.036
G01 X190.117 Y140.049
G01 X190.159 Y140.057
G01 X190.202 Y140.062
G01 X190.245 Y140.062
G01 X190.290 Y140.058
G01 X190.334 Y140.051
G01 X190.378 Y140.038
G01 X190.421 Y140.022
G01 X190.464 Y140.001
G01 X190.506 Y139.977
G01 X190.546 Y139.948
G01 X190.585 Y139.915
G01 X190.621 Y139.878
G01 X190.655 Y139.838
G01 X190.687 Y139.794
G01 X190.716 Y139.746
G01 X190.742 Y139.695
G01 X190.764 Y139.641
G01 X190.783 Y139.585
G01 X190.798 Y139.525
G01 X190.809 Y139.463
G01 X190.815 Y139.399
G01 X190.818 Y139.333
G01 X190.815 Y139.266
G01 X190.808 Y139.197
G01 X190.796 Y139.127
G01 X190.779 Y139.056
G01 X190.757 Y138.985
G01 X190.730 Y138.914
G01 X190.698 Y138.844
G01 X190.669 Y138.789
G01 X192.137 Y135.640
G01 X193.294 Y132.351
G01 X194.131 Y128.945
G01 X194.638 Y125.447
G01 X194.809 Y121.880
G01 X194.639 Y118.270
G01 X194.124 Y114.641
G01 X193.264 Y111.018
G01 X192.057 Y107.427
G01 X191.242 Y105.467
G01 X189.507 Y102.467
G01 X187.480 Y99.561
G01 X185.168 Y96.770
G01 X182.576 Y94.116
G01 X180.934 Y92.635
G01 X178.031 Y90.706
G01 X174.917 Y88.954
G01 X171.605 Y87.394
G01 X168.746 Y86.268
G01 X165.297 Y85.528
G01 X161.726 Y85.002
G01 X158.047 Y84.699
G01 X157.835 Y84.689
G01 X154.311 Y85.026
G01 X150.745 Y85.580
G01 X147.150 Y86.354
G01 X146.945 Y86.405
G01 X143.561 Y87.673
G01 X143.067 Y87.876
G01 X139.451 Y89.119
G01 X137.863 Y89.739
G01 X133.421 Y90.577
G01 X132.439 Y90.804
G01 X126.916 Y91.046
G01 X121.420 Y90.459
G01 X116.073 Y89.058
G01 X110.995 Y86.873
G01 X105.200 Y83.116
G01 X100.208 Y78.345
G01 X96.192 Y72.726
G01 X92.859 Y65.145
G01 X91.302 Y57.010
G01 X91.600 Y48.734
G01 X93.561 Y41.319
G01 X93.737 Y40.732
G01 X96.322 Y35.960
G01 X103.197 Y33.521
G01 X104.031 Y33.254
G01 X111.873 Y32.602
G01 X112.285 Y32.582
G01 X120.482 Y33.768
G01 X128.206 Y36.755
G01 X134.001 Y40.511
G01 X138.994 Y45.283
G01 X143.009 Y50.901
G01 X145.907 Y57.170
G01 X147.350 Y62.506
G01 X147.979 Y67.998
G01 X147.781 Y73.522
G01 X146.781 Y78.805
G01 X146.758 Y78.954
G01 X145.293 Y83.033
G01 X144.936 Y84.173
G01 X143.224 Y87.543
G01 X143.067 Y87.876
G01 X141.511 Y91.193
G01 X140.166 Y94.535
G01 X139.376 Y96.797
G01 X138.741 Y100.432
G01 X138.337 Y104.023
G01 X138.159 Y107.555
G01 X138.155 Y107.754
G01 X138.622 Y111.441
G01 X139.322 Y115.002
G01 X140.242 Y118.423
G01 X140.712 Y119.877
G01 X142.384 Y123.235
G01 X144.260 Y126.378
G01 X146.324 Y129.295
G01 X148.557 Y131.975
G01 X149.029 Y132.489
G01 X151.929 Y134.937
G01 X154.963 Y137.081
G01 X158.107 Y138.914
G01 X161.339 Y140.431
G01 X164.636 Y141.629
G01 X167.973 Y142.505
G01 X168.353 Y142.584
G01 X172.018 Y143.047
G01 X175.668 Y143.159
G01 X179.277 Y142.922
G01 X182.821 Y142.340
G01 X186.273 Y141.421
G01 X188.726 Y140.539
G01 X188.782 Y140.587
G01 X188.839 Y140.632
G01 X188.897 Y140.672
G01 X188.957 Y140.708
G01 X189.018 Y140.740
G01 X189.079 Y140.768
G01 X189.140 Y140.791
G01 X189.201 Y140.811
G01 X189.263 Y140.826
G01 X189.323 Y140.837
G01 X189.383 Y140.845
G01 X189.442 Y140.848
G01 X189.500 Y140.848
G01 X189.557 Y140.845
G01 X189.611 Y140.838
G01 X189.665 Y140.827
G01 X189.716 Y140.814
G01 X189.765 Y140.797
G01 X189.811 Y140.778
G01 X189.855 Y140.756
G01 X189.897 Y140.732
G01 X189.936 Y140.706
G01 X189.972 Y140.677
G01 X190.005 Y140.647
G01 X190.035 Y140.616
G01 X190.062 Y140.583
G01 X190.086 Y140.549
G01 X190.106 Y140.514
G01 X190.124 Y140.478
G01 X190.138 Y140.443
G01 X190.149 Y140.406
G01 X190.157 Y140.370
G01 X190.161 Y140.335
G01 X190.163 Y140.299
G01 X190.161 Y140.265
G01 X190.157 Y140.231
G01 X190.150 Y140.199
G01 X190.140 Y140.168
G01 X190.127 Y140.138
G01 X190.112 Y140.110
G01 X190.094 Y140.084
G01 X190.074 Y140.060
G01 X190.052 Y140.038
G01 X190.029 Y140.019
G01 X190.003 Y140.002
G01 X190.000 Y140.000
G01 X190.065 Y140.034
G01 X190.133 Y140.061
G01 X190.204 Y140.081
G01 X190.277 Y140.095
G01 X190.352 Y140.102
G01 X190.428 Y140.101
G01 X190.504 Y140.093
G01 X190.581 Y140.078
G01 X190.657 Y140.056
G01 X190.732 Y140.026
G01 X190.806 Y139.989
G01 X190.877 Y139.945
G01 X190.946 Y139.894
G01 X191.012 Y139.836
G01 X191.075 Y139.771
G01 X191.133 Y139.700
G01 X191.187 Y139.623
G01 X191.236 Y139.539
G01 X191.274 Y139.461
G01 X194.560 Y138.330
G01 X197.952 Y137.523
G01 X201.426 Y137.048
G01 X204.958 Y136.909
G01 X208.523 Y137.112
G01 X212.096 Y137.658
G01 X215.651 Y138.549
G01 X219.164 Y139.783
G01 X222.609 Y141.359
G01 X224.474 Y142.375
G01 X227.276 Y144.414
G01 X229.954 Y146.733
G01 X232.488 Y149.324
G01 X234.856 Y152.179
G01 X236.157 Y153.967
G01 X237.772 Y157.056
G01 X239.190 Y160.336
G01 X240.395 Y163.793
G01 X241.216 Y166.754
G01 X241.591 Y170.262
G01 X241.741 Y173.868
G01 X241.658 Y177.559
G01 X241.646 Y177.770
G01 X240.942 Y181.240
G01 X240.019 Y184.728
G01 X238.873 Y188.223
G01 X238.801 Y188.421
G01 X237.186 Y191.655
G01 X236.933 Y192.124
G01 X235.318 Y195.591
G01 X234.536 Y197.105
G01 X233.238 Y201.435
G01 X232.910 Y202.388
G01 X232.092 Y207.855
G01 X232.101 Y213.383
G01 X232.935 Y218.847
G01 X234.578 Y224.125
G01 X237.708 Y230.281
G01 X241.932 Y235.745
G01 X247.100 Y240.326
G01 X254.291 Y244.433
G01 X262.218 Y246.832
G01 X270.481 Y247.401
G01 X278.060 Y246.225
G01 X278.661 Y246.112
G01 X283.678 Y244.040
G01 X286.822 Y237.458
G01 X287.175 Y236.656
G01 X288.643 Y228.925
G01 X288.706 Y228.517
G01 X288.383 Y220.242
G01 X286.221 Y212.247
G01 X283.090 Y206.091
G01 X278.867 Y200.627
G01 X273.699 Y196.047
G01 X267.767 Y192.510
G01 X262.611 Y190.517
G01 X257.215 Y189.317
G01 X251.701 Y188.937
G01 X246.342 Y189.379
G01 X246.191 Y189.386
G01 X241.982 Y190.417
G01 X240.811 Y190.653
G01 X237.281 Y192.003
G01 X236.933 Y192.124
G01 X233.471 Y193.325
G01 X230.007 Y194.314
G01 X227.675 Y194.863
G01 X223.993 Y195.114
G01 X220.380 Y195.141
G01 X216.848 Y194.949
G01 X216.650 Y194.932
G01 X213.032 Y194.082
G01 X209.564 Y193.014
G01 X206.257 Y191.741
G01 X204.861 Y191.121
G01 X201.696 Y189.108
G01 X198.766 Y186.913
G01 X196.081 Y184.556
G01 X193.649 Y182.055
G01 X193.187 Y181.531
G01 X191.056 Y178.392
G01 X189.241 Y175.151
G01 X187.747 Y171.832
G01 X186.575 Y168.459
G01 X185.729 Y165.055
G01 X185.207 Y161.645
G01 X185.168 Y161.259
G01 X185.090 Y157.565
G01 X185.360 Y153.923
G01 X185.973 Y150.358
G01 X186.922 Y146.895
G01 X188.197 Y143.558
G01 X189.331 Y141.211
G01 X189.410 Y141.203
G01 X189.487 Y141.191
G01 X189.561 Y141.174
G01 X189.633 Y141.153
G01 X189.701 Y141.127
G01 X189.766 Y141.098
G01 X189.827 Y141.066
G01 X189.884 Y141.030
G01 X189.937 Y140.991
G01 X189.987 Y140.949
G01 X190.032 Y140.906
G01 X190.073 Y140.860
G01 X190.109 Y140.812
G01 X190.141 Y140.763
G01 X190.168 Y140.713
G01 X190.191 Y140.662
G01 X190.209 Y140.611
G01 X190.223 Y140.560
G01 X190.232 Y140.509
G01 X190.237 Y140.458
G01 X190.237 Y140.409
G01 X190.233 Y140.360
G01 X190.226 Y140.313
G01 X190.214 Y140.268
G01 X190.198 Y140.224
G01 X190.178 Y140.183
G01 X190.155 Y140.145
G01 X190.129 Y140.109
G01 X190.100 Y140.076
G01 X190.068 Y140.047
G01 X190.033 Y140.020
G01 X190.000 Y140.000
G01 X190.034 Y140.017
G01 X190.070 Y140.030
G01 X190.107 Y140.040
G01 X190.145 Y140.047
G01 X190.184 Y140.050
G01 X190.223 Y140.049
G01 X190.263 Y140.044
G01 X190.302 Y140.036
G01 X190.341 Y140.023
G01 X190.380 Y140.007
G01 X190.418 Y139.987
G01 X190.455 Y139.964
G01 X190.490 Y139.937
G01 X190.524 Y139.906
G01 X190.556 Y139.872
G01 X190.586 Y139.834
G01 X190.613 Y139.794
G01 X190.637 Y139.750
G01 X190.659 Y139.703
G01 X190.677 Y139.654
G01 X190.693 Y139.602
G01 X190.704 Y139.548
G01 X190.712 Y139.492
G01 X190.716 Y139.434
G01 X190.716 Y139.375
G01 X190.712 Y139.314
G01 X190.704 Y139.252
G01 X190.691 Y139.190
G01 X190.674 Y139.127
G01 X190.652 Y139.064
G01 X190.625 Y139.000
G01 X190.594 Y138.938
G01 X190.558 Y138.876
G01 X190.517 Y138.815
G01 X190.472 Y138.755
G01 X190.422 Y138.698
G01 X190.403 Y138.677
G01 X191.184 Y135.291
G01 X191.632 Y131.833
G01 X191.742 Y128.328
G01 X191.510 Y124.801
G01 X190.936 Y121.277
G01 X190.020 Y117.781
G01 X188.762 Y114.338
G01 X187.167 Y110.973
G01 X185.239 Y107.711
G01 X184.035 Y105.963
G01 X181.714 Y103.389
G01 X179.128 Y100.968
G01 X176.286 Y98.720
G01 X173.199 Y96.663
G01 X171.285 Y95.555
G01 X168.043 Y94.272
G01 X164.634 Y93.205
G01 X161.070 Y92.368
G01 X158.039 Y91.862
G01 X154.511 Y91.855
G01 X150.909 Y92.082
G01 X147.247 Y92.551
G01 X147.038 Y92.585
G01 X143.661 Y93.648
G01 X140.288 Y94.931
G01 X136.932 Y96.435
G01 X136.743 Y96.527
G01 X133.696 Y98.472
G01 X133.256 Y98.773
G01 X129.977 Y100.741
G01 X128.553 Y101.678
G01 X124.382 Y103.421
G01 X123.468 Y103.847
G01 X118.117 Y105.231
G01 X112.618 Y105.801
G01 X107.097 Y105.542
G01 X101.676 Y104.460
G01 X95.227 Y101.990
G01 X89.351 Y98.361
G01 X84.255 Y93.700
G01 X79.419 Y86.977
G01 X76.204 Y79.344
G01 X74.775 Y71.187
G01 X75.152 Y63.526
G01 X75.202 Y62.916
G01 X76.738 Y57.710
G01 X82.955 Y53.895
G01 X83.716 Y53.461
G01 X91.251 Y51.193
G01 X91.650 Y51.087
G01 X99.914 Y50.544
G01 X108.091 Y51.858
G01 X114.540 Y54.328
G01 X120.416 Y57.957
G01 X125.512 Y62.618
G01 X129.649 Y68.148
G01 X132.170 Y73.067
G01 X133.927 Y78.308
G01 X134.882 Y83.753
G01 X135.002 Y89.128
G01 X135.011 Y89.279
G01 X134.426 Y93.573
G01 X134.313 Y94.762
G01 X133.339 Y98.414
G01 X133.256 Y98.773
G01 X132.423 Y102.341
G01 X131.802 Y105.890
G01 X131.500 Y108.267
G01 X131.634 Y111.954
G01 X131.986 Y115.550
G01 X132.546 Y119.043
G01 X132.584 Y119.238
G01 X133.807 Y122.747
G01 X135.232 Y126.085
G01 X136.843 Y129.240
G01 X137.605 Y130.564
G01 X139.939 Y133.501
G01 X142.427 Y136.186
G01 X145.052 Y138.610
G01 X147.794 Y140.767
G01 X148.363 Y141.172
G01 X151.708 Y142.963
G01 X155.121 Y144.429
G01 X158.578 Y145.568
G01 X162.055 Y146.381
G01 X165.528 Y146.867
G01 X168.975 Y147.030
G01 X169.363 Y147.028
G01 X173.044 Y146.720
G01 X176.638 Y146.070
G01 X180.119 Y145.087
G01 X183.464 Y143.782
G01 X186.650 Y142.165
G01 X188.866 Y140.792
G01 X188.931 Y140.828
G01 X188.996 Y140.859
G01 X189.062 Y140.886
G01 X189.128 Y140.908
G01 X189.194 Y140.927
G01 X189.260 Y140.941
G01 X189.325 Y140.951
G01 X189.389 Y140.957
G01 X189.452 Y140.959
G01 X189.514 Y140.957
G01 X189.574 Y140.951
G01 X189.632 Y140.942
G01 X189.689 Y140.930
G01 X189.743 Y140.914
G01 X189.795 Y140.895
G01 X189.845 Y140.874
G01 X189.892 Y140.850
G01 X189.936 Y140.823
G01 X189.977 Y140.794
G01 X190.016 Y140.763
G01 X190.051 Y140.731
G01 X190.083 Y140.697
G01 X190.112 Y140.661
G01 X190.138 Y140.625
G01 X190.160 Y140.587
G01 X190.179 Y140.549
G01 X190.195 Y140.511
G01 X190.207 Y140.472
G01 X190.216 Y140.434
G01 X190.222 Y140.396
G01 X190.225 Y140.358
G01 X190.224 Y140.321
G01 X190.221 Y140.285
G01 X190.214 Y140.251
G01 X190.205 Y140.217
G01 X190.193 Y140.185
G01 X190.179 Y140.155
G01 X190.162 Y140.127
G01 X190.143 Y140.101
G01 X190.121 Y140.077
G01 X190.098 Y140.056
G01 X190.073 Y140.037
G01 X190.046 Y140.021
G01 X190.019 Y140.007
G01 X190.000 Y140.000
G01 X190.068 Y140.021
G01 X190.139 Y140.034
G01 X190.210 Y140.041
G01 X190.283 Y140.041
G01 X190.356 Y140.034
G01 X190.428 Y140.020
G01 X190.500 Y139.998
G01 X190.571 Y139.970
G01 X190.640 Y139.935
G01 X190.707 Y139.893
G01 X190.770 Y139.844
G01 X190.831 Y139.789
G01 X190.888 Y139.728
G01 X190.941 Y139.660
G01 X190.989 Y139.587
G01 X191.032 Y139.508
G01 X191.070 Y139.424
G01 X191.101 Y139.335
G01 X191.127 Y139.242
G01 X191.134 Y139.208
G01 X194.113 Y137.419
G01 X197.263 Y135.924
G01 X200.563 Y134.737
G01 X203.989 Y133.867
G01 X207.518 Y133.324
G01 X211.126 Y133.115
G01 X214.789 Y133.247
G01 X218.482 Y133.725
G01 X222.179 Y134.550
G01 X224.214 Y135.155
G01 X227.379 Y136.567
G01 X230.481 Y138.279
G01 X233.498 Y140.287
G01 X236.408 Y142.587
G01 X238.053 Y144.065
G01 X240.275 Y146.751
G01 X242.343 Y149.664
G01 X244.240 Y152.795
G01 X245.659 Y155.522
G01 X246.755 Y158.874
G01 X247.652 Y162.370
G01 X248.338 Y165.998
G01 X248.371 Y166.207
G01 X248.403 Y169.747
G01 X248.225 Y173.351
G01 X247.831 Y177.008
G01 X247.802 Y177.217
G01 X246.894 Y180.715
G01 X246.744 Y181.227
G01 X245.886 Y184.954
G01 X245.435 Y186.598
G01 X245.066 Y191.103
G01 X244.943 Y192.103
G01 X245.280 Y197.621
G01 X246.438 Y203.026
G01 X248.390 Y208.197
G01 X251.094 Y213.019
G01 X255.436 Y218.389
G01 X260.703 Y222.856
G01 X266.711 Y226.262
G01 X274.599 Y228.784
G01 X282.852 Y229.482
G01 X291.052 Y228.321
G01 X298.221 Y225.595
G01 X298.786 Y225.359
G01 X303.262 Y222.290
G01 X304.969 Y215.198
G01 X305.147 Y214.340
G01 X304.976 Y206.473
G01 X304.953 Y206.061
G01 X302.916 Y198.033
G01 X299.139 Y190.663
G01 X294.797 Y185.293
G01 X289.530 Y180.826
G01 X283.522 Y177.420
G01 X276.985 Y175.194
G01 X271.527 Y174.316
G01 X266.000 Y174.264
G01 X260.527 Y175.039
G01 X255.378 Y176.586
G01 X255.231 Y176.624
G01 X251.328 Y178.507
G01 X250.232 Y178.982
G01 X247.059 Y181.037
G01 X246.744 Y181.227
G01 X243.608 Y183.121
G01 X240.425 Y184.809
G01 X238.258 Y185.831
G01 X234.709 Y186.842
G01 X231.180 Y187.619
G01 X227.686 Y188.166
G01 X227.489 Y188.190
G01 X223.773 Y188.111
G01 X220.158 Y187.788
G01 X216.660 Y187.230
G01 X215.165 Y186.914
G01 X211.650 Y185.603
G01 X208.328 Y184.065
G01 X205.212 Y182.318
G01 X202.313 Y180.377
G01 X201.752 Y179.961
G01 X199.015 Y177.333
G01 X196.566 Y174.540
G01 X194.414 Y171.605
G01 X192.567 Y168.549
G01 X191.031 Y165.396
G01 X189.812 Y162.169
G01 X189.693 Y161.799
G01 X188.849 Y158.202
G01 X188.356 Y154.584
G01 X188.215 Y150.969
G01 X188.423 Y147.384
G01 X188.977 Y143.855
G01 X189.597 Y141.323
G01 X189.674 Y141.298
G01 X189.746 Y141.269
G01 X189.815 Y141.236
G01 X189.881 Y141.200
G01 X189.942 Y141.160
G01 X189.999 Y141.117
G01 X190.052 Y141.071
G01 X190.100 Y141.023
G01 X190.144 Y140.973
G01 X190.182 Y140.922
G01 X190.217 Y140.869
G01 X190.246 Y140.814
G01 X190.271 Y140.760
G01 X190.291 Y140.704
G01 X190.306 Y140.649
G01 X190.317 Y140.594
G01 X190.323 Y140.540
G01 X190.324 Y140.487
G01 X190.322 Y140.434
G01 X190.314 Y140.384
G01 X190.303 Y140.335
G01 X190.288 Y140.288
G01 X190.269 Y140.244
G01 X190.246 Y140.202
G01 X190.220 Y140.164
G01 X190.191 Y140.128
G01 X190.159 Y140.096
G01 X190.124 Y140.067
G01 X190.088 Y140.041
G01 X190.049 Y140.020
G01 X190.008 Y140.003
G01 X190.000 Y140.000
G01 X190.036 Y140.011
G01 X190.073 Y140.018
G01 X190.110 Y140.021
G01 X190.148 Y140.021
G01 X190.186 Y140.017
G01 X190.224 Y140.009
G01 X190.261 Y139.998
G01 X190.298 Y139.983
G01 X190.334 Y139.964
G01 X190.368 Y139.942
G01 X190.402 Y139.917
G01 X190.433 Y139.888
G01 X190.463 Y139.855
G01 X190.490 Y139.820
G01 X190.515 Y139.782
G01 X190.537 Y139.740
G01 X190.557 Y139.697
G01 X190.573 Y139.650
G01 X190.586 Y139.601
G01 X190.596 Y139.551
G01 X190.601 Y139.498
G01 X190.603 Y139.444
G01 X190.602 Y139.388
G01 X190.596 Y139.332
G01 X190.586 Y139.274
G01 X190.571 Y139.216
G01 X190.553 Y139.158
G01 X190.530 Y139.100
G01 X190.502 Y139.042
G01 X190.470 Y138.985
G01 X190.434 Y138.928
G01 X190.393 Y138.873
G01 X190.348 Y138.819
G01 X190.298 Y138.767
G01 X190.244 Y138.718
G01 X190.186 Y138.670
G01 X190.124 Y138.626
G01 X190.119 Y138.622
G01 X190.179 Y135.147
G01 X189.898 Y131.672
G01 X189.277 Y128.221
G01 X188.317 Y124.819
G01 X187.023 Y121.491
G01 X185.399 Y118.262
G01 X183.453 Y115.156
G01 X181.194 Y112.196
G01 X178.630 Y109.407
G01 X177.089 Y107.947
G01 X174.283 Y105.912
G01 X171.250 Y104.082
G01 X168.003 Y102.473
G01 X164.556 Y101.103
G01 X162.453 Y100.418
G01 X159.016 Y99.836
G01 X155.459 Y99.502
G01 X151.799 Y99.424
G01 X148.728 Y99.559
G01 X145.277 Y100.285
G01 X141.801 Y101.257
G01 X138.316 Y102.476
G01 X138.119 Y102.553
G01 X135.037 Y104.295
G01 X132.004 Y106.251
G01 X129.034 Y108.421
G01 X128.868 Y108.550
G01 X126.292 Y111.086
G01 X125.924 Y111.471
G01 X123.126 Y114.078
G01 X121.928 Y115.291
G01 X118.210 Y117.863
G01 X117.405 Y118.469
G01 X112.459 Y120.937
G01 X107.199 Y122.636
G01 X101.744 Y123.531
G01 X96.217 Y123.600
G01 X89.395 Y122.525
G01 X82.893 Y120.197
G01 X76.940 Y116.697
G01 X70.811 Y111.127
G01 X66.080 Y104.329
G01 X62.986 Y96.647
G01 X61.762 Y89.076
G01 X61.684 Y88.468
G01 X62.104 Y83.057
G01 X67.392 Y78.033
G01 X68.046 Y77.450
G01 X74.945 Y73.664
G01 X75.313 Y73.478
G01 X83.284 Y71.228
G01 X91.555 Y70.814
G01 X98.377 Y71.889
G01 X104.879 Y74.217
G01 X110.832 Y77.717
G01 X116.029 Y82.265
G01 X119.518 Y86.553
G01 X122.326 Y91.314
G01 X124.392 Y96.442
G01 X125.627 Y101.674
G01 X125.667 Y101.820
G01 X125.988 Y106.142
G01 X126.125 Y107.329
G01 X125.931 Y111.103
G01 X125.924 Y111.471
G01 X125.852 Y115.135
G01 X125.982 Y118.735
G01 X126.180 Y121.123
G01 X127.079 Y124.702
G01 X128.170 Y128.147
G01 X129.444 Y131.446
G01 X129.522 Y131.629
G01 X131.448 Y134.807
G01 X133.535 Y137.776
G01 X135.768 Y140.527
G01 X136.789 Y141.664
G01 X139.682 Y144.052
G01 X142.674 Y146.160
G01 X145.746 Y147.985
G01 X148.876 Y149.525
G01 X149.517 Y149.803
G01 X153.161 Y150.859
G01 X156.804 Y151.584
G01 X160.423 Y151.980
G01 X163.992 Y152.051
G01 X167.491 Y151.805
G01 X170.896 Y151.247
G01 X171.275 Y151.165
G01 X174.812 Y150.098
G01 X178.192 Y148.715
G01 X181.393 Y147.031
G01 X184.393 Y145.058
G01 X187.173 Y142.814
G01 X189.055 Y141.010
G01 X189.127 Y141.030
G01 X189.199 Y141.046
G01 X189.270 Y141.057
G01 X189.340 Y141.064
G01 X189.409 Y141.066
G01 X189.476 Y141.064
G01 X189.542 Y141.059
G01 X189.606 Y141.049
G01 X189.668 Y141.036
G01 X189.728 Y141.019
G01 X189.785 Y140.999
G01 X189.840 Y140.976
G01 X189.891 Y140.951
G01 X189.940 Y140.922
G01 X189.986 Y140.891
G01 X190.029 Y140.858
