;  Created by Sandify
;  https://sandify.org
;  Version: 0.2.4
;
;  Machine type: Rectangular
;    Min X (mm): 0
;    Max X (mm): 380
;    Min Y (mm): 0
;    Max Y (mm): 280
;  Content type: shape
;  Layer:
;    Shape: FileImport
;    Name: Spiral8.thr
;    From file:: Spiral8.thr
;    Aspect Ratio: true
;    Comments: 
;    Visible: true
;    Initial width: 10
;    Initial height: 10
;    X offset: 0
;    Y offset: 0
;    Rotate (degrees): 0
;    Reverse path: false
;    Fine tuning:
;      Connect to next layer: line
;      Draw portion of path (%): 100
;      Backtrack at end (%): 0
;      Rotate starting point (%): 0
;  Reverse export path: false
;
; File name: 'Spiral8'
;

G01 X190.000 Y140.000
G01 X190.000 Y210.000
G01 X190.761 Y217.257
G01 X193.266 Y224.764
G01 X197.782 Y232.004
G01 X203.043 Y237.142
G01 X204.039 Y238.030
G01 X209.622 Y241.296
G01 X211.588 Y242.328
G01 X217.335 Y244.005
G01 X219.809 Y244.613
G01 X225.522 Y244.842
G01 X228.339 Y244.840
G01 X233.809 Y243.715
G01 X236.523 Y243.049
G01 X241.538 Y240.670
G01 X244.047 Y239.363
G01 X248.393 Y235.829
G01 X250.480 Y233.995
G01 X253.941 Y229.408
G01 X255.529 Y227.117
G01 X257.880 Y221.580
G01 X258.763 Y219.221
G01 X259.757 Y212.818
G01 X259.994 Y210.622
G01 X260.000 Y210.000
G01 X260.122 Y203.555
G01 X260.000 Y200.200
G01 X260.143 Y194.572
G01 X260.000 Y190.400
G01 X260.156 Y185.458
G01 X260.002 Y180.626
G01 X260.000 Y180.600
G01 X260.035 Y176.150
G01 X260.000 Y175.000
G01 X259.558 Y170.610
G01 X258.859 Y166.350
G01 X258.686 Y165.500
G01 X256.996 Y161.194
G01 X255.056 Y157.118
G01 X254.842 Y156.713
G01 X251.815 Y152.734
G01 X248.758 Y149.299
G01 X244.118 Y145.860
G01 X240.890 Y143.815
G01 X233.667 Y141.124
G01 X233.171 Y140.967
G01 X226.374 Y140.027
G01 X225.000 Y140.000
G01 X191.400 Y140.000
G01 X191.360 Y140.067
G01 X191.317 Y140.130
G01 X191.271 Y140.188
G01 X191.222 Y140.243
G01 X191.171 Y140.293
G01 X191.119 Y140.339
G01 X191.065 Y140.381
G01 X191.009 Y140.418
G01 X190.952 Y140.450
G01 X190.895 Y140.479
G01 X190.838 Y140.502
G01 X190.780 Y140.521
G01 X190.723 Y140.536
G01 X190.666 Y140.546
G01 X190.610 Y140.552
G01 X190.555 Y140.555
G01 X190.501 Y140.553
G01 X190.449 Y140.547
G01 X190.398 Y140.537
G01 X190.350 Y140.524
G01 X190.304 Y140.508
G01 X190.261 Y140.488
G01 X190.220 Y140.465
G01 X190.182 Y140.440
G01 X190.148 Y140.412
G01 X190.116 Y140.382
G01 X190.088 Y140.350
G01 X190.063 Y140.316
G01 X190.042 Y140.281
G01 X190.024 Y140.244
G01 X190.010 Y140.207
G01 X190.000 Y140.168
G01 X189.994 Y140.130
G01 X189.991 Y140.091
G01 X189.992 Y140.052
G01 X189.997 Y140.014
G01 X190.000 Y140.000
G01 X189.987 Y140.049
G01 X189.969 Y140.096
G01 X189.946 Y140.142
G01 X189.919 Y140.186
G01 X189.887 Y140.227
G01 X189.852 Y140.265
G01 X189.812 Y140.301
G01 X189.769 Y140.333
G01 X189.722 Y140.361
G01 X189.671 Y140.386
G01 X189.618 Y140.406
G01 X189.562 Y140.422
G01 X189.504 Y140.433
G01 X189.443 Y140.440
G01 X189.381 Y140.442
G01 X189.318 Y140.438
G01 X189.253 Y140.429
G01 X189.188 Y140.415
G01 X189.122 Y140.396
G01 X189.057 Y140.371
G01 X188.991 Y140.340
G01 X188.927 Y140.304
G01 X188.864 Y140.262
G01 X188.803 Y140.215
G01 X188.743 Y140.163
G01 X188.686 Y140.105
G01 X188.632 Y140.042
G01 X188.600 Y140.000
G01 X155.000 Y140.000
G01 X148.172 Y139.327
G01 X140.347 Y136.785
G01 X135.307 Y133.752
G01 X132.269 Y131.614
G01 X128.835 Y128.025
G01 X125.899 Y124.445
G01 X123.757 Y120.438
G01 X121.861 Y116.185
G01 X121.713 Y115.816
G01 X120.791 Y111.595
G01 X120.125 Y107.228
G01 X120.027 Y106.374
G01 X120.000 Y105.000
G01 X119.840 Y100.503
G01 X119.957 Y95.909
G01 X120.000 Y95.200
G01 X119.848 Y90.087
G01 X120.000 Y85.400
G01 X119.864 Y79.532
G01 X120.000 Y75.600
G01 X120.000 Y70.000
G01 X120.728 Y63.570
G01 X121.078 Y61.380
G01 X123.183 Y55.780
G01 X124.246 Y53.291
G01 X127.503 Y48.596
G01 X129.203 Y46.346
G01 X133.396 Y42.659
G01 X135.563 Y40.893
G01 X140.483 Y38.324
G01 X143.037 Y37.108
G01 X148.478 Y35.769
G01 X151.197 Y35.207
G01 X156.947 Y35.208
G01 X159.729 Y35.321
G01 X165.569 Y36.781
G01 X167.980 Y37.496
G01 X173.696 Y40.564
G01 X175.585 Y41.694
G01 X180.964 Y46.664
G01 X181.922 Y47.635
G01 X186.534 Y54.814
G01 X189.140 Y62.288
G01 X189.997 Y69.533
G01 X190.000 Y70.000
G01 X190.000 Y138.600
G01 X190.068 Y138.625
G01 X190.133 Y138.653
G01 X190.195 Y138.685
G01 X190.255 Y138.719
G01 X190.312 Y138.755
G01 X190.366 Y138.795
G01 X190.416 Y138.836
G01 X190.464 Y138.880
G01 X190.509 Y138.925
G01 X190.550 Y138.972
G01 X190.587 Y139.020
G01 X190.622 Y139.069
G01 X190.653 Y139.120
G01 X190.680 Y139.171
G01 X190.704 Y139.223
G01 X190.725 Y139.275
G01 X190.743 Y139.327
G01 X190.757 Y139.379
G01 X190.767 Y139.431
G01 X190.775 Y139.482
G01 X190.779 Y139.533
G01 X190.781 Y139.583
G01 X190.779 Y139.632
G01 X190.774 Y139.679
G01 X190.767 Y139.725
G01 X190.757 Y139.770
G01 X190.745 Y139.813
G01 X190.730 Y139.855
G01 X190.713 Y139.894
G01 X190.694 Y139.932
G01 X190.674 Y139.967
G01 X190.651 Y140.000
G01 X190.627 Y140.031
G01 X190.601 Y140.059
G01 X190.575 Y140.085
G01 X190.547 Y140.109
G01 X190.518 Y140.130
G01 X190.489 Y140.148
G01 X190.459 Y140.164
G01 X190.428 Y140.177
G01 X190.398 Y140.188
G01 X190.368 Y140.197
G01 X190.338 Y140.202
G01 X190.308 Y140.206
G01 X190.279 Y140.207
G01 X190.250 Y140.205
G01 X190.222 Y140.201
G01 X190.196 Y140.196
G01 X190.170 Y140.188
G01 X190.146 Y140.178
G01 X190.123 Y140.166
G01 X190.102 Y140.152
G01 X190.082 Y140.137
G01 X190.064 Y140.120
G01 X190.048 Y140.102
G01 X190.034 Y140.083
G01 X190.022 Y140.062
G01 X190.012 Y140.041
G01 X190.005 Y140.019
G01 X190.000 Y140.000
G01 X190.013 Y140.049
G01 X190.030 Y140.096
G01 X190.052 Y140.141
G01 X190.078 Y140.185
G01 X190.109 Y140.226
G01 X190.144 Y140.264
G01 X190.183 Y140.299
G01 X190.226 Y140.331
G01 X190.272 Y140.360
G01 X190.322 Y140.385
G01 X190.374 Y140.405
G01 X190.429 Y140.422
G01 X190.487 Y140.433
G01 X190.547 Y140.440
G01 X190.608 Y140.442
G01 X190.671 Y140.440
G01 X190.735 Y140.431
G01 X190.800 Y140.418
G01 X190.865 Y140.399
G01 X190.930 Y140.375
G01 X190.994 Y140.346
G01 X191.058 Y140.311
G01 X191.121 Y140.270
G01 X191.182 Y140.224
G01 X191.241 Y140.173
G01 X191.298 Y140.116
G01 X191.352 Y140.054
G01 X191.374 Y140.027
G01 X194.657 Y140.321
G01 X197.907 Y140.936
G01 X201.100 Y141.870
G01 X204.213 Y143.118
G01 X207.222 Y144.675
G01 X210.104 Y146.532
G01 X212.839 Y148.681
G01 X215.403 Y151.112
G01 X217.777 Y153.811
G01 X219.101 Y155.555
G01 X220.715 Y158.410
G01 X222.114 Y161.458
G01 X223.281 Y164.683
G01 X224.204 Y168.070
G01 X224.757 Y170.886
G01 X224.985 Y174.305
G01 X225.000 Y175.000
G01 X225.138 Y171.848
G01 X225.055 Y168.769
G01 X225.000 Y168.000
G01 X225.145 Y165.392
G01 X225.122 Y162.839
G01 X225.000 Y161.000
G01 X225.144 Y158.805
G01 X225.158 Y156.648
G01 X225.048 Y154.536
G01 X225.000 Y154.000
G01 X225.137 Y152.091
G01 X225.172 Y150.203
G01 X225.108 Y148.341
G01 X225.000 Y147.000
G01 X225.131 Y145.249
G01 X225.175 Y143.502
G01 X225.132 Y141.763
G01 X225.004 Y140.037
G01 X225.000 Y140.000
G01 X225.130 Y138.274
G01 X225.175 Y136.536
G01 X225.133 Y134.789
G01 X225.004 Y133.037
G01 X225.000 Y133.000
G01 X225.135 Y131.160
G01 X225.173 Y129.290
G01 X225.110 Y127.396
G01 X225.000 Y126.000
G01 X225.142 Y123.901
G01 X225.160 Y121.754
G01 X225.050 Y119.569
G01 X225.000 Y119.000
G01 X225.144 Y116.494
G01 X225.124 Y113.926
G01 X225.000 Y112.000
G01 X225.138 Y108.943
G01 X225.057 Y105.808
G01 X225.000 Y105.000
G01 X221.920 Y104.782
G01 X220.886 Y104.757
G01 X218.349 Y104.257
G01 X216.829 Y104.033
G01 X214.655 Y103.322
G01 X212.886 Y102.837
G01 X210.939 Y101.932
G01 X209.110 Y101.185
G01 X207.285 Y100.058
G01 X205.555 Y99.101
G01 X203.759 Y97.680
G01 X202.269 Y96.614
G01 X200.423 Y94.775
G01 X199.299 Y93.758
G01 X197.328 Y91.303
G01 X196.684 Y90.572
G01 X194.518 Y87.181
G01 X194.463 Y87.102
G01 X192.163 Y82.114
G01 X190.673 Y76.828
G01 X190.027 Y71.374
G01 X190.000 Y70.000
G01 X190.000 Y138.600
G01 X190.068 Y138.624
G01 X190.133 Y138.651
G01 X190.196 Y138.681
G01 X190.256 Y138.714
G01 X190.313 Y138.750
G01 X190.368 Y138.788
G01 X190.419 Y138.828
G01 X190.468 Y138.871
G01 X190.513 Y138.915
G01 X190.555 Y138.961
G01 X190.594 Y139.009
G01 X190.630 Y139.057
G01 X190.662 Y139.107
G01 X190.691 Y139.158
G01 X190.717 Y139.209
G01 X190.739 Y139.261
G01 X190.758 Y139.313
G01 X190.773 Y139.365
G01 X190.786 Y139.417
G01 X190.795 Y139.469
G01 X190.801 Y139.520
G01 X190.804 Y139.570
G01 X190.804 Y139.620
G01 X190.801 Y139.668
G01 X190.796 Y139.715
G01 X190.788 Y139.761
G01 X190.777 Y139.805
G01 X190.764 Y139.848
G01 X190.748 Y139.889
G01 X190.731 Y139.928
G01 X190.711 Y139.965
G01 X190.690 Y140.000
G01 X190.667 Y140.033
G01 X190.642 Y140.063
G01 X190.616 Y140.091
G01 X190.589 Y140.117
G01 X190.561 Y140.141
G01 X190.533 Y140.162
G01 X190.503 Y140.180
G01 X190.473 Y140.196
G01 X190.443 Y140.210
G01 X190.413 Y140.221
G01 X190.382 Y140.229
G01 X190.352 Y140.235
G01 X190.322 Y140.239
G01 X190.293 Y140.240
G01 X190.264 Y140.240
G01 X190.237 Y140.237
G01 X190.210 Y140.232
G01 X190.184 Y140.224
G01 X190.160 Y140.215
G01 X190.137 Y140.204
G01 X190.115 Y140.192
G01 X190.095 Y140.178
G01 X190.077 Y140.162
G01 X190.060 Y140.145
G01 X190.045 Y140.127
G01 X190.033 Y140.108
G01 X190.022 Y140.088
G01 X190.013 Y140.067
G01 X190.007 Y140.046
G01 X190.002 Y140.024
G01 X190.000 Y140.002
G01 X190.000 Y140.000
G01 X190.000 Y140.052
G01 X189.995 Y140.103
G01 X189.984 Y140.154
G01 X189.969 Y140.205
G01 X189.949 Y140.254
G01 X189.923 Y140.301
G01 X189.894 Y140.346
G01 X189.859 Y140.389
G01 X189.820 Y140.429
G01 X189.777 Y140.467
G01 X189.730 Y140.501
G01 X189.679 Y140.531
G01 X189.624 Y140.558
G01 X189.566 Y140.580
G01 X189.505 Y140.598
G01 X189.442 Y140.611
G01 X189.376 Y140.619
G01 X189.308 Y140.623
G01 X189.238 Y140.621
G01 X189.166 Y140.613
G01 X189.094 Y140.600
G01 X189.021 Y140.581
G01 X188.948 Y140.557
G01 X188.875 Y140.526
G01 X188.803 Y140.490
G01 X188.732 Y140.448
G01 X188.662 Y140.400
G01 X188.658 Y140.397
G01 X122.875 Y159.856
G01 X116.132 Y162.644
G01 X109.644 Y167.177
G01 X103.983 Y173.560
G01 X100.548 Y180.063
G01 X99.980 Y181.270
G01 X98.431 Y187.550
G01 X97.999 Y189.728
G01 X98.021 Y195.714
G01 X98.140 Y198.259
G01 X99.541 Y203.803
G01 X100.341 Y206.503
G01 X102.972 Y211.430
G01 X104.381 Y213.843
G01 X108.085 Y217.977
G01 X110.049 Y220.013
G01 X114.671 Y223.177
G01 X117.021 Y224.658
G01 X122.402 Y226.677
G01 X125.049 Y227.549
G01 X131.026 Y228.233
G01 X133.538 Y228.411
G01 X139.961 Y227.548
G01 X142.134 Y227.152
G01 X142.732 Y226.981
G01 X148.947 Y225.269
G01 X152.129 Y224.201
G01 X157.567 Y222.742
G01 X161.527 Y221.421
G01 X166.310 Y220.169
G01 X170.900 Y218.650
G01 X170.924 Y218.641
G01 X175.202 Y217.412
G01 X176.294 Y217.053
G01 X180.378 Y215.384
G01 X184.265 Y213.505
G01 X185.031 Y213.098
G01 X188.680 Y210.256
G01 X192.038 Y207.239
G01 X192.367 Y206.920
G01 X195.323 Y202.888
G01 X197.751 Y198.982
G01 X199.732 Y193.558
G01 X200.777 Y189.881
G01 X201.309 Y182.192
G01 X201.319 Y181.672
G01 X200.292 Y174.888
G01 X199.928 Y173.562
G01 X190.397 Y141.342
G01 X190.000 Y140.000
G01 X190.004 Y140.022
G01 X190.006 Y140.044
G01 X190.006 Y140.066
G01 X190.004 Y140.089
G01 X190.000 Y140.111
G01 X189.993 Y140.133
G01 X189.984 Y140.155
G01 X189.973 Y140.176
G01 X189.960 Y140.196
G01 X189.945 Y140.215
G01 X189.928 Y140.233
G01 X189.909 Y140.250
G01 X189.889 Y140.266
G01 X189.866 Y140.280
G01 X189.842 Y140.293
G01 X189.816 Y140.304
G01 X189.789 Y140.313
G01 X189.761 Y140.320
G01 X189.731 Y140.325
G01 X189.701 Y140.328
G01 X189.669 Y140.328
G01 X189.637 Y140.327
G01 X189.604 Y140.323
G01 X189.571 Y140.316
G01 X189.538 Y140.307
G01 X189.504 Y140.295
G01 X189.471 Y140.281
G01 X189.437 Y140.264
G01 X189.404 Y140.244
G01 X189.372 Y140.222
G01 X189.341 Y140.198
G01 X189.310 Y140.170
G01 X189.281 Y140.140
G01 X189.253 Y140.108
G01 X189.227 Y140.074
G01 X189.202 Y140.037
G01 X189.179 Y139.997
G01 X189.158 Y139.956
G01 X189.139 Y139.912
G01 X189.122 Y139.867
G01 X189.108 Y139.819
G01 X189.096 Y139.770
G01 X189.088 Y139.720
G01 X189.082 Y139.668
G01 X189.078 Y139.615
G01 X189.078 Y139.560
G01 X189.082 Y139.505
G01 X189.088 Y139.449
G01 X189.098 Y139.393
G01 X189.111 Y139.336
G01 X189.127 Y139.279
G01 X189.147 Y139.222
G01 X189.171 Y139.165
G01 X189.198 Y139.109
G01 X189.229 Y139.054
G01 X189.263 Y138.999
G01 X189.301 Y138.946
G01 X189.342 Y138.894
G01 X189.387 Y138.843
G01 X189.435 Y138.794
G01 X189.486 Y138.747
G01 X189.541 Y138.703
G01 X189.599 Y138.660
G01 X189.603 Y138.658
G01 X180.072 Y106.438
G01 X178.780 Y99.699
G01 X178.998 Y91.474
G01 X180.477 Y85.781
G01 X181.665 Y82.262
G01 X184.133 Y77.950
G01 X186.733 Y74.119
G01 X189.968 Y70.929
G01 X193.508 Y67.904
G01 X193.821 Y67.658
G01 X197.606 Y65.577
G01 X201.605 Y63.699
G01 X202.396 Y63.363
G01 X203.706 Y62.947
G01 X207.973 Y61.518
G01 X212.412 Y60.327
G01 X213.103 Y60.167
G01 X217.963 Y58.571
G01 X222.501 Y57.387
G01 X228.090 Y55.593
G01 X231.898 Y54.607
G01 X237.268 Y53.019
G01 X243.641 Y51.893
G01 X245.840 Y51.608
G01 X251.808 Y52.038
G01 X254.495 Y52.351
G01 X259.922 Y54.143
G01 X262.561 Y55.134
G01 X267.287 Y58.109
G01 X269.594 Y59.686
G01 X273.454 Y63.675
G01 X275.344 Y65.780
G01 X278.172 Y70.617
G01 X279.481 Y73.065
G01 X281.112 Y78.579
G01 X281.793 Y81.279
G01 X282.049 Y87.293
G01 X282.047 Y89.808
G01 X280.727 Y96.159
G01 X280.179 Y98.291
G01 X276.939 Y104.859
G01 X276.280 Y106.054
G01 X270.704 Y112.512
G01 X264.276 Y117.131
G01 X257.571 Y120.008
G01 X257.125 Y120.144
G01 X191.342 Y139.603
G01 X191.303 Y139.544
G01 X191.260 Y139.488
G01 X191.215 Y139.435
G01 X191.169 Y139.386
G01 X191.120 Y139.339
G01 X191.069 Y139.296
G01 X191.018 Y139.256
G01 X190.964 Y139.220
G01 X190.910 Y139.187
G01 X190.855 Y139.157
G01 X190.799 Y139.131
G01 X190.743 Y139.108
G01 X190.686 Y139.088
G01 X190.629 Y139.072
G01 X190.573 Y139.060
G01 X190.516 Y139.050
G01 X190.460 Y139.044
G01 X190.405 Y139.041
G01 X190.351 Y139.041
G01 X190.297 Y139.044
G01 X190.245 Y139.050
G01 X190.194 Y139.058
G01 X190.145 Y139.070
G01 X190.097 Y139.084
G01 X190.050 Y139.100
G01 X190.006 Y139.118
G01 X189.964 Y139.139
G01 X189.923 Y139.162
G01 X189.885 Y139.186
G01 X189.849 Y139.212
G01 X189.815 Y139.240
G01 X189.784 Y139.269
G01 X189.755 Y139.300
G01 X189.728 Y139.331
G01 X189.704 Y139.363
G01 X189.683 Y139.396
G01 X189.663 Y139.430
G01 X189.647 Y139.463
G01 X189.633 Y139.497
G01 X189.621 Y139.532
G01 X189.612 Y139.566
G01 X189.605 Y139.599
G01 X189.600 Y139.633
G01 X189.598 Y139.666
G01 X189.598 Y139.698
G01 X189.600 Y139.729
G01 X189.605 Y139.759
G01 X189.611 Y139.788
G01 X189.619 Y139.816
G01 X189.629 Y139.843
G01 X189.640 Y139.868
G01 X189.653 Y139.892
G01 X189.668 Y139.914
G01 X189.683 Y139.935
G01 X189.700 Y139.953
G01 X189.718 Y139.970
G01 X189.737 Y139.985
G01 X189.756 Y139.998
G01 X189.776 Y140.009
G01 X189.797 Y140.019
G01 X189.818 Y140.026
G01 X189.839 Y140.031
G01 X189.860 Y140.034
G01 X189.881 Y140.035
G01 X189.902 Y140.034
G01 X189.922 Y140.032
G01 X189.942 Y140.027
G01 X189.961 Y140.021
G01 X189.979 Y140.012
G01 X189.996 Y140.002
G01 X190.000 Y140.000
G01 X189.957 Y140.032
G01 X189.917 Y140.069
G01 X189.880 Y140.110
G01 X189.847 Y140.154
G01 X189.819 Y140.201
G01 X189.795 Y140.252
G01 X189.775 Y140.305
G01 X189.761 Y140.361
G01 X189.751 Y140.419
G01 X189.747 Y140.479
G01 X189.747 Y140.539
G01 X189.754 Y140.601
G01 X189.765 Y140.664
G01 X189.783 Y140.726
G01 X189.806 Y140.789
G01 X189.834 Y140.850
G01 X189.868 Y140.911
G01 X189.908 Y140.970
G01 X189.954 Y141.028
G01 X190.004 Y141.083
G01 X190.060 Y141.136
G01 X190.121 Y141.185
G01 X190.188 Y141.231
G01 X190.259 Y141.274
G01 X190.334 Y141.312
G01 X190.364 Y141.325
G01 X191.014 Y144.557
G01 X191.346 Y147.848
G01 X191.356 Y151.175
G01 X191.041 Y154.513
G01 X190.402 Y157.840
G01 X189.439 Y161.132
G01 X188.154 Y164.363
G01 X186.551 Y167.512
G01 X184.635 Y170.554
G01 X183.339 Y172.318
G01 X181.059 Y174.676
G01 X178.533 Y176.881
G01 X175.772 Y178.916
G01 X172.785 Y180.761
G01 X170.242 Y182.091
G01 X167.028 Y183.279
G01 X166.366 Y183.491
G01 X169.428 Y182.729
G01 X172.356 Y181.776
G01 X173.078 Y181.505
G01 X175.621 Y180.904
G01 X178.062 Y180.158
G01 X179.791 Y179.519
G01 X181.936 Y179.035
G01 X184.009 Y178.437
G01 X186.003 Y177.732
G01 X186.503 Y177.534
G01 X188.373 Y177.124
G01 X190.193 Y176.622
G01 X191.961 Y176.032
G01 X193.216 Y175.548
G01 X194.932 Y175.177
G01 X196.620 Y174.723
G01 X198.275 Y174.189
G01 X199.894 Y173.576
G01 X199.928 Y173.562
G01 X201.620 Y173.197
G01 X203.300 Y172.747
G01 X204.963 Y172.211
G01 X206.606 Y171.591
G01 X206.641 Y171.577
G01 X208.443 Y171.184
G01 X210.247 Y170.690
G01 X212.046 Y170.093
G01 X213.353 Y169.591
G01 X215.407 Y169.131
G01 X217.470 Y168.540
G01 X219.534 Y167.814
G01 X220.066 Y167.605
G01 X222.509 Y167.033
G01 X224.967 Y166.285
G01 X226.778 Y165.620
G01 X229.749 Y164.885
G01 X232.732 Y163.918
G01 X233.491 Y163.634
G01 X232.826 Y160.618
G01 X232.556 Y159.621
G01 X232.317 Y157.045
G01 X232.100 Y155.525
G01 X232.165 Y153.238
G01 X232.129 Y151.404
G01 X232.444 Y149.281
G01 X232.641 Y147.315
G01 X233.204 Y145.245
G01 X233.631 Y143.315
G01 X234.484 Y141.190
G01 X235.084 Y139.458
G01 X236.324 Y137.166
G01 X236.980 Y135.800
G01 X238.775 Y133.213
G01 X239.293 Y132.389
G01 X241.931 Y129.350
G01 X241.991 Y129.274
G01 X246.122 Y125.654
G01 X250.768 Y122.725
G01 X255.815 Y120.559
G01 X257.125 Y120.144
G01 X191.342 Y139.603
G01 X191.305 Y139.543
G01 X191.266 Y139.486
G01 X191.223 Y139.432
G01 X191.179 Y139.380
G01 X191.133 Y139.332
G01 X191.084 Y139.286
G01 X191.034 Y139.244
G01 X190.983 Y139.205
G01 X190.930 Y139.169
G01 X190.876 Y139.136
G01 X190.821 Y139.107
G01 X190.765 Y139.081
G01 X190.709 Y139.058
G01 X190.652 Y139.038
G01 X190.595 Y139.022
G01 X190.539 Y139.009
G01 X190.482 Y138.999
G01 X190.426 Y138.992
G01 X190.370 Y138.989
G01 X190.315 Y138.988
G01 X190.260 Y138.990
G01 X190.207 Y138.995
G01 X190.155 Y139.003
G01 X190.104 Y139.014
G01 X190.055 Y139.027
G01 X190.007 Y139.042
G01 X189.960 Y139.060
G01 X189.916 Y139.080
G01 X189.873 Y139.102
G01 X189.832 Y139.126
G01 X189.794 Y139.152
G01 X189.757 Y139.179
G01 X189.723 Y139.208
G01 X189.691 Y139.239
G01 X189.661 Y139.270
G01 X189.633 Y139.303
G01 X189.608 Y139.336
G01 X189.586 Y139.370
G01 X189.565 Y139.405
G01 X189.547 Y139.440
G01 X189.532 Y139.476
G01 X189.518 Y139.512
G01 X189.508 Y139.547
G01 X189.499 Y139.583
G01 X189.493 Y139.618
G01 X189.489 Y139.653
G01 X189.487 Y139.688
G01 X189.487 Y139.721
G01 X189.489 Y139.754
G01 X189.493 Y139.786
G01 X189.500 Y139.817
G01 X189.507 Y139.847
G01 X189.517 Y139.875
G01 X189.528 Y139.903
G01 X189.541 Y139.929
G01 X189.555 Y139.953
G01 X189.570 Y139.976
G01 X189.586 Y139.997
G01 X189.604 Y140.017
G01 X189.622 Y140.035
G01 X189.641 Y140.051
G01 X189.660 Y140.065
G01 X189.681 Y140.078
G01 X189.701 Y140.088
G01 X189.722 Y140.097
G01 X189.743 Y140.105
G01 X189.763 Y140.110
G01 X189.784 Y140.113
G01 X189.805 Y140.115
G01 X189.825 Y140.115
G01 X189.844 Y140.114
G01 X189.863 Y140.111
G01 X189.882 Y140.106
G01 X189.899 Y140.100
G01 X189.916 Y140.092
G01 X189.931 Y140.083
G01 X189.945 Y140.073
G01 X189.959 Y140.061
G01 X189.970 Y140.048
G01 X189.981 Y140.035
G01 X189.990 Y140.020
G01 X189.998 Y140.005
G01 X190.000 Y140.000
G01 X189.987 Y140.029
G01 X189.971 Y140.056
G01 X189.952 Y140.081
G01 X189.931 Y140.105
G01 X189.907 Y140.127
G01 X189.882 Y140.147
G01 X189.854 Y140.165
G01 X189.824 Y140.180
G01 X189.792 Y140.192
G01 X189.759 Y140.202
G01 X189.724 Y140.209
G01 X189.688 Y140.213
G01 X189.651 Y140.214
G01 X189.613 Y140.211
G01 X189.575 Y140.206
G01 X189.537 Y140.197
G01 X189.498 Y140.185
G01 X189.459 Y140.170
G01 X189.421 Y140.151
G01 X189.384 Y140.129
G01 X189.347 Y140.103
G01 X189.312 Y140.075
G01 X189.277 Y140.043
G01 X189.245 Y140.007
G01 X189.214 Y139.969
G01 X189.185 Y139.928
G01 X189.158 Y139.883
G01 X189.134 Y139.836
G01 X189.112 Y139.787
G01 X189.094 Y139.735
G01 X189.078 Y139.680
G01 X189.066 Y139.624
G01 X189.057 Y139.565
G01 X189.051 Y139.505
G01 X189.050 Y139.443
G01 X189.052 Y139.380
G01 X189.058 Y139.315
G01 X189.068 Y139.250
G01 X189.083 Y139.184
G01 X189.101 Y139.118
G01 X189.124 Y139.052
G01 X189.152 Y138.986
G01 X189.183 Y138.921
G01 X189.219 Y138.856
G01 X189.238 Y138.825
G01 X151.919 Y81.265
G01 X147.333 Y75.590
G01 X141.146 Y70.654
G01 X133.418 Y67.036
G01 X126.209 Y65.587
G01 X124.890 Y65.384
G01 X118.429 Y65.680
G01 X116.217 Y65.884
G01 X110.483 Y67.603
G01 X108.076 Y68.439
G01 X103.158 Y71.355
G01 X100.796 Y72.888
G01 X96.818 Y76.809
G01 X94.903 Y78.844
G01 X91.990 Y83.568
G01 X90.595 Y86.030
G01 X88.872 Y91.360
G01 X88.118 Y94.033
G01 X87.709 Y99.766
G01 X87.623 Y102.552
G01 X88.663 Y108.477
G01 X89.205 Y110.936
G01 X91.854 Y116.850
G01 X92.850 Y118.822
G01 X93.184 Y119.346
G01 X96.588 Y124.821
G01 X98.515 Y127.569
G01 X101.457 Y132.370
G01 X103.846 Y135.792
G01 X106.404 Y140.024
G01 X109.162 Y143.995
G01 X109.178 Y144.015
G01 X111.570 Y147.768
G01 X112.224 Y148.714
G01 X114.983 Y152.157
G01 X117.888 Y155.351
G01 X118.495 Y155.971
G01 X122.256 Y158.664
G01 X126.101 Y161.028
G01 X126.501 Y161.253
G01 X131.205 Y162.944
G01 X135.639 Y164.163
G01 X141.403 Y164.524
G01 X145.225 Y164.484
G01 X152.749 Y162.813
G01 X153.251 Y162.674
G01 X159.465 Y159.766
G01 X160.632 Y159.041
G01 X188.825 Y140.762
G01 X188.896 Y140.795
G01 X188.968 Y140.824
G01 X189.039 Y140.847
G01 X189.110 Y140.865
G01 X189.181 Y140.879
G01 X189.251 Y140.888
G01 X189.319 Y140.892
G01 X189.387 Y140.891
G01 X189.452 Y140.886
G01 X189.515 Y140.877
G01 X189.576 Y140.864
G01 X189.635 Y140.848
G01 X189.691 Y140.827
G01 X189.744 Y140.804
G01 X189.794 Y140.777
G01 X189.841 Y140.747
G01 X189.884 Y140.715
G01 X189.924 Y140.680
G01 X189.959 Y140.643
G01 X189.992 Y140.605
G01 X190.020 Y140.565
G01 X190.044 Y140.523
G01 X190.065 Y140.481
G01 X190.081 Y140.438
G01 X190.093 Y140.395
G01 X190.101 Y140.352
G01 X190.106 Y140.309
G01 X190.106 Y140.266
G01 X190.102 Y140.225
G01 X190.095 Y140.184
G01 X190.084 Y140.145
G01 X190.069 Y140.107
G01 X190.051 Y140.071
G01 X190.030 Y140.038
G01 X190.005 Y140.006
G01 X190.000 Y140.000
G01 X190.034 Y140.035
G01 X190.072 Y140.066
G01 X190.112 Y140.093
G01 X190.156 Y140.116
G01 X190.202 Y140.136
G01 X190.250 Y140.151
G01 X190.300 Y140.162
G01 X190.351 Y140.168
G01 X190.404 Y140.169
G01 X190.457 Y140.165
G01 X190.511 Y140.157
G01 X190.566 Y140.144
G01 X190.620 Y140.126
G01 X190.673 Y140.102
G01 X190.726 Y140.074
G01 X190.777 Y140.041
G01 X190.827 Y140.003
G01 X190.874 Y139.960
G01 X190.920 Y139.913
G01 X190.962 Y139.861
G01 X191.002 Y139.804
G01 X191.039 Y139.744
G01 X191.071 Y139.679
G01 X191.100 Y139.611
G01 X191.125 Y139.539
G01 X191.145 Y139.464
G01 X191.160 Y139.385
G01 X191.170 Y139.304
G01 X191.175 Y139.238
G01 X219.368 Y120.959
G01 X225.463 Y117.809
G01 X233.412 Y115.685
G01 X239.290 Y115.489
G01 X243.002 Y115.630
G01 X247.837 Y116.773
G01 X252.248 Y118.179
G01 X256.225 Y120.376
G01 X260.129 Y122.914
G01 X260.454 Y123.143
G01 X263.524 Y126.183
G01 X266.459 Y129.485
G01 X267.006 Y130.148
G01 X267.776 Y131.286
G01 X270.357 Y134.972
G01 X272.758 Y138.891
G01 X273.107 Y139.509
G01 X276.016 Y143.716
G01 X278.439 Y147.732
G01 X281.745 Y152.582
G01 X283.770 Y155.955
G01 X286.816 Y160.654
G01 X289.704 Y166.445
G01 X290.601 Y168.473
G01 X291.881 Y174.317
G01 X292.344 Y176.983
G01 X292.165 Y182.695
G01 X291.963 Y185.507
G01 X290.451 Y190.883
G01 X289.593 Y193.543
G01 X286.862 Y198.375
G01 X285.380 Y200.785
G01 X281.544 Y204.869
G01 X279.568 Y206.819
G01 X274.743 Y209.946
G01 X272.347 Y211.365
G01 X266.653 Y213.317
G01 X264.241 Y214.029
G01 X257.776 Y214.564
G01 X255.576 Y214.644
G01 X248.359 Y213.400
G01 X247.026 Y213.106
G01 X239.251 Y209.591
G01 X232.999 Y204.738
G01 X228.338 Y199.125
G01 X228.081 Y198.735
G01 X190.762 Y141.175
G01 X190.591 Y141.017
G01 X190.437 Y140.846
G01 X190.303 Y140.663
G01 X190.187 Y140.470
G01 X190.091 Y140.267
G01 X190.016 Y140.056
G01 X190.000 Y140.000
G01 X190.011 Y140.051
G01 X190.018 Y140.104
G01 X190.019 Y140.157
G01 X190.015 Y140.210
G01 X190.006 Y140.263
G01 X189.992 Y140.315
G01 X189.972 Y140.367
G01 X189.948 Y140.417
G01 X189.918 Y140.466
G01 X189.884 Y140.513
G01 X189.845 Y140.557
G01 X189.801 Y140.599
G01 X189.753 Y140.637
G01 X189.700 Y140.672
G01 X189.644 Y140.704
G01 X189.584 Y140.731
G01 X189.520 Y140.754
G01 X189.453 Y140.773
G01 X189.384 Y140.786
G01 X189.312 Y140.795
G01 X189.237 Y140.798
G01 X189.161 Y140.796
G01 X189.083 Y140.788
G01 X189.004 Y140.774
G01 X188.924 Y140.755
G01 X188.844 Y140.729
G01 X188.832 Y140.725
G01 X185.918 Y142.265
G01 X182.856 Y143.516
G01 X179.669 Y144.470
G01 X176.378 Y145.115
G01 X173.007 Y145.446
G01 X169.577 Y145.456
G01 X166.114 Y145.141
G01 X162.640 Y144.496
G01 X159.179 Y143.523
G01 X157.120 Y142.780
G01 X154.212 Y141.262
G01 X151.381 Y139.466
G01 X148.647 Y137.395
G01 X146.030 Y135.055
G01 X144.033 Y132.993
G01 X141.983 Y130.248
G01 X141.592 Y129.673
G01 X143.191 Y132.394
G01 X144.935 Y134.931
G01 X145.400 Y135.547
G01 X146.697 Y137.814
G01 X148.106 Y139.944
G01 X149.208 Y141.420
G01 X150.281 Y143.340
G01 X151.443 Y145.158
G01 X152.684 Y146.870
G01 X153.016 Y147.294
G01 X153.940 Y148.970
G01 X154.937 Y150.574
G01 X156.004 Y152.101
G01 X156.824 Y153.167
G01 X157.667 Y154.708
G01 X158.581 Y156.198
G01 X159.563 Y157.633
G01 X160.610 Y159.012
G01 X160.632 Y159.041
G01 X161.462 Y160.560
G01 X162.371 Y162.043
G01 X163.356 Y163.486
G01 X164.417 Y164.885
G01 X164.441 Y164.914
G01 X165.328 Y166.532
G01 X166.314 Y168.121
G01 X167.397 Y169.676
G01 X168.249 Y170.788
G01 X169.272 Y172.626
G01 X170.425 Y174.437
G01 X171.706 Y176.211
G01 X172.057 Y176.661
G01 X173.299 Y178.842
G01 X174.714 Y180.986
G01 X175.865 Y182.535
G01 X177.412 Y185.175
G01 X179.186 Y187.761
G01 X179.673 Y188.408
G01 X182.376 Y186.915
G01 X183.257 Y186.374
G01 X185.659 Y185.413
G01 X187.055 Y184.775
G01 X189.267 Y184.188
G01 X191.015 Y183.633
G01 X193.140 Y183.333
G01 X195.081 Y182.965
G01 X197.226 Y182.917
G01 X199.198 Y182.779
G01 X201.478 Y182.995
G01 X203.308 Y183.079
G01 X205.858 Y183.618
G01 X207.354 Y183.859
G01 X210.344 Y184.847
G01 X211.281 Y185.110
G01 X214.943 Y186.777
G01 X215.033 Y186.813
G01 X219.676 Y189.747
G01 X223.803 Y193.372
G01 X227.311 Y197.597
G01 X228.081 Y198.735
G01 X190.762 Y141.175
G01 X190.567 Y140.977
G01 X190.394 Y140.763
G01 X190.244 Y140.536
G01 X190.118 Y140.296
G01 X190.016 Y140.045
G01 X190.000 Y140.000
G01 X190.012 Y140.030
G01 X190.026 Y140.059
G01 X190.044 Y140.087
G01 X190.064 Y140.113
G01 X190.087 Y140.137
G01 X190.113 Y140.159
G01 X190.140 Y140.179
G01 X190.170 Y140.197
G01 X190.202 Y140.212
G01 X190.236 Y140.224
G01 X190.271 Y140.233
G01 X190.308 Y140.240
G01 X190.346 Y140.243
G01 X190.385 Y140.243
G01 X190.425 Y140.240
G01 X190.465 Y140.233
G01 X190.506 Y140.223
G01 X190.547 Y140.210
G01 X190.587 Y140.193
G01 X190.627 Y140.172
G01 X190.667 Y140.148
G01 X190.705 Y140.121
G01 X190.743 Y140.090
G01 X190.779 Y140.056
G01 X190.813 Y140.018
G01 X190.845 Y139.978
G01 X190.876 Y139.934
G01 X190.904 Y139.887
G01 X190.929 Y139.837
G01 X190.952 Y139.784
G01 X190.971 Y139.729
G01 X190.988 Y139.671
G01 X191.001 Y139.612
G01 X191.010 Y139.550
G01 X191.016 Y139.486
G01 X191.018 Y139.421
G01 X191.016 Y139.354
G01 X191.009 Y139.286
G01 X190.999 Y139.217
G01 X190.984 Y139.148
G01 X190.964 Y139.078
G01 X190.940 Y139.009
G01 X190.912 Y138.939
G01 X190.910 Y138.936
G01 X235.520 Y86.822
G01 X239.661 Y80.815
G01 X242.640 Y73.482
G01 X243.917 Y65.045
G01 X243.262 Y57.721
G01 X243.082 Y56.398
G01 X240.965 Y50.287
G01 X240.143 Y48.224
G01 X236.868 Y43.213
G01 X235.383 Y41.142
G01 X231.192 Y37.253
G01 X229.051 Y35.423
G01 X224.163 Y32.720
G01 X221.668 Y31.462
G01 X216.312 Y30.008
G01 X213.556 Y29.369
G01 X207.956 Y29.228
G01 X205.178 Y29.264
G01 X199.565 Y30.498
G01 X196.870 Y31.206
G01 X191.483 Y33.883
G01 X189.278 Y35.101
G01 X184.359 Y39.319
G01 X182.751 Y40.833
G01 X182.342 Y41.302
G01 X178.058 Y46.119
G01 X175.969 Y48.747
G01 X172.200 Y52.929
G01 X169.596 Y56.192
G01 X166.264 Y59.844
G01 X163.239 Y63.616
G01 X163.224 Y63.637
G01 X160.303 Y66.995
G01 X159.582 Y67.891
G01 X157.063 Y71.513
G01 X154.824 Y75.204
G01 X154.402 Y75.963
G01 X152.886 Y80.332
G01 X151.710 Y84.690
G01 X151.608 Y85.137
G01 X151.321 Y90.129
G01 X151.409 Y94.726
G01 X152.698 Y100.355
G01 X153.820 Y104.009
G01 X157.558 Y110.750
G01 X157.833 Y111.192
G01 X162.385 Y116.326
G01 X163.411 Y117.240
G01 X188.936 Y139.090
G01 X188.995 Y139.050
G01 X189.055 Y139.015
G01 X189.116 Y138.983
G01 X189.178 Y138.954
G01 X189.240 Y138.930
G01 X189.303 Y138.908
G01 X189.366 Y138.890
G01 X189.429 Y138.876
G01 X189.492 Y138.865
G01 X189.555 Y138.858
G01 X189.617 Y138.854
G01 X189.678 Y138.853
G01 X189.739 Y138.856
G01 X189.798 Y138.862
G01 X189.856 Y138.870
G01 X189.913 Y138.882
G01 X189.969 Y138.897
G01 X190.023 Y138.914
G01 X190.075 Y138.934
G01 X190.125 Y138.956
G01 X190.173 Y138.981
G01 X190.219 Y139.007
G01 X190.263 Y139.036
G01 X190.304 Y139.067
G01 X190.344 Y139.099
G01 X190.380 Y139.133
G01 X190.415 Y139.168
G01 X190.447 Y139.205
G01 X190.476 Y139.242
G01 X190.502 Y139.281
G01 X190.526 Y139.320
G01 X190.548 Y139.360
G01 X190.567 Y139.400
G01 X190.583 Y139.441
G01 X190.596 Y139.482
G01 X190.607 Y139.522
G01 X190.616 Y139.563
G01 X190.622 Y139.603
G01 X190.625 Y139.643
G01 X190.627 Y139.682
G01 X190.626 Y139.720
G01 X190.622 Y139.757
G01 X190.617 Y139.794
G01 X190.610 Y139.829
G01 X190.600 Y139.863
G01 X190.589 Y139.895
G01 X190.576 Y139.927
G01 X190.562 Y139.956
G01 X190.546 Y139.985
G01 X190.529 Y140.011
G01 X190.510 Y140.036
G01 X190.490 Y140.059
G01 X190.470 Y140.080
G01 X190.448 Y140.099
G01 X190.426 Y140.116
G01 X190.403 Y140.132
G01 X190.380 Y140.145
G01 X190.356 Y140.156
G01 X190.333 Y140.166
G01 X190.309 Y140.174
G01 X190.285 Y140.179
G01 X190.262 Y140.183
G01 X190.239 Y140.185
G01 X190.216 Y140.185
G01 X190.194 Y140.184
G01 X190.173 Y140.180
G01 X190.152 Y140.175
G01 X190.133 Y140.169
G01 X190.114 Y140.161
G01 X190.097 Y140.152
G01 X190.081 Y140.141
G01 X190.066 Y140.130
G01 X190.052 Y140.117
G01 X190.040 Y140.103
G01 X190.030 Y140.088
G01 X190.020 Y140.073
G01 X190.013 Y140.057
G01 X190.007 Y140.040
G01 X190.003 Y140.023
G01 X190.000 Y140.006
G01 X190.000 Y140.000
G01 X190.009 Y140.085
G01 X190.027 Y140.169
G01 X190.053 Y140.252
G01 X190.087 Y140.331
G01 X190.129 Y140.409
G01 X190.179 Y140.482
G01 X190.236 Y140.551
G01 X190.300 Y140.616
G01 X190.371 Y140.676
G01 X190.449 Y140.730
G01 X190.533 Y140.778
G01 X190.622 Y140.819
G01 X190.717 Y140.853
G01 X190.816 Y140.879
G01 X190.919 Y140.898
G01 X191.027 Y140.909
G01 X191.064 Y140.910
G01 X216.589 Y162.760
G01 X221.339 Y167.711
G01 X225.630 Y174.731
G01 X227.486 Y180.313
G01 X228.404 Y183.912
G01 X228.679 Y188.872
G01 X228.582 Y193.501
G01 X227.603 Y197.938
G01 X226.278 Y202.402
G01 X226.150 Y202.779
G01 X224.105 Y206.584
G01 X221.772 Y210.336
G01 X221.291 Y211.048
G01 X220.418 Y212.109
G01 X217.615 Y215.630
G01 X214.539 Y219.044
G01 X214.045 Y219.554
G01 X210.836 Y223.537
G01 X207.672 Y226.999
G01 X203.959 Y231.545
G01 X201.300 Y234.444
G01 X197.658 Y238.698
G01 X192.924 Y243.110
G01 X191.234 Y244.546
G01 X185.992 Y247.431
G01 X183.567 Y248.631
G01 X178.039 Y250.080
G01 X175.285 Y250.683
G01 X169.702 Y250.758
G01 X166.907 Y250.690
G01 X161.499 Y249.443
G01 X158.767 Y248.705
G01 X153.764 Y246.185
G01 X151.333 Y244.843
G01 X146.965 Y241.103
G01 X144.925 Y239.208
G01 X141.438 Y234.301
G01 X140.071 Y232.191
G01 X137.724 Y226.143
G01 X137.023 Y224.056
G01 X136.169 Y216.782
G01 X136.073 Y215.421
G01 X137.238 Y206.969
G01 X140.118 Y199.597
G01 X144.179 Y193.535
G01 X144.480 Y193.178
G01 X189.090 Y141.064
G01 X189.154 Y141.092
G01 X189.220 Y141.117
G01 X189.286 Y141.138
G01 X189.352 Y141.155
G01 X189.417 Y141.168
G01 X189.483 Y141.178
G01 X189.548 Y141.185
G01 X189.613 Y141.187
G01 X189.676 Y141.187
G01 X189.739 Y141.183
G01 X189.801 Y141.175
G01 X189.861 Y141.165
G01 X189.919 Y141.152
G01 X189.976 Y141.135
G01 X190.032 Y141.116
G01 X190.085 Y141.094
G01 X190.136 Y141.070
G01 X190.185 Y141.044
G01 X190.232 Y141.015
G01 X190.276 Y140.984
G01 X190.318 Y140.951
G01 X190.358 Y140.917
G01 X190.395 Y140.881
G01 X190.429 Y140.844
G01 X190.460 Y140.805
G01 X190.489 Y140.766
G01 X190.515 Y140.726
G01 X190.539 Y140.685
G01 X190.559 Y140.643
G01 X190.577 Y140.601
G01 X190.592 Y140.559
G01 X190.604 Y140.517
G01 X190.614 Y140.475
G01 X190.621 Y140.434
G01 X190.626 Y140.393
G01 X190.628 Y140.352
G01 X190.627 Y140.313
G01 X190.625 Y140.274
G01 X190.620 Y140.236
G01 X190.613 Y140.200
G01 X190.604 Y140.165
G01 X190.592 Y140.131
G01 X190.579 Y140.098
G01 X190.565 Y140.067
G01 X190.549 Y140.038
G01 X190.531 Y140.011
G01 X190.512 Y139.985
G01 X190.492 Y139.962
G01 X190.471 Y139.940
G01 X190.449 Y139.920
G01 X190.426 Y139.903
G01 X190.402 Y139.887
G01 X190.378 Y139.873
G01 X190.354 Y139.862
G01 X190.330 Y139.852
G01 X190.305 Y139.845
G01 X190.281 Y139.840
G01 X190.257 Y139.836
G01 X190.233 Y139.835
G01 X190.210 Y139.835
G01 X190.187 Y139.837
G01 X190.165 Y139.842
G01 X190.144 Y139.847
G01 X190.124 Y139.855
G01 X190.105 Y139.864
G01 X190.088 Y139.874
G01 X190.071 Y139.886
G01 X190.057 Y139.899
G01 X190.043 Y139.914
G01 X190.031 Y139.929
G01 X190.021 Y139.945
G01 X190.012 Y139.962
G01 X190.006 Y139.980
G01 X190.000 Y139.998
G01 X190.000 Y140.000
G01 X190.010 Y139.937
G01 X190.014 Y139.873
G01 X190.012 Y139.808
G01 X190.004 Y139.744
G01 X189.989 Y139.680
G01 X189.968 Y139.617
G01 X189.941 Y139.556
G01 X189.908 Y139.497
G01 X189.868 Y139.439
G01 X189.823 Y139.385
G01 X189.773 Y139.334
G01 X189.717 Y139.286
G01 X189.656 Y139.243
G01 X189.590 Y139.204
G01 X189.519 Y139.170
G01 X189.444 Y139.140
G01 X189.365 Y139.117
G01 X189.283 Y139.099
G01 X189.197 Y139.087
G01 X189.109 Y139.082
G01 X189.018 Y139.083
G01 X188.974 Y139.086
G01 X186.670 Y136.728
G01 X184.601 Y134.147
G01 X182.783 Y131.361
G01 X181.231 Y128.389
G01 X179.957 Y125.249
G01 X178.975 Y121.964
G01 X178.295 Y118.553
G01 X177.927 Y115.039
G01 X177.879 Y111.445
G01 X178.007 Y109.259
G01 X178.638 Y106.040
G01 X179.557 Y102.816
G01 X180.768 Y99.606
G01 X182.270 Y96.433
G01 X183.680 Y93.934
G01 X185.730 Y91.189
G01 X186.171 Y90.651
G01 X184.016 Y92.956
G01 X182.077 Y95.348
G01 X181.619 Y95.969
G01 X179.812 Y97.856
G01 X178.170 Y99.810
G01 X177.067 Y101.286
G01 X175.531 Y102.860
G01 X174.117 Y104.489
G01 X172.827 Y106.166
G01 X172.515 Y106.604
G01 X171.169 Y107.965
G01 X169.915 Y109.377
G01 X168.753 Y110.833
G01 X167.963 Y111.922
G01 X166.725 Y113.167
G01 X165.555 Y114.466
G01 X164.457 Y115.815
G01 X163.432 Y117.210
G01 X163.411 Y117.240
G01 X162.190 Y118.466
G01 X161.025 Y119.758
G01 X159.921 Y121.113
G01 X158.880 Y122.527
G01 X158.859 Y122.558
G01 X157.560 Y123.868
G01 X156.315 Y125.264
G01 X155.131 Y126.743
G01 X154.307 Y127.876
G01 X152.834 Y129.378
G01 X151.425 Y130.997
G01 X150.087 Y132.729
G01 X149.755 Y133.193
G01 X148.016 Y135.003
G01 X146.361 Y136.968
G01 X145.203 Y138.511
G01 X143.110 Y140.744
G01 X141.133 Y143.178
G01 X140.651 Y143.829
G01 X142.849 Y145.998
G01 X143.618 Y146.688
G01 X145.220 Y148.719
G01 X146.229 Y149.877
G01 X147.419 Y151.831
G01 X148.447 Y153.350
G01 X149.337 Y155.303
G01 X150.241 Y157.060
G01 X150.895 Y159.103
G01 X151.587 Y160.955
G01 X152.027 Y163.202
G01 X152.466 Y164.981
G01 X152.672 Y167.579
G01 X152.865 Y169.083
G01 X152.766 Y172.230
G01 X152.780 Y173.203
G01 X152.220 Y177.188
G01 X152.211 Y177.284
G01 X150.714 Y182.568
G01 X148.409 Y187.554
G01 X145.353 Y192.117
G01 X144.480 Y193.178
G01 X189.090 Y141.064
G01 X189.155 Y141.091
G01 X189.221 Y141.115
G01 X189.287 Y141.136
G01 X189.353 Y141.152
G01 X189.419 Y141.165
G01 X189.485 Y141.174
G01 X189.550 Y141.179
G01 X189.615 Y141.181
G01 X189.678 Y141.180
G01 X189.741 Y141.175
G01 X189.802 Y141.167
G01 X189.862 Y141.156
G01 X189.920 Y141.141
G01 X189.977 Y141.124
G01 X190.031 Y141.104
G01 X190.084 Y141.082
G01 X190.134 Y141.057
G01 X190.183 Y141.030
G01 X190.229 Y141.000
G01 X190.272 Y140.969
G01 X190.313 Y140.936
G01 X190.351 Y140.901
G01 X190.387 Y140.864
G01 X190.420 Y140.827
G01 X190.450 Y140.788
G01 X190.478 Y140.749
G01 X190.503 Y140.708
G01 X190.525 Y140.667
G01 X190.544 Y140.626
G01 X190.560 Y140.584
G01 X190.574 Y140.542
G01 X190.585 Y140.501
G01 X190.593 Y140.459
G01 X190.599 Y140.418
G01 X190.602 Y140.378
G01 X190.603 Y140.338
G01 X190.601 Y140.300
G01 X190.597 Y140.262
G01 X190.591 Y140.225
G01 X190.582 Y140.190
G01 X190.572 Y140.156
G01 X190.560 Y140.123
G01 X190.546 Y140.093
G01 X190.530 Y140.063
G01 X190.513 Y140.036
G01 X190.494 Y140.010
G01 X190.474 Y139.987
G01 X190.454 Y139.965
G01 X190.432 Y139.945
G01 X190.409 Y139.927
G01 X190.386 Y139.912
G01 X190.362 Y139.898
G01 X190.338 Y139.887
G01 X190.314 Y139.878
G01 X190.289 Y139.870
G01 X190.265 Y139.865
G01 X190.241 Y139.862
G01 X190.218 Y139.861
G01 X190.194 Y139.862
G01 X190.172 Y139.865
G01 X190.150 Y139.869
G01 X190.129 Y139.876
G01 X190.110 Y139.884
G01 X190.091 Y139.894
G01 X190.074 Y139.905
G01 X190.058 Y139.918
G01 X190.043 Y139.931
G01 X190.030 Y139.947
G01 X190.019 Y139.963
G01 X190.009 Y139.980
G01 X190.001 Y139.998
G01 X190.000 Y140.000
G01 X190.017 Y139.961
G01 X190.037 Y139.924
G01 X190.061 Y139.890
G01 X190.089 Y139.857
G01 X190.120 Y139.827
G01 X190.154 Y139.799
G01 X190.190 Y139.775
G01 X190.230 Y139.754
G01 X190.272 Y139.736
G01 X190.316 Y139.722
G01 X190.362 Y139.712
G01 X190.410 Y139.705
G01 X190.460 Y139.703
G01 X190.510 Y139.705
G01 X190.561 Y139.711
G01 X190.613 Y139.721
G01 X190.665 Y139.736
G01 X190.717 Y139.756
G01 X190.769 Y139.780
G01 X190.820 Y139.808
G01 X190.870 Y139.841
G01 X190.918 Y139.878
G01 X190.965 Y139.920
G01 X191.010 Y139.966
G01 X191.052 Y140.016
G01 X191.092 Y140.070
G01 X191.129 Y140.129
G01 X191.163 Y140.191
G01 X191.194 Y140.256
G01 X191.220 Y140.326
G01 X191.243 Y140.398
G01 X191.261 Y140.473
G01 X191.275 Y140.551
G01 X191.278 Y140.571
G01 X253.906 Y168.566
G01 X260.841 Y170.833
G01 X268.718 Y171.609
G01 X277.170 Y170.441
G01 X284.008 Y167.734
G01 X285.225 Y167.187
G01 X290.485 Y163.424
G01 X292.230 Y162.050
G01 X296.106 Y157.488
G01 X297.670 Y155.477
G01 X300.211 Y150.354
G01 X301.359 Y147.782
G01 X302.564 Y142.329
G01 X303.063 Y139.579
G01 X302.938 Y134.030
G01 X302.769 Y131.206
G01 X301.315 Y125.797
G01 X300.493 Y123.143
G01 X297.718 Y118.111
G01 X296.274 Y115.727
G01 X292.179 Y111.321
G01 X290.386 Y109.552
G01 X284.945 Y106.031
G01 X283.038 Y104.918
G01 X282.472 Y104.660
G01 X276.637 Y101.918
G01 X273.525 Y100.660
G01 X268.445 Y98.233
G01 X264.578 Y96.661
G01 X260.130 Y94.502
G01 X255.655 Y92.671
G01 X255.631 Y92.662
G01 X251.583 Y90.814
G01 X250.519 Y90.377
G01 X246.331 Y88.989
G01 X242.156 Y87.889
G01 X241.309 Y87.699
G01 X236.689 Y87.485
G01 X232.176 Y87.594
G01 X231.719 Y87.623
G01 X226.851 Y88.763
G01 X222.467 Y90.152
G01 X217.435 Y92.984
G01 X214.250 Y95.097
G01 X208.846 Y100.593
G01 X208.500 Y100.982
G01 X204.868 Y106.803
G01 X204.283 Y108.047
G01 X190.571 Y138.722
G01 X190.484 Y138.757
G01 X190.402 Y138.797
G01 X190.324 Y138.842
G01 X190.253 Y138.891
G01 X190.186 Y138.945
G01 X190.126 Y139.002
G01 X190.072 Y139.063
G01 X190.024 Y139.126
G01 X189.983 Y139.192
G01 X189.948 Y139.259
G01 X189.919 Y139.328
G01 X189.897 Y139.398
G01 X189.882 Y139.468
G01 X189.874 Y139.537
G01 X189.871 Y139.607
G01 X189.876 Y139.675
G01 X189.886 Y139.742
G01 X189.903 Y139.806
G01 X189.926 Y139.869
G01 X189.955 Y139.928
G01 X189.989 Y139.984
G01 X190.000 Y140.000
G01 X189.980 Y139.974
G01 X189.957 Y139.951
G01 X189.931 Y139.930
G01 X189.904 Y139.911
G01 X189.875 Y139.894
G01 X189.844 Y139.881
G01 X189.811 Y139.870
G01 X189.777 Y139.862
G01 X189.742 Y139.857
G01 X189.706 Y139.856
G01 X189.669 Y139.858
G01 X189.631 Y139.863
G01 X189.594 Y139.871
G01 X189.556 Y139.883
G01 X189.519 Y139.898
G01 X189.482 Y139.916
G01 X189.446 Y139.938
G01 X189.411 Y139.963
G01 X189.377 Y139.992
G01 X189.345 Y140.023
G01 X189.314 Y140.058
G01 X189.285 Y140.096
G01 X189.259 Y140.137
G01 X189.234 Y140.181
G01 X189.213 Y140.227
G01 X189.194 Y140.276
G01 X189.178 Y140.328
G01 X189.165 Y140.381
G01 X189.156 Y140.437
G01 X189.150 Y140.494
G01 X189.148 Y140.553
G01 X189.149 Y140.614
G01 X189.155 Y140.675
G01 X189.164 Y140.738
G01 X189.178 Y140.800
G01 X189.196 Y140.864
G01 X189.218 Y140.927
G01 X189.245 Y140.991
G01 X189.276 Y141.054
G01 X189.311 Y141.116
G01 X189.351 Y141.177
G01 X189.395 Y141.237
G01 X189.429 Y141.278
G01 X175.717 Y171.953
G01 X172.317 Y177.912
G01 X166.802 Y184.019
G01 X161.977 Y187.382
G01 X158.785 Y189.283
G01 X154.107 Y190.954
G01 X149.640 Y192.173
G01 X145.108 Y192.493
G01 X140.452 Y192.489
G01 X140.054 Y192.473
G01 X135.825 Y191.592
G01 X131.566 Y190.419
G01 X130.747 Y190.159
G01 X129.481 Y189.623
G01 X125.310 Y187.934
G01 X121.164 Y185.952
G01 X120.534 Y185.624
G01 X115.805 Y183.676
G01 X111.587 Y181.625
G01 X106.175 Y179.354
G01 X102.641 Y177.626
G01 X97.528 Y175.340
G01 X91.954 Y172.052
G01 X90.099 Y170.839
G01 X85.845 Y166.631
G01 X84.007 Y164.646
G01 X81.049 Y159.755
G01 X79.689 Y157.286
G01 X78.033 Y151.953
G01 X77.306 Y149.254
G01 X76.968 Y143.714
G01 X76.900 Y140.886
G01 X77.898 Y135.373
G01 X78.495 Y132.661
G01 X80.842 Y127.412
G01 X82.081 Y124.918
G01 X85.797 Y120.182
G01 X87.433 Y118.273
G01 X92.567 Y114.307
G01 X94.369 Y113.043
G01 X101.102 Y110.160
G01 X102.380 Y109.682
G01 X110.815 Y108.401
G01 X118.702 Y109.072
G01 X125.667 Y111.247
G01 X126.094 Y111.434
G01 X188.722 Y139.429
G01 X188.832 Y139.407
G01 X188.940 Y139.395
G01 X189.047 Y139.392
G01 X189.151 Y139.398
G01 X189.253 Y139.413
G01 X189.350 Y139.436
G01 X189.444 Y139.467
G01 X189.532 Y139.506
G01 X189.616 Y139.551
G01 X189.693 Y139.604
G01 X189.764 Y139.663
G01 X189.829 Y139.728
G01 X189.887 Y139.799
G01 X189.937 Y139.874
G01 X189.979 Y139.953
G01 X190.000 Y140.000
G01 X189.973 Y139.923
G01 X189.954 Y139.843
G01 X189.942 Y139.762
G01 X189.938 Y139.679
G01 X189.943 Y139.596
G01 X189.955 Y139.512
G01 X189.976 Y139.429
G01 X190.004 Y139.347
G01 X190.041 Y139.266
G01 X190.085 Y139.188
G01 X190.138 Y139.112
G01 X190.197 Y139.040
G01 X190.265 Y138.972
G01 X190.339 Y138.908
G01 X190.420 Y138.849
G01 X190.508 Y138.796
G01 X190.585 Y138.757
G01 X192.193 Y135.879
G01 X194.081 Y133.163
G01 X196.237 Y130.629
G01 X198.647 Y128.297
G01 X201.296 Y126.185
G01 X204.168 Y124.312
G01 X207.246 Y122.692
G01 X210.511 Y121.343
G01 X213.944 Y120.277
G01 X216.077 Y119.780
G01 X219.342 Y119.471
G01 X222.695 Y119.438
G01 X226.116 Y119.689
G01 X229.585 Y120.229
G01 X232.381 Y120.873
G01 X235.595 Y122.060
G01 X236.236 Y122.330
G01 X233.414 Y120.917
G01 X230.570 Y119.736
G01 X229.845 Y119.473
G01 X227.523 Y118.276
G01 X225.183 Y117.256
G01 X223.455 Y116.617
G01 X221.510 Y115.590
G01 X219.547 Y114.696
G01 X217.573 Y113.935
G01 X217.064 Y113.760
G01 X215.377 Y112.856
G01 X213.668 Y112.053
G01 X211.941 Y111.352
G01 X210.673 Y110.903
G01 X209.128 Y110.069
G01 X207.551 Y109.316
G01 X205.946 Y108.646
G01 X204.318 Y108.059
G01 X204.283 Y108.047
G01 X202.760 Y107.224
G01 X201.191 Y106.474
G01 X199.579 Y105.799
G01 X197.928 Y105.202
G01 X197.892 Y105.190
G01 X196.268 Y104.316
G01 X194.576 Y103.519
G01 X192.821 Y102.803
G01 X191.502 Y102.334
G01 X189.643 Y101.348
G01 X187.691 Y100.455
G01 X185.651 Y99.664
G01 X185.111 Y99.477
G01 X182.882 Y98.323
G01 X180.529 Y97.294
G01 X178.720 Y96.621
G01 X175.986 Y95.247
G01 X173.090 Y94.042
G01 X172.330 Y93.764
G01 X170.874 Y96.487
G01 X170.430 Y97.421
G01 X168.937 Y99.533
G01 X168.113 Y100.829
G01 X166.576 Y102.524
G01 X165.411 Y103.941
G01 X163.791 Y105.348
G01 X162.363 Y106.714
G01 X160.589 Y107.920
G01 X159.010 Y109.109
G01 X156.979 Y110.169
G01 X155.398 Y111.094
G01 X152.965 Y112.029
G01 X151.578 Y112.640
G01 X148.532 Y113.438
G01 X147.603 Y113.727
G01 X143.623 Y114.321
G01 X143.528 Y114.339
G01 X138.036 Y114.403
G01 X132.602 Y113.607
G01 X127.359 Y111.970
G01 X126.094 Y111.434
G01 X188.722 Y139.429
G01 X188.839 Y139.411
G01 X188.954 Y139.403
G01 X189.067 Y139.405
G01 X189.178 Y139.417
G01 X189.284 Y139.438
G01 X189.387 Y139.468
G01 X189.484 Y139.506
G01 X189.577 Y139.553
G01 X189.663 Y139.607
G01 X189.743 Y139.668
G01 X189.815 Y139.736
G01 X189.881 Y139.810
G01 X189.938 Y139.890
G01 X189.987 Y139.975
G01 X190.000 Y140.000
G01 X189.987 Y139.976
G01 X189.972 Y139.954
G01 X189.955 Y139.933
G01 X189.935 Y139.914
G01 X189.914 Y139.897
G01 X189.891 Y139.881
G01 X189.866 Y139.868
G01 X189.840 Y139.857
G01 X189.812 Y139.848
G01 X189.783 Y139.842
G01 X189.753 Y139.838
G01 X189.722 Y139.836
G01 X189.691 Y139.838
G01 X189.659 Y139.842
G01 X189.627 Y139.849
G01 X189.594 Y139.858
G01 X189.562 Y139.871
G01 X189.530 Y139.886
G01 X189.499 Y139.904
G01 X189.468 Y139.925
G01 X189.439 Y139.949
G01 X189.410 Y139.975
G01 X189.383 Y140.005
G01 X189.357 Y140.036
G01 X189.333 Y140.071
G01 X189.310 Y140.108
G01 X189.290 Y140.147
G01 X189.272 Y140.188
G01 X189.257 Y140.232
G01 X189.244 Y140.277
G01 X189.233 Y140.324
G01 X189.226 Y140.373
G01 X189.222 Y140.423
G01 X189.221 Y140.475
G01 X189.223 Y140.528
G01 X189.228 Y140.581
G01 X189.237 Y140.636
G01 X189.249 Y140.691
G01 X189.265 Y140.746
G01 X189.285 Y140.801
G01 X189.308 Y140.856
G01 X189.335 Y140.911
G01 X189.366 Y140.965
G01 X189.400 Y141.018
G01 X189.438 Y141.070
G01 X189.480 Y141.120
G01 X189.526 Y141.169
G01 X189.575 Y141.217
G01 X189.627 Y141.262
G01 X189.683 Y141.305
G01 X189.743 Y141.345
G01 X189.805 Y141.382
G01 X189.815 Y141.388
G01 X180.735 Y209.384
G01 X180.529 Y216.678
G01 X182.019 Y224.451
G01 X185.537 Y232.225
G01 X190.071 Y238.014
G01 X190.942 Y239.025
G01 X196.042 Y243.002
G01 X197.855 Y244.285
G01 X203.329 Y246.708
G01 X205.701 Y247.638
G01 X211.334 Y248.621
G01 X214.126 Y248.992
G01 X219.697 Y248.601
G01 X222.475 Y248.300
G01 X227.760 Y246.605
G01 X230.421 Y245.642
G01 X235.196 Y242.714
G01 X237.507 Y241.173
G01 X241.546 Y237.084
G01 X243.422 Y235.023
G01 X246.486 Y229.846
G01 X247.673 Y227.625
G01 X249.506 Y221.410
G01 X250.032 Y219.265
G01 X250.120 Y218.649
G01 X251.093 Y212.276
G01 X251.417 Y208.935
G01 X252.303 Y203.375
G01 X252.714 Y199.221
G01 X253.523 Y194.343
G01 X254.009 Y189.533
G01 X254.011 Y189.507
G01 X254.634 Y185.101
G01 X254.752 Y183.957
G01 X254.895 Y179.547
G01 X254.766 Y175.232
G01 X254.707 Y174.366
G01 X253.601 Y169.875
G01 X252.218 Y165.578
G01 X252.060 Y165.148
G01 X249.585 Y160.803
G01 X247.010 Y156.994
G01 X242.867 Y152.971
G01 X239.937 Y150.517
G01 X233.134 Y146.893
G01 X232.663 Y146.672
G01 X226.051 Y144.841
G01 X224.692 Y144.632
G01 X191.388 Y140.185
G01 X191.362 Y140.250
G01 X191.333 Y140.313
G01 X191.302 Y140.374
G01 X191.267 Y140.433
G01 X191.231 Y140.489
G01 X191.191 Y140.542
G01 X191.150 Y140.593
G01 X191.106 Y140.641
G01 X191.061 Y140.687
G01 X191.013 Y140.729
G01 X190.964 Y140.768
G01 X190.914 Y140.805
G01 X190.863 Y140.838
G01 X190.810 Y140.868
G01 X190.757 Y140.895
G01 X190.703 Y140.919
G01 X190.648 Y140.940
G01 X190.593 Y140.958
G01 X190.538 Y140.973
G01 X190.483 Y140.984
G01 X190.428 Y140.993
G01 X190.374 Y140.998
G01 X190.320 Y141.001
G01 X190.266 Y141.001
G01 X190.214 Y140.998
G01 X190.162 Y140.992
G01 X190.111 Y140.984
G01 X190.062 Y140.973
G01 X190.014 Y140.960
G01 X189.967 Y140.944
G01 X189.922 Y140.926
G01 X189.879 Y140.906
G01 X189.837 Y140.884
G01 X189.798 Y140.860
G01 X189.760 Y140.835
G01 X189.724 Y140.808
G01 X189.690 Y140.779
G01 X189.659 Y140.749
G01 X189.630 Y140.718
G01 X189.602 Y140.686
G01 X189.577 Y140.653
G01 X189.555 Y140.619
G01 X189.534 Y140.584
G01 X189.516 Y140.549
G01 X189.501 Y140.514
G01 X189.487 Y140.479
G01 X189.476 Y140.443
G01 X189.467 Y140.408
G01 X189.460 Y140.372
G01 X189.455 Y140.337
G01 X189.452 Y140.303
G01 X189.452 Y140.269
G01 X189.453 Y140.236
G01 X189.457 Y140.203
G01 X189.462 Y140.172
G01 X189.469 Y140.141
G01 X189.477 Y140.112
G01 X189.487 Y140.084
G01 X189.499 Y140.057
G01 X189.512 Y140.031
G01 X189.526 Y140.007
G01 X189.542 Y139.984
G01 X189.558 Y139.963
G01 X189.575 Y139.943
G01 X189.594 Y139.925
G01 X189.613 Y139.909
G01 X189.632 Y139.894
G01 X189.652 Y139.881
G01 X189.672 Y139.870
G01 X189.693 Y139.860
G01 X189.714 Y139.852
G01 X189.734 Y139.846
G01 X189.755 Y139.841
G01 X189.775 Y139.838
G01 X189.796 Y139.837
G01 X189.815 Y139.837
G01 X189.834 Y139.839
G01 X189.853 Y139.842
G01 X189.870 Y139.847
G01 X189.887 Y139.853
G01 X189.903 Y139.860
G01 X189.918 Y139.868
G01 X189.932 Y139.878
G01 X189.945 Y139.888
G01 X189.957 Y139.899
G01 X189.967 Y139.912
G01 X189.976 Y139.925
G01 X189.984 Y139.938
G01 X189.990 Y139.952
G01 X189.995 Y139.967
G01 X189.998 Y139.982
G01 X190.000 Y139.997
G01 X190.000 Y140.000
G01 X189.995 Y139.951
G01 X189.985 Y139.902
G01 X189.970 Y139.854
G01 X189.951 Y139.808
G01 X189.927 Y139.763
G01 X189.899 Y139.720
G01 X189.866 Y139.680
G01 X189.829 Y139.642
G01 X189.788 Y139.607
G01 X189.743 Y139.575
G01 X189.695 Y139.547
G01 X189.644 Y139.523
G01 X189.589 Y139.503
G01 X189.532 Y139.487
G01 X189.472 Y139.476
G01 X189.410 Y139.469
G01 X189.346 Y139.467
G01 X189.281 Y139.471
G01 X189.214 Y139.479
G01 X189.147 Y139.493
G01 X189.079 Y139.512
G01 X189.012 Y139.537
G01 X188.944 Y139.567
G01 X188.877 Y139.603
G01 X188.812 Y139.644
G01 X188.748 Y139.691
G01 X188.685 Y139.744
G01 X188.625 Y139.801
G01 X188.612 Y139.815
G01 X155.308 Y135.368
G01 X148.629 Y133.797
G01 X141.209 Y130.242
G01 X136.615 Y126.568
G01 X133.887 Y124.047
G01 X130.958 Y120.035
G01 X128.521 Y116.098
G01 X126.929 Y111.842
G01 X125.612 Y107.376
G01 X125.515 Y106.990
G01 X125.160 Y102.685
G01 X125.077 Y98.268
G01 X125.093 Y97.409
G01 X125.248 Y96.043
G01 X125.685 Y91.565
G01 X126.409 Y87.026
G01 X126.545 Y86.329
G01 X127.071 Y81.242
G01 X127.842 Y76.616
G01 X128.485 Y70.781
G01 X129.139 Y66.902
G01 X129.880 Y61.351
G01 X131.453 Y55.074
G01 X132.090 Y52.950
G01 X134.918 Y47.677
G01 X136.300 Y45.352
G01 X140.151 Y41.128
G01 X142.133 Y39.124
G01 X146.777 Y36.023
G01 X149.159 Y34.560
G01 X154.376 Y32.664
G01 X157.069 Y31.797
G01 X162.638 Y31.190
G01 X165.408 Y30.993
G01 X171.107 Y31.755
G01 X173.850 Y32.235
G01 X179.445 Y34.456
G01 X181.740 Y35.483
G01 X187.000 Y39.281
G01 X188.723 Y40.651
G01 X193.397 Y46.289
G01 X194.218 Y47.379
G01 X197.839 Y55.105
G01 X199.433 Y62.857
G01 X199.323 Y70.153
G01 X199.265 Y70.616
G01 X190.185 Y138.612
G01 X190.000 Y140.000
G01 X190.006 Y139.959
G01 X190.017 Y139.918
G01 X190.031 Y139.879
G01 X190.050 Y139.841
G01 X190.072 Y139.804
G01 X190.097 Y139.770
G01 X190.127 Y139.737
G01 X190.159 Y139.707
G01 X190.195 Y139.679
G01 X190.234 Y139.655
G01 X190.276 Y139.634
G01 X190.320 Y139.615
G01 X190.367 Y139.601
G01 X190.416 Y139.590
G01 X190.466 Y139.583
G01 X190.519 Y139.580
G01 X190.572 Y139.582
G01 X190.627 Y139.587
G01 X190.682 Y139.597
G01 X190.738 Y139.612
G01 X190.794 Y139.631
G01 X190.850 Y139.655
G01 X190.905 Y139.683
G01 X190.959 Y139.716
G01 X191.013 Y139.754
G01 X191.065 Y139.796
G01 X191.115 Y139.842
G01 X191.163 Y139.894
G01 X191.208 Y139.949
G01 X191.251 Y140.009
G01 X191.290 Y140.072
G01 X191.327 Y140.140
G01 X191.358 Y140.209
G01 X194.574 Y140.934
G01 X197.714 Y141.974
G01 X200.755 Y143.323
G01 X203.675 Y144.972
G01 X206.451 Y146.913
G01 X209.063 Y149.136
G01 X211.489 Y151.628
G01 X213.709 Y154.376
G01 X215.705 Y157.366
G01 X216.787 Y159.270
G01 X218.009 Y162.313
G01 X218.991 Y165.519
G01 X219.721 Y168.871
G01 X220.188 Y172.350
G01 X220.364 Y175.215
G01 X220.137 Y178.633
G01 X220.060 Y179.324
G01 X220.614 Y176.218
G01 X220.939 Y173.156
G01 X220.986 Y172.386
G01 X221.475 Y169.820
G01 X221.790 Y167.286
G01 X221.913 Y165.448
G01 X222.346 Y163.291
G01 X222.646 Y161.155
G01 X222.816 Y159.047
G01 X222.839 Y158.509
G01 X223.228 Y156.635
G01 X223.513 Y154.768
G01 X223.695 Y152.914
G01 X223.766 Y151.571
G01 X224.127 Y149.852
G01 X224.402 Y148.126
G01 X224.589 Y146.397
G01 X224.691 Y144.669
G01 X224.692 Y144.632
G01 X225.049 Y142.939
G01 X225.324 Y141.221
G01 X225.513 Y139.484
G01 X225.617 Y137.731
G01 X225.619 Y137.694
G01 X225.996 Y135.888
G01 X226.281 Y134.040
G01 X226.470 Y132.154
G01 X226.545 Y130.755
G01 X226.963 Y128.693
G01 X227.265 Y126.568
G01 X227.445 Y124.387
G01 X227.471 Y123.817
G01 X227.946 Y121.352
G01 X228.266 Y118.804
G01 X228.398 Y116.879
G01 X228.939 Y113.867
G01 X229.274 Y110.748
G01 X229.324 Y109.940
G01 X226.300 Y109.317
G01 X225.279 Y109.155
G01 X222.830 Y108.323
G01 X221.354 Y107.900
G01 X219.292 Y106.907
G01 X217.603 Y106.193
G01 X215.794 Y105.038
G01 X214.079 Y104.056
G01 X212.419 Y102.697
G01 X210.831 Y101.520
G01 X209.239 Y99.874
G01 X207.904 Y98.620
G01 X206.317 Y96.552
G01 X205.337 Y95.396
G01 X203.708 Y92.701
G01 X203.167 Y91.892
G01 X201.469 Y88.244
G01 X201.425 Y88.158
G01 X199.806 Y82.910
G01 X199.028 Y77.473
G01 X199.110 Y71.981
G01 X199.265 Y70.616
G01 X190.185 Y138.612
G01 X190.000 Y140.000
G01 X190.003 Y139.963
G01 X190.002 Y139.926
G01 X189.997 Y139.888
G01 X189.989 Y139.852
G01 X189.977 Y139.815
G01 X189.961 Y139.780
G01 X189.942 Y139.746
G01 X189.920 Y139.713
G01 X189.894 Y139.682
G01 X189.865 Y139.653
G01 X189.833 Y139.626
G01 X189.798 Y139.601
G01 X189.760 Y139.579
G01 X189.720 Y139.560
G01 X189.677 Y139.544
G01 X189.632 Y139.531
G01 X189.585 Y139.522
G01 X189.537 Y139.516
G01 X189.486 Y139.514
G01 X189.435 Y139.515
G01 X189.382 Y139.521
G01 X189.329 Y139.530
G01 X189.275 Y139.544
G01 X189.221 Y139.562
G01 X189.168 Y139.584
G01 X189.114 Y139.610
G01 X189.061 Y139.641
G01 X189.009 Y139.675
G01 X188.959 Y139.715
G01 X188.910 Y139.758
G01 X188.862 Y139.806
G01 X188.817 Y139.857
G01 X188.775 Y139.913
G01 X188.734 Y139.972
G01 X188.697 Y140.035
G01 X188.664 Y140.102
G01 X188.633 Y140.172
G01 X188.617 Y140.216
G01 X120.838 Y150.798
G01 X113.785 Y152.668
G01 X106.754 Y156.302
G01 X100.297 Y161.881
G01 X96.033 Y167.871
G01 X95.309 Y168.993
G01 X92.943 Y175.012
G01 X92.226 Y177.114
G01 X91.456 Y183.050
G01 X91.237 Y185.589
G01 X91.892 Y191.269
G01 X92.328 Y194.052
G01 X94.284 Y199.283
G01 X95.361 Y201.862
G01 X98.485 Y206.449
G01 X100.163 Y208.727
G01 X104.326 Y212.475
G01 X106.459 Y214.255
G01 X111.525 Y216.967
G01 X114.034 Y218.182
G01 X119.867 Y219.651
G01 X122.334 Y220.160
G01 X128.814 Y220.155
G01 X131.020 Y220.050
G01 X131.635 Y219.960
G01 X138.022 Y219.086
G01 X141.318 Y218.448
G01 X146.901 Y217.721
G01 X151.001 Y216.936
G01 X155.908 Y216.329
G01 X160.658 Y215.430
G01 X160.684 Y215.425
G01 X165.086 Y214.773
G01 X166.216 Y214.561
G01 X170.486 Y213.447
G01 X174.587 Y212.099
G01 X175.401 Y211.797
G01 X179.394 Y209.463
G01 X183.121 Y206.918
G01 X183.490 Y206.644
G01 X186.953 Y203.039
G01 X189.876 Y199.489
G01 X192.558 Y194.375
G01 X194.081 Y190.869
G01 X195.625 Y183.317
G01 X195.704 Y182.803
G01 X195.584 Y175.943
G01 X195.399 Y174.581
G01 X190.216 Y141.383
G01 X190.146 Y141.371
G01 X190.077 Y141.356
G01 X190.010 Y141.337
G01 X189.945 Y141.315
G01 X189.883 Y141.289
G01 X189.823 Y141.261
G01 X189.765 Y141.230
G01 X189.710 Y141.197
G01 X189.657 Y141.161
G01 X189.608 Y141.123
G01 X189.561 Y141.083
G01 X189.517 Y141.041
G01 X189.477 Y140.997
G01 X189.439 Y140.952
G01 X189.405 Y140.906
G01 X189.373 Y140.859
G01 X189.345 Y140.811
G01 X189.320 Y140.762
G01 X189.298 Y140.712
G01 X189.280 Y140.663
G01 X189.264 Y140.613
G01 X189.252 Y140.564
G01 X189.242 Y140.515
G01 X189.236 Y140.466
G01 X189.233 Y140.418
G01 X189.232 Y140.370
G01 X189.234 Y140.324
G01 X189.239 Y140.279
G01 X189.246 Y140.235
G01 X189.256 Y140.192
G01 X189.268 Y140.151
G01 X189.282 Y140.112
G01 X189.299 Y140.074
G01 X189.317 Y140.039
G01 X189.337 Y140.005
G01 X189.358 Y139.973
G01 X189.381 Y139.944
G01 X189.406 Y139.916
G01 X189.431 Y139.891
G01 X189.458 Y139.869
G01 X189.485 Y139.848
G01 X189.513 Y139.830
G01 X189.541 Y139.814
G01 X189.570 Y139.801
G01 X189.599 Y139.790
G01 X189.628 Y139.781
G01 X189.657 Y139.775
G01 X189.685 Y139.770
G01 X189.713 Y139.768
G01 X189.741 Y139.769
G01 X189.767 Y139.771
G01 X189.793 Y139.775
G01 X189.818 Y139.782
G01 X189.842 Y139.790
G01 X189.864 Y139.800
G01 X189.885 Y139.811
G01 X189.904 Y139.824
G01 X189.922 Y139.839
G01 X189.938 Y139.855
G01 X189.953 Y139.871
G01 X189.966 Y139.889
G01 X189.976 Y139.908
G01 X189.985 Y139.928
G01 X189.992 Y139.948
G01 X189.997 Y139.969
G01 X189.999 Y139.989
G01 X190.000 Y140.000
G01 X189.819 Y137.769
G01 X189.419 Y135.562
G01 X189.136 Y134.467
G01 X184.601 Y105.419
G01 X184.212 Y98.569
G01 X185.517 Y90.445
G01 X187.737 Y84.998
G01 X189.380 Y81.667
G01 X192.397 Y77.720
G01 X195.481 Y74.266
G01 X199.110 Y71.532
G01 X203.020 Y69.003
G01 X203.362 Y68.800
G01 X207.390 Y67.238
G01 X211.602 Y65.906
G01 X212.430 Y65.678
G01 X213.784 Y65.439
G01 X218.202 Y64.587
G01 X222.759 Y63.994
G01 X223.466 Y63.927
G01 X228.494 Y62.989
G01 X233.149 Y62.416
G01 X238.926 Y61.377
G01 X242.832 Y60.904
G01 X248.365 Y60.040
G01 X254.830 Y59.767
G01 X257.047 Y59.776
G01 X262.906 Y60.992
G01 X265.528 Y61.658
G01 X270.670 Y64.152
G01 X273.155 Y65.484
G01 X277.445 Y69.058
G01 X279.524 Y70.927
G01 X282.821 Y75.392
G01 X284.417 Y77.728
G01 X286.579 Y82.897
G01 X287.553 Y85.497
G01 X288.439 Y91.178
G01 X288.757 Y93.944
G01 X288.215 Y99.940
G01 X287.881 Y102.432
G01 X285.731 Y108.553
G01 X284.906 Y110.594
G01 X280.826 Y116.675
G01 X280.013 Y117.772
G01 X273.632 Y123.435
G01 X266.650 Y127.163
G01 X259.623 Y129.127
G01 X259.162 Y129.202
G01 X191.383 Y139.784
G01 X191.326 Y139.726
G01 X191.267 Y139.672
G01 X191.205 Y139.624
G01 X191.142 Y139.582
G01 X191.078 Y139.544
G01 X191.013 Y139.511
G01 X190.947 Y139.484
G01 X190.882 Y139.462
G01 X190.816 Y139.446
G01 X190.751 Y139.434
G01 X190.687 Y139.427
G01 X190.625 Y139.425
G01 X190.564 Y139.428
G01 X190.504 Y139.435
G01 X190.447 Y139.447
G01 X190.392 Y139.463
G01 X190.340 Y139.482
G01 X190.291 Y139.506
G01 X190.245 Y139.533
G01 X190.203 Y139.563
G01 X190.164 Y139.596
G01 X190.129 Y139.632
G01 X190.097 Y139.670
G01 X190.070 Y139.710
G01 X190.047 Y139.752
G01 X190.029 Y139.796
G01 X190.014 Y139.840
G01 X190.005 Y139.886
G01 X189.999 Y139.932
G01 X189.999 Y139.978
G01 X190.000 Y140.000
G01 X189.999 Y139.978
G01 X190.001 Y139.956
G01 X190.004 Y139.935
G01 X190.010 Y139.913
G01 X190.018 Y139.892
G01 X190.028 Y139.872
G01 X190.040 Y139.852
G01 X190.054 Y139.834
G01 X190.069 Y139.816
G01 X190.087 Y139.800
G01 X190.107 Y139.785
G01 X190.128 Y139.771
G01 X190.150 Y139.759
G01 X190.174 Y139.749
G01 X190.200 Y139.740
G01 X190.227 Y139.734
G01 X190.254 Y139.729
G01 X190.283 Y139.727
G01 X190.312 Y139.727
G01 X190.343 Y139.729
G01 X190.373 Y139.733
G01 X190.404 Y139.740
G01 X190.436 Y139.749
G01 X190.467 Y139.761
G01 X190.498 Y139.775
G01 X190.529 Y139.792
G01 X190.559 Y139.811
G01 X190.589 Y139.833
G01 X190.617 Y139.857
G01 X190.645 Y139.883
G01 X190.672 Y139.912
G01 X190.697 Y139.944
G01 X190.721 Y139.977
G01 X190.743 Y140.013
G01 X190.763 Y140.051
G01 X190.781 Y140.091
G01 X190.798 Y140.133
G01 X190.812 Y140.176
G01 X190.823 Y140.222
G01 X190.832 Y140.268
G01 X190.838 Y140.317
G01 X190.842 Y140.366
G01 X190.842 Y140.417
G01 X190.840 Y140.468
G01 X190.835 Y140.520
G01 X190.826 Y140.573
G01 X190.814 Y140.626
G01 X190.799 Y140.680
G01 X190.781 Y140.733
G01 X190.759 Y140.786
G01 X190.734 Y140.839
G01 X190.705 Y140.891
G01 X190.674 Y140.942
G01 X190.638 Y140.993
G01 X190.600 Y141.042
G01 X190.558 Y141.089
G01 X190.513 Y141.135
G01 X190.465 Y141.179
G01 X190.413 Y141.221
G01 X190.359 Y141.261
G01 X190.301 Y141.299
G01 X190.241 Y141.333
G01 X190.185 Y141.362
G01 X190.402 Y144.651
G01 X190.295 Y147.957
G01 X189.865 Y151.256
G01 X189.111 Y154.524
G01 X188.037 Y157.737
G01 X186.647 Y160.871
G01 X184.945 Y163.905
G01 X182.940 Y166.813
G01 X180.639 Y169.575
G01 X179.120 Y171.153
G01 X176.548 Y173.188
G01 X173.753 Y175.039
G01 X170.746 Y176.690
G01 X167.542 Y178.124
G01 X164.845 Y179.106
G01 X161.502 Y179.858
G01 X160.818 Y179.980
G01 X163.954 Y179.630
G01 X166.982 Y179.074
G01 X167.734 Y178.900
G01 X170.333 Y178.641
G01 X172.852 Y178.224
G01 X174.650 Y177.820
G01 X176.841 Y177.624
G01 X178.974 Y177.306
G01 X181.044 Y176.871
G01 X181.566 Y176.741
G01 X183.474 Y176.582
G01 X185.345 Y176.325
G01 X187.175 Y175.975
G01 X188.483 Y175.661
G01 X190.233 Y175.520
G01 X191.966 Y175.294
G01 X193.677 Y174.983
G01 X195.363 Y174.590
G01 X195.399 Y174.581
G01 X197.124 Y174.443
G01 X198.849 Y174.219
G01 X200.568 Y173.908
G01 X202.279 Y173.511
G01 X202.315 Y173.501
G01 X204.154 Y173.351
G01 X206.007 Y173.100
G01 X207.869 Y172.746
G01 X209.231 Y172.422
G01 X211.327 Y172.238
G01 X213.451 Y171.924
G01 X215.593 Y171.479
G01 X216.147 Y171.342
G01 X218.646 Y171.098
G01 X221.180 Y170.681
G01 X223.064 Y170.262
G01 X226.106 Y169.927
G01 X229.190 Y169.363
G01 X229.980 Y169.182
G01 X229.720 Y166.105
G01 X229.585 Y165.080
G01 X229.688 Y162.496
G01 X229.675 Y160.960
G01 X230.042 Y158.702
G01 X230.249 Y156.880
G01 X230.843 Y154.817
G01 X231.298 Y152.894
G01 X232.130 Y150.917
G01 X232.808 Y149.060
G01 X233.936 Y147.067
G01 X234.759 Y145.430
G01 X236.292 Y143.322
G01 X237.123 Y142.055
G01 X239.245 Y139.728
G01 X239.867 Y138.980
G01 X242.883 Y136.317
G01 X242.954 Y136.250
G01 X247.527 Y133.208
G01 X252.520 Y130.920
G01 X257.809 Y129.441
G01 X259.162 Y129.202
G01 X191.383 Y139.784
G01 X191.327 Y139.726
G01 X191.268 Y139.672
G01 X191.208 Y139.624
G01 X191.146 Y139.580
G01 X191.082 Y139.542
G01 X191.018 Y139.509
G01 X190.953 Y139.481
G01 X190.888 Y139.458
G01 X190.823 Y139.441
G01 X190.759 Y139.428
G01 X190.696 Y139.420
G01 X190.633 Y139.417
G01 X190.572 Y139.419
G01 X190.513 Y139.425
G01 X190.456 Y139.436
G01 X190.401 Y139.450
G01 X190.349 Y139.469
G01 X190.300 Y139.491
G01 X190.254 Y139.517
G01 X190.211 Y139.546
G01 X190.171 Y139.578
G01 X190.135 Y139.612
G01 X190.104 Y139.649
G01 X190.076 Y139.688
G01 X190.052 Y139.729
G01 X190.032 Y139.771
G01 X190.017 Y139.815
G01 X190.006 Y139.859
G01 X189.999 Y139.904
G01 X189.997 Y139.949
G01 X189.999 Y139.994
G01 X190.000 Y140.000
G01 X189.966 Y139.794
G01 X189.913 Y139.593
G01 X189.839 Y139.396
G01 X189.747 Y139.206
G01 X189.635 Y139.024
G01 X189.505 Y138.852
G01 X189.401 Y138.735
G01 X160.027 Y76.742
G01 X156.233 Y70.509
G01 X150.754 Y64.798
G01 X143.573 Y60.189
G01 X136.619 Y57.798
G01 X135.338 Y57.423
G01 X128.895 Y56.861
G01 X126.676 Y56.770
G01 X120.765 Y57.715
G01 X118.268 Y58.226
G01 X113.007 Y60.465
G01 X110.463 Y61.673
G01 X106.001 Y65.032
G01 X103.834 Y66.796
G01 X100.321 Y71.093
G01 X98.612 Y73.348
G01 X96.199 Y78.403
G01 X95.098 Y80.953
G01 X93.934 Y86.582
G01 X93.480 Y89.331
G01 X93.726 Y95.342
G01 X93.938 Y97.852
G01 X95.782 Y104.064
G01 X96.507 Y106.150
G01 X96.769 Y106.714
G01 X99.419 Y112.591
G01 X100.965 Y115.571
G01 X103.246 Y120.718
G01 X105.161 Y124.427
G01 X107.136 Y128.960
G01 X109.345 Y133.260
G01 X109.357 Y133.283
G01 X111.231 Y137.320
G01 X111.755 Y138.344
G01 X114.034 Y142.122
G01 X116.490 Y145.672
G01 X117.011 Y146.366
G01 X120.381 Y149.533
G01 X123.880 Y152.386
G01 X124.246 Y152.661
G01 X128.686 Y154.960
G01 X132.919 Y156.756
G01 X138.584 Y157.877
G01 X142.378 Y158.343
G01 X150.057 Y157.682
G01 X150.573 Y157.611
G01 X157.117 Y155.550
G01 X158.371 Y154.986
G01 X188.735 Y140.599
G01 X188.780 Y140.653
G01 X188.828 Y140.704
G01 X188.877 Y140.751
G01 X188.929 Y140.796
G01 X188.982 Y140.837
G01 X189.036 Y140.875
G01 X189.092 Y140.909
G01 X189.149 Y140.940
G01 X189.206 Y140.968
G01 X189.265 Y140.993
G01 X189.323 Y141.014
G01 X189.382 Y141.032
G01 X189.442 Y141.047
G01 X189.501 Y141.058
G01 X189.559 Y141.066
G01 X189.618 Y141.071
G01 X189.675 Y141.073
G01 X189.732 Y141.071
G01 X189.789 Y141.067
G01 X189.844 Y141.060
G01 X189.897 Y141.050
G01 X189.950 Y141.037
G01 X190.001 Y141.022
G01 X190.050 Y141.004
G01 X190.098 Y140.984
G01 X190.143 Y140.962
G01 X190.187 Y140.938
G01 X190.229 Y140.911
G01 X190.269 Y140.883
G01 X190.306 Y140.854
G01 X190.341 Y140.822
G01 X190.374 Y140.790
G01 X190.405 Y140.756
G01 X190.433 Y140.721
G01 X190.459 Y140.685
G01 X190.482 Y140.649
G01 X190.503 Y140.612
G01 X190.521 Y140.574
G01 X190.537 Y140.536
G01 X190.550 Y140.498
G01 X190.562 Y140.460
G01 X190.570 Y140.422
G01 X190.577 Y140.385
G01 X190.581 Y140.347
G01 X190.583 Y140.311
G01 X190.582 Y140.275
G01 X190.580 Y140.240
G01 X190.575 Y140.205
G01 X190.569 Y140.172
G01 X190.561 Y140.140
G01 X190.551 Y140.109
G01 X190.539 Y140.080
G01 X190.526 Y140.051
G01 X190.512 Y140.025
G01 X190.496 Y140.000
G01 X190.479 Y139.976
G01 X190.461 Y139.954
G01 X190.442 Y139.934
G01 X190.422 Y139.916
G01 X190.401 Y139.899
G01 X190.380 Y139.884
G01 X190.358 Y139.871
G01 X190.337 Y139.860
G01 X190.314 Y139.851
G01 X190.292 Y139.844
G01 X190.270 Y139.838
G01 X190.248 Y139.834
G01 X190.227 Y139.832
G01 X190.205 Y139.831
G01 X190.185 Y139.832
G01 X190.165 Y139.835
G01 X190.145 Y139.840
G01 X190.127 Y139.845
G01 X190.109 Y139.852
G01 X190.093 Y139.861
G01 X190.077 Y139.871
G01 X190.063 Y139.882
G01 X190.050 Y139.893
G01 X190.039 Y139.906
G01 X190.029 Y139.920
G01 X190.020 Y139.934
G01 X190.013 Y139.950
G01 X190.007 Y139.965
G01 X190.003 Y139.981
G01 X190.000 Y139.997
G01 X190.000 Y140.000
G01 X190.009 Y139.934
G01 X190.025 Y139.870
G01 X190.047 Y139.807
G01 X190.075 Y139.746
G01 X190.109 Y139.688
G01 X190.149 Y139.632
G01 X190.194 Y139.580
G01 X190.245 Y139.531
G01 X190.302 Y139.487
G01 X190.363 Y139.447
G01 X190.428 Y139.412
G01 X190.498 Y139.382
G01 X190.572 Y139.358
G01 X190.649 Y139.339
G01 X190.729 Y139.327
G01 X190.812 Y139.321
G01 X190.897 Y139.322
G01 X190.984 Y139.330
G01 X191.072 Y139.344
G01 X191.161 Y139.366
G01 X191.250 Y139.395
G01 X191.265 Y139.401
G01 X221.629 Y125.014
G01 X228.088 Y122.698
G01 X236.248 Y121.645
G01 X242.101 Y122.228
G01 X245.761 Y122.859
G01 X250.402 Y124.632
G01 X254.588 Y126.610
G01 X258.240 Y129.314
G01 X261.774 Y132.346
G01 X262.066 Y132.616
G01 X264.706 Y136.035
G01 X267.178 Y139.697
G01 X267.632 Y140.426
G01 X268.245 Y141.656
G01 X270.315 Y145.652
G01 X272.176 Y149.854
G01 X272.441 Y150.513
G01 X274.767 Y155.068
G01 X276.637 Y159.369
G01 X279.272 Y164.614
G01 X280.833 Y168.225
G01 X283.231 Y173.286
G01 X285.327 Y179.408
G01 X285.948 Y181.537
G01 X286.443 Y187.499
G01 X286.549 Y190.203
G01 X285.615 Y195.841
G01 X285.043 Y198.602
G01 X282.833 Y203.730
G01 X281.630 Y206.253
G01 X278.284 Y210.682
G01 X276.496 Y212.874
G01 X272.153 Y216.414
G01 X269.936 Y218.086
G01 X264.740 Y220.547
G01 X262.177 Y221.636
G01 X256.275 Y222.817
G01 X253.790 Y223.204
G01 X247.311 Y222.879
G01 X245.120 Y222.667
G01 X238.131 Y220.478
G01 X236.849 Y220.011
G01 X229.607 Y215.498
G01 X224.053 Y209.860
G01 X220.175 Y203.679
G01 X219.973 Y203.258
G01 X190.599 Y141.265
G01 X190.648 Y141.211
G01 X190.693 Y141.155
G01 X190.734 Y141.097
G01 X190.771 Y141.038
G01 X190.804 Y140.979
G01 X190.833 Y140.918
G01 X190.859 Y140.857
G01 X190.880 Y140.796
G01 X190.897 Y140.735
G01 X190.911 Y140.674
G01 X190.921 Y140.614
G01 X190.927 Y140.555
G01 X190.929 Y140.496
G01 X190.928 Y140.438
G01 X190.924 Y140.382
G01 X190.917 Y140.327
G01 X190.906 Y140.274
G01 X190.892 Y140.223
G01 X190.876 Y140.174
G01 X190.857 Y140.127
G01 X190.836 Y140.082
G01 X190.812 Y140.039
G01 X190.787 Y139.999
G01 X190.759 Y139.962
G01 X190.730 Y139.928
G01 X190.699 Y139.896
G01 X190.667 Y139.867
G01 X190.633 Y139.841
G01 X190.599 Y139.818
G01 X190.565 Y139.798
G01 X190.529 Y139.780
G01 X190.494 Y139.766
G01 X190.458 Y139.755
G01 X190.423 Y139.746
G01 X190.388 Y139.741
G01 X190.353 Y139.738
G01 X190.319 Y139.738
G01 X190.286 Y139.740
G01 X190.254 Y139.745
G01 X190.223 Y139.753
G01 X190.194 Y139.763
G01 X190.166 Y139.775
G01 X190.140 Y139.790
G01 X190.116 Y139.806
G01 X190.094 Y139.824
G01 X190.074 Y139.844
G01 X190.056 Y139.865
G01 X190.040 Y139.887
G01 X190.027 Y139.911
G01 X190.016 Y139.936
G01 X190.008 Y139.961
G01 X190.002 Y139.987
G01 X190.000 Y140.000
G01 X190.002 Y139.968
G01 X190.002 Y139.936
G01 X189.998 Y139.904
G01 X189.991 Y139.873
G01 X189.980 Y139.842
G01 X189.967 Y139.812
G01 X189.951 Y139.782
G01 X189.932 Y139.754
G01 X189.910 Y139.728
G01 X189.885 Y139.703
G01 X189.858 Y139.679
G01 X189.828 Y139.658
G01 X189.796 Y139.639
G01 X189.761 Y139.623
G01 X189.725 Y139.609
G01 X189.686 Y139.598
G01 X189.646 Y139.590
G01 X189.604 Y139.584
G01 X189.561 Y139.582
G01 X189.517 Y139.584
G01 X189.472 Y139.588
G01 X189.427 Y139.596
G01 X189.381 Y139.608
G01 X189.334 Y139.623
G01 X189.288 Y139.642
G01 X189.242 Y139.664
G01 X189.197 Y139.690
G01 X189.152 Y139.720
G01 X189.109 Y139.753
G01 X189.067 Y139.790
G01 X189.026 Y139.831
G01 X188.988 Y139.875
G01 X188.951 Y139.923
G01 X188.916 Y139.973
G01 X188.885 Y140.027
G01 X188.856 Y140.084
G01 X188.829 Y140.144
G01 X188.806 Y140.207
G01 X188.787 Y140.272
G01 X188.771 Y140.340
G01 X188.759 Y140.410
G01 X188.751 Y140.482
G01 X188.747 Y140.555
G01 X188.747 Y140.564
G01 X185.654 Y141.705
G01 X182.453 Y142.540
G01 X179.168 Y143.063
G01 X175.821 Y143.268
G01 X172.435 Y143.149
G01 X169.035 Y142.705
G01 X165.644 Y141.934
G01 X162.285 Y140.836
G01 X158.984 Y139.412
G01 X157.041 Y138.404
G01 X154.360 Y136.515
G01 X151.791 Y134.359
G01 X149.355 Y131.945
G01 X147.071 Y129.278
G01 X145.365 Y126.971
G01 X143.696 Y123.979
G01 X143.384 Y123.357
G01 X144.609 Y126.265
G01 X146.002 Y129.012
G01 X146.382 Y129.683
G01 X147.367 Y132.102
G01 X148.482 Y134.399
G01 X149.379 Y136.009
G01 X150.189 Y138.054
G01 X151.099 Y140.009
G01 X152.103 Y141.871
G01 X152.376 Y142.335
G01 X153.070 Y144.118
G01 X153.846 Y145.840
G01 X154.702 Y147.495
G01 X155.373 Y148.661
G01 X156.005 Y150.299
G01 X156.714 Y151.897
G01 X157.497 Y153.450
G01 X158.352 Y154.955
G01 X158.371 Y154.986
G01 X158.992 Y156.602
G01 X159.696 Y158.192
G01 X160.482 Y159.753
G01 X161.349 Y161.280
G01 X161.368 Y161.312
G01 X162.034 Y163.033
G01 X162.800 Y164.739
G01 X163.668 Y166.424
G01 X164.365 Y167.638
G01 X165.136 Y169.596
G01 X166.039 Y171.543
G01 X167.074 Y173.471
G01 X167.363 Y173.964
G01 X168.305 Y176.290
G01 X169.424 Y178.603
G01 X170.360 Y180.290
G01 X171.544 Y183.112
G01 X172.960 Y185.910
G01 X173.357 Y186.616
G01 X176.234 Y185.493
G01 X177.179 Y185.073
G01 X179.686 Y184.439
G01 X181.155 Y183.991
G01 X183.425 Y183.703
G01 X185.231 Y183.384
G01 X187.377 Y183.368
G01 X189.350 Y183.259
G01 X191.482 Y183.496
G01 X193.455 Y183.620
G01 X195.686 Y184.136
G01 X197.489 Y184.461
G01 X199.946 Y185.333
G01 X201.397 Y185.770
G01 X204.229 Y187.145
G01 X205.123 Y187.529
G01 X208.533 Y189.666
G01 X208.617 Y189.715
G01 X212.831 Y193.237
G01 X216.441 Y197.376
G01 X219.360 Y202.028
G01 X219.973 Y203.258
G01 X190.599 Y141.265
G01 X190.648 Y141.210
G01 X190.692 Y141.153
G01 X190.732 Y141.095
G01 X190.769 Y141.035
G01 X190.801 Y140.975
G01 X190.829 Y140.914
G01 X190.854 Y140.852
G01 X190.874 Y140.791
G01 X190.890 Y140.730
G01 X190.903 Y140.669
G01 X190.911 Y140.608
G01 X190.916 Y140.548
G01 X190.918 Y140.490
G01 X190.916 Y140.432
G01 X190.910 Y140.376
G01 X190.902 Y140.322
G01 X190.890 Y140.269
G01 X190.875 Y140.219
G01 X190.858 Y140.170
G01 X190.837 Y140.124
G01 X190.815 Y140.080
G01 X190.790 Y140.038
G01 X190.764 Y139.999
G01 X190.735 Y139.963
G01 X190.705 Y139.930
G01 X190.673 Y139.900
G01 X190.640 Y139.872
G01 X190.606 Y139.848
G01 X190.572 Y139.826
G01 X190.536 Y139.808
G01 X190.501 Y139.792
G01 X190.465 Y139.780
G01 X190.429 Y139.770
G01 X190.394 Y139.764
G01 X190.359 Y139.760
G01 X190.324 Y139.759
G01 X190.291 Y139.761
G01 X190.258 Y139.766
G01 X190.227 Y139.773
G01 X190.197 Y139.783
G01 X190.168 Y139.795
G01 X190.141 Y139.809
G01 X190.117 Y139.825
G01 X190.094 Y139.843
G01 X190.073 Y139.863
G01 X190.054 Y139.885
G01 X190.038 Y139.908
G01 X190.024 Y139.932
G01 X190.013 Y139.958
G01 X190.004 Y139.984
G01 X190.000 Y140.000
G01 X190.029 Y139.894
G01 X190.068 Y139.791
G01 X190.117 Y139.692
G01 X190.176 Y139.597
G01 X190.245 Y139.508
G01 X190.322 Y139.424
G01 X190.408 Y139.348
G01 X190.503 Y139.278
G01 X190.605 Y139.217
G01 X190.714 Y139.164
G01 X190.829 Y139.120
G01 X190.951 Y139.085
G01 X191.043 Y139.066
G01 X242.158 Y93.314
G01 X247.058 Y87.908
G01 X250.980 Y81.034
G01 X253.363 Y72.841
G01 X253.683 Y65.494
G01 X253.680 Y64.159
G01 X252.391 Y57.821
G01 X251.848 Y55.668
G01 X249.265 Y50.268
G01 X248.068 Y48.018
G01 X244.428 Y43.609
G01 X242.548 Y41.511
G01 X238.061 Y38.186
G01 X235.755 Y36.608
G01 X230.638 Y34.458
G01 X227.991 Y33.460
G01 X222.459 Y32.579
G01 X219.701 Y32.247
G01 X213.974 Y32.727
G01 X211.208 Y33.072
G01 X205.515 Y35.013
G01 X203.168 Y35.928
G01 X197.734 Y39.458
G01 X195.939 Y40.746
G01 X195.472 Y41.156
G01 X190.589 Y45.364
G01 X188.170 Y47.692
G01 X183.881 Y51.340
G01 X180.868 Y54.228
G01 X177.081 Y57.408
G01 X173.584 Y60.746
G01 X173.566 Y60.764
G01 X170.227 Y63.707
G01 X169.393 Y64.499
G01 X166.417 Y67.757
G01 X163.709 Y71.119
G01 X163.191 Y71.815
G01 X161.110 Y75.945
G01 X159.367 Y80.109
G01 X159.207 Y80.539
G01 X158.262 Y85.448
G01 X157.741 Y90.017
G01 X158.273 Y95.767
G01 X158.902 Y99.537
G01 X161.714 Y106.714
G01 X161.928 Y107.188
G01 X165.761 Y112.879
G01 X166.657 Y113.921
G01 X189.066 Y138.957
G01 X189.162 Y138.966
G01 X189.255 Y138.982
G01 X189.344 Y139.005
G01 X189.429 Y139.033
G01 X189.509 Y139.068
G01 X189.585 Y139.108
G01 X189.655 Y139.153
G01 X189.720 Y139.202
G01 X189.779 Y139.256
G01 X189.832 Y139.313
G01 X189.879 Y139.374
G01 X189.920 Y139.437
G01 X189.954 Y139.503
G01 X189.982 Y139.571
G01 X190.002 Y139.639
G01 X190.016 Y139.709
G01 X190.023 Y139.779
G01 X190.023 Y139.849
G01 X190.017 Y139.918
G01 X190.004 Y139.986
G01 X190.000 Y140.000
G01 X190.010 Y139.970
G01 X190.023 Y139.940
G01 X190.038 Y139.912
G01 X190.057 Y139.885
G01 X190.078 Y139.860
G01 X190.101 Y139.837
G01 X190.127 Y139.816
G01 X190.156 Y139.797
G01 X190.186 Y139.781
G01 X190.218 Y139.767
G01 X190.253 Y139.755
G01 X190.288 Y139.747
G01 X190.325 Y139.742
G01 X190.364 Y139.739
G01 X190.403 Y139.740
G01 X190.443 Y139.744
G01 X190.483 Y139.752
G01 X190.524 Y139.762
G01 X190.565 Y139.777
G01 X190.605 Y139.794
G01 X190.645 Y139.816
G01 X190.685 Y139.840
G01 X190.723 Y139.868
G01 X190.761 Y139.900
G01 X190.796 Y139.935
G01 X190.831 Y139.973
G01 X190.863 Y140.014
G01 X190.893 Y140.058
G01 X190.921 Y140.106
G01 X190.946 Y140.156
G01 X190.969 Y140.209
G01 X190.988 Y140.265
G01 X191.004 Y140.323
G01 X191.017 Y140.383
G01 X191.027 Y140.445
G01 X191.032 Y140.509
G01 X191.034 Y140.574
G01 X191.032 Y140.641
G01 X191.025 Y140.709
G01 X191.015 Y140.778
G01 X190.999 Y140.848
G01 X190.980 Y140.918
G01 X190.956 Y140.988
G01 X190.934 Y141.043
G01 X213.343 Y166.079
G01 X217.396 Y171.615
G01 X220.720 Y179.141
G01 X221.821 Y184.919
G01 X222.254 Y188.609
G01 X221.871 Y193.562
G01 X221.161 Y198.137
G01 X219.604 Y202.406
G01 X217.700 Y206.654
G01 X217.523 Y207.011
G01 X214.993 Y210.513
G01 X212.183 Y213.922
G01 X211.613 Y214.564
G01 X210.607 Y215.501
G01 X207.363 Y218.619
G01 X203.861 Y221.596
G01 X203.305 Y222.037
G01 X199.596 Y225.560
G01 X196.002 Y228.573
G01 X191.720 Y232.588
G01 X188.700 Y235.109
G01 X184.528 Y238.844
G01 X179.251 Y242.590
G01 X177.386 Y243.789
G01 X171.809 Y245.956
G01 X169.246 Y246.824
G01 X163.575 Y247.528
G01 X160.766 Y247.762
G01 X155.221 Y247.097
G01 X152.460 Y246.660
G01 X147.264 Y244.708
G01 X144.655 Y243.615
G01 X140.029 Y240.455
G01 X137.797 Y238.803
G01 X133.962 Y234.518
G01 X132.191 Y232.370
G01 X129.384 Y227.044
G01 X128.309 Y224.772
G01 X126.783 Y218.466
G01 X126.364 Y216.305
G01 X126.480 Y208.982
G01 X126.565 Y207.620
G01 X128.839 Y199.396
G01 X132.669 Y192.470
G01 X137.497 Y186.999
G01 X137.842 Y186.686
G01 X188.957 Y140.934
G01 X189.017 Y140.971
G01 X189.079 Y141.004
G01 X189.141 Y141.033
G01 X189.204 Y141.059
G01 X189.268 Y141.081
G01 X189.332 Y141.100
G01 X189.395 Y141.115
G01 X189.459 Y141.126
G01 X189.522 Y141.134
G01 X189.585 Y141.138
G01 X189.647 Y141.139
G01 X189.708 Y141.137
G01 X189.768 Y141.131
G01 X189.826 Y141.123
G01 X189.884 Y141.111
G01 X189.939 Y141.097
G01 X189.993 Y141.079
G01 X190.045 Y141.059
G01 X190.096 Y141.037
G01 X190.144 Y141.013
G01 X190.190 Y140.986
G01 X190.233 Y140.957
G01 X190.275 Y140.926
G01 X190.314 Y140.894
G01 X190.350 Y140.860
G01 X190.384 Y140.825
G01 X190.415 Y140.788
G01 X190.444 Y140.751
G01 X190.469 Y140.712
G01 X190.493 Y140.673
G01 X190.513 Y140.633
G01 X190.531 Y140.593
G01 X190.546 Y140.553
G01 X190.559 Y140.513
G01 X190.569 Y140.473
G01 X190.576 Y140.433
G01 X190.581 Y140.394
G01 X190.584 Y140.355
G01 X190.584 Y140.317
G01 X190.582 Y140.280
G01 X190.577 Y140.243
G01 X190.571 Y140.208
G01 X190.562 Y140.174
G01 X190.552 Y140.142
G01 X190.540 Y140.111
G01 X190.526 Y140.081
G01 X190.511 Y140.054
G01 X190.494 Y140.027
G01 X190.476 Y140.003
G01 X190.456 Y139.980
G01 X190.436 Y139.960
G01 X190.415 Y139.941
G01 X190.393 Y139.924
G01 X190.371 Y139.910
G01 X190.348 Y139.897
G01 X190.324 Y139.886
G01 X190.301 Y139.878
G01 X190.277 Y139.871
G01 X190.254 Y139.866
G01 X190.231 Y139.864
G01 X190.208 Y139.863
G01 X190.186 Y139.864
G01 X190.164 Y139.867
G01 X190.144 Y139.871
G01 X190.124 Y139.878
G01 X190.105 Y139.886
G01 X190.087 Y139.895
G01 X190.070 Y139.906
G01 X190.055 Y139.918
G01 X190.041 Y139.932
G01 X190.029 Y139.947
G01 X190.018 Y139.962
G01 X190.009 Y139.979
G01 X190.001 Y139.996
G01 X190.000 Y140.000
G01 X190.018 Y139.938
G01 X190.031 Y139.875
G01 X190.037 Y139.811
G01 X190.037 Y139.746
G01 X190.030 Y139.680
G01 X190.017 Y139.615
G01 X189.998 Y139.550
G01 X189.972 Y139.487
G01 X189.941 Y139.425
G01 X189.903 Y139.365
G01 X189.859 Y139.307
G01 X189.809 Y139.253
G01 X189.754 Y139.201
G01 X189.693 Y139.154
G01 X189.627 Y139.111
G01 X189.556 Y139.072
G01 X189.481 Y139.039
G01 X189.401 Y139.010
G01 X189.317 Y138.988
G01 X189.230 Y138.971
G01 X189.139 Y138.960
G01 X189.104 Y138.958
G01 X187.133 Y136.316
G01 X185.424 Y133.484
G01 X183.990 Y130.482
G01 X182.845 Y127.330
G01 X181.998 Y124.050
G01 X181.459 Y120.663
G01 X181.237 Y117.193
G01 X181.337 Y113.661
G01 X181.765 Y110.092
G01 X182.181 Y107.942
G01 X183.232 Y104.835
G01 X184.571 Y101.761
G01 X186.195 Y98.740
G01 X188.104 Y95.793
G01 X189.833 Y93.503
G01 X192.228 Y91.053
G01 X192.736 Y90.578
G01 X190.295 Y92.578
G01 X188.057 Y94.692
G01 X187.520 Y95.247
G01 X185.480 Y96.878
G01 X183.593 Y98.598
G01 X182.305 Y99.915
G01 X180.573 Y101.272
G01 X178.956 Y102.700
G01 X177.456 Y104.190
G01 X177.089 Y104.584
G01 X175.575 Y105.755
G01 X174.144 Y106.988
G01 X172.800 Y108.278
G01 X171.873 Y109.252
G01 X170.481 Y110.323
G01 X169.150 Y111.456
G01 X167.883 Y112.647
G01 X166.682 Y113.894
G01 X166.657 Y113.921
G01 X165.285 Y114.975
G01 X163.959 Y116.102
G01 X162.686 Y117.298
G01 X161.467 Y118.562
G01 X161.441 Y118.590
G01 X159.980 Y119.716
G01 X158.562 Y120.935
G01 X157.192 Y122.245
G01 X156.226 Y123.258
G01 X154.567 Y124.553
G01 X152.956 Y125.971
G01 X151.401 Y127.510
G01 X151.010 Y127.927
G01 X149.047 Y129.491
G01 X147.146 Y131.219
G01 X145.794 Y132.595
G01 X143.424 Y134.531
G01 X141.142 Y136.683
G01 X140.578 Y137.264
G01 X142.470 Y139.704
G01 X143.141 Y140.491
G01 X144.460 Y142.716
G01 X145.307 Y143.997
G01 X146.227 Y146.092
G01 X147.046 Y147.733
G01 X147.670 Y149.787
G01 X148.333 Y151.648
G01 X148.711 Y153.759
G01 X149.152 Y155.687
G01 X149.290 Y157.972
G01 X149.490 Y159.794
G01 X149.351 Y162.396
G01 X149.343 Y163.912
G01 X148.828 Y167.018
G01 X148.713 Y167.984
G01 X147.631 Y171.860
G01 X147.609 Y171.955
G01 X145.426 Y176.994
G01 X142.481 Y181.631
G01 X138.848 Y185.749
G01 X137.842 Y186.686
G01 X188.957 Y140.934
G01 X189.018 Y140.970
G01 X189.081 Y141.002
G01 X189.144 Y141.030
G01 X189.208 Y141.054
G01 X189.272 Y141.075
G01 X189.336 Y141.092
G01 X189.400 Y141.106
G01 X189.464 Y141.116
G01 X189.527 Y141.122
G01 X189.590 Y141.125
G01 X189.651 Y141.124
G01 X189.712 Y141.120
G01 X189.771 Y141.113
G01 X189.829 Y141.103
G01 X189.886 Y141.090
G01 X189.941 Y141.074
G01 X189.993 Y141.055
G01 X190.044 Y141.034
G01 X190.093 Y141.010
G01 X190.140 Y140.985
G01 X190.184 Y140.957
G01 X190.226 Y140.927
G01 X190.265 Y140.895
G01 X190.302 Y140.862
G01 X190.337 Y140.827
G01 X190.368 Y140.791
G01 X190.397 Y140.754
G01 X190.423 Y140.716
G01 X190.447 Y140.678
G01 X190.468 Y140.639
G01 X190.486 Y140.599
G01 X190.501 Y140.560
G01 X190.514 Y140.520
G01 X190.524 Y140.480
G01 X190.531 Y140.441
G01 X190.536 Y140.402
G01 X190.538 Y140.364
G01 X190.538 Y140.327
G01 X190.535 Y140.291
G01 X190.531 Y140.255
G01 X190.524 Y140.221
G01 X190.515 Y140.188
G01 X190.504 Y140.156
G01 X190.492 Y140.126
G01 X190.478 Y140.098
G01 X190.462 Y140.071
G01 X190.445 Y140.047
G01 X190.426 Y140.024
G01 X190.406 Y140.003
G01 X190.386 Y139.983
G01 X190.364 Y139.966
G01 X190.342 Y139.951
G01 X190.319 Y139.939
G01 X190.296 Y139.928
G01 X190.273 Y139.919
G01 X190.250 Y139.912
G01 X190.226 Y139.908
G01 X190.203 Y139.906
G01 X190.180 Y139.905
G01 X190.158 Y139.907
G01 X190.136 Y139.910
G01 X190.115 Y139.916
G01 X190.095 Y139.923
G01 X190.076 Y139.932
G01 X190.058 Y139.942
G01 X190.042 Y139.955
G01 X190.027 Y139.968
G01 X190.013 Y139.983
G01 X190.001 Y139.999
G01 X190.027 Y139.964
G01 X190.057 Y139.931
G01 X190.091 Y139.901
G01 X190.127 Y139.874
G01 X190.167 Y139.850
G01 X190.209 Y139.830
G01 X190.253 Y139.814
G01 X190.299 Y139.802
G01 X190.347 Y139.794
G01 X190.397 Y139.790
G01 X190.447 Y139.791
G01 X190.499 Y139.796
G01 X190.550 Y139.806
G01 X190.602 Y139.820
G01 X190.654 Y139.839
G01 X190.705 Y139.863
G01 X190.755 Y139.891
G01 X190.804 Y139.924
G01 X190.852 Y139.962
G01 X190.898 Y140.004
G01 X190.941 Y140.050
G01 X190.982 Y140.101
G01 X191.021 Y140.156
G01 X191.056 Y140.214
G01 X191.088 Y140.277
G01 X191.116 Y140.343
G01 X191.140 Y140.413
G01 X191.159 Y140.486
G01 X191.175 Y140.561
G01 X191.185 Y140.640
G01 X191.191 Y140.720
G01 X191.191 Y140.735
G01 X249.563 Y176.773
G01 X256.137 Y179.937
G01 X263.842 Y181.749
G01 X272.375 Y181.710
G01 X279.510 Y179.932
G01 X280.789 Y179.551
G01 X286.501 Y176.517
G01 X288.412 Y175.386
G01 X292.858 Y171.377
G01 X294.675 Y169.591
G01 X297.871 Y164.850
G01 X299.349 Y162.452
G01 X301.265 Y157.206
G01 X302.124 Y154.547
G01 X302.734 Y149.030
G01 X302.941 Y146.209
G01 X302.216 Y140.654
G01 X301.752 Y137.915
G01 X299.667 Y132.560
G01 X298.552 Y130.006
G01 X295.076 Y125.096
G01 X293.533 Y123.106
G01 X288.606 Y118.896
G01 X286.862 Y117.541
G01 X286.336 Y117.209
G01 X280.915 Y113.720
G01 X277.997 Y112.061
G01 X273.283 Y108.983
G01 X269.658 Y106.913
G01 X265.535 Y104.184
G01 X261.342 Y101.777
G01 X261.319 Y101.765
G01 X257.551 Y99.397
G01 X256.554 Y98.823
G01 X252.586 Y96.893
G01 X248.594 Y95.250
G01 X247.780 Y94.950
G01 X243.229 Y94.127
G01 X238.741 Y93.637
G01 X238.284 Y93.605
G01 X233.308 Y94.091
G01 X228.779 Y94.887
G01 X223.416 Y97.029
G01 X219.979 Y98.702
G01 X213.895 Y103.434
G01 X213.501 Y103.774
G01 X209.131 Y109.063
G01 X208.386 Y110.218
G01 X190.735 Y138.809
G01 X190.486 Y139.293
G01 X190.192 Y139.749
G01 X190.000 Y140.000
G01 X190.012 Y139.983
G01 X190.023 Y139.965
G01 X190.032 Y139.946
G01 X190.039 Y139.926
G01 X190.044 Y139.905
G01 X190.047 Y139.883
G01 X190.049 Y139.861
G01 X190.048 Y139.839
G01 X190.045 Y139.816
G01 X190.040 Y139.793
G01 X190.032 Y139.771
G01 X190.023 Y139.749
G01 X190.011 Y139.727
G01 X189.998 Y139.706
G01 X189.982 Y139.685
G01 X189.965 Y139.665
G01 X189.945 Y139.647
G01 X189.923 Y139.629
G01 X189.900 Y139.613
G01 X189.875 Y139.598
G01 X189.848 Y139.585
G01 X189.820 Y139.574
G01 X189.790 Y139.564
G01 X189.759 Y139.557
G01 X189.726 Y139.551
G01 X189.693 Y139.548
G01 X189.658 Y139.546
G01 X189.623 Y139.548
G01 X189.587 Y139.551
G01 X189.551 Y139.557
G01 X189.514 Y139.566
G01 X189.477 Y139.577
G01 X189.440 Y139.591
G01 X189.403 Y139.607
G01 X189.366 Y139.626
G01 X189.330 Y139.648
G01 X189.294 Y139.673
G01 X189.260 Y139.700
G01 X189.226 Y139.729
G01 X189.193 Y139.762
G01 X189.162 Y139.797
G01 X189.133 Y139.834
G01 X189.105 Y139.874
G01 X189.079 Y139.916
G01 X189.055 Y139.960
G01 X189.033 Y140.007
G01 X189.013 Y140.056
G01 X188.996 Y140.106
G01 X188.982 Y140.159
G01 X188.970 Y140.213
G01 X188.962 Y140.268
G01 X188.956 Y140.325
G01 X188.954 Y140.383
G01 X188.954 Y140.442
G01 X188.958 Y140.502
G01 X188.966 Y140.563
G01 X188.977 Y140.624
G01 X188.991 Y140.685
G01 X189.009 Y140.746
G01 X189.031 Y140.807
G01 X189.056 Y140.868
G01 X189.085 Y140.929
G01 X189.118 Y140.988
G01 X189.154 Y141.046
G01 X189.194 Y141.104
G01 X189.237 Y141.159
G01 X189.265 Y141.191
G01 X171.614 Y169.782
G01 X167.455 Y175.238
G01 X161.180 Y180.561
G01 X155.952 Y183.256
G01 X152.537 Y184.718
G01 X147.679 Y185.755
G01 X143.090 Y186.373
G01 X138.555 Y186.090
G01 X133.941 Y185.469
G01 X133.549 Y185.401
G01 X129.473 Y183.968
G01 X125.407 Y182.241
G01 X124.629 Y181.876
G01 X123.446 Y181.177
G01 X119.535 Y178.951
G01 X115.687 Y176.438
G01 X115.107 Y176.029
G01 X110.677 Y173.472
G01 X106.768 Y170.881
G01 X101.704 Y167.913
G01 X98.429 Y165.733
G01 X93.664 Y162.791
G01 X88.575 Y158.794
G01 X86.896 Y157.345
G01 X83.236 Y152.612
G01 X81.677 Y150.401
G01 X79.393 Y145.162
G01 X78.372 Y142.534
G01 X77.436 Y137.029
G01 X77.073 Y134.258
G01 X77.471 Y128.721
G01 X77.778 Y125.909
G01 X79.497 Y120.576
G01 X80.447 Y117.968
G01 X83.468 Y113.075
G01 X85.026 Y110.768
G01 X89.337 Y106.565
G01 X91.211 Y104.889
G01 X96.824 Y101.637
G01 X98.778 Y100.623
G01 X105.833 Y98.657
G01 X107.163 Y98.352
G01 X115.694 Y98.199
G01 X123.422 Y99.908
G01 X130.038 Y102.985
G01 X130.437 Y103.227
G01 X188.809 Y139.265
G01 X188.878 Y139.229
G01 X188.948 Y139.198
G01 X189.018 Y139.173
G01 X189.089 Y139.152
G01 X189.158 Y139.136
G01 X189.227 Y139.125
G01 X189.295 Y139.118
G01 X189.362 Y139.116
G01 X189.427 Y139.118
G01 X189.491 Y139.125
G01 X189.552 Y139.135
G01 X189.611 Y139.150
G01 X189.668 Y139.167
G01 X189.722 Y139.189
G01 X189.773 Y139.213
G01 X189.820 Y139.241
G01 X189.865 Y139.271
G01 X189.906 Y139.304
G01 X189.944 Y139.339
G01 X189.978 Y139.375
G01 X190.008 Y139.414
G01 X190.034 Y139.453
G01 X190.057 Y139.494
G01 X190.075 Y139.536
G01 X190.090 Y139.578
G01 X190.100 Y139.620
G01 X190.107 Y139.663
G01 X190.110 Y139.705
G01 X190.109 Y139.746
G01 X190.104 Y139.787
G01 X190.096 Y139.826
G01 X190.084 Y139.864
G01 X190.069 Y139.900
G01 X190.050 Y139.934
G01 X190.028 Y139.966
G01 X190.004 Y139.996
G01 X190.000 Y140.000
G01 X190.535 Y139.373
G01 X191.008 Y138.695
G01 X191.414 Y137.971
G01 X191.534 Y137.720
G01 X193.605 Y135.173
G01 X195.925 Y132.830
G01 X198.478 Y130.708
G01 X201.248 Y128.826
G01 X204.218 Y127.199
G01 X207.368 Y125.842
G01 X210.680 Y124.768
G01 X214.133 Y123.990
G01 X217.706 Y123.518
G01 X219.898 Y123.386
G01 X223.164 Y123.647
G01 X226.471 Y124.191
G01 X229.799 Y125.023
G01 X233.126 Y126.145
G01 X235.775 Y127.254
G01 X238.168 Y128.605
G01 X235.558 Y126.831
G01 X232.895 Y125.284
G01 X232.212 Y124.927
G01 X230.069 Y123.434
G01 X227.884 Y122.112
G01 X226.255 Y121.250
G01 X224.463 Y119.975
G01 X222.636 Y118.829
G01 X220.780 Y117.814
G01 X220.299 Y117.573
G01 X218.747 Y116.453
G01 X217.158 Y115.432
G01 X215.540 Y114.508
G01 X214.343 Y113.896
G01 X212.921 Y112.864
G01 X211.457 Y111.909
G01 X209.955 Y111.032
G01 X208.419 Y110.235
G01 X208.386 Y110.218
G01 X206.986 Y109.201
G01 X205.530 Y108.250
G01 X204.022 Y107.368
G01 X202.464 Y106.558
G01 X202.430 Y106.541
G01 X200.935 Y105.460
G01 X199.364 Y104.445
G01 X197.719 Y103.503
G01 X196.474 Y102.864
G01 X194.762 Y101.640
G01 X192.945 Y100.498
G01 X191.027 Y99.443
G01 X190.517 Y99.187
G01 X188.461 Y97.748
G01 X186.264 Y96.416
G01 X184.561 Y95.509
G01 X182.032 Y93.786
G01 X179.322 Y92.208
G01 X178.605 Y91.832
G01 X176.801 Y94.339
G01 X176.237 Y95.205
G01 X174.478 Y97.101
G01 X173.490 Y98.276
G01 X171.742 Y99.753
G01 X170.400 Y101.004
G01 X168.608 Y102.184
G01 X167.011 Y103.349
G01 X165.094 Y104.310
G01 X163.371 Y105.279
G01 X161.218 Y106.061
G01 X159.528 Y106.768
G01 X156.993 Y107.373
G01 X155.537 Y107.796
G01 X152.413 Y108.183
G01 X151.453 Y108.347
G01 X147.430 Y108.409
G01 X147.333 Y108.414
G01 X141.881 Y107.751
G01 X136.600 Y106.242
G01 X131.620 Y103.926
G01 X130.437 Y103.227
G01 X188.809 Y139.265
G01 X188.876 Y139.228
G01 X188.944 Y139.195
G01 X189.013 Y139.168
G01 X189.081 Y139.145
G01 X189.150 Y139.127
G01 X189.218 Y139.114
G01 X189.285 Y139.105
G01 X189.351 Y139.100
G01 X189.415 Y139.100
G01 X189.478 Y139.103
G01 X189.540 Y139.111
G01 X189.599 Y139.123
G01 X189.656 Y139.138
G01 X189.710 Y139.156
G01 X189.762 Y139.178
G01 X189.811 Y139.202
G01 X189.857 Y139.230
G01 X189.900 Y139.260
G01 X189.940 Y139.292
G01 X189.976 Y139.326
G01 X190.008 Y139.362
G01 X190.037 Y139.399
G01 X190.063 Y139.438
G01 X190.085 Y139.477
G01 X190.103 Y139.518
G01 X190.117 Y139.558
G01 X190.127 Y139.599
G01 X190.134 Y139.640
G01 X190.137 Y139.680
G01 X190.137 Y139.720
G01 X190.133 Y139.759
G01 X190.126 Y139.796
G01 X190.115 Y139.833
G01 X190.101 Y139.867
G01 X190.084 Y139.900
G01 X190.064 Y139.931
G01 X190.041 Y139.960
G01 X190.016 Y139.986
G01 X190.000 Y140.000
G01 X190.013 Y139.988
G01 X190.026 Y139.974
G01 X190.037 Y139.959
G01 X190.046 Y139.943
G01 X190.054 Y139.926
G01 X190.060 Y139.908
G01 X190.065 Y139.890
G01 X190.068 Y139.870
G01 X190.069 Y139.851
G01 X190.069 Y139.830
G01 X190.067 Y139.810
G01 X190.062 Y139.789
G01 X190.056 Y139.769
G01 X190.048 Y139.748
G01 X190.038 Y139.728
G01 X190.027 Y139.708
G01 X190.013 Y139.689
G01 X189.998 Y139.670
G01 X189.981 Y139.653
G01 X189.962 Y139.636
G01 X189.941 Y139.620
G01 X189.919 Y139.605
G01 X189.895 Y139.592
G01 X189.870 Y139.580
G01 X189.843 Y139.570
G01 X189.815 Y139.561
G01 X189.786 Y139.554
G01 X189.755 Y139.549
G01 X189.724 Y139.546
G01 X189.692 Y139.545
G01 X189.659 Y139.546
G01 X189.625 Y139.550
G01 X189.591 Y139.555
G01 X189.557 Y139.563
G01 X189.522 Y139.573
G01 X189.488 Y139.585
G01 X189.453 Y139.600
G01 X189.419 Y139.617
G01 X189.385 Y139.637
G01 X189.352 Y139.659
G01 X189.319 Y139.684
G01 X189.288 Y139.710
G01 X189.257 Y139.740
G01 X189.227 Y139.771
G01 X189.199 Y139.805
G01 X189.173 Y139.841
G01 X189.148 Y139.879
G01 X189.125 Y139.920
G01 X189.104 Y139.962
G01 X189.084 Y140.006
G01 X189.068 Y140.052
G01 X189.053 Y140.100
G01 X189.041 Y140.149
G01 X189.032 Y140.199
G01 X189.025 Y140.251
G01 X189.021 Y140.304
G01 X189.020 Y140.358
G01 X189.022 Y140.413
G01 X189.026 Y140.468
G01 X189.035 Y140.524
G01 X189.046 Y140.581
G01 X189.060 Y140.637
G01 X189.078 Y140.693
G01 X189.099 Y140.749
G01 X189.123 Y140.805
G01 X189.151 Y140.860
G01 X189.182 Y140.915
G01 X189.217 Y140.968
G01 X189.254 Y141.020
G01 X189.295 Y141.070
G01 X189.339 Y141.120
G01 X189.386 Y141.167
G01 X189.437 Y141.212
G01 X189.490 Y141.255
G01 X189.546 Y141.296
G01 X189.605 Y141.334
G01 X189.633 Y141.351
G01 X171.634 Y207.548
G01 X170.464 Y214.750
G01 X170.912 Y222.652
G01 X173.370 Y230.823
G01 X177.098 Y237.161
G01 X177.827 Y238.279
G01 X182.357 Y242.895
G01 X183.983 Y244.408
G01 X189.089 Y247.533
G01 X191.317 Y248.769
G01 X196.770 Y250.489
G01 X199.488 Y251.227
G01 X205.062 Y251.576
G01 X207.856 Y251.645
G01 X213.319 Y250.665
G01 X216.083 Y250.063
G01 X221.204 Y247.792
G01 X223.699 Y246.571
G01 X228.243 Y243.052
G01 X230.376 Y241.258
G01 X234.097 Y236.532
G01 X235.569 Y234.488
G01 X238.208 Y228.569
G01 X239.013 Y226.513
G01 X239.181 Y225.914
G01 X240.990 Y219.726
G01 X241.753 Y216.457
G01 X243.368 Y211.064
G01 X244.324 Y207.001
G01 X245.771 Y202.273
G01 X246.890 Y197.569
G01 X246.895 Y197.544
G01 X248.096 Y193.258
G01 X248.365 Y192.140
G01 X249.090 Y187.788
G01 X249.533 Y183.493
G01 X249.589 Y182.628
G01 X249.088 Y178.030
G01 X248.285 Y173.588
G01 X248.186 Y173.140
G01 X246.308 Y168.507
G01 X244.260 Y164.390
G01 X240.685 Y159.854
G01 X238.106 Y157.033
G01 X231.842 Y152.542
G01 X231.404 Y152.260
G01 X225.093 Y149.570
G01 X223.774 Y149.183
G01 X191.351 Y140.367
G01 X191.262 Y140.277
G01 X191.167 Y140.197
G01 X191.067 Y140.127
G01 X190.964 Y140.067
G01 X190.858 Y140.017
G01 X190.750 Y139.978
G01 X190.640 Y139.950
G01 X190.529 Y139.932
G01 X190.418 Y139.925
G01 X190.309 Y139.929
G01 X190.200 Y139.944
G01 X190.095 Y139.968
G01 X190.000 Y140.000
G01 X190.025 Y139.989
G01 X190.049 Y139.975
G01 X190.072 Y139.959
G01 X190.093 Y139.941
G01 X190.112 Y139.921
G01 X190.130 Y139.899
G01 X190.145 Y139.875
G01 X190.159 Y139.849
G01 X190.170 Y139.821
G01 X190.179 Y139.792
G01 X190.185 Y139.762
G01 X190.189 Y139.731
G01 X190.190 Y139.699
G01 X190.189 Y139.666
G01 X190.185 Y139.633
G01 X190.177 Y139.599
G01 X190.167 Y139.565
G01 X190.154 Y139.531
G01 X190.139 Y139.498
G01 X190.120 Y139.465
G01 X190.098 Y139.433
G01 X190.073 Y139.401
G01 X190.046 Y139.371
G01 X190.016 Y139.342
G01 X189.983 Y139.315
G01 X189.947 Y139.289
G01 X189.909 Y139.266
G01 X189.868 Y139.244
G01 X189.825 Y139.225
G01 X189.780 Y139.208
G01 X189.733 Y139.193
G01 X189.684 Y139.182
G01 X189.633 Y139.173
G01 X189.580 Y139.168
G01 X189.527 Y139.166
G01 X189.472 Y139.167
G01 X189.415 Y139.171
G01 X189.359 Y139.179
G01 X189.301 Y139.191
G01 X189.243 Y139.206
G01 X189.186 Y139.226
G01 X189.128 Y139.249
G01 X189.070 Y139.276
G01 X189.013 Y139.306
G01 X188.957 Y139.341
G01 X188.903 Y139.379
G01 X188.849 Y139.422
G01 X188.797 Y139.468
G01 X188.747 Y139.518
G01 X188.698 Y139.571
G01 X188.652 Y139.628
G01 X188.649 Y139.633
G01 X156.226 Y130.817
G01 X149.814 Y128.376
G01 X142.930 Y123.870
G01 X138.863 Y119.621
G01 X136.492 Y116.761
G01 X134.120 Y112.396
G01 X132.226 Y108.171
G01 X131.210 Y103.742
G01 X130.497 Y99.141
G01 X130.451 Y98.746
G01 X130.669 Y94.432
G01 X131.171 Y90.042
G01 X131.301 Y89.193
G01 X131.635 Y87.860
G01 X132.661 Y83.478
G01 X133.979 Y79.076
G01 X134.207 Y78.403
G01 X135.402 Y73.430
G01 X136.778 Y68.947
G01 X138.187 Y63.248
G01 X139.349 Y59.490
G01 X140.819 Y54.086
G01 X143.208 Y48.072
G01 X144.120 Y46.051
G01 X147.622 Y41.199
G01 X149.300 Y39.077
G01 X153.675 Y35.400
G01 X155.905 Y33.676
G01 X160.919 Y31.217
G01 X163.473 Y30.082
G01 X168.895 Y28.894
G01 X171.679 Y28.391
G01 X177.280 Y28.526
G01 X180.052 Y28.698
G01 X185.600 Y30.207
G01 X188.255 Y31.046
G01 X193.507 Y33.987
G01 X195.646 Y35.309
G01 X200.357 Y39.770
G01 X201.883 Y41.355
G01 X205.770 Y47.563
G01 X206.440 Y48.752
G01 X209.006 Y56.889
G01 X209.560 Y64.784
G01 X208.486 Y72.001
G01 X208.366 Y72.452
G01 X190.367 Y138.649
G01 X190.409 Y138.743
G01 X190.442 Y138.838
G01 X190.467 Y138.934
G01 X190.484 Y139.028
G01 X190.492 Y139.122
G01 X190.493 Y139.213
G01 X190.486 Y139.303
G01 X190.472 Y139.390
G01 X190.450 Y139.473
G01 X190.421 Y139.553
G01 X190.386 Y139.629
G01 X190.345 Y139.700
G01 X190.297 Y139.766
G01 X190.244 Y139.826
G01 X190.186 Y139.881
G01 X190.124 Y139.929
G01 X190.057 Y139.971
G01 X190.000 Y140.000
G01 X190.087 Y139.965
G01 X190.178 Y139.938
G01 X190.271 Y139.921
G01 X190.367 Y139.912
G01 X190.463 Y139.913
G01 X190.560 Y139.923
G01 X190.657 Y139.942
G01 X190.753 Y139.971
G01 X190.848 Y140.009
G01 X190.941 Y140.056
G01 X191.030 Y140.113
G01 X191.117 Y140.178
G01 X191.199 Y140.252
G01 X191.276 Y140.334
G01 X191.319 Y140.387
G01 X194.410 Y141.531
G01 X197.385 Y142.978
G01 X200.221 Y144.717
G01 X202.897 Y146.738
G01 X205.392 Y149.030
G01 X207.686 Y151.578
G01 X209.761 Y154.370
G01 X211.598 Y157.388
G01 X213.180 Y160.615
G01 X214.001 Y162.646
G01 X214.809 Y165.824
G01 X215.359 Y169.132
G01 X215.639 Y172.550
G01 X215.641 Y176.061
G01 X215.436 Y178.924
G01 X214.759 Y182.282
G01 X214.591 Y182.957
G01 X215.551 Y179.951
G01 X216.279 Y176.959
G01 X216.427 Y176.202
G01 X217.252 Y173.723
G01 X217.899 Y171.254
G01 X218.264 Y169.447
G01 X218.978 Y167.367
G01 X219.559 Y165.290
G01 X220.006 Y163.223
G01 X220.101 Y162.693
G01 X220.734 Y160.887
G01 X221.263 Y159.074
G01 X221.690 Y157.260
G01 X221.937 Y155.938
G01 X222.523 Y154.282
G01 X223.024 Y152.608
G01 X223.439 Y150.919
G01 X223.768 Y149.219
G01 X223.774 Y149.183
G01 X224.352 Y147.552
G01 X224.851 Y145.886
G01 X225.269 Y144.189
G01 X225.604 Y142.465
G01 X225.610 Y142.428
G01 X226.224 Y140.688
G01 X226.750 Y138.894
G01 X227.187 Y137.050
G01 X227.447 Y135.674
G01 X228.135 Y133.685
G01 X228.715 Y131.619
G01 X229.182 Y129.481
G01 X229.284 Y128.919
G01 X230.080 Y126.539
G01 X230.734 Y124.055
G01 X231.120 Y122.164
G01 X232.056 Y119.250
G01 X232.800 Y116.204
G01 X232.957 Y115.409
G01 X230.042 Y114.391
G01 X229.051 Y114.096
G01 X226.734 Y112.947
G01 X225.326 Y112.332
G01 X223.414 Y111.075
G01 X221.835 Y110.143
G01 X220.194 Y108.760
G01 X218.625 Y107.559
G01 X217.159 Y105.993
G01 X215.741 Y104.616
G01 X214.381 Y102.773
G01 X213.223 Y101.353
G01 X211.924 Y99.094
G01 X211.106 Y97.818
G01 X209.848 Y94.932
G01 X209.419 Y94.058
G01 X208.218 Y90.217
G01 X208.185 Y90.126
G01 X207.275 Y84.710
G01 X207.224 Y79.218
G01 X208.032 Y73.785
G01 X208.366 Y72.452
G01 X190.367 Y138.649
G01 X190.386 Y138.815
G01 X190.389 Y138.978
G01 X190.377 Y139.139
G01 X190.350 Y139.296
G01 X190.309 Y139.448
G01 X190.255 Y139.594
G01 X190.187 Y139.733
G01 X190.106 Y139.863
G01 X190.012 Y139.985
G01 X190.000 Y140.000
G01 X190.018 Y139.977
G01 X190.034 Y139.951
G01 X190.048 Y139.925
G01 X190.059 Y139.896
G01 X190.067 Y139.867
G01 X190.073 Y139.837
G01 X190.075 Y139.806
G01 X190.075 Y139.774
G01 X190.072 Y139.742
G01 X190.066 Y139.709
G01 X190.057 Y139.677
G01 X190.044 Y139.645
G01 X190.029 Y139.614
G01 X190.011 Y139.583
G01 X189.990 Y139.553
G01 X189.966 Y139.524
G01 X189.939 Y139.497
G01 X189.909 Y139.471
G01 X189.877 Y139.447
G01 X189.842 Y139.425
G01 X189.805 Y139.406
G01 X189.765 Y139.388
G01 X189.723 Y139.373
G01 X189.680 Y139.361
G01 X189.634 Y139.351
G01 X189.587 Y139.345
G01 X189.538 Y139.341
G01 X189.488 Y139.341
G01 X189.437 Y139.345
G01 X189.385 Y139.352
G01 X189.332 Y139.362
G01 X189.279 Y139.376
G01 X189.226 Y139.394
G01 X189.173 Y139.415
G01 X189.120 Y139.441
G01 X189.068 Y139.470
G01 X189.016 Y139.503
G01 X188.966 Y139.539
G01 X188.916 Y139.580
G01 X188.869 Y139.624
G01 X188.823 Y139.672
G01 X188.779 Y139.724
G01 X188.738 Y139.779
G01 X188.699 Y139.837
G01 X188.663 Y139.899
G01 X188.630 Y139.964
G01 X188.600 Y140.031
G01 X120.017 Y141.549
G01 X112.779 Y142.470
G01 X105.329 Y145.141
G01 X98.191 Y149.816
G01 X93.170 Y155.189
G01 X92.305 Y156.205
G01 X89.163 Y161.858
G01 X88.174 Y163.847
G01 X86.625 Y169.629
G01 X86.072 Y172.117
G01 X85.970 Y177.833
G01 X86.034 Y180.649
G01 X87.280 Y186.093
G01 X88.006 Y188.792
G01 X90.495 Y193.753
G01 X91.857 Y196.233
G01 X95.487 Y200.499
G01 X97.366 Y202.545
G01 X102.029 Y205.904
G01 X104.354 Y207.440
G01 X109.942 Y209.668
G01 X112.320 Y210.499
G01 X118.743 Y211.351
G01 X120.944 Y211.540
G01 X121.566 Y211.532
G01 X128.013 Y211.511
G01 X131.364 Y211.315
G01 X136.994 Y211.333
G01 X141.161 Y211.098
G01 X146.105 Y211.145
G01 X150.933 Y210.883
G01 X150.959 Y210.881
G01 X155.409 Y210.818
G01 X156.557 Y210.757
G01 X160.937 Y210.218
G01 X165.180 Y209.425
G01 X166.026 Y209.233
G01 X170.293 Y207.448
G01 X174.325 Y205.418
G01 X174.726 Y205.196
G01 X178.637 Y202.081
G01 X182.004 Y198.949
G01 X185.339 Y194.235
G01 X187.312 Y190.962
G01 X189.842 Y183.681
G01 X189.988 Y183.181
G01 X190.778 Y176.366
G01 X190.774 Y174.991
G01 X190.031 Y141.400
G01 X190.098 Y141.373
G01 X190.162 Y141.343
G01 X190.224 Y141.311
G01 X190.283 Y141.275
G01 X190.339 Y141.237
G01 X190.392 Y141.197
G01 X190.442 Y141.154
G01 X190.489 Y141.110
G01 X190.532 Y141.063
G01 X190.572 Y141.016
G01 X190.609 Y140.966
G01 X190.642 Y140.916
G01 X190.672 Y140.865
G01 X190.698 Y140.813
G01 X190.721 Y140.761
G01 X190.741 Y140.709
G01 X190.757 Y140.656
G01 X190.770 Y140.604
G01 X190.779 Y140.552
G01 X190.786 Y140.500
G01 X190.789 Y140.449
G01 X190.789 Y140.400
G01 X190.786 Y140.351
G01 X190.781 Y140.303
G01 X190.772 Y140.257
G01 X190.762 Y140.213
G01 X190.748 Y140.170
G01 X190.733 Y140.129
G01 X190.715 Y140.090
G01 X190.695 Y140.053
G01 X190.673 Y140.018
G01 X190.650 Y139.986
G01 X190.625 Y139.955
G01 X190.599 Y139.928
G01 X190.571 Y139.902
G01 X190.543 Y139.879
G01 X190.514 Y139.859
G01 X190.484 Y139.841
G01 X190.454 Y139.826
G01 X190.423 Y139.814
G01 X190.393 Y139.803
G01 X190.362 Y139.796
G01 X190.332 Y139.791
G01 X190.302 Y139.788
G01 X190.273 Y139.788
G01 X190.244 Y139.790
G01 X190.217 Y139.795
G01 X190.190 Y139.801
G01 X190.165 Y139.810
G01 X190.141 Y139.820
G01 X190.118 Y139.833
G01 X190.097 Y139.847
G01 X190.078 Y139.863
G01 X190.061 Y139.880
G01 X190.045 Y139.899
G01 X190.032 Y139.918
G01 X190.020 Y139.939
G01 X190.011 Y139.961
G01 X190.004 Y139.983
G01 X190.000 Y140.000
G01 X190.090 Y139.349
G01 X190.117 Y138.690
G01 X190.078 Y138.029
G01 X189.975 Y137.370
G01 X189.938 Y137.201
G01 X189.226 Y105.009
G01 X189.747 Y98.167
G01 X192.116 Y90.288
G01 X195.036 Y85.182
G01 X197.106 Y82.098
G01 X200.619 Y78.585
G01 X204.133 Y75.570
G01 X208.092 Y73.340
G01 X212.302 Y71.351
G01 X212.668 Y71.195
G01 X216.867 Y70.180
G01 X221.218 Y69.417
G01 X222.069 Y69.300
G01 X223.443 Y69.243
G01 X227.935 Y68.983
G01 X232.531 Y68.999
G01 X233.240 Y69.026
G01 X238.348 Y68.761
G01 X243.038 Y68.809
G01 X248.902 Y68.544
G01 X252.835 Y68.592
G01 X258.434 Y68.468
G01 X264.879 Y69.053
G01 X267.075 Y69.355
G01 X272.721 Y71.336
G01 X275.232 Y72.343
G01 X279.999 Y75.496
G01 X282.285 Y77.145
G01 X286.065 Y81.256
G01 X287.878 Y83.384
G01 X290.556 Y88.245
G01 X291.828 Y90.772
G01 X293.287 Y96.182
G01 X293.909 Y98.888
G01 X294.035 Y104.636
G01 X293.984 Y107.420
G01 X292.653 Y113.291
G01 X291.992 Y115.717
G01 X289.051 Y121.500
G01 X287.963 Y123.413
G01 X283.114 Y128.901
G01 X282.164 Y129.881
G01 X275.088 Y134.650
G01 X267.674 Y137.420
G01 X260.449 Y138.438
G01 X259.983 Y138.451
G01 X191.400 Y139.969
G01 X191.349 Y139.904
