;  Created by Sandify
;  https://sandify.org
;  Version: 0.2.4
;
;  Machine type: Rectangular
;    Min X (mm): 0
;    Max X (mm): 380
;    Min Y (mm): 0
;    Max Y (mm): 280
;  Content type: shape
;  Layer:
;    Shape: FileImport
;    Name: SpiralGyrations.thr
;    From file:: SpiralGyrations.thr
;    Aspect Ratio: true
;    Comments: 
;    Visible: true
;    Initial width: 10
;    Initial height: 10
;    X offset: 0
;    Y offset: 0
;    Rotate (degrees): 0
;    Reverse path: false
;    Fine tuning:
;      Connect to next layer: line
;      Draw portion of path (%): 100
;      Backtrack at end (%): 0
;      Rotate starting point (%): 0
;  Reverse export path: false
;
; File name: 'SpiralGyrations'
;

G01 X190.000 Y140.000
G01 X190.001 Y140.021
G01 X190.004 Y140.042
G01 X190.009 Y140.063
G01 X190.017 Y140.084
G01 X190.026 Y140.104
G01 X190.037 Y140.123
G01 X190.050 Y140.141
G01 X190.065 Y140.158
G01 X190.082 Y140.174
G01 X190.101 Y140.188
G01 X190.121 Y140.201
G01 X190.142 Y140.213
G01 X190.165 Y140.223
G01 X190.190 Y140.231
G01 X190.215 Y140.237
G01 X190.241 Y140.241
G01 X190.269 Y140.244
G01 X190.297 Y140.244
G01 X190.326 Y140.242
G01 X190.355 Y140.237
G01 X190.384 Y140.230
G01 X190.414 Y140.221
G01 X190.444 Y140.210
G01 X190.473 Y140.196
G01 X190.502 Y140.180
G01 X190.531 Y140.161
G01 X190.559 Y140.140
G01 X190.586 Y140.117
G01 X190.612 Y140.091
G01 X190.637 Y140.063
G01 X190.661 Y140.032
G01 X190.683 Y140.000
G01 X190.703 Y139.965
G01 X190.722 Y139.929
G01 X190.739 Y139.890
G01 X190.754 Y139.850
G01 X190.766 Y139.808
G01 X190.776 Y139.765
G01 X190.784 Y139.720
G01 X190.789 Y139.673
G01 X190.791 Y139.626
G01 X190.791 Y139.577
G01 X190.787 Y139.528
G01 X190.781 Y139.478
G01 X190.771 Y139.428
G01 X190.759 Y139.377
G01 X190.743 Y139.326
G01 X190.724 Y139.276
G01 X190.702 Y139.225
G01 X190.677 Y139.175
G01 X190.648 Y139.126
G01 X190.617 Y139.077
G01 X190.582 Y139.030
G01 X190.543 Y138.984
G01 X190.502 Y138.939
G01 X190.457 Y138.896
G01 X190.410 Y138.855
G01 X190.359 Y138.815
G01 X190.306 Y138.779
G01 X190.250 Y138.744
G01 X190.191 Y138.712
G01 X190.130 Y138.683
G01 X190.066 Y138.657
G01 X190.000 Y138.634
G01 X189.932 Y138.614
G01 X189.862 Y138.598
G01 X189.790 Y138.586
G01 X189.717 Y138.577
G01 X189.642 Y138.572
G01 X189.566 Y138.570
G01 X189.490 Y138.573
G01 X189.412 Y138.580
G01 X189.334 Y138.592
G01 X189.256 Y138.607
G01 X189.177 Y138.627
G01 X189.099 Y138.651
G01 X189.021 Y138.680
G01 X188.944 Y138.713
G01 X188.868 Y138.751
G01 X188.793 Y138.793
G01 X188.719 Y138.839
G01 X188.647 Y138.890
G01 X188.577 Y138.945
G01 X188.509 Y139.004
G01 X188.444 Y139.067
G01 X188.381 Y139.135
G01 X188.322 Y139.206
G01 X188.265 Y139.281
G01 X188.212 Y139.360
G01 X188.162 Y139.442
G01 X188.116 Y139.528
G01 X188.074 Y139.617
G01 X188.037 Y139.709
G01 X188.004 Y139.803
G01 X187.975 Y139.901
G01 X187.951 Y140.000
G01 X187.932 Y140.102
G01 X187.919 Y140.205
G01 X187.910 Y140.310
G01 X187.907 Y140.416
G01 X187.909 Y140.524
G01 X187.917 Y140.632
G01 X187.930 Y140.741
G01 X187.949 Y140.849
G01 X187.974 Y140.958
G01 X188.005 Y141.066
G01 X188.041 Y141.174
G01 X188.084 Y141.281
G01 X188.132 Y141.386
G01 X188.185 Y141.489
G01 X188.245 Y141.591
G01 X188.310 Y141.690
G01 X188.380 Y141.787
G01 X188.457 Y141.881
G01 X188.538 Y141.971
G01 X188.625 Y142.058
G01 X188.716 Y142.142
G01 X188.813 Y142.221
G01 X188.914 Y142.296
G01 X189.020 Y142.366
G01 X189.130 Y142.431
G01 X189.244 Y142.492
G01 X189.362 Y142.546
G01 X189.484 Y142.595
G01 X189.609 Y142.639
G01 X189.736 Y142.676
G01 X189.867 Y142.707
G01 X190.000 Y142.732
G01 X190.135 Y142.750
G01 X190.272 Y142.761
G01 X190.410 Y142.765
G01 X190.550 Y142.763
G01 X190.690 Y142.753
G01 X190.830 Y142.737
G01 X190.971 Y142.713
G01 X191.111 Y142.682
G01 X191.250 Y142.643
G01 X191.388 Y142.597
G01 X191.525 Y142.544
G01 X191.660 Y142.484
G01 X191.793 Y142.417
G01 X191.923 Y142.343
G01 X192.049 Y142.261
G01 X192.173 Y142.173
G01 X192.293 Y142.078
G01 X192.409 Y141.977
G01 X192.520 Y141.869
G01 X192.626 Y141.755
G01 X192.727 Y141.635
G01 X192.823 Y141.509
G01 X192.913 Y141.378
G01 X192.997 Y141.241
G01 X193.074 Y141.100
G01 X193.145 Y140.954
G01 X193.209 Y140.804
G01 X193.265 Y140.650
G01 X193.314 Y140.492
G01 X193.356 Y140.331
G01 X193.389 Y140.167
G01 X193.415 Y140.000
G01 X193.432 Y139.831
G01 X193.441 Y139.661
G01 X193.441 Y139.490
G01 X193.433 Y139.317
G01 X193.416 Y139.144
G01 X193.390 Y138.972
G01 X193.356 Y138.799
G01 X193.312 Y138.628
G01 X193.260 Y138.458
G01 X193.200 Y138.290
G01 X193.130 Y138.124
G01 X193.052 Y137.961
G01 X192.966 Y137.801
G01 X192.871 Y137.644
G01 X192.767 Y137.492
G01 X192.656 Y137.344
G01 X192.537 Y137.201
G01 X192.410 Y137.064
G01 X192.276 Y136.932
G01 X192.134 Y136.806
G01 X191.986 Y136.687
G01 X191.831 Y136.574
G01 X191.670 Y136.469
G01 X191.503 Y136.372
G01 X191.330 Y136.283
G01 X191.152 Y136.201
G01 X190.970 Y136.129
G01 X190.783 Y136.065
G01 X190.592 Y136.010
G01 X190.397 Y135.965
G01 X190.200 Y135.929
G01 X190.000 Y135.902
G01 X189.798 Y135.886
G01 X189.594 Y135.880
G01 X189.389 Y135.883
G01 X189.184 Y135.897
G01 X188.978 Y135.922
G01 X188.773 Y135.956
G01 X188.569 Y136.001
G01 X188.367 Y136.057
G01 X188.166 Y136.122
G01 X187.968 Y136.198
G01 X187.773 Y136.284
G01 X187.581 Y136.380
G01 X187.394 Y136.486
G01 X187.211 Y136.602
G01 X187.033 Y136.727
G01 X186.861 Y136.861
G01 X186.695 Y137.005
G01 X186.536 Y137.157
G01 X186.383 Y137.318
G01 X186.238 Y137.486
G01 X186.101 Y137.663
G01 X185.972 Y137.847
G01 X185.852 Y138.038
G01 X185.741 Y138.236
G01 X185.640 Y138.440
G01 X185.548 Y138.649
G01 X185.466 Y138.864
G01 X185.395 Y139.084
G01 X185.335 Y139.308
G01 X185.285 Y139.536
G01 X185.247 Y139.766
G01 X185.220 Y140.000
G01 X185.204 Y140.236
G01 X185.200 Y140.473
G01 X185.208 Y140.711
G01 X185.228 Y140.949
G01 X185.259 Y141.187
G01 X185.303 Y141.425
G01 X185.358 Y141.661
G01 X185.426 Y141.895
G01 X185.505 Y142.126
G01 X185.596 Y142.354
G01 X185.698 Y142.578
G01 X185.812 Y142.798
G01 X185.937 Y143.013
G01 X186.074 Y143.222
G01 X186.221 Y143.425
G01 X186.378 Y143.622
G01 X186.546 Y143.811
G01 X186.724 Y143.992
G01 X186.911 Y144.165
G01 X187.107 Y144.330
G01 X187.312 Y144.485
G01 X187.525 Y144.630
G01 X187.746 Y144.765
G01 X187.975 Y144.890
G01 X188.210 Y145.003
G01 X188.451 Y145.106
G01 X188.698 Y145.196
G01 X188.951 Y145.275
G01 X189.208 Y145.341
G01 X189.469 Y145.395
G01 X189.733 Y145.436
G01 X190.000 Y145.463
G01 X190.269 Y145.478
G01 X190.540 Y145.480
G01 X190.811 Y145.468
G01 X191.083 Y145.442
G01 X191.353 Y145.403
G01 X191.623 Y145.351
G01 X191.891 Y145.285
G01 X192.156 Y145.205
G01 X192.418 Y145.113
G01 X192.676 Y145.007
G01 X192.929 Y144.887
G01 X193.178 Y144.756
G01 X193.420 Y144.611
G01 X193.655 Y144.454
G01 X193.884 Y144.285
G01 X194.105 Y144.105
G01 X194.317 Y143.913
G01 X194.520 Y143.710
G01 X194.714 Y143.496
G01 X194.898 Y143.272
G01 X195.071 Y143.039
G01 X195.232 Y142.797
G01 X195.383 Y142.546
G01 X195.521 Y142.287
G01 X195.646 Y142.020
G01 X195.759 Y141.747
G01 X195.859 Y141.468
G01 X195.945 Y141.182
G01 X196.016 Y140.892
G01 X196.074 Y140.598
G01 X196.118 Y140.301
G01 X196.146 Y140.000
G01 X196.160 Y139.697
G01 X196.159 Y139.393
G01 X196.143 Y139.089
G01 X196.112 Y138.784
G01 X196.066 Y138.481
G01 X196.004 Y138.179
G01 X195.928 Y137.879
G01 X195.836 Y137.583
G01 X195.730 Y137.290
G01 X195.609 Y137.002
G01 X195.473 Y136.719
G01 X195.323 Y136.443
G01 X195.160 Y136.173
G01 X194.982 Y135.911
G01 X194.791 Y135.657
G01 X194.588 Y135.412
G01 X194.371 Y135.177
G01 X194.143 Y134.952
G01 X193.903 Y134.738
G01 X193.652 Y134.535
G01 X193.390 Y134.344
G01 X193.119 Y134.165
G01 X192.838 Y134.000
G01 X192.548 Y133.848
G01 X192.250 Y133.711
G01 X191.945 Y133.587
G01 X191.633 Y133.479
G01 X191.316 Y133.386
G01 X190.993 Y133.308
G01 X190.665 Y133.246
G01 X190.334 Y133.200
G01 X190.000 Y133.171
G01 X189.664 Y133.158
G01 X189.326 Y133.161
G01 X188.989 Y133.181
G01 X188.651 Y133.218
G01 X188.315 Y133.272
G01 X187.980 Y133.342
G01 X187.649 Y133.429
G01 X187.321 Y133.533
G01 X186.998 Y133.653
G01 X186.680 Y133.789
G01 X186.368 Y133.941
G01 X186.064 Y134.109
G01 X185.767 Y134.292
G01 X185.478 Y134.490
G01 X185.199 Y134.703
G01 X184.930 Y134.930
G01 X184.671 Y135.170
G01 X184.424 Y135.424
G01 X184.189 Y135.690
G01 X183.967 Y135.969
G01 X183.758 Y136.259
G01 X183.563 Y136.559
G01 X183.383 Y136.870
G01 X183.217 Y137.191
G01 X183.068 Y137.520
G01 X182.934 Y137.856
G01 X182.816 Y138.201
G01 X182.716 Y138.551
G01 X182.632 Y138.907
G01 X182.566 Y139.268
G01 X182.518 Y139.632
G01 X182.488 Y140.000
G01 X182.476 Y140.370
G01 X182.482 Y140.741
G01 X182.506 Y141.112
G01 X182.548 Y141.482
G01 X182.609 Y141.851
G01 X182.689 Y142.218
G01 X182.786 Y142.581
G01 X182.902 Y142.940
G01 X183.035 Y143.294
G01 X183.187 Y143.642
G01 X183.355 Y143.983
G01 X183.541 Y144.316
G01 X183.743 Y144.640
G01 X183.962 Y144.955
G01 X184.197 Y145.260
G01 X184.447 Y145.553
G01 X184.711 Y145.835
G01 X184.991 Y146.104
G01 X185.283 Y146.360
G01 X185.589 Y146.601
G01 X185.908 Y146.828
G01 X186.237 Y147.039
G01 X186.578 Y147.235
G01 X186.929 Y147.414
G01 X187.289 Y147.575
G01 X187.658 Y147.720
G01 X188.035 Y147.846
G01 X188.418 Y147.954
G01 X188.807 Y148.043
G01 X189.201 Y148.113
G01 X189.599 Y148.164
G01 X190.000 Y148.195
G01 X190.403 Y148.207
G01 X190.807 Y148.198
G01 X191.212 Y148.170
G01 X191.615 Y148.121
G01 X192.017 Y148.053
G01 X192.416 Y147.965
G01 X192.811 Y147.857
G01 X193.201 Y147.729
G01 X193.586 Y147.582
G01 X193.964 Y147.416
G01 X194.334 Y147.231
G01 X194.695 Y147.027
G01 X195.047 Y146.805
G01 X195.388 Y146.566
G01 X195.718 Y146.309
G01 X196.036 Y146.036
G01 X196.341 Y145.747
G01 X196.632 Y145.443
G01 X196.908 Y145.123
G01 X197.169 Y144.790
G01 X197.414 Y144.444
G01 X197.642 Y144.084
G01 X197.852 Y143.714
G01 X198.045 Y143.332
G01 X198.218 Y142.941
G01 X198.373 Y142.540
G01 X198.508 Y142.131
G01 X198.624 Y141.715
G01 X198.719 Y141.293
G01 X198.793 Y140.866
G01 X198.846 Y140.435
G01 X198.878 Y140.000
G01 X198.889 Y139.563
G01 X198.878 Y139.126
G01 X198.845 Y138.688
G01 X198.791 Y138.251
G01 X198.715 Y137.817
G01 X198.618 Y137.386
G01 X198.500 Y136.959
G01 X198.360 Y136.537
G01 X198.199 Y136.122
G01 X198.018 Y135.714
G01 X197.816 Y135.315
G01 X197.595 Y134.925
G01 X197.354 Y134.546
G01 X197.094 Y134.178
G01 X196.815 Y133.823
G01 X196.519 Y133.481
G01 X196.206 Y133.153
G01 X195.876 Y132.840
G01 X195.530 Y132.543
G01 X195.170 Y132.263
G01 X194.795 Y132.001
G01 X194.406 Y131.756
G01 X194.006 Y131.531
G01 X193.593 Y131.325
G01 X193.171 Y131.139
G01 X192.738 Y130.973
G01 X192.297 Y130.829
G01 X191.849 Y130.706
G01 X191.393 Y130.606
G01 X190.933 Y130.528
G01 X190.468 Y130.472
G01 X190.000 Y130.439
G01 X189.530 Y130.429
G01 X189.059 Y130.443
G01 X188.588 Y130.479
G01 X188.118 Y130.539
G01 X187.651 Y130.622
G01 X187.187 Y130.728
G01 X186.729 Y130.857
G01 X186.276 Y131.009
G01 X185.830 Y131.183
G01 X185.392 Y131.380
G01 X184.964 Y131.598
G01 X184.546 Y131.837
G01 X184.139 Y132.098
G01 X183.745 Y132.378
G01 X183.364 Y132.679
G01 X182.998 Y132.998
G01 X182.647 Y133.336
G01 X182.312 Y133.691
G01 X181.995 Y134.063
G01 X181.695 Y134.451
G01 X181.415 Y134.854
G01 X181.154 Y135.272
G01 X180.913 Y135.702
G01 X180.694 Y136.145
G01 X180.496 Y136.599
G01 X180.320 Y137.064
G01 X180.167 Y137.537
G01 X180.037 Y138.018
G01 X179.930 Y138.506
G01 X179.848 Y139.000
G01 X179.790 Y139.498
G01 X179.756 Y140.000
G01 X179.747 Y140.504
G01 X179.763 Y141.008
G01 X179.804 Y141.512
G01 X179.869 Y142.015
G01 X179.960 Y142.515
G01 X180.075 Y143.011
G01 X180.214 Y143.501
G01 X180.378 Y143.986
G01 X180.566 Y144.462
G01 X180.777 Y144.930
G01 X181.012 Y145.387
G01 X181.270 Y145.833
G01 X181.549 Y146.268
G01 X181.850 Y146.688
G01 X182.173 Y147.094
G01 X182.515 Y147.485
G01 X182.877 Y147.859
G01 X183.258 Y148.216
G01 X183.656 Y148.554
G01 X184.072 Y148.872
G01 X184.503 Y149.171
G01 X184.950 Y149.448
G01 X185.410 Y149.704
G01 X185.884 Y149.937
G01 X186.369 Y150.147
G01 X186.865 Y150.334
G01 X187.371 Y150.496
G01 X187.885 Y150.633
G01 X188.406 Y150.745
G01 X188.933 Y150.832
G01 X189.465 Y150.892
G01 X190.000 Y150.927
G01 X190.537 Y150.935
G01 X191.075 Y150.917
G01 X191.613 Y150.872
G01 X192.148 Y150.801
G01 X192.681 Y150.703
G01 X193.209 Y150.579
G01 X193.731 Y150.429
G01 X194.247 Y150.253
G01 X194.754 Y150.051
G01 X195.251 Y149.825
G01 X195.738 Y149.574
G01 X196.213 Y149.298
G01 X196.674 Y148.999
G01 X197.121 Y148.678
G01 X197.553 Y148.333
G01 X197.968 Y147.968
G01 X198.365 Y147.582
G01 X198.744 Y147.176
G01 X199.102 Y146.751
G01 X199.440 Y146.308
G01 X199.757 Y145.848
G01 X200.051 Y145.372
G01 X200.321 Y144.882
G01 X200.568 Y144.378
G01 X200.790 Y143.861
G01 X200.987 Y143.333
G01 X201.158 Y142.795
G01 X201.303 Y142.248
G01 X201.421 Y141.694
G01 X201.511 Y141.134
G01 X201.574 Y140.569
G01 X201.610 Y140.000
G01 X201.617 Y139.429
G01 X201.596 Y138.858
G01 X201.547 Y138.287
G01 X201.470 Y137.718
G01 X201.365 Y137.153
G01 X201.232 Y136.593
G01 X201.072 Y136.038
G01 X200.884 Y135.492
G01 X200.669 Y134.954
G01 X200.427 Y134.427
G01 X200.159 Y133.911
G01 X199.866 Y133.408
G01 X199.548 Y132.919
G01 X199.205 Y132.445
G01 X198.839 Y131.988
G01 X198.451 Y131.549
G01 X198.040 Y131.129
G01 X197.609 Y130.729
G01 X197.157 Y130.349
G01 X196.687 Y129.992
G01 X196.199 Y129.658
G01 X195.694 Y129.347
G01 X195.174 Y129.061
G01 X194.639 Y128.801
G01 X194.091 Y128.567
G01 X193.531 Y128.359
G01 X192.961 Y128.179
G01 X192.382 Y128.027
G01 X191.794 Y127.904
G01 X191.201 Y127.809
G01 X190.602 Y127.743
G01 X190.000 Y127.707
G01 X189.396 Y127.701
G01 X188.791 Y127.724
G01 X188.187 Y127.777
G01 X187.585 Y127.860
G01 X186.987 Y127.972
G01 X186.394 Y128.114
G01 X185.808 Y128.285
G01 X185.230 Y128.485
G01 X184.662 Y128.714
G01 X184.105 Y128.971
G01 X183.560 Y129.255
G01 X183.028 Y129.566
G01 X182.512 Y129.904
G01 X182.012 Y130.267
G01 X181.530 Y130.655
G01 X181.066 Y131.066
G01 X180.623 Y131.501
G01 X180.201 Y131.958
G01 X179.801 Y132.436
G01 X179.424 Y132.933
G01 X179.072 Y133.450
G01 X178.745 Y133.984
G01 X178.444 Y134.534
G01 X178.170 Y135.100
G01 X177.924 Y135.679
G01 X177.706 Y136.271
G01 X177.517 Y136.873
G01 X177.357 Y137.485
G01 X177.228 Y138.105
G01 X177.129 Y138.732
G01 X177.061 Y139.364
G01 X177.024 Y140.000
G01 X177.019 Y140.638
G01 X177.044 Y141.276
G01 X177.102 Y141.913
G01 X177.190 Y142.548
G01 X177.310 Y143.179
G01 X177.461 Y143.804
G01 X177.642 Y144.422
G01 X177.854 Y145.031
G01 X178.097 Y145.630
G01 X178.368 Y146.217
G01 X178.669 Y146.791
G01 X178.998 Y147.351
G01 X179.355 Y147.895
G01 X179.739 Y148.421
G01 X180.149 Y148.929
G01 X180.583 Y149.417
G01 X181.042 Y149.883
G01 X181.525 Y150.327
G01 X182.029 Y150.748
G01 X182.554 Y151.144
G01 X183.099 Y151.514
G01 X183.662 Y151.858
G01 X184.242 Y152.174
G01 X184.838 Y152.461
G01 X185.449 Y152.719
G01 X186.072 Y152.948
G01 X186.707 Y153.146
G01 X187.352 Y153.312
G01 X188.005 Y153.447
G01 X188.665 Y153.550
G01 X189.331 Y153.621
G01 X190.000 Y153.659
G01 X190.671 Y153.663
G01 X191.343 Y153.635
G01 X192.014 Y153.574
G01 X192.681 Y153.480
G01 X193.345 Y153.353
G01 X194.002 Y153.193
G01 X194.652 Y153.001
G01 X195.292 Y152.777
G01 X195.922 Y152.521
G01 X196.539 Y152.234
G01 X197.143 Y151.917
G01 X197.731 Y151.570
G01 X198.302 Y151.193
G01 X198.854 Y150.789
G01 X199.387 Y150.358
G01 X199.899 Y149.899
G01 X200.389 Y149.416
G01 X200.855 Y148.909
G01 X201.296 Y148.378
G01 X201.712 Y147.825
G01 X202.100 Y147.252
G01 X202.460 Y146.660
G01 X202.791 Y146.050
G01 X203.092 Y145.423
G01 X203.362 Y144.781
G01 X203.601 Y144.126
G01 X203.808 Y143.459
G01 X203.982 Y142.781
G01 X204.123 Y142.095
G01 X204.230 Y141.402
G01 X204.303 Y140.703
G01 X204.341 Y140.000
G01 X204.346 Y139.295
G01 X204.315 Y138.590
G01 X204.250 Y137.886
G01 X204.150 Y137.185
G01 X204.015 Y136.489
G01 X203.846 Y135.800
G01 X203.644 Y135.118
G01 X203.408 Y134.446
G01 X203.138 Y133.786
G01 X202.836 Y133.139
G01 X202.502 Y132.506
G01 X202.137 Y131.890
G01 X201.742 Y131.292
G01 X201.317 Y130.712
G01 X200.864 Y130.154
G01 X200.382 Y129.618
G01 X199.875 Y129.105
G01 X199.342 Y128.617
G01 X198.785 Y128.155
G01 X198.205 Y127.721
G01 X197.603 Y127.315
G01 X196.982 Y126.938
G01 X196.342 Y126.592
G01 X195.684 Y126.277
G01 X195.011 Y125.995
G01 X194.324 Y125.745
G01 X193.625 Y125.529
G01 X192.914 Y125.348
G01 X192.195 Y125.202
G01 X191.468 Y125.090
G01 X190.736 Y125.015
G01 X190.000 Y124.976
G01 X189.262 Y124.972
G01 X188.523 Y125.005
G01 X187.786 Y125.075
G01 X187.052 Y125.181
G01 X186.323 Y125.322
G01 X185.601 Y125.500
G01 X184.888 Y125.713
G01 X184.185 Y125.962
G01 X183.494 Y126.244
G01 X182.817 Y126.561
G01 X182.155 Y126.912
G01 X181.511 Y127.295
G01 X180.885 Y127.709
G01 X180.279 Y128.155
G01 X179.695 Y128.630
G01 X179.135 Y129.135
G01 X178.599 Y129.667
G01 X178.089 Y130.225
G01 X177.607 Y130.808
G01 X177.153 Y131.416
G01 X176.729 Y132.046
G01 X176.336 Y132.696
G01 X175.974 Y133.366
G01 X175.646 Y134.054
G01 X175.352 Y134.759
G01 X175.092 Y135.478
G01 X174.867 Y136.209
G01 X174.678 Y136.952
G01 X174.526 Y137.705
G01 X174.411 Y138.465
G01 X174.333 Y139.230
G01 X174.293 Y140.000
G01 X174.290 Y140.772
G01 X174.326 Y141.544
G01 X174.399 Y142.314
G01 X174.511 Y143.081
G01 X174.660 Y143.842
G01 X174.846 Y144.597
G01 X175.070 Y145.342
G01 X175.331 Y146.076
G01 X175.627 Y146.798
G01 X175.959 Y147.505
G01 X176.326 Y148.196
G01 X176.727 Y148.869
G01 X177.161 Y149.522
G01 X177.627 Y150.154
G01 X178.124 Y150.763
G01 X178.652 Y151.348
G01 X179.208 Y151.907
G01 X179.792 Y152.439
G01 X180.402 Y152.942
G01 X181.036 Y153.415
G01 X181.694 Y153.857
G01 X182.374 Y154.267
G01 X183.074 Y154.643
G01 X183.793 Y154.985
G01 X184.529 Y155.291
G01 X185.279 Y155.562
G01 X186.043 Y155.796
G01 X186.819 Y155.992
G01 X187.604 Y156.150
G01 X188.398 Y156.269
G01 X189.197 Y156.349
G01 X190.000 Y156.390
G01 X190.805 Y156.392
G01 X191.611 Y156.354
G01 X192.414 Y156.276
G01 X193.214 Y156.159
G01 X194.008 Y156.003
G01 X194.795 Y155.807
G01 X195.572 Y155.573
G01 X196.338 Y155.300
G01 X197.090 Y154.990
G01 X197.827 Y154.643
G01 X198.547 Y154.260
G01 X199.248 Y153.841
G01 X199.929 Y153.388
G01 X200.587 Y152.901
G01 X201.222 Y152.382
G01 X201.831 Y151.831
G01 X202.413 Y151.251
G01 X202.967 Y150.642
G01 X203.490 Y150.005
G01 X203.983 Y149.343
G01 X204.443 Y148.657
G01 X204.869 Y147.948
G01 X205.260 Y147.218
G01 X205.616 Y146.468
G01 X205.934 Y145.701
G01 X206.215 Y144.919
G01 X206.458 Y144.123
G01 X206.661 Y143.314
G01 X206.825 Y142.496
G01 X206.948 Y141.669
G01 X207.031 Y140.837
G01 X207.073 Y140.000
G01 X207.074 Y139.161
G01 X207.033 Y138.322
G01 X206.952 Y137.485
G01 X206.829 Y136.653
G01 X206.665 Y135.826
G01 X206.461 Y135.007
G01 X206.216 Y134.198
G01 X205.931 Y133.401
G01 X205.608 Y132.618
G01 X205.245 Y131.851
G01 X204.846 Y131.102
G01 X204.409 Y130.372
G01 X203.936 Y129.664
G01 X203.429 Y128.979
G01 X202.888 Y128.319
G01 X202.314 Y127.686
G01 X201.709 Y127.081
G01 X201.075 Y126.505
G01 X200.412 Y125.961
G01 X199.722 Y125.449
G01 X199.008 Y124.971
G01 X198.270 Y124.529
G01 X197.510 Y124.122
G01 X196.730 Y123.753
G01 X195.932 Y123.423
G01 X195.117 Y123.131
G01 X194.288 Y122.880
G01 X193.447 Y122.669
G01 X192.596 Y122.499
G01 X191.736 Y122.372
G01 X190.870 Y122.287
G01 X190.000 Y122.244
G01 X189.128 Y122.244
G01 X188.255 Y122.287
G01 X187.385 Y122.373
G01 X186.519 Y122.501
G01 X185.660 Y122.673
G01 X184.809 Y122.886
G01 X183.968 Y123.141
G01 X183.140 Y123.438
G01 X182.326 Y123.775
G01 X181.529 Y124.152
G01 X180.751 Y124.569
G01 X179.993 Y125.023
G01 X179.257 Y125.515
G01 X178.546 Y126.043
G01 X177.861 Y126.606
G01 X177.203 Y127.203
G01 X176.575 Y127.832
G01 X175.977 Y128.492
G01 X175.412 Y129.181
G01 X174.881 Y129.898
G01 X174.386 Y130.641
G01 X173.926 Y131.409
G01 X173.505 Y132.198
G01 X173.122 Y133.009
G01 X172.780 Y133.838
G01 X172.477 Y134.685
G01 X172.217 Y135.546
G01 X171.999 Y136.419
G01 X171.824 Y137.304
G01 X171.692 Y138.197
G01 X171.605 Y139.096
G01 X171.561 Y140.000
G01 X171.562 Y140.906
G01 X171.607 Y141.812
G01 X171.697 Y142.715
G01 X171.832 Y143.614
G01 X172.010 Y144.506
G01 X172.232 Y145.390
G01 X172.498 Y146.262
G01 X172.807 Y147.122
G01 X173.158 Y147.966
G01 X173.550 Y148.793
G01 X173.983 Y149.600
G01 X174.456 Y150.386
G01 X174.967 Y151.149
G01 X175.515 Y151.887
G01 X176.100 Y152.598
G01 X176.720 Y153.280
G01 X177.373 Y153.931
G01 X178.059 Y154.551
G01 X178.774 Y155.136
G01 X179.519 Y155.686
G01 X180.290 Y156.200
G01 X181.087 Y156.676
G01 X181.906 Y157.112
G01 X182.748 Y157.509
G01 X183.608 Y157.864
G01 X184.486 Y158.176
G01 X185.380 Y158.445
G01 X186.286 Y158.671
G01 X187.204 Y158.852
G01 X188.130 Y158.987
G01 X189.063 Y159.078
G01 X190.000 Y159.122
G01 X190.939 Y159.120
G01 X191.878 Y159.072
G01 X192.815 Y158.978
G01 X193.747 Y158.838
G01 X194.672 Y158.652
G01 X195.588 Y158.421
G01 X196.492 Y158.145
G01 X197.383 Y157.824
G01 X198.258 Y157.460
G01 X199.115 Y157.052
G01 X199.951 Y156.603
G01 X200.766 Y156.112
G01 X201.556 Y155.582
G01 X202.320 Y155.012
G01 X203.056 Y154.406
G01 X203.763 Y153.763
G01 X204.437 Y153.085
G01 X205.078 Y152.375
G01 X205.685 Y151.632
G01 X206.254 Y150.861
G01 X206.786 Y150.061
G01 X207.278 Y149.235
G01 X207.730 Y148.386
G01 X208.140 Y147.514
G01 X208.507 Y146.622
G01 X208.830 Y145.712
G01 X209.108 Y144.786
G01 X209.341 Y143.847
G01 X209.527 Y142.897
G01 X209.667 Y141.937
G01 X209.760 Y140.971
G01 X209.805 Y140.000
G01 X209.802 Y139.027
G01 X209.752 Y138.055
G01 X209.654 Y137.085
G01 X209.508 Y136.120
G01 X209.315 Y135.162
G01 X209.075 Y134.214
G01 X208.788 Y133.278
G01 X208.455 Y132.356
G01 X208.077 Y131.450
G01 X207.655 Y130.563
G01 X207.189 Y129.698
G01 X206.680 Y128.855
G01 X206.130 Y128.037
G01 X205.540 Y127.246
G01 X204.912 Y126.485
G01 X204.246 Y125.754
G01 X203.544 Y125.057
G01 X202.808 Y124.394
G01 X202.039 Y123.767
G01 X201.240 Y123.178
G01 X200.412 Y122.628
G01 X199.557 Y122.120
G01 X198.678 Y121.653
G01 X197.775 Y121.229
G01 X196.852 Y120.850
G01 X195.910 Y120.517
G01 X194.952 Y120.230
G01 X193.980 Y119.990
G01 X192.997 Y119.797
G01 X192.004 Y119.653
G01 X191.004 Y119.558
G01 X190.000 Y119.512
G01 X188.994 Y119.516
G01 X187.988 Y119.568
G01 X186.984 Y119.671
G01 X185.986 Y119.822
G01 X184.996 Y120.023
G01 X184.016 Y120.272
G01 X183.048 Y120.569
G01 X182.094 Y120.914
G01 X181.158 Y121.306
G01 X180.242 Y121.743
G01 X179.346 Y122.226
G01 X178.475 Y122.752
G01 X177.630 Y123.321
G01 X176.813 Y123.932
G01 X176.026 Y124.582
G01 X175.271 Y125.271
G01 X174.551 Y125.998
G01 X173.866 Y126.759
G01 X173.218 Y127.554
G01 X172.610 Y128.380
G01 X172.043 Y129.237
G01 X171.517 Y130.121
G01 X171.036 Y131.030
G01 X170.599 Y131.964
G01 X170.207 Y132.918
G01 X169.863 Y133.892
G01 X169.567 Y134.882
G01 X169.320 Y135.886
G01 X169.122 Y136.903
G01 X168.974 Y137.929
G01 X168.876 Y138.962
G01 X168.829 Y140.000
G01 X168.833 Y141.040
G01 X168.889 Y142.079
G01 X168.995 Y143.116
G01 X169.152 Y144.147
G01 X169.360 Y145.170
G01 X169.618 Y146.183
G01 X169.926 Y147.183
G01 X170.283 Y148.167
G01 X170.688 Y149.134
G01 X171.141 Y150.080
G01 X171.640 Y151.005
G01 X172.184 Y151.904
G01 X172.773 Y152.777
G01 X173.404 Y153.620
G01 X174.076 Y154.432
G01 X174.789 Y155.211
G01 X175.539 Y155.955
G01 X176.326 Y156.662
G01 X177.147 Y157.330
G01 X178.001 Y157.958
G01 X178.886 Y158.543
G01 X179.799 Y159.085
G01 X180.738 Y159.582
G01 X181.702 Y160.032
G01 X182.688 Y160.436
G01 X183.693 Y160.790
G01 X184.716 Y161.095
G01 X185.753 Y161.350
G01 X186.803 Y161.554
G01 X187.862 Y161.706
G01 X188.929 Y161.806
G01 X190.000 Y161.854
G01 X191.073 Y161.849
G01 X192.146 Y161.791
G01 X193.216 Y161.680
G01 X194.280 Y161.517
G01 X195.336 Y161.302
G01 X196.381 Y161.035
G01 X197.413 Y160.717
G01 X198.428 Y160.348
G01 X199.426 Y159.929
G01 X200.402 Y159.461
G01 X201.356 Y158.946
G01 X202.284 Y158.384
G01 X203.183 Y157.776
G01 X204.053 Y157.124
G01 X204.891 Y156.430
G01 X205.694 Y155.694
G01 X206.461 Y154.920
G01 X207.190 Y154.108
G01 X207.879 Y153.260
G01 X208.526 Y152.378
G01 X209.129 Y151.465
G01 X209.687 Y150.523
G01 X210.199 Y149.554
G01 X210.663 Y148.559
G01 X211.079 Y147.542
G01 X211.444 Y146.505
G01 X211.758 Y145.450
G01 X212.020 Y144.380
G01 X212.229 Y143.297
G01 X212.386 Y142.205
G01 X212.488 Y141.105
G01 X212.537 Y140.000
G01 X212.531 Y138.893
G01 X212.471 Y137.787
G01 X212.356 Y136.684
G01 X212.187 Y135.587
G01 X211.965 Y134.498
G01 X211.689 Y133.421
G01 X211.360 Y132.357
G01 X210.979 Y131.310
G01 X210.546 Y130.282
G01 X210.064 Y129.276
G01 X209.532 Y128.293
G01 X208.951 Y127.337
G01 X208.324 Y126.410
G01 X207.652 Y125.513
G01 X206.936 Y124.650
G01 X206.177 Y123.823
G01 X205.378 Y123.033
G01 X204.541 Y122.282
G01 X203.667 Y121.573
G01 X202.758 Y120.907
G01 X201.817 Y120.285
G01 X200.845 Y119.710
G01 X199.845 Y119.183
G01 X198.820 Y118.706
G01 X197.772 Y118.278
G01 X196.703 Y117.903
G01 X195.616 Y117.580
G01 X194.513 Y117.310
G01 X193.398 Y117.095
G01 X192.272 Y116.935
G01 X191.138 Y116.830
G01 X190.000 Y116.780
G01 X188.860 Y116.787
G01 X187.720 Y116.850
G01 X186.584 Y116.968
G01 X185.453 Y117.143
G01 X184.332 Y117.373
G01 X183.223 Y117.658
G01 X182.127 Y117.997
G01 X181.049 Y118.390
G01 X179.990 Y118.836
G01 X178.954 Y119.334
G01 X177.942 Y119.883
G01 X176.958 Y120.481
G01 X176.003 Y121.127
G01 X175.080 Y121.820
G01 X174.192 Y122.558
G01 X173.340 Y123.340
G01 X172.527 Y124.163
G01 X171.754 Y125.026
G01 X171.024 Y125.927
G01 X170.339 Y126.863
G01 X169.700 Y127.832
G01 X169.108 Y128.833
G01 X168.566 Y129.863
G01 X168.075 Y130.918
G01 X167.635 Y131.998
G01 X167.249 Y133.099
G01 X166.917 Y134.218
G01 X166.641 Y135.354
G01 X166.420 Y136.502
G01 X166.255 Y137.661
G01 X166.148 Y138.828
G01 X166.098 Y140.000
G01 X166.105 Y141.174
G01 X166.170 Y142.347
G01 X166.293 Y143.517
G01 X166.473 Y144.680
G01 X166.710 Y145.834
G01 X167.004 Y146.976
G01 X167.354 Y148.103
G01 X167.759 Y149.212
G01 X168.219 Y150.302
G01 X168.732 Y151.368
G01 X169.297 Y152.409
G01 X169.913 Y153.422
G01 X170.579 Y154.404
G01 X171.292 Y155.353
G01 X172.052 Y156.267
G01 X172.857 Y157.143
G01 X173.704 Y157.979
G01 X174.593 Y158.774
G01 X175.520 Y159.524
G01 X176.483 Y160.229
G01 X177.481 Y160.886
G01 X178.511 Y161.494
G01 X179.571 Y162.051
G01 X180.657 Y162.556
G01 X181.768 Y163.008
G01 X182.900 Y163.404
G01 X184.052 Y163.745
G01 X185.220 Y164.029
G01 X186.402 Y164.256
G01 X187.594 Y164.425
G01 X188.795 Y164.534
G01 X190.000 Y164.585
G01 X191.207 Y164.577
G01 X192.414 Y164.509
G01 X193.617 Y164.383
G01 X194.813 Y164.197
G01 X196.000 Y163.952
G01 X197.174 Y163.649
G01 X198.333 Y163.289
G01 X199.474 Y162.872
G01 X200.594 Y162.399
G01 X201.690 Y161.871
G01 X202.760 Y161.289
G01 X203.801 Y160.655
G01 X204.811 Y159.970
G01 X205.786 Y159.236
G01 X206.726 Y158.454
G01 X207.626 Y157.626
G01 X208.485 Y156.754
G01 X209.302 Y155.840
G01 X210.073 Y154.887
G01 X210.797 Y153.896
G01 X211.472 Y152.870
G01 X212.096 Y151.811
G01 X212.669 Y150.721
G01 X213.187 Y149.604
G01 X213.651 Y148.462
G01 X214.058 Y147.298
G01 X214.408 Y146.114
G01 X214.699 Y144.913
G01 X214.931 Y143.698
G01 X215.104 Y142.473
G01 X215.217 Y141.239
G01 X215.268 Y140.000
G01 X215.259 Y138.759
G01 X215.189 Y137.519
G01 X215.058 Y136.283
G01 X214.866 Y135.054
G01 X214.615 Y133.834
G01 X214.303 Y132.628
G01 X213.932 Y131.437
G01 X213.503 Y130.265
G01 X213.016 Y129.114
G01 X212.473 Y127.988
G01 X211.875 Y126.889
G01 X211.223 Y125.819
G01 X210.519 Y124.782
G01 X209.764 Y123.780
G01 X208.960 Y122.816
G01 X208.109 Y121.891
G01 X207.213 Y121.009
G01 X206.274 Y120.170
G01 X205.294 Y119.379
G01 X204.275 Y118.635
G01 X203.221 Y117.942
G01 X202.133 Y117.301
G01 X201.013 Y116.714
G01 X199.866 Y116.182
G01 X198.692 Y115.706
G01 X197.496 Y115.289
G01 X196.280 Y114.930
G01 X195.046 Y114.631
G01 X193.798 Y114.393
G01 X192.539 Y114.216
G01 X191.272 Y114.101
G01 X190.000 Y114.049
G01 X188.726 Y114.059
G01 X187.452 Y114.131
G01 X186.183 Y114.266
G01 X184.921 Y114.464
G01 X183.668 Y114.723
G01 X182.430 Y115.044
G01 X181.207 Y115.425
G01 X180.004 Y115.866
G01 X178.822 Y116.367
G01 X177.666 Y116.925
G01 X176.538 Y117.540
G01 X175.440 Y118.209
G01 X174.376 Y118.933
G01 X173.347 Y119.708
G01 X172.357 Y120.534
G01 X171.408 Y121.408
G01 X170.503 Y122.329
G01 X169.642 Y123.293
G01 X168.830 Y124.299
G01 X168.067 Y125.345
G01 X167.356 Y126.428
G01 X166.699 Y127.545
G01 X166.097 Y128.695
G01 X165.551 Y129.873
G01 X165.063 Y131.078
G01 X164.635 Y132.306
G01 X164.268 Y133.554
G01 X163.961 Y134.821
G01 X163.717 Y136.101
G01 X163.537 Y137.394
G01 X163.419 Y138.694
G01 X163.366 Y140.000
G01 X163.377 Y141.308
G01 X163.452 Y142.615
G01 X163.591 Y143.917
G01 X163.794 Y145.213
G01 X164.061 Y146.497
G01 X164.390 Y147.769
G01 X164.782 Y149.023
G01 X165.236 Y150.258
G01 X165.749 Y151.470
G01 X166.323 Y152.656
G01 X166.954 Y153.813
G01 X167.642 Y154.939
G01 X168.384 Y156.031
G01 X169.181 Y157.086
G01 X170.028 Y158.101
G01 X170.925 Y159.075
G01 X171.870 Y160.003
G01 X172.860 Y160.885
G01 X173.893 Y161.718
G01 X174.966 Y162.500
G01 X176.077 Y163.229
G01 X177.223 Y163.903
G01 X178.403 Y164.521
G01 X179.612 Y165.080
G01 X180.847 Y165.580
G01 X182.107 Y166.018
G01 X183.388 Y166.395
G01 X184.687 Y166.708
G01 X186.001 Y166.958
G01 X187.327 Y167.143
G01 X188.661 Y167.263
G01 X190.000 Y167.317
G01 X191.341 Y167.305
G01 X192.682 Y167.228
G01 X194.018 Y167.085
G01 X195.346 Y166.876
G01 X196.663 Y166.602
G01 X197.967 Y166.263
G01 X199.253 Y165.861
G01 X200.519 Y165.395
G01 X201.762 Y164.868
G01 X202.978 Y164.280
G01 X204.164 Y163.632
G01 X205.319 Y162.926
G01 X206.438 Y162.164
G01 X207.519 Y161.347
G01 X208.560 Y160.478
G01 X209.558 Y159.558
G01 X210.509 Y158.589
G01 X211.413 Y157.573
G01 X212.267 Y156.514
G01 X213.068 Y155.414
G01 X213.815 Y154.274
G01 X214.506 Y153.099
G01 X215.138 Y151.889
G01 X215.711 Y150.650
G01 X216.223 Y149.383
G01 X216.672 Y148.091
G01 X217.057 Y146.778
G01 X217.378 Y145.446
G01 X217.634 Y144.099
G01 X217.823 Y142.740
G01 X217.945 Y141.373
G01 X218.000 Y140.000
G01 X202.600 Y140.000
G01 X202.837 Y139.787
G01 X201.844 Y139.289
G01 X201.349 Y139.877
G01 X201.233 Y140.003
G01 X201.265 Y140.556
G01 X201.271 Y140.957
G01 X201.762 Y141.583
G01 X201.859 Y141.719
G01 X202.756 Y142.076
G01 X203.720 Y141.978
G01 X204.440 Y141.363
G01 X205.122 Y140.693
G01 X205.202 Y139.950
G01 X205.245 Y139.200
G01 X205.253 Y138.782
G01 X204.803 Y138.083
G01 X204.323 Y137.425
G01 X204.150 Y137.207
G01 X202.993 Y136.765
G01 X202.332 Y136.562
G01 X200.450 Y137.007
G01 X199.780 Y137.711
G01 X199.067 Y138.343
G01 X199.057 Y138.351
G01 X198.856 Y138.833
G01 X198.657 Y139.242
G01 X198.670 Y139.668
G01 X198.663 Y140.094
G01 X198.634 Y140.518
G01 X198.585 Y140.940
G01 X198.547 Y141.179
G01 X198.805 Y141.658
G01 X199.036 Y142.166
G01 X199.237 Y142.699
G01 X199.321 Y142.960
G01 X200.417 Y143.880
G01 X200.789 Y144.234
G01 X202.653 Y144.785
G01 X204.039 Y144.535
G01 X205.427 Y144.160
G01 X205.476 Y144.144
G01 X206.182 Y143.492
G01 X206.861 Y142.781
G01 X207.478 Y142.048
G01 X207.707 Y141.198
G01 X207.893 Y140.330
G01 X208.037 Y139.447
G01 X208.069 Y139.206
G01 X207.827 Y138.337
G01 X207.544 Y137.490
G01 X207.221 Y136.667
G01 X207.131 Y136.456
G01 X206.433 Y135.750
G01 X205.709 Y135.103
G01 X204.963 Y134.518
G01 X203.789 Y134.165
G01 X202.619 Y133.914
G01 X202.133 Y133.838
G01 X199.855 Y134.371
G01 X199.305 Y134.534
G01 X197.725 Y135.680
G01 X197.244 Y136.403
G01 X196.713 Y137.069
G01 X196.556 Y137.243
G01 X196.465 Y137.647
G01 X196.352 Y138.036
G01 X196.216 Y138.408
G01 X196.060 Y138.761
G01 X195.893 Y139.080
G01 X195.918 Y139.371
G01 X195.928 Y139.663
G01 X195.924 Y139.955
G01 X195.906 Y140.245
G01 X195.873 Y140.533
G01 X195.827 Y140.819
G01 X195.783 Y141.029
G01 X195.908 Y141.354
G01 X196.015 Y141.693
G01 X196.102 Y142.045
G01 X196.169 Y142.410
G01 X196.214 Y142.787
G01 X196.225 Y142.932
G01 X196.613 Y143.521
G01 X196.957 Y144.154
G01 X197.176 Y144.638
G01 X199.371 Y146.562
G01 X201.378 Y147.162
G01 X203.123 Y147.524
G01 X204.316 Y147.299
G01 X205.517 Y146.975
G01 X206.719 Y146.549
G01 X206.859 Y146.492
G01 X207.663 Y145.824
G01 X208.441 Y145.092
G01 X209.188 Y144.297
G01 X209.630 Y143.778
G01 X210.000 Y142.839
G01 X210.325 Y141.874
G01 X210.603 Y140.883
G01 X210.791 Y140.074
G01 X210.683 Y139.058
G01 X210.525 Y138.053
G01 X210.319 Y137.060
G01 X210.113 Y136.251
G01 X209.541 Y135.355
G01 X208.931 Y134.506
G01 X208.285 Y133.705
G01 X207.784 Y133.142
G01 X206.787 Y132.561
G01 X205.778 Y132.060
G01 X204.761 Y131.640
G01 X203.743 Y131.300
G01 X203.360 Y131.192
G01 X201.972 Y131.235
G01 X200.623 Y131.391
G01 X199.320 Y131.657
G01 X198.569 Y131.866
G01 X196.140 Y133.570
G01 X195.419 Y134.148
G01 X194.691 Y135.408
G01 X193.855 Y136.581
G01 X193.833 Y136.608
G01 X193.786 Y136.968
G01 X193.713 Y137.314
G01 X193.616 Y137.646
G01 X193.496 Y137.961
G01 X193.354 Y138.258
G01 X193.233 Y138.470
G01 X193.227 Y138.663
G01 X193.211 Y138.851
G01 X193.183 Y139.034
G01 X193.146 Y139.212
G01 X193.099 Y139.383
G01 X193.081 Y139.438
G01 X193.094 Y139.591
G01 X193.099 Y139.745
G01 X193.096 Y139.897
G01 X193.086 Y140.049
G01 X193.068 Y140.200
G01 X193.043 Y140.349
G01 X193.029 Y140.416
G01 X193.059 Y140.574
G01 X193.080 Y140.736
G01 X193.092 Y140.902
G01 X193.096 Y141.070
G01 X193.090 Y141.241
G01 X193.077 Y141.394
G01 X193.136 Y141.611
G01 X193.180 Y141.836
G01 X193.210 Y142.070
G01 X193.224 Y142.310
G01 X193.225 Y142.363
G01 X193.419 Y142.773
G01 X193.581 Y143.207
G01 X193.707 Y143.664
G01 X193.796 Y144.140
G01 X193.809 Y144.230
G01 X195.076 Y146.226
G01 X195.350 Y146.720
G01 X197.208 Y148.195
G01 X199.221 Y149.500
G01 X199.294 Y149.543
G01 X200.570 Y149.837
G01 X201.894 Y150.027
G01 X203.261 Y150.109
G01 X204.662 Y150.079
G01 X205.071 Y150.049
G01 X206.171 Y149.672
G01 X207.270 Y149.210
G01 X208.360 Y148.663
G01 X209.437 Y148.030
G01 X209.474 Y148.006
G01 X210.256 Y147.187
G01 X211.003 Y146.311
G01 X211.712 Y145.378
G01 X212.379 Y144.390
G01 X212.496 Y144.205
G01 X212.829 Y143.117
G01 X213.108 Y142.006
G01 X213.334 Y140.876
G01 X213.504 Y139.728
G01 X213.535 Y139.459
G01 X213.359 Y138.314
G01 X213.128 Y137.184
G01 X212.842 Y136.073
G01 X212.503 Y134.984
G01 X212.416 Y134.730
G01 X211.760 Y133.743
G01 X211.063 Y132.807
G01 X210.327 Y131.925
G01 X209.556 Y131.096
G01 X209.388 Y130.928
G01 X208.345 Y130.292
G01 X207.287 Y129.735
G01 X206.221 Y129.258
G01 X205.150 Y128.861
G01 X204.085 Y128.542
G01 X202.806 Y128.493
G01 X201.559 Y128.541
G01 X200.348 Y128.682
G01 X199.180 Y128.912
G01 X198.062 Y129.228
G01 X196.998 Y129.625
G01 X196.503 Y129.845
G01 X195.324 Y130.712
G01 X194.247 Y131.668
G01 X193.278 Y132.704
G01 X192.423 Y133.812
G01 X191.685 Y134.984
G01 X191.070 Y136.210
G01 X190.965 Y136.453
G01 X190.478 Y138.349
G01 X190.480 Y138.603
G01 X190.458 Y138.852
G01 X190.414 Y139.096
G01 X190.350 Y139.320
G01 X190.379 Y139.346
G01 X190.405 Y139.373
G01 X190.431 Y139.401
G01 X190.454 Y139.430
G01 X190.475 Y139.459
G01 X190.495 Y139.490
G01 X190.513 Y139.521
G01 X190.529 Y139.552
G01 X190.543 Y139.584
G01 X190.556 Y139.616
G01 X190.566 Y139.649
G01 X190.575 Y139.681
G01 X190.582 Y139.714
G01 X190.587 Y139.746
G01 X190.591 Y139.779
G01 X190.592 Y139.811
G01 X190.592 Y139.842
G01 X190.591 Y139.873
G01 X190.587 Y139.904
G01 X190.583 Y139.934
G01 X190.576 Y139.963
G01 X190.568 Y139.991
G01 X190.559 Y140.019
G01 X190.549 Y140.046
G01 X190.537 Y140.071
G01 X190.524 Y140.096
G01 X190.510 Y140.120
G01 X190.495 Y140.142
G01 X190.479 Y140.163
G01 X190.462 Y140.183
G01 X190.445 Y140.202
G01 X190.426 Y140.220
G01 X190.407 Y140.236
G01 X190.388 Y140.251
G01 X190.368 Y140.264
G01 X190.347 Y140.276
G01 X190.327 Y140.287
G01 X190.306 Y140.297
G01 X190.300 Y140.299
G01 X190.341 Y140.374
G01 X190.374 Y140.453
G01 X190.400 Y140.537
G01 X190.419 Y140.624
G01 X190.430 Y140.714
G01 X190.434 Y140.807
G01 X190.429 Y140.901
G01 X190.416 Y140.997
G01 X190.394 Y141.093
G01 X190.364 Y141.189
G01 X190.329 Y141.278
G01 X191.207 Y145.081
G01 X191.807 Y146.232
G01 X192.522 Y147.332
G01 X193.349 Y148.374
G01 X194.283 Y149.350
G01 X195.319 Y150.252
G01 X196.453 Y151.072
G01 X197.679 Y151.803
G01 X197.887 Y151.914
G01 X199.026 Y152.279
G01 X200.218 Y152.560
G01 X201.459 Y152.751
G01 X202.741 Y152.850
G01 X204.058 Y152.851
G01 X205.405 Y152.753
G01 X205.564 Y152.735
G01 X206.715 Y152.359
G01 X207.867 Y151.901
G01 X209.012 Y151.358
G01 X210.145 Y150.730
G01 X211.262 Y150.018
G01 X211.652 Y149.746
G01 X212.484 Y148.821
G01 X213.278 Y147.838
G01 X214.028 Y146.797
G01 X214.731 Y145.702
G01 X215.111 Y145.050
G01 X215.471 Y143.833
G01 X215.772 Y142.593
G01 X216.012 Y141.333
G01 X216.191 Y140.055
G01 X216.263 Y139.331
G01 X216.079 Y138.052
G01 X215.832 Y136.790
G01 X215.525 Y135.547
G01 X215.158 Y134.326
G01 X214.926 Y133.651
G01 X214.212 Y132.551
G01 X213.451 Y131.504
G01 X212.646 Y130.514
G01 X211.802 Y129.583
G01 X210.921 Y128.711
G01 X210.601 Y128.416
G01 X209.458 Y127.765
G01 X208.301 Y127.198
G01 X207.137 Y126.714
G01 X205.971 Y126.312
G01 X204.808 Y125.991
G01 X203.653 Y125.751
G01 X203.353 Y125.701
G01 X202.126 Y125.665
G01 X200.930 Y125.713
G01 X199.768 Y125.842
G01 X198.647 Y126.049
G01 X197.570 Y126.331
G01 X196.543 Y126.683
G01 X195.569 Y127.101
G01 X194.653 Y127.581
G01 X193.798 Y128.118
G01 X193.008 Y128.707
G01 X192.285 Y129.343
G01 X191.632 Y130.022
G01 X191.052 Y130.736
G01 X190.546 Y131.482
G01 X190.527 Y131.512
G01 X190.104 Y131.983
G01 X189.728 Y132.473
G01 X189.400 Y132.980
G01 X189.122 Y133.500
G01 X188.892 Y134.029
G01 X188.713 Y134.564
G01 X188.620 Y134.923
G01 X188.451 Y135.239
G01 X188.310 Y135.558
G01 X188.196 Y135.880
G01 X188.109 Y136.201
G01 X188.050 Y136.520
G01 X188.020 Y136.788
G01 X187.924 Y136.976
G01 X187.843 Y137.166
G01 X187.774 Y137.356
G01 X187.720 Y137.546
G01 X187.678 Y137.735
G01 X187.649 Y137.922
G01 X187.633 Y138.106
G01 X187.628 Y138.287
G01 X187.636 Y138.463
G01 X187.655 Y138.634
G01 X187.668 Y138.714
G01 X187.616 Y138.834
G01 X187.570 Y138.956
G01 X187.530 Y139.080
G01 X187.497 Y139.205
G01 X187.470 Y139.331
G01 X187.449 Y139.458
G01 X187.434 Y139.585
G01 X187.426 Y139.713
G01 X187.424 Y139.840
G01 X187.428 Y139.966
G01 X187.439 Y140.092
G01 X187.456 Y140.217
G01 X187.478 Y140.340
G01 X187.507 Y140.462
G01 X187.541 Y140.582
G01 X187.571 Y140.670
G01 X187.532 Y140.813
G01 X187.501 Y140.962
G01 X187.478 Y141.116
G01 X187.465 Y141.274
G01 X187.462 Y141.436
G01 X187.468 Y141.601
G01 X187.485 Y141.769
G01 X187.512 Y141.939
G01 X187.550 Y142.110
G01 X187.599 Y142.282
G01 X187.660 Y142.455
G01 X187.729 Y142.622
G01 X187.706 Y142.928
G01 X187.708 Y143.242
G01 X187.735 Y143.562
G01 X187.789 Y143.886
G01 X187.869 Y144.214
G01 X187.976 Y144.542
G01 X188.111 Y144.870
G01 X188.273 Y145.195
G01 X188.435 Y145.471
G01 X188.578 Y146.088
G01 X188.778 Y146.702
G01 X189.035 Y147.309
G01 X189.349 Y147.907
G01 X189.719 Y148.489
G01 X190.145 Y149.054
G01 X190.625 Y149.595
G01 X190.778 Y149.751
G01 X191.363 Y150.531
G01 X192.026 Y151.276
G01 X192.766 Y151.979
G01 X193.578 Y152.635
G01 X194.461 Y153.237
G01 X195.412 Y153.782
G01 X196.425 Y154.263
G01 X197.499 Y154.677
G01 X198.627 Y155.017
G01 X199.806 Y155.281
G01 X201.030 Y155.463
G01 X202.294 Y155.560
G01 X203.594 Y155.569
G01 X204.923 Y155.486
G01 X206.274 Y155.309
G01 X207.481 Y155.073
G01 X208.688 Y154.578
G01 X209.887 Y153.999
G01 X211.073 Y153.338
G01 X212.241 Y152.593
G01 X213.385 Y151.764
G01 X214.169 Y151.135
G01 X215.032 Y150.075
G01 X215.849 Y148.957
G01 X216.616 Y147.782
G01 X217.329 Y146.554
G01 X217.903 Y145.442
G01 X218.254 Y144.083
G01 X218.539 Y142.703
G01 X218.756 Y141.305
G01 X218.904 Y139.892
G01 X218.974 Y138.717
G01 X218.739 Y137.310
G01 X218.436 Y135.923
G01 X218.067 Y134.559
G01 X217.632 Y133.221
G01 X217.224 Y132.136
G01 X216.434 Y130.937
G01 X215.593 Y129.796
G01 X214.704 Y128.715
G01 X213.772 Y127.697
G01 X212.801 Y126.743
G01 X212.206 Y126.207
G01 X210.982 Y125.493
G01 X209.743 Y124.866
G01 X208.494 Y124.324
G01 X207.241 Y123.868
G01 X205.989 Y123.495
G01 X204.743 Y123.206
G01 X203.507 Y122.998
G01 X203.109 Y122.947
G01 X201.848 Y122.914
G01 X200.616 Y122.962
G01 X199.418 Y123.088
G01 X198.259 Y123.289
G01 X197.144 Y123.561
G01 X196.075 Y123.902
G01 X195.058 Y124.305
G01 X194.096 Y124.768
G01 X193.191 Y125.287
G01 X192.348 Y125.855
G01 X191.569 Y126.469
G01 X190.855 Y127.124
G01 X190.533 Y127.456
G01 X189.920 Y127.956
G01 X189.357 Y128.484
G01 X188.847 Y129.038
G01 X188.388 Y129.612
G01 X187.984 Y130.204
G01 X187.633 Y130.810
G01 X187.427 Y131.225
G01 X187.098 Y131.645
G01 X186.804 Y132.077
G01 X186.545 Y132.516
G01 X186.321 Y132.961
G01 X186.132 Y133.409
G01 X185.978 Y133.858
G01 X185.858 Y134.306
G01 X185.772 Y134.750
G01 X185.769 Y134.768
G01 X185.610 Y135.085
G01 X185.472 Y135.405
G01 X185.354 Y135.727
G01 X185.256 Y136.049
G01 X185.179 Y136.370
G01 X185.122 Y136.689
G01 X185.084 Y137.004
G01 X185.064 Y137.316
G01 X185.064 Y137.618
G01 X184.976 Y137.873
G01 X184.902 Y138.131
G01 X184.841 Y138.391
G01 X184.793 Y138.653
G01 X184.759 Y138.915
G01 X184.737 Y139.178
G01 X184.729 Y139.440
G01 X184.734 Y139.700
G01 X184.751 Y139.959
G01 X184.781 Y140.216
G01 X184.823 Y140.469
G01 X184.839 Y140.546
G01 X184.795 Y140.811
G01 X184.764 Y141.081
G01 X184.747 Y141.356
G01 X184.745 Y141.636
G01 X184.759 Y141.919
G01 X184.787 Y142.204
G01 X184.831 Y142.491
G01 X184.890 Y142.779
G01 X184.966 Y143.067
G01 X185.058 Y143.355
G01 X185.100 Y143.471
G01 X185.114 Y143.835
G01 X185.153 Y144.204
G01 X185.216 Y144.580
G01 X185.305 Y144.958
G01 X185.420 Y145.339
G01 X185.561 Y145.720
G01 X185.729 Y146.099
G01 X185.837 Y146.314
G01 X185.959 Y146.836
G01 X186.124 Y147.360
G01 X186.330 Y147.884
G01 X186.579 Y148.405
G01 X186.870 Y148.919
G01 X187.204 Y149.424
G01 X187.522 Y149.844
G01 X187.890 Y150.541
G01 X188.322 Y151.223
G01 X188.815 Y151.887
G01 X189.370 Y152.528
G01 X189.984 Y153.141
G01 X190.658 Y153.724
G01 X191.369 Y154.256
G01 X192.177 Y154.930
G01 X193.055 Y155.558
G01 X193.999 Y156.133
G01 X195.007 Y156.651
G01 X196.074 Y157.107
G01 X197.198 Y157.498
G01 X198.373 Y157.817
G01 X199.597 Y158.061
G01 X200.864 Y158.227
G01 X202.170 Y158.310
G01 X203.509 Y158.308
G01 X204.875 Y158.216
G01 X206.264 Y158.034
G01 X207.670 Y157.757
G01 X209.087 Y157.385
G01 X209.827 Y157.152
G01 X211.092 Y156.509
G01 X212.342 Y155.783
G01 X213.570 Y154.973
G01 X214.771 Y154.080
G01 X215.940 Y153.104
G01 X216.981 Y152.135
G01 X217.855 Y150.919
G01 X218.674 Y149.645
G01 X219.434 Y148.318
G01 X220.132 Y146.938
G01 X220.765 Y145.510
G01 X220.824 Y145.366
G01 X221.135 Y143.858
G01 X221.371 Y142.332
G01 X221.533 Y140.792
G01 X221.620 Y139.242
G01 X221.629 Y137.685
G01 X221.628 Y137.623
G01 X221.310 Y136.095
G01 X220.918 Y134.592
G01 X220.454 Y133.117
G01 X219.921 Y131.676
G01 X219.320 Y130.269
G01 X219.287 Y130.198
G01 X218.391 Y128.921
G01 X217.442 Y127.707
G01 X216.443 Y126.560
G01 X215.398 Y125.481
G01 X214.312 Y124.471
G01 X213.418 Y123.716
G01 X212.094 Y122.969
G01 X210.755 Y122.312
G01 X209.406 Y121.744
G01 X208.052 Y121.265
G01 X206.699 Y120.874
G01 X205.352 Y120.569
G01 X204.016 Y120.349
G01 X202.697 Y120.212
G01 X202.382 Y120.192
G01 X201.066 Y120.196
G01 X199.782 Y120.280
G01 X198.533 Y120.441
G01 X197.325 Y120.675
G01 X196.160 Y120.979
G01 X195.044 Y121.350
G01 X193.979 Y121.783
G01 X192.969 Y122.273
G01 X192.017 Y122.818
G01 X191.126 Y123.411
G01 X190.298 Y124.049
G01 X189.673 Y124.598
G01 X188.952 Y125.122
G01 X188.282 Y125.678
G01 X187.663 Y126.263
G01 X187.098 Y126.873
G01 X186.587 Y127.505
G01 X186.130 Y128.154
G01 X185.728 Y128.816
G01 X185.687 Y128.892
G01 X185.270 Y129.394
G01 X184.892 Y129.909
G01 X184.554 Y130.435
G01 X184.254 Y130.970
G01 X183.993 Y131.510
G01 X183.770 Y132.054
G01 X183.587 Y132.598
G01 X183.441 Y133.141
G01 X183.422 Y133.223
G01 X183.205 Y133.655
G01 X183.014 Y134.091
G01 X182.849 Y134.530
G01 X182.710 Y134.971
G01 X182.597 Y135.412
G01 X182.510 Y135.852
G01 X182.447 Y136.289
G01 X182.409 Y136.723
G01 X182.398 Y137.001
G01 X182.282 Y137.385
G01 X182.185 Y137.773
G01 X182.108 Y138.165
G01 X182.051 Y138.558
G01 X182.013 Y138.953
G01 X181.995 Y139.348
G01 X181.996 Y139.742
G01 X182.016 Y140.135
G01 X182.056 Y140.525
G01 X182.113 Y140.904
G01 X182.072 Y141.306
G01 X182.052 Y141.713
G01 X182.053 Y142.126
G01 X182.075 Y142.543
G01 X182.120 Y142.962
G01 X182.186 Y143.384
G01 X182.276 Y143.805
G01 X182.388 Y144.226
G01 X182.523 Y144.646
G01 X182.575 Y144.791
G01 X182.632 Y145.284
G01 X182.719 Y145.783
G01 X182.838 Y146.285
G01 X182.989 Y146.790
G01 X183.173 Y147.294
G01 X183.390 Y147.796
G01 X183.640 Y148.295
G01 X183.765 Y148.520
G01 X183.973 Y149.145
G01 X184.228 Y149.769
G01 X184.531 Y150.390
G01 X184.881 Y151.003
G01 X185.278 Y151.606
G01 X185.723 Y152.196
G01 X186.203 Y152.757
G01 X186.691 Y153.507
G01 X187.245 Y154.238
G01 X187.862 Y154.946
G01 X188.543 Y155.627
G01 X189.285 Y156.275
G01 X190.088 Y156.887
G01 X190.949 Y157.458
G01 X191.866 Y157.983
G01 X191.946 Y158.025
G01 X192.941 Y158.625
G01 X194.000 Y159.168
G01 X195.118 Y159.651
G01 X196.293 Y160.069
G01 X197.521 Y160.416
G01 X198.798 Y160.690
G01 X200.119 Y160.887
G01 X201.479 Y161.002
G01 X202.875 Y161.032
G01 X204.300 Y160.974
G01 X205.750 Y160.826
G01 X207.218 Y160.585
G01 X208.700 Y160.248
G01 X210.189 Y159.814
G01 X211.679 Y159.282
G01 X212.565 Y158.917
G01 X213.883 Y158.104
G01 X215.175 Y157.205
G01 X216.435 Y156.223
G01 X217.659 Y155.158
G01 X218.840 Y154.012
G01 X219.974 Y152.785
G01 X220.039 Y152.711
G01 X220.901 Y151.322
G01 X221.698 Y149.879
G01 X222.427 Y148.385
G01 X223.086 Y146.843
G01 X223.670 Y145.256
G01 X223.819 Y144.809
G01 X224.060 Y143.149
G01 X224.220 Y141.476
G01 X224.298 Y139.794
G01 X224.293 Y138.109
G01 X224.205 Y136.424
G01 X224.175 Y136.057
G01 X223.745 Y134.417
G01 X223.237 Y132.810
G01 X222.652 Y131.239
G01 X221.995 Y129.708
G01 X221.266 Y128.220
G01 X221.076 Y127.862
G01 X220.053 Y126.527
G01 X218.974 Y125.263
G01 X217.844 Y124.071
G01 X216.669 Y122.955
G01 X215.451 Y121.914
G01 X214.222 Y120.970
G01 X212.783 Y120.217
G01 X211.330 Y119.559
G01 X209.869 Y118.995
G01 X208.404 Y118.523
G01 X206.942 Y118.144
G01 X205.488 Y117.855
G01 X204.048 Y117.655
G01 X202.626 Y117.542
G01 X201.227 Y117.513
G01 X200.196 Y117.545
G01 X198.846 Y117.667
G01 X197.533 Y117.866
G01 X196.262 Y118.138
G01 X195.036 Y118.481
G01 X193.859 Y118.889
G01 X192.734 Y119.360
G01 X191.665 Y119.888
G01 X190.655 Y120.471
G01 X189.706 Y121.102
G01 X188.820 Y121.778
G01 X188.467 Y122.075
G01 X187.652 Y122.640
G01 X186.890 Y123.241
G01 X186.180 Y123.874
G01 X185.525 Y124.535
G01 X184.925 Y125.221
G01 X184.381 Y125.927
G01 X183.894 Y126.649
G01 X183.698 Y126.971
G01 X183.209 Y127.556
G01 X182.761 Y128.157
G01 X182.355 Y128.771
G01 X181.992 Y129.396
G01 X181.671 Y130.030
G01 X181.393 Y130.668
G01 X181.157 Y131.309
G01 X180.963 Y131.951
G01 X180.915 Y132.132
G01 X180.651 Y132.674
G01 X180.418 Y133.223
G01 X180.217 Y133.778
G01 X180.046 Y134.335
G01 X179.906 Y134.894
G01 X179.797 Y135.453
G01 X179.717 Y136.010
G01 X179.668 Y136.564
G01 X179.654 Y136.857
G01 X179.521 Y137.371
G01 X179.413 Y137.890
G01 X179.331 Y138.413
G01 X179.275 Y138.940
G01 X179.245 Y139.468
G01 X179.241 Y139.996
G01 X179.263 Y140.523
G01 X179.310 Y141.049
G01 X179.383 Y141.571
G01 X179.413 Y141.742
G01 X179.391 Y142.285
G01 X179.398 Y142.835
G01 X179.433 Y143.389
G01 X179.497 Y143.947
G01 X179.590 Y144.506
G01 X179.714 Y145.066
G01 X179.868 Y145.624
G01 X180.051 Y146.179
G01 X180.200 Y146.569
G01 X180.310 Y147.209
G01 X180.460 Y147.853
G01 X180.651 Y148.499
G01 X180.882 Y149.145
G01 X181.155 Y149.788
G01 X181.469 Y150.426
G01 X181.826 Y151.056
G01 X182.223 Y151.676
G01 X182.443 Y151.988
G01 X182.812 Y152.749
G01 X183.238 Y153.501
G01 X183.722 Y154.241
G01 X184.262 Y154.965
G01 X184.859 Y155.669
G01 X185.511 Y156.350
G01 X186.218 Y157.004
G01 X186.655 Y157.371
G01 X187.420 Y158.158
G01 X188.254 Y158.911
G01 X189.156 Y159.623
G01 X190.124 Y160.291
G01 X191.156 Y160.910
G01 X192.248 Y161.475
G01 X193.398 Y161.981
G01 X194.604 Y162.425
G01 X195.859 Y162.802
G01 X197.179 Y163.159
G01 X198.548 Y163.439
G01 X199.961 Y163.640
G01 X201.413 Y163.756
G01 X202.900 Y163.786
G01 X204.417 Y163.725
G01 X205.958 Y163.571
G01 X207.518 Y163.322
G01 X209.091 Y162.975
G01 X210.670 Y162.529
G01 X212.251 Y161.982
G01 X213.827 Y161.333
G01 X213.949 Y161.278
G01 X215.368 Y160.402
G01 X216.758 Y159.437
G01 X218.113 Y158.384
G01 X219.428 Y157.245
G01 X220.698 Y156.020
G01 X221.918 Y154.711
G01 X222.161 Y154.433
G01 X223.105 Y152.944
G01 X223.980 Y151.398
G01 X224.782 Y149.797
G01 X225.509 Y148.145
G01 X226.156 Y146.444
G01 X226.416 Y145.678
G01 X226.704 Y143.890
G01 X226.904 Y142.087
G01 X227.016 Y140.274
G01 X227.038 Y138.455
G01 X226.971 Y136.635
G01 X226.923 Y135.956
G01 X226.494 Y134.179
G01 X225.980 Y132.434
G01 X225.383 Y130.725
G01 X224.706 Y129.057
G01 X223.951 Y127.433
G01 X223.627 Y126.795
G01 X222.560 Y125.331
G01 X221.432 Y123.940
G01 X220.247 Y122.624
G01 X219.009 Y121.384
G01 X217.723 Y120.224
G01 X216.394 Y119.144
G01 X216.260 Y119.041
G01 X214.742 Y118.181
G01 X213.204 Y117.419
G01 X211.652 Y116.754
G01 X210.092 Y116.186
G01 X208.529 Y115.714
G01 X206.969 Y115.337
G01 X205.418 Y115.053
G01 X203.880 Y114.861
G01 X202.362 Y114.758
G01 X201.445 Y114.738
G01 X199.960 Y114.792
G01 X198.509 Y114.929
G01 X197.096 Y115.146
G01 X195.726 Y115.440
G01 X194.401 Y115.807
G01 X193.127 Y116.243
G01 X191.906 Y116.745
G01 X190.742 Y117.308
G01 X189.638 Y117.928
G01 X188.597 Y118.599
G01 X187.677 Y119.274
G01 X186.739 Y119.881
G01 X185.854 Y120.530
G01 X185.026 Y121.216
G01 X184.254 Y121.935
G01 X183.540 Y122.683
G01 X182.886 Y123.457
G01 X182.291 Y124.252
G01 X182.018 Y124.655
G01 X181.429 Y125.330
G01 X180.887 Y126.025
G01 X180.392 Y126.737
G01 X179.945 Y127.464
G01 X179.545 Y128.202
G01 X179.193 Y128.948
G01 X178.889 Y129.700
G01 X178.632 Y130.455
G01 X178.595 Y130.576
G01 X178.266 Y131.237
G01 X177.975 Y131.907
G01 X177.721 Y132.585
G01 X177.504 Y133.267
G01 X177.324 Y133.953
G01 X177.181 Y134.640
G01 X177.075 Y135.327
G01 X177.004 Y136.011
G01 X176.990 Y136.220
G01 X176.829 Y136.865
G01 X176.701 Y137.517
G01 X176.604 Y138.174
G01 X176.540 Y138.834
G01 X176.508 Y139.496
G01 X176.509 Y140.159
G01 X176.543 Y140.820
G01 X176.608 Y141.478
G01 X176.697 Y142.080
G01 X176.687 Y142.757
G01 X176.711 Y143.440
G01 X176.771 Y144.127
G01 X176.866 Y144.816
G01 X176.997 Y145.506
G01 X177.165 Y146.194
G01 X177.369 Y146.879
G01 X177.609 Y147.559
G01 X177.727 Y147.856
G01 X177.891 Y148.617
G01 X178.101 Y149.380
G01 X178.357 Y150.143
G01 X178.659 Y150.903
G01 X179.009 Y151.658
G01 X179.406 Y152.404
G01 X179.850 Y153.138
G01 X180.341 Y153.858
G01 X180.520 Y154.100
G01 X180.982 Y154.949
G01 X181.504 Y155.785
G01 X182.088 Y156.605
G01 X182.732 Y157.405
G01 X183.436 Y158.180
G01 X184.199 Y158.927
G01 X185.020 Y159.642
G01 X185.558 Y160.069
G01 X186.440 Y160.896
G01 X187.393 Y161.685
G01 X188.415 Y162.428
G01 X189.504 Y163.122
G01 X190.657 Y163.761
G01 X191.871 Y164.342
G01 X193.144 Y164.858
G01 X194.472 Y165.308
G01 X195.851 Y165.685
G01 X196.754 Y165.886
G01 X198.221 Y166.176
G01 X199.733 Y166.383
G01 X201.284 Y166.504
G01 X202.869 Y166.534
G01 X204.484 Y166.471
G01 X206.123 Y166.312
G01 X207.780 Y166.054
G01 X209.450 Y165.696
G01 X211.127 Y165.235
G01 X212.805 Y164.671
G01 X214.476 Y164.001
G01 X215.756 Y163.414
G01 X217.265 Y162.443
G01 X218.739 Y161.380
G01 X220.173 Y160.226
G01 X221.563 Y158.981
G01 X222.902 Y157.649
G01 X224.185 Y156.230
G01 X224.572 Y155.772
G01 X225.571 Y154.162
G01 X226.494 Y152.493
G01 X227.339 Y150.767
G01 X228.102 Y148.988
G01 X228.780 Y147.159
G01 X229.131 Y146.082
G01 X229.430 Y144.159
G01 X229.635 Y142.222
G01 X229.745 Y140.275
G01 X229.759 Y138.322
G01 X229.677 Y136.369
G01 X229.599 Y135.382
G01 X229.136 Y133.476
G01 X228.582 Y131.604
G01 X227.939 Y129.771
G01 X227.210 Y127.980
G01 X226.397 Y126.236
G01 X225.927 Y125.320
G01 X224.789 Y123.749
G01 X223.586 Y122.255
G01 X222.320 Y120.838
G01 X220.997 Y119.503
G01 X219.621 Y118.251
G01 X218.198 Y117.084
G01 X217.896 Y116.851
G01 X216.286 Y115.914
G01 X214.652 Y115.078
G01 X213.000 Y114.344
G01 X211.336 Y113.710
G01 X209.667 Y113.177
G01 X207.998 Y112.744
G01 X206.334 Y112.408
G01 X204.682 Y112.169
G01 X203.046 Y112.024
G01 X202.600 Y112.000
G01 X202.900 Y114.726
G01 X202.966 Y117.408
G01 X202.912 Y118.729
G01 X203.141 Y120.570
G01 X203.222 Y122.379
G01 X203.162 Y124.112
G01 X203.324 Y125.435
G01 X203.388 Y126.735
G01 X203.359 Y128.004
G01 X203.350 Y128.149
G01 X203.496 Y129.155
G01 X203.576 Y130.147
G01 X203.592 Y131.119
G01 X203.547 Y132.069
G01 X203.537 Y132.186
G01 X203.665 Y132.982
G01 X203.749 Y133.772
G01 X203.788 Y134.553
G01 X203.784 Y135.323
G01 X203.738 Y136.078
G01 X203.725 Y136.223
G01 X203.774 Y136.928
G01 X203.787 Y137.569
G01 X203.996 Y137.357
G01 X203.392 Y136.784
G01 X203.374 Y136.767
G01 X202.533 Y137.225
G01 X202.369 Y137.892
G01 X202.290 Y138.164
G01 X202.539 Y138.752
G01 X202.658 Y139.066
G01 X203.442 Y139.647
G01 X204.407 Y139.801
G01 X205.987 Y138.993
G01 X206.111 Y138.923
G01 X206.446 Y138.086
G01 X206.738 Y137.214
G01 X206.769 Y137.111
G01 X206.537 Y136.307
G01 X206.267 Y135.519
G01 X206.173 Y135.271
G01 X205.426 Y134.655
G01 X204.658 Y134.101
G01 X204.639 Y134.087
G01 X203.167 Y133.914
G01 X202.708 Y133.887
G01 X200.928 Y134.666
G01 X200.207 Y135.624
G01 X199.716 Y136.188
G01 X199.637 Y136.755
G01 X199.526 Y137.305
G01 X199.386 Y137.836
G01 X199.305 Y138.091
G01 X199.446 Y138.541
G01 X199.564 Y139.000
G01 X199.661 Y139.467
G01 X199.734 Y139.942
G01 X199.740 Y139.990
G01 X200.170 Y140.489
G01 X200.573 Y141.030
G01 X200.909 Y141.549
G01 X202.367 Y142.380
G01 X202.596 Y142.527
G01 X205.497 Y142.659
G01 X206.752 Y142.034
G01 X207.980 Y141.292
G01 X208.041 Y141.251
G01 X208.633 Y140.375
G01 X209.180 Y139.445
G01 X209.538 Y138.755
G01 X209.623 Y137.778
G01 X209.659 Y136.791
G01 X209.647 Y135.844
G01 X209.262 Y134.926
G01 X208.834 Y134.036
G01 X208.389 Y133.214
G01 X207.577 Y132.515
G01 X206.741 Y131.878
G01 X206.082 Y131.429
G01 X204.802 Y131.153
G01 X203.536 Y130.980
G01 X202.290 Y130.909
G01 X202.251 Y130.908
G01 X200.087 Y131.716
G01 X199.528 Y131.964
G01 X197.470 Y134.036
G01 X197.134 Y134.856
G01 X196.738 Y135.628
G01 X196.635 Y135.804
G01 X196.606 Y136.263
G01 X196.548 Y136.709
G01 X196.463 Y137.140
G01 X196.351 Y137.554
G01 X196.295 Y137.730
G01 X196.365 Y138.052
G01 X196.418 Y138.375
G01 X196.454 Y138.699
G01 X196.475 Y139.023
G01 X196.479 Y139.345
G01 X196.467 Y139.666
G01 X196.466 Y139.678
G01 X196.628 Y139.995
G01 X196.774 Y140.328
G01 X196.903 Y140.675
G01 X197.014 Y141.035
G01 X197.106 Y141.408
G01 X197.129 Y141.518
G01 X197.514 Y141.990
G01 X197.870 Y142.503
G01 X198.192 Y143.056
G01 X198.232 Y143.133
G01 X199.801 Y144.291
G01 X200.543 Y144.925
G01 X203.343 Y145.771
G01 X205.056 Y145.652
G01 X206.786 Y145.378
G01 X207.199 Y145.289
G01 X208.306 Y144.660
G01 X209.391 Y143.935
G01 X210.430 Y143.127
G01 X211.076 Y142.175
G01 X211.677 Y141.166
G01 X212.229 Y140.103
G01 X212.387 Y139.767
G01 X212.552 Y138.657
G01 X212.661 Y137.530
G01 X212.713 Y136.389
G01 X212.717 Y135.891
G01 X212.396 Y134.802
G01 X212.024 Y133.736
G01 X211.600 Y132.693
G01 X211.393 Y132.231
G01 X210.601 Y131.353
G01 X209.774 Y130.533
G01 X208.918 Y129.773
G01 X208.036 Y129.074
G01 X207.844 Y128.932
G01 X206.636 Y128.514
G01 X205.431 Y128.186
G01 X204.236 Y127.949
G01 X203.127 Y127.805
G01 X201.650 Y128.060
G01 X200.232 Y128.428
G01 X198.880 Y128.904
G01 X198.447 Y129.085
G01 X196.552 Y130.617
G01 X195.488 Y131.620
G01 X194.018 Y134.156
G01 X193.828 Y134.979
G01 X193.567 Y135.768
G01 X193.462 Y136.033
G01 X193.490 Y136.375
G01 X193.494 Y136.711
G01 X193.473 Y137.038
G01 X193.429 Y137.355
G01 X193.363 Y137.660
G01 X193.276 Y137.951
G01 X193.266 Y137.981
G01 X193.296 Y138.179
G01 X193.315 Y138.375
G01 X193.323 Y138.569
G01 X193.320 Y138.760
G01 X193.306 Y138.947
G01 X193.305 Y138.960
G01 X193.347 Y139.124
G01 X193.381 Y139.291
G01 X193.407 Y139.458
G01 X193.424 Y139.627
G01 X193.433 Y139.795
G01 X193.435 Y139.931
G01 X193.496 Y140.101
G01 X193.548 Y140.278
G01 X193.591 Y140.459
G01 X193.625 Y140.646
G01 X193.649 Y140.837
G01 X193.654 Y140.886
G01 X193.807 Y141.124
G01 X193.945 Y141.378
G01 X194.067 Y141.649
G01 X194.171 Y141.935
G01 X194.257 Y142.234
G01 X194.322 Y142.547
G01 X194.349 Y142.716
G01 X194.781 Y143.323
G01 X195.162 Y143.978
G01 X195.365 Y144.390
G01 X197.409 Y146.492
G01 X199.713 Y147.702
G01 X201.802 Y148.573
G01 X203.292 Y148.691
G01 X204.819 Y148.683
G01 X206.375 Y148.544
G01 X207.613 Y148.341
G01 X208.786 Y147.793
G01 X209.946 Y147.148
G01 X211.085 Y146.408
G01 X212.199 Y145.573
G01 X212.558 Y145.277
G01 X213.307 Y144.258
G01 X214.008 Y143.178
G01 X214.658 Y142.040
G01 X215.116 Y141.137
G01 X215.382 Y139.903
G01 X215.587 Y138.645
G01 X215.729 Y137.366
G01 X215.796 Y136.318
G01 X215.546 Y135.064
G01 X215.236 Y133.826
G01 X214.865 Y132.606
G01 X214.517 Y131.621
G01 X213.765 Y130.552
G01 X212.968 Y129.536
G01 X212.130 Y128.576
G01 X211.253 Y127.672
G01 X210.740 Y127.185
G01 X209.563 Y126.543
G01 X208.374 Y125.985
G01 X207.179 Y125.510
G01 X205.982 Y125.117
G01 X205.360 Y124.945
G01 X203.963 Y124.902
G01 X202.599 Y124.958
G01 X201.277 Y125.110
G01 X200.001 Y125.354
G01 X198.777 Y125.685
G01 X197.720 Y126.055
G01 X196.451 Y126.865
G01 X195.281 Y127.763
G01 X194.217 Y128.741
G01 X193.262 Y129.791
G01 X192.421 Y130.905
G01 X191.698 Y132.073
G01 X191.196 Y133.067
G01 X190.358 Y137.071
G01 X190.243 Y137.847
G01 X190.278 Y138.292
G01 X190.271 Y138.733
G01 X190.263 Y138.827
G01 X190.319 Y138.847
G01 X190.374 Y138.869
G01 X190.426 Y138.895
G01 X190.478 Y138.922
G01 X190.528 Y138.952
G01 X190.575 Y138.984
G01 X190.621 Y139.019
G01 X190.666 Y139.055
G01 X190.708 Y139.093
G01 X190.747 Y139.134
G01 X190.785 Y139.176
G01 X190.820 Y139.219
G01 X190.853 Y139.264
G01 X190.884 Y139.310
G01 X190.912 Y139.358
G01 X190.937 Y139.407
G01 X190.960 Y139.456
G01 X190.980 Y139.507
G01 X190.998 Y139.558
G01 X191.013 Y139.609
G01 X191.026 Y139.661
G01 X191.035 Y139.713
G01 X191.043 Y139.766
G01 X191.047 Y139.818
G01 X191.049 Y139.871
G01 X191.048 Y139.923
G01 X191.045 Y139.974
G01 X191.039 Y140.026
G01 X191.031 Y140.076
G01 X191.020 Y140.126
G01 X191.007 Y140.175
G01 X190.992 Y140.223
G01 X190.974 Y140.270
G01 X190.954 Y140.315
G01 X190.932 Y140.359
G01 X190.908 Y140.402
G01 X190.882 Y140.444
G01 X190.854 Y140.484
G01 X190.824 Y140.522
G01 X190.793 Y140.558
G01 X190.760 Y140.593
G01 X190.725 Y140.626
G01 X190.690 Y140.657
G01 X190.653 Y140.685
G01 X190.614 Y140.712
G01 X190.575 Y140.737
G01 X190.535 Y140.760
G01 X190.516 Y140.769
G01 X190.703 Y141.168
G01 X190.852 Y141.587
G01 X190.961 Y142.021
G01 X191.029 Y142.470
G01 X191.044 Y142.655
G01 X192.057 Y144.558
G01 X193.256 Y146.364
G01 X194.635 Y148.058
G01 X194.842 Y148.285
G01 X195.929 Y149.090
G01 X197.106 Y149.806
G01 X198.365 Y150.426
G01 X199.700 Y150.943
G01 X201.104 Y151.353
G01 X202.569 Y151.649
G01 X204.088 Y151.826
G01 X204.737 Y151.864
G01 X206.060 Y151.678
G01 X207.399 Y151.390
G01 X208.746 Y150.997
G01 X210.094 Y150.498
G01 X211.437 Y149.893
G01 X212.125 Y149.539
G01 X213.172 Y148.668
G01 X214.186 Y147.717
G01 X215.160 Y146.687
G01 X216.090 Y145.580
G01 X216.815 Y144.617
G01 X217.375 Y143.340
G01 X217.873 Y142.019
G01 X218.307 Y140.658
G01 X218.673 Y139.258
G01 X218.712 Y139.090
G01 X218.734 Y137.674
G01 X218.686 Y136.254
G01 X218.567 Y134.833
G01 X218.378 Y133.415
G01 X218.352 Y133.258
G01 X217.831 Y131.920
G01 X217.246 Y130.618
G01 X216.602 Y129.353
G01 X215.899 Y128.128
G01 X215.816 Y127.992
G01 X214.813 Y126.942
G01 X213.770 Y125.960
G01 X212.691 Y125.048
G01 X211.581 Y124.208
G01 X210.644 Y123.570
G01 X209.289 Y123.037
G01 X207.932 Y122.598
G01 X206.580 Y122.249
G01 X205.238 Y121.990
G01 X203.912 Y121.818
G01 X203.099 Y121.755
G01 X201.708 Y121.878
G01 X200.362 Y122.091
G01 X199.065 Y122.391
G01 X197.824 Y122.773
G01 X196.644 Y123.233
G01 X195.528 Y123.764
G01 X194.481 Y124.364
G01 X193.506 Y125.024
G01 X192.608 Y125.741
G01 X191.789 Y126.507
G01 X191.052 Y127.317
G01 X190.398 Y128.166
G01 X189.831 Y129.045
G01 X189.392 Y129.863
G01 X188.959 Y130.487
G01 X188.586 Y131.127
G01 X188.272 Y131.779
G01 X188.019 Y132.439
G01 X187.826 Y133.103
G01 X187.693 Y133.767
G01 X187.621 Y134.413
G01 X187.469 Y134.782
G01 X187.347 Y135.152
G01 X187.255 Y135.521
G01 X187.192 Y135.886
G01 X187.158 Y136.246
G01 X187.153 Y136.600
G01 X187.174 Y136.944
G01 X187.223 Y137.277
G01 X187.232 Y137.324
G01 X187.177 Y137.527
G01 X187.136 Y137.729
G01 X187.107 Y137.929
G01 X187.091 Y138.127
G01 X187.088 Y138.320
G01 X187.096 Y138.510
G01 X187.115 Y138.695
G01 X187.145 Y138.874
G01 X187.186 Y139.046
G01 X187.237 Y139.212
G01 X187.262 Y139.282
G01 X187.234 Y139.419
G01 X187.213 Y139.556
G01 X187.200 Y139.693
G01 X187.193 Y139.832
G01 X187.192 Y139.970
G01 X187.199 Y140.107
G01 X187.212 Y140.244
G01 X187.232 Y140.380
G01 X187.258 Y140.515
G01 X187.291 Y140.647
G01 X187.331 Y140.778
G01 X187.377 Y140.907
G01 X187.428 Y141.033
G01 X187.486 Y141.156
G01 X187.522 Y141.224
G01 X187.511 Y141.385
G01 X187.510 Y141.551
G01 X187.519 Y141.719
G01 X187.540 Y141.891
G01 X187.571 Y142.064
G01 X187.613 Y142.239
G01 X187.667 Y142.414
G01 X187.732 Y142.589
G01 X187.810 Y142.764
G01 X187.899 Y142.937
G01 X187.999 Y143.108
G01 X188.008 Y143.122
G01 X188.038 Y143.437
G01 X188.094 Y143.756
G01 X188.176 Y144.077
G01 X188.286 Y144.399
G01 X188.423 Y144.719
G01 X188.588 Y145.036
G01 X188.780 Y145.347
G01 X189.000 Y145.651
G01 X189.145 Y145.830
G01 X189.379 Y146.406
G01 X189.669 Y146.972
G01 X190.012 Y147.524
G01 X190.409 Y148.058
G01 X190.858 Y148.569
G01 X191.358 Y149.055
G01 X191.973 Y149.838
G01 X192.668 Y150.580
G01 X193.440 Y151.276
G01 X194.286 Y151.920
G01 X195.203 Y152.505
G01 X196.187 Y153.028
G01 X197.234 Y153.482
G01 X198.339 Y153.863
G01 X198.587 Y153.936
G01 X199.793 Y154.273
G01 X201.051 Y154.524
G01 X202.356 Y154.684
G01 X203.702 Y154.749
G01 X205.082 Y154.716
G01 X206.491 Y154.581
G01 X207.920 Y154.342
G01 X209.365 Y153.996
G01 X210.817 Y153.542
G01 X211.929 Y153.120
G01 X213.154 Y152.352
G01 X214.355 Y151.495
G01 X215.527 Y150.550
G01 X216.662 Y149.516
G01 X217.756 Y148.396
G01 X218.577 Y147.462
G01 X219.309 Y146.135
G01 X219.979 Y144.754
G01 X220.582 Y143.321
G01 X221.117 Y141.840
G01 X221.578 Y140.316
G01 X221.586 Y140.290
G01 X221.697 Y138.734
G01 X221.732 Y137.168
G01 X221.689 Y135.596
G01 X221.568 Y134.021
G01 X221.507 Y133.470
G01 X221.030 Y131.963
G01 X220.481 Y130.487
G01 X219.863 Y129.045
G01 X219.176 Y127.640
G01 X218.921 Y127.159
G01 X217.914 Y125.928
G01 X216.857 Y124.764
G01 X215.753 Y123.670
G01 X214.608 Y122.647
G01 X213.425 Y121.696
G01 X213.399 Y121.676
G01 X211.993 Y120.964
G01 X210.575 Y120.345
G01 X209.151 Y119.817
G01 X207.725 Y119.382
G01 X206.304 Y119.036
G01 X205.140 Y118.818
G01 X203.655 Y118.766
G01 X202.202 Y118.807
G01 X200.787 Y118.938
G01 X199.414 Y119.155
G01 X198.090 Y119.454
G01 X196.819 Y119.831
G01 X195.605 Y120.282
G01 X194.452 Y120.801
G01 X193.364 Y121.384
G01 X192.344 Y122.026
G01 X191.396 Y122.721
G01 X190.521 Y123.464
G01 X189.723 Y124.250
G01 X189.003 Y125.072
G01 X188.363 Y125.924
G01 X188.017 Y126.451
G01 X187.464 Y127.123
G01 X186.973 Y127.815
G01 X186.543 Y128.524
G01 X186.175 Y129.244
G01 X185.869 Y129.971
G01 X185.624 Y130.701
G01 X185.621 Y130.710
G01 X185.339 Y131.253
G01 X185.100 Y131.800
G01 X184.902 Y132.348
G01 X184.746 Y132.896
G01 X184.630 Y133.440
G01 X184.555 Y133.977
G01 X184.521 Y134.466
G01 X184.397 Y134.871
G01 X184.299 Y135.274
G01 X184.226 Y135.673
G01 X184.179 Y136.069
G01 X184.157 Y136.458
G01 X184.158 Y136.840
G01 X184.182 Y137.213
G01 X184.201 Y137.386
G01 X184.144 Y137.699
G01 X184.103 Y138.011
G01 X184.079 Y138.322
G01 X184.071 Y138.630
G01 X184.079 Y138.935
G01 X184.102 Y139.235
G01 X184.140 Y139.531
G01 X184.193 Y139.821
G01 X184.260 Y140.105
G01 X184.322 Y140.321
G01 X184.310 Y140.603
G01 X184.312 Y140.887
G01 X184.329 Y141.172
G01 X184.359 Y141.458
G01 X184.405 Y141.743
G01 X184.464 Y142.027
G01 X184.539 Y142.310
G01 X184.627 Y142.590
G01 X184.730 Y142.867
G01 X184.848 Y143.140
G01 X184.878 Y143.206
G01 X184.920 Y143.538
G01 X184.982 Y143.874
G01 X185.065 Y144.212
G01 X185.169 Y144.551
G01 X185.295 Y144.890
G01 X185.443 Y145.227
G01 X185.613 Y145.561
G01 X185.804 Y145.891
G01 X185.857 Y145.975
G01 X185.991 Y146.436
G01 X186.160 Y146.897
G01 X186.364 Y147.357
G01 X186.606 Y147.812
G01 X186.883 Y148.261
G01 X187.196 Y148.701
G01 X187.546 Y149.129
G01 X187.778 Y149.385
G01 X188.144 Y150.009
G01 X188.566 Y150.617
G01 X189.043 Y151.207
G01 X189.575 Y151.775
G01 X190.160 Y152.316
G01 X190.797 Y152.826
G01 X191.054 Y153.013
G01 X191.793 Y153.719
G01 X192.602 Y154.381
G01 X193.481 Y154.996
G01 X194.426 Y155.557
G01 X195.434 Y156.059
G01 X196.501 Y156.499
G01 X197.624 Y156.870
G01 X198.759 Y157.161
G01 X200.018 Y157.456
G01 X201.326 Y157.667
G01 X202.679 Y157.790
G01 X204.069 Y157.821
G01 X205.491 Y157.757
G01 X206.940 Y157.595
G01 X208.409 Y157.332
G01 X209.891 Y156.965
G01 X211.380 Y156.494
G01 X212.869 Y155.916
G01 X214.351 Y155.230
G01 X214.816 Y154.992
G01 X216.082 Y154.059
G01 X217.315 Y153.036
G01 X218.509 Y151.926
G01 X219.659 Y150.729
G01 X220.758 Y149.448
G01 X221.734 Y148.179
G01 X222.463 Y146.687
G01 X223.121 Y145.144
G01 X223.705 Y143.551
G01 X224.212 Y141.914
G01 X224.639 Y140.236
G01 X224.704 Y139.942
G01 X224.768 Y138.234
G01 X224.748 Y136.519
G01 X224.644 Y134.802
G01 X224.454 Y133.087
G01 X224.315 Y132.156
G01 X223.736 Y130.525
G01 X223.081 Y128.931
G01 X222.350 Y127.379
G01 X221.548 Y125.871
G01 X220.675 Y124.412
G01 X220.567 Y124.241
G01 X219.393 Y122.971
G01 X218.170 Y121.777
G01 X216.900 Y120.662
G01 X215.591 Y119.627
G01 X214.245 Y118.673
G01 X213.963 Y118.487
G01 X212.417 Y117.794
G01 X210.861 Y117.201
G01 X209.303 Y116.705
G01 X207.747 Y116.306
G01 X206.199 Y116.003
G01 X204.665 Y115.793
G01 X203.662 Y115.705
G01 X202.116 Y115.739
G01 X200.607 Y115.864
G01 X199.141 Y116.078
G01 X197.721 Y116.376
G01 X196.354 Y116.753
G01 X195.043 Y117.206
G01 X193.791 Y117.730
G01 X192.604 Y118.321
G01 X191.484 Y118.972
G01 X190.434 Y119.679
G01 X189.458 Y120.436
G01 X188.556 Y121.239
G01 X187.732 Y122.081
G01 X187.065 Y122.860
G01 X186.348 Y123.568
G01 X185.693 Y124.303
G01 X185.102 Y125.062
G01 X184.574 Y125.840
G01 X184.110 Y126.632
G01 X183.710 Y127.435
G01 X183.374 Y128.243
G01 X183.267 Y128.541
G01 X182.907 Y129.182
G01 X182.594 Y129.830
G01 X182.327 Y130.482
G01 X182.105 Y131.135
G01 X181.928 Y131.786
G01 X181.796 Y132.433
G01 X181.707 Y133.072
G01 X181.697 Y133.172
G01 X181.529 Y133.705
G01 X181.392 Y134.237
G01 X181.287 Y134.767
G01 X181.214 Y135.293
G01 X181.170 Y135.813
G01 X181.156 Y136.327
G01 X181.170 Y136.831
G01 X181.186 Y137.054
G01 X181.116 Y137.508
G01 X181.070 Y137.962
G01 X181.047 Y138.414
G01 X181.046 Y138.864
G01 X181.068 Y139.310
G01 X181.112 Y139.751
G01 X181.177 Y140.186
G01 X181.264 Y140.614
G01 X181.352 Y140.966
G01 X181.359 Y141.397
G01 X181.387 Y141.830
G01 X181.438 Y142.264
G01 X181.510 Y142.697
G01 X181.604 Y143.128
G01 X181.720 Y143.557
G01 X181.858 Y143.982
G01 X182.018 Y144.401
G01 X182.189 Y144.791
G01 X182.285 Y145.269
G01 X182.411 Y145.749
G01 X182.565 Y146.230
G01 X182.748 Y146.708
G01 X182.961 Y147.184
G01 X183.203 Y147.654
G01 X183.475 Y148.118
G01 X183.668 Y148.416
G01 X183.898 Y148.997
G01 X184.171 Y149.576
G01 X184.486 Y150.148
G01 X184.843 Y150.712
G01 X185.243 Y151.265
G01 X185.685 Y151.804
G01 X186.169 Y152.325
G01 X186.350 Y152.506
G01 X186.840 Y153.205
G01 X187.390 Y153.886
G01 X188.000 Y154.542
G01 X188.668 Y155.172
G01 X189.393 Y155.769
G01 X190.173 Y156.330
G01 X191.007 Y156.852
G01 X191.424 Y157.086
G01 X192.363 Y157.762
G01 X193.371 Y158.386
G01 X194.446 Y158.951
G01 X195.583 Y159.454
G01 X196.781 Y159.888
G01 X198.034 Y160.251
G01 X199.338 Y160.536
G01 X200.689 Y160.741
G01 X202.081 Y160.860
G01 X202.425 Y160.876
G01 X203.879 Y160.911
G01 X205.365 Y160.852
G01 X206.878 Y160.696
G01 X208.411 Y160.441
G01 X209.958 Y160.083
G01 X211.514 Y159.621
G01 X213.070 Y159.054
G01 X214.622 Y158.380
G01 X216.161 Y157.598
G01 X217.681 Y156.709
G01 X218.121 Y156.428
G01 X219.415 Y155.300
G01 X220.664 Y154.084
G01 X221.864 Y152.781
G01 X223.008 Y151.394
G01 X224.092 Y149.925
G01 X225.109 Y148.376
G01 X225.124 Y148.353
G01 X225.818 Y146.680
G01 X226.432 Y144.960
G01 X226.962 Y143.195
G01 X227.406 Y141.389
G01 X227.762 Y139.548
G01 X227.848 Y139.009
G01 X227.826 Y137.148
G01 X227.713 Y135.286
G01 X227.508 Y133.429
G01 X227.212 Y131.580
G01 X226.948 Y130.284
G01 X226.248 Y128.539
G01 X225.466 Y126.840
G01 X224.605 Y125.189
G01 X223.668 Y123.591
G01 X222.658 Y122.049
G01 X222.398 Y121.678
G01 X221.091 Y120.343
G01 X219.732 Y119.093
G01 X218.326 Y117.927
G01 X216.878 Y116.849
G01 X215.393 Y115.859
G01 X214.853 Y115.526
G01 X213.180 Y114.816
G01 X211.498 Y114.211
G01 X209.814 Y113.709
G01 X208.133 Y113.308
G01 X206.461 Y113.008
G01 X204.805 Y112.807
G01 X203.169 Y112.701
G01 X202.576 Y112.686
G01 X200.949 Y112.779
G01 X199.361 Y112.963
G01 X197.819 Y113.237
G01 X196.326 Y113.594
G01 X194.888 Y114.032
G01 X193.508 Y114.546
G01 X192.191 Y115.131
G01 X190.940 Y115.783
G01 X189.758 Y116.495
G01 X188.648 Y117.263
G01 X187.613 Y118.082
G01 X186.655 Y118.946
G01 X185.826 Y119.794
G01 X184.978 Y120.561
G01 X184.195 Y121.361
G01 X183.478 Y122.189
G01 X182.829 Y123.042
G01 X182.246 Y123.914
G01 X181.731 Y124.802
G01 X181.285 Y125.700
G01 X181.135 Y126.038
G01 X180.674 Y126.793
G01 X180.266 Y127.559
G01 X179.910 Y128.332
G01 X179.606 Y129.110
G01 X179.354 Y129.888
G01 X179.152 Y130.665
G01 X179.000 Y131.437
G01 X178.989 Y131.499
G01 X178.761 Y132.171
G01 X178.571 Y132.845
G01 X178.420 Y133.519
G01 X178.307 Y134.190
G01 X178.232 Y134.856
G01 X178.193 Y135.516
G01 X178.190 Y136.166
G01 X178.195 Y136.326
G01 X178.103 Y136.929
G01 X178.042 Y137.532
G01 X178.011 Y138.134
G01 X178.010 Y138.732
G01 X178.039 Y139.326
G01 X178.097 Y139.915
G01 X178.183 Y140.496
G01 X178.298 Y141.068
G01 X178.333 Y141.217
G01 X178.354 Y141.797
G01 X178.403 Y142.377
G01 X178.481 Y142.956
G01 X178.589 Y143.534
G01 X178.725 Y144.108
G01 X178.891 Y144.677
G01 X179.085 Y145.240
G01 X179.308 Y145.795
G01 X179.395 Y145.993
G01 X179.542 Y146.608
G01 X179.723 Y147.223
G01 X179.940 Y147.835
G01 X180.192 Y148.443
G01 X180.481 Y149.045
G01 X180.805 Y149.639
G01 X181.165 Y150.222
G01 X181.340 Y150.483
G01 X181.656 Y151.176
G01 X182.019 Y151.862
G01 X182.429 Y152.539
G01 X182.888 Y153.204
G01 X183.394 Y153.852
G01 X183.946 Y154.483
G01 X184.545 Y155.091
G01 X184.734 Y155.270
G01 X185.338 Y156.033
G01 X186.004 Y156.773
G01 X186.731 Y157.485
G01 X187.519 Y158.165
G01 X188.366 Y158.808
G01 X189.271 Y159.411
G01 X190.230 Y159.968
G01 X190.757 Y160.243
G01 X191.814 Y160.924
G01 X192.939 Y161.548
G01 X194.130 Y162.110
G01 X195.382 Y162.605
G01 X196.693 Y163.030
G01 X198.058 Y163.378
G01 X199.472 Y163.646
G01 X200.932 Y163.830
G01 X202.431 Y163.926
G01 X202.821 Y163.936
G01 X204.381 Y163.946
G01 X205.972 Y163.858
G01 X207.587 Y163.671
G01 X209.222 Y163.381
G01 X210.870 Y162.986
G01 X212.524 Y162.485
G01 X214.177 Y161.875
G01 X215.824 Y161.156
G01 X217.457 Y160.326
G01 X219.069 Y159.387
G01 X220.266 Y158.606
G01 X221.649 Y157.376
G01 X222.983 Y156.055
G01 X224.262 Y154.644
G01 X225.481 Y153.146
G01 X226.634 Y151.563
G01 X227.716 Y149.898
G01 X227.825 Y149.719
G01 X228.582 Y147.918
G01 X229.254 Y146.066
G01 X229.835 Y144.168
G01 X230.324 Y142.226
G01 X230.718 Y140.247
G01 X230.848 Y139.445
G01 X230.851 Y137.437
G01 X230.755 Y135.426
G01 X230.560 Y133.420
G01 X230.266 Y131.421
G01 X229.940 Y129.740
G01 X229.220 Y127.845
G01 X228.410 Y125.996
G01 X227.514 Y124.197
G01 X226.534 Y122.451
G01 X225.474 Y120.764
G01 X225.087 Y120.192
G01 X223.717 Y118.719
G01 X222.287 Y117.332
G01 X220.804 Y116.033
G01 X219.272 Y114.825
G01 X217.696 Y113.709
G01 X216.952 Y113.223
G01 X215.180 Y112.399
G01 X213.393 Y111.683
G01 X211.598 Y111.075
G01 X209.800 Y110.574
G01 X208.006 Y110.178
G01 X206.222 Y109.886
G01 X204.453 Y109.696
G01 X203.847 Y109.654
G01 X202.074 Y109.684
G01 X200.337 Y109.814
G01 X198.925 Y109.994
G01 X199.667 Y112.516
G01 X200.184 Y115.032
G01 X200.385 Y116.504
G01 X200.918 Y118.251
G01 X201.307 Y119.991
G01 X201.552 Y121.713
G01 X201.940 Y123.007
G01 X202.229 Y124.294
G01 X202.422 Y125.567
G01 X202.428 Y125.619
G01 X202.751 Y126.631
G01 X203.005 Y127.640
G01 X203.192 Y128.641
G01 X203.304 Y129.525
G01 X203.578 Y130.349
G01 X203.803 Y131.175
G01 X203.981 Y132.000
G01 X204.112 Y132.820
G01 X204.179 Y133.431
G01 X204.363 Y134.184
G01 X204.471 Y134.733
G01 X204.640 Y134.488
G01 X203.925 Y134.015
G01 X203.176 Y134.612
G01 X203.122 Y135.372
G01 X203.100 Y135.579
G01 X203.484 Y136.175
G01 X203.619 Y136.403
G01 X204.492 Y136.840
G01 X205.469 Y136.824
G01 X206.994 Y135.662
G01 X207.191 Y134.701
G01 X207.328 Y133.764
G01 X206.926 Y132.953
G01 X206.487 Y132.165
G01 X206.422 Y132.056
G01 X205.499 Y131.540
G01 X204.705 Y131.156
G01 X203.033 Y131.264
G01 X202.769 Y131.294
G01 X201.151 Y132.371
G01 X200.566 Y133.509
G01 X200.222 Y134.080
G01 X200.237 Y134.724
G01 X200.214 Y135.355
G01 X200.155 Y135.971
G01 X200.148 Y136.025
G01 X200.390 Y136.508
G01 X200.608 Y137.005
G01 X200.803 Y137.516
G01 X200.906 Y137.820
G01 X201.466 Y138.288
G01 X202.005 Y138.806
G01 X202.328 Y139.152
G01 X203.930 Y139.727
G01 X204.159 Y139.823
G01 X207.039 Y139.448
G01 X208.291 Y138.507
G01 X209.300 Y137.620
G01 X209.760 Y136.572
G01 X210.162 Y135.473
G01 X210.341 Y134.902
G01 X210.244 Y133.856
G01 X210.092 Y132.808
G01 X209.942 Y132.017
G01 X209.361 Y131.123
G01 X208.741 Y130.268
G01 X208.247 Y129.646
G01 X207.248 Y129.060
G01 X206.238 Y128.546
G01 X205.665 Y128.288
G01 X204.288 Y128.182
G01 X202.940 Y128.181
G01 X202.749 Y128.189
G01 X200.772 Y128.990
G01 X200.062 Y129.332
G01 X198.080 Y131.477
G01 X197.556 Y132.776
G01 X197.315 Y133.276
G01 X197.275 Y133.944
G01 X197.188 Y134.591
G01 X197.056 Y135.214
G01 X197.156 Y135.644
G01 X197.231 Y136.071
G01 X197.281 Y136.494
G01 X197.308 Y136.914
G01 X197.313 Y137.153
G01 X197.497 Y137.497
G01 X197.665 Y137.853
G01 X197.816 Y138.219
G01 X197.949 Y138.595
G01 X198.059 Y138.961
G01 X198.400 Y139.334
G01 X198.722 Y139.737
G01 X199.024 Y140.171
G01 X199.239 Y140.520
G01 X199.982 Y141.056
G01 X200.693 Y141.665
G01 X200.770 Y141.737
G01 X203.506 Y142.774
G01 X206.431 Y142.769
G01 X208.075 Y142.140
G01 X209.694 Y141.356
G01 X209.985 Y141.197
G01 X210.905 Y140.225
G01 X211.775 Y139.165
G01 X212.466 Y138.204
G01 X212.829 Y137.042
G01 X213.130 Y135.840
G01 X213.368 Y134.601
G01 X213.395 Y134.427
G01 X213.226 Y133.247
G01 X212.997 Y132.071
G01 X212.709 Y130.901
G01 X212.628 Y130.613
G01 X211.972 Y129.594
G01 X211.270 Y128.616
G01 X210.526 Y127.682
G01 X210.340 Y127.464
G01 X209.250 Y126.790
G01 X208.144 Y126.193
G01 X207.027 Y125.671
G01 X206.020 Y125.267
G01 X204.589 Y125.198
G01 X203.191 Y125.232
G01 X201.834 Y125.365
G01 X201.174 Y125.468
G01 X199.485 Y126.325
G01 X197.909 Y127.310
G01 X197.014 Y127.964
G01 X194.842 Y131.200
G01 X194.540 Y132.629
G01 X194.112 Y134.005
G01 X194.101 Y134.035
G01 X194.148 Y134.558
G01 X194.155 Y135.071
G01 X194.123 Y135.571
G01 X194.063 Y135.993
G01 X194.162 Y136.279
G01 X194.243 Y136.566
G01 X194.307 Y136.852
G01 X194.352 Y137.135
G01 X194.381 Y137.415
G01 X194.393 Y137.691
G01 X194.390 Y137.923
G01 X194.511 Y138.130
G01 X194.623 Y138.345
G01 X194.724 Y138.566
G01 X194.815 Y138.793
G01 X194.895 Y139.025
G01 X194.964 Y139.263
G01 X195.021 Y139.505
G01 X195.066 Y139.750
G01 X195.067 Y139.759
G01 X195.277 Y140.009
G01 X195.474 Y140.278
G01 X195.657 Y140.567
G01 X195.824 Y140.874
G01 X195.974 Y141.199
G01 X196.070 Y141.441
G01 X196.542 Y141.897
G01 X196.983 Y142.402
G01 X197.361 Y142.913
G01 X199.128 Y144.141
G01 X199.739 Y144.628
G01 X203.451 Y145.825
G01 X205.403 Y145.791
G01 X207.380 Y145.577
G01 X208.297 Y145.418
G01 X209.623 Y144.777
G01 X210.929 Y144.019
G01 X212.205 Y143.143
G01 X213.229 Y142.333
G01 X214.025 Y141.227
G01 X214.767 Y140.048
G01 X215.450 Y138.799
G01 X215.755 Y138.175
G01 X216.020 Y136.867
G01 X216.217 Y135.529
G01 X216.345 Y134.164
G01 X216.387 Y133.350
G01 X216.102 Y132.041
G01 X215.753 Y130.744
G01 X215.339 Y129.462
G01 X215.048 Y128.670
G01 X214.261 Y127.558
G01 X213.426 Y126.495
G01 X212.545 Y125.484
G01 X211.982 Y124.888
G01 X210.781 Y124.158
G01 X209.562 Y123.509
G01 X208.330 Y122.940
G01 X207.091 Y122.452
G01 X206.746 Y122.331
G01 X205.287 Y122.196
G01 X203.857 Y122.161
G01 X202.461 Y122.221
G01 X201.106 Y122.374
G01 X200.918 Y122.403
G01 X199.437 Y122.979
G01 X198.039 Y123.656
G01 X196.733 Y124.426
G01 X195.522 Y125.283
G01 X194.996 Y125.706
G01 X193.751 Y127.297
G01 X192.677 Y128.970
G01 X191.827 Y130.603
G01 X191.032 Y134.428
G01 X191.094 Y135.374
G01 X191.067 Y136.310
G01 X191.060 Y136.386
G01 X191.132 Y136.743
G01 X191.172 Y137.096
G01 X191.181 Y137.359
G01 X191.248 Y137.540
G01 X191.301 Y137.721
G01 X191.338 Y137.901
G01 X191.362 Y138.079
G01 X191.371 Y138.254
G01 X191.371 Y138.320
G01 X191.425 Y138.419
G01 X191.473 Y138.520
G01 X191.514 Y138.621
G01 X191.548 Y138.723
G01 X191.577 Y138.824
G01 X191.599 Y138.925
G01 X191.616 Y139.026
G01 X191.626 Y139.125
G01 X191.631 Y139.224
G01 X191.631 Y139.265
G01 X191.680 Y139.340
G01 X191.727 Y139.418
G01 X191.769 Y139.499
G01 X191.808 Y139.582
G01 X191.843 Y139.669
G01 X191.874 Y139.757
G01 X191.900 Y139.848
G01 X191.922 Y139.941
G01 X191.940 Y140.036
G01 X191.952 Y140.132
G01 X191.957 Y140.189
G01 X192.036 Y140.298
G01 X192.107 Y140.415
G01 X192.172 Y140.540
G01 X192.230 Y140.672
G01 X192.280 Y140.811
G01 X192.321 Y140.956
G01 X192.350 Y141.087
G01 X192.580 Y141.351
G01 X192.790 Y141.640
G01 X192.977 Y141.953
G01 X193.139 Y142.287
G01 X193.275 Y142.642
G01 X193.322 Y142.788
G01 X194.662 Y144.319
G01 X195.206 Y145.038
G01 X197.685 Y146.738
G01 X200.165 Y148.117
G01 X201.772 Y148.489
G01 X203.437 Y148.721
G01 X205.151 Y148.808
G01 X206.902 Y148.746
G01 X207.889 Y148.646
G01 X209.276 Y148.175
G01 X210.658 Y147.588
G01 X212.027 Y146.884
G01 X213.373 Y146.064
G01 X214.690 Y145.127
G01 X214.761 Y145.073
G01 X215.689 Y143.961
G01 X216.566 Y142.770
G01 X217.387 Y141.503
G01 X218.145 Y140.161
G01 X218.525 Y139.411
G01 X218.865 Y137.984
G01 X219.132 Y136.522
G01 X219.325 Y135.030
G01 X219.433 Y133.640
G01 X219.191 Y132.175
G01 X218.876 Y130.718
G01 X218.488 Y129.274
G01 X218.066 Y127.958
G01 X217.278 Y126.675
G01 X216.432 Y125.441
G01 X215.531 Y124.257
G01 X214.654 Y123.213
G01 X213.416 Y122.314
G01 X212.151 Y121.495
G01 X210.863 Y120.756
G01 X209.556 Y120.099
G01 X208.793 Y119.756
G01 X207.271 Y119.460
G01 X205.766 Y119.263
G01 X204.285 Y119.163
G01 X202.833 Y119.157
G01 X201.416 Y119.242
G01 X201.048 Y119.279
G01 X199.561 Y119.730
G01 X198.146 Y120.276
G01 X196.809 Y120.908
G01 X195.554 Y121.623
G01 X194.386 Y122.411
G01 X193.310 Y123.268
G01 X192.329 Y124.185
G01 X191.446 Y125.156
G01 X191.285 Y125.353
G01 X190.525 Y126.344
G01 X189.865 Y127.371
G01 X189.307 Y128.428
G01 X188.853 Y129.507
G01 X188.503 Y130.600
G01 X188.256 Y131.700
G01 X188.114 Y132.798
G01 X188.078 Y133.455
G01 X187.962 Y134.141
G01 X187.909 Y134.822
G01 X187.917 Y135.492
G01 X187.985 Y136.148
G01 X188.026 Y136.391
G01 X187.998 Y136.732
G01 X187.998 Y137.066
G01 X188.026 Y137.392
G01 X188.081 Y137.707
G01 X188.162 Y138.011
G01 X188.267 Y138.300
G01 X188.281 Y138.334
G01 X188.283 Y138.492
G01 X188.296 Y138.645
G01 X188.320 Y138.794
G01 X188.354 Y138.937
G01 X188.398 Y139.073
G01 X188.451 Y139.203
G01 X188.494 Y139.290
G01 X188.491 Y139.377
G01 X188.492 Y139.462
G01 X188.498 Y139.546
G01 X188.508 Y139.628
G01 X188.523 Y139.708
G01 X188.542 Y139.786
G01 X188.565 Y139.860
G01 X188.592 Y139.933
G01 X188.622 Y140.002
G01 X188.656 Y140.068
G01 X188.692 Y140.130
G01 X188.732 Y140.190
G01 X188.763 Y140.232
G01 X188.762 Y140.296
G01 X188.764 Y140.361
G01 X188.769 Y140.426
G01 X188.778 Y140.491
G01 X188.790 Y140.557
G01 X188.806 Y140.622
G01 X188.825 Y140.687
G01 X188.848 Y140.752
G01 X188.874 Y140.816
G01 X188.904 Y140.880
G01 X188.938 Y140.942
G01 X188.975 Y141.004
G01 X189.015 Y141.064
G01 X189.059 Y141.122
G01 X189.088 Y141.157
G01 X189.100 Y141.264
G01 X189.122 Y141.372
G01 X189.151 Y141.481
G01 X189.190 Y141.590
G01 X189.237 Y141.699
G01 X189.293 Y141.806
G01 X189.358 Y141.913
G01 X189.431 Y142.017
G01 X189.466 Y142.061
G01 X189.520 Y142.314
G01 X189.598 Y142.567
G01 X189.699 Y142.816
G01 X189.824 Y143.062
G01 X189.973 Y143.301
G01 X190.145 Y143.533
G01 X190.339 Y143.755
G01 X190.378 Y143.795
G01 X190.656 Y144.390
G01 X190.993 Y144.965
G01 X191.387 Y145.516
G01 X191.838 Y146.038
G01 X192.343 Y146.529
G01 X192.774 Y146.886
G01 X193.576 Y147.755
G01 X194.469 Y148.560
G01 X195.448 Y149.293
G01 X196.508 Y149.948
G01 X197.644 Y150.520
G01 X198.851 Y151.002
G01 X200.121 Y151.388
G01 X201.449 Y151.675
G01 X202.828 Y151.856
G01 X203.164 Y151.884
G01 X204.577 Y151.915
G01 X206.023 Y151.834
G01 X207.493 Y151.639
G01 X208.981 Y151.326
G01 X210.479 Y150.894
G01 X211.977 Y150.341
G01 X213.468 Y149.667
G01 X214.382 Y149.188
G01 X215.582 Y148.231
G01 X216.744 Y147.178
G01 X217.863 Y146.030
G01 X218.932 Y144.789
G01 X219.820 Y143.630
G01 X220.507 Y142.202
G01 X221.125 Y140.715
G01 X221.669 Y139.172
G01 X222.135 Y137.578
G01 X222.220 Y137.248
G01 X222.313 Y135.634
G01 X222.324 Y134.005
G01 X222.253 Y132.364
G01 X222.098 Y130.716
G01 X222.062 Y130.430
G01 X221.539 Y128.874
G01 X220.940 Y127.346
G01 X220.267 Y125.850
G01 X219.522 Y124.390
G01 X219.393 Y124.154
G01 X218.328 Y122.883
G01 X217.210 Y121.678
G01 X216.042 Y120.542
G01 X214.829 Y119.475
G01 X214.609 Y119.293
G01 X213.148 Y118.496
G01 X211.669 Y117.791
G01 X210.178 Y117.179
G01 X208.680 Y116.659
G01 X207.427 Y116.294
G01 X205.787 Y116.156
G01 X204.176 Y116.121
G01 X202.601 Y116.184
G01 X201.067 Y116.343
G01 X199.580 Y116.593
G01 X198.145 Y116.930
G01 X197.765 Y117.036
G01 X196.374 Y117.578
G01 X195.056 Y118.199
G01 X193.815 Y118.894
G01 X192.654 Y119.655
G01 X191.578 Y120.478
G01 X190.588 Y121.354
G01 X189.689 Y122.279
G01 X188.882 Y123.245
G01 X188.169 Y124.245
G01 X187.551 Y125.272
G01 X187.029 Y126.320
G01 X186.603 Y127.381
G01 X186.593 Y127.409
G01 X186.184 Y128.224
G01 X185.847 Y129.047
G01 X185.580 Y129.873
G01 X185.384 Y130.697
G01 X185.258 Y131.515
G01 X185.209 Y132.096
G01 X185.046 Y132.665
G01 X184.926 Y133.230
G01 X184.850 Y133.788
G01 X184.815 Y134.337
G01 X184.822 Y134.873
G01 X184.867 Y135.395
G01 X184.951 Y135.899
G01 X184.974 Y136.003
G01 X184.928 Y136.358
G01 X184.904 Y136.707
G01 X184.903 Y137.050
G01 X184.922 Y137.385
G01 X184.961 Y137.711
G01 X185.020 Y138.026
G01 X185.098 Y138.330
G01 X185.192 Y138.622
G01 X185.303 Y138.900
G01 X185.312 Y138.921
G01 X185.304 Y139.159
G01 X185.307 Y139.395
G01 X185.322 Y139.629
G01 X185.349 Y139.861
G01 X185.387 Y140.088
G01 X185.436 Y140.312
G01 X185.496 Y140.531
G01 X185.566 Y140.745
G01 X185.646 Y140.953
G01 X185.736 Y141.155
G01 X185.835 Y141.351
G01 X185.943 Y141.540
G01 X186.060 Y141.721
G01 X186.083 Y141.755
G01 X186.107 Y141.980
G01 X186.143 Y142.206
G01 X186.191 Y142.433
G01 X186.254 Y142.661
G01 X186.329 Y142.889
G01 X186.418 Y143.115
G01 X186.520 Y143.340
G01 X186.636 Y143.562
G01 X186.766 Y143.780
G01 X186.909 Y143.994
G01 X187.065 Y144.203
G01 X187.235 Y144.406
G01 X187.268 Y144.443
G01 X187.378 Y144.774
G01 X187.515 Y145.104
G01 X187.677 Y145.432
G01 X187.867 Y145.755
G01 X188.082 Y146.072
G01 X188.324 Y146.382
G01 X188.592 Y146.682
G01 X188.837 Y146.926
G01 X189.126 Y147.426
G01 X189.460 Y147.913
G01 X189.840 Y148.384
G01 X190.266 Y148.836
G01 X190.735 Y149.265
G01 X191.247 Y149.669
G01 X191.467 Y149.825
G01 X192.094 Y150.471
G01 X192.786 Y151.077
G01 X193.543 Y151.639
G01 X194.362 Y152.151
G01 X195.238 Y152.610
G01 X196.169 Y153.010
G01 X196.342 Y153.076
G01 X197.447 Y153.609
G01 X198.618 Y154.064
G01 X199.851 Y154.434
G01 X201.139 Y154.715
G01 X202.478 Y154.903
G01 X203.860 Y154.993
G01 X205.279 Y154.982
G01 X206.729 Y154.865
G01 X208.203 Y154.641
G01 X209.693 Y154.307
G01 X211.192 Y153.861
G01 X212.693 Y153.300
G01 X214.187 Y152.624
G01 X215.669 Y151.833
G01 X217.128 Y150.926
G01 X217.603 Y150.601
G01 X218.800 Y149.468
G01 X219.950 Y148.241
G01 X221.048 Y146.924
G01 X222.086 Y145.519
G01 X223.060 Y144.029
G01 X223.171 Y143.847
G01 X223.795 Y142.246
G01 X224.340 Y140.593
G01 X224.804 Y138.892
G01 X225.182 Y137.147
G01 X225.467 Y135.397
G01 X225.383 Y133.629
G01 X225.210 Y131.859
G01 X224.949 Y130.090
G01 X224.598 Y128.327
G01 X224.444 Y127.669
G01 X223.713 Y126.029
G01 X222.905 Y124.431
G01 X222.021 Y122.878
G01 X221.064 Y121.374
G01 X220.694 Y120.834
G01 X219.409 Y119.565
G01 X218.075 Y118.374
G01 X216.695 Y117.265
G01 X215.275 Y116.239
G01 X213.878 Y115.333
G01 X212.213 Y114.677
G01 X210.542 Y114.124
G01 X208.871 Y113.673
G01 X207.206 Y113.322
G01 X205.553 Y113.069
G01 X204.457 Y112.955
G01 X202.747 Y113.050
G01 X201.082 Y113.247
G01 X199.468 Y113.540
G01 X197.910 Y113.925
G01 X196.414 Y114.397
G01 X194.983 Y114.951
G01 X193.622 Y115.582
G01 X192.336 Y116.284
G01 X191.128 Y117.052
G01 X190.000 Y117.878
G01 X188.957 Y118.758
G01 X188.000 Y119.686
G01 X187.131 Y120.653
G01 X186.351 Y121.656
G01 X185.663 Y122.686
G01 X185.067 Y123.737
G01 X184.939 Y123.988
G01 X184.385 Y124.863
G01 X183.903 Y125.752
G01 X183.495 Y126.650
G01 X183.160 Y127.552
G01 X182.896 Y128.454
G01 X182.704 Y129.350
G01 X182.695 Y129.405
G01 X182.440 Y130.111
G01 X182.236 Y130.817
G01 X182.083 Y131.517
G01 X181.979 Y132.210
G01 X181.923 Y132.891
G01 X181.914 Y133.559
G01 X181.950 Y134.210
G01 X181.953 Y134.239
G01 X181.870 Y134.764
G01 X181.820 Y135.282
G01 X181.800 Y135.793
G01 X181.810 Y136.294
G01 X181.849 Y136.784
G01 X181.916 Y137.260
G01 X182.010 Y137.722
G01 X182.123 Y138.151
G01 X182.117 Y138.553
G01 X182.132 Y138.952
G01 X182.166 Y139.345
G01 X182.220 Y139.733
G01 X182.292 Y140.114
G01 X182.384 Y140.487
G01 X182.493 Y140.852
G01 X182.619 Y141.207
G01 X182.762 Y141.552
G01 X182.921 Y141.885
G01 X182.967 Y141.974
G01 X183.020 Y142.334
G01 X183.093 Y142.694
G01 X183.183 Y143.051
G01 X183.293 Y143.407
G01 X183.421 Y143.759
G01 X183.567 Y144.107
G01 X183.732 Y144.449
G01 X183.915 Y144.785
G01 X184.116 Y145.113
G01 X184.335 Y145.433
G01 X184.455 Y145.596
G01 X184.602 Y146.010
G01 X184.777 Y146.424
G01 X184.979 Y146.834
G01 X185.210 Y147.240
G01 X185.469 Y147.638
G01 X185.755 Y148.029
G01 X186.069 Y148.409
G01 X186.411 Y148.778
G01 X186.541 Y148.909
G01 X186.858 Y149.443
G01 X187.219 Y149.967
G01 X187.624 Y150.477
G01 X188.072 Y150.970
G01 X188.563 Y151.444
G01 X189.097 Y151.895
G01 X189.671 Y152.321
G01 X189.893 Y152.471
G01 X190.531 Y153.093
G01 X191.229 Y153.682
G01 X191.987 Y154.232
G01 X192.801 Y154.739
G01 X193.669 Y155.199
G01 X194.589 Y155.608
G01 X194.795 Y155.690
G01 X195.855 Y156.256
G01 X196.981 Y156.754
G01 X198.169 Y157.179
G01 X199.415 Y157.526
G01 X200.713 Y157.790
G01 X202.059 Y157.967
G01 X203.447 Y158.053
G01 X204.871 Y158.044
G01 X205.220 Y158.028
G01 X206.715 Y157.934
G01 X208.236 Y157.735
G01 X209.776 Y157.429
G01 X211.329 Y157.013
G01 X212.886 Y156.485
G01 X214.441 Y155.843
G01 X215.987 Y155.088
G01 X217.515 Y154.218
G01 X219.019 Y153.234
G01 X220.446 Y152.171
G01 X221.665 Y150.889
G01 X222.830 Y149.516
G01 X223.936 Y148.054
G01 X224.975 Y146.507
G01 X225.942 Y144.877
G01 X226.676 Y143.486
G01 X227.238 Y141.702
G01 X227.713 Y139.871
G01 X228.097 Y137.998
G01 X228.386 Y136.087
G01 X228.515 Y134.910
G01 X228.386 Y132.996
G01 X228.161 Y131.082
G01 X227.840 Y129.174
G01 X227.424 Y127.276
G01 X227.156 Y126.245
G01 X226.340 Y124.479
G01 X225.440 Y122.760
G01 X224.460 Y121.093
G01 X223.402 Y119.479
G01 X222.798 Y118.631
G01 X221.403 Y117.270
G01 X219.954 Y115.994
G01 X218.456 Y114.805
G01 X216.914 Y113.704
G01 X215.333 Y112.693
G01 X215.163 Y112.591
G01 X213.381 Y111.879
G01 X211.591 Y111.274
G01 X209.798 Y110.777
G01 X208.010 Y110.384
G01 X206.231 Y110.096
G01 X204.803 Y109.937
G01 X202.985 Y109.998
G01 X201.209 Y110.163
G01 X199.481 Y110.429
G01 X197.808 Y110.790
G01 X196.193 Y111.242
G01 X194.641 Y111.781
G01 X193.158 Y112.400
G01 X191.747 Y113.095
G01 X190.412 Y113.861
G01 X189.156 Y114.690
G01 X187.982 Y115.578
G01 X186.894 Y116.518
G01 X185.892 Y117.504
G01 X184.980 Y118.530
G01 X184.158 Y119.589
G01 X183.427 Y120.675
G01 X183.138 Y121.153
G01 X182.461 Y122.081
G01 X181.857 Y123.028
G01 X181.328 Y123.990
G01 X180.872 Y124.961
G01 X180.490 Y125.938
G01 X180.182 Y126.914
G01 X179.945 Y127.886
G01 X179.874 Y128.248
G01 X179.582 Y129.045
G01 X179.343 Y129.842
G01 X179.156 Y130.635
G01 X179.021 Y131.422
G01 X178.936 Y132.198
G01 X178.900 Y132.962
G01 X178.912 Y133.710
G01 X178.932 Y134.039
G01 X178.843 Y134.680
G01 X178.789 Y135.315
G01 X178.771 Y135.942
G01 X178.786 Y136.559
G01 X178.835 Y137.166
G01 X178.916 Y137.759
G01 X179.027 Y138.337
G01 X179.168 Y138.898
G01 X179.176 Y138.926
G01 X179.194 Y139.461
G01 X179.238 Y139.992
G01 X179.308 Y140.517
G01 X179.404 Y141.035
G01 X179.525 Y141.546
G01 X179.670 Y142.047
G01 X179.839 Y142.537
G01 X180.031 Y143.016
G01 X180.245 Y143.482
G01 X180.343 Y143.677
G01 X180.456 Y144.181
G01 X180.596 Y144.683
G01 X180.762 Y145.181
G01 X180.954 Y145.674
G01 X181.172 Y146.160
G01 X181.417 Y146.638
G01 X181.688 Y147.108
G01 X181.984 Y147.566
G01 X182.305 Y148.012
G01 X182.389 Y148.122
G01 X182.639 Y148.671
G01 X182.925 Y149.215
G01 X183.247 Y149.751
G01 X183.605 Y150.277
G01 X183.999 Y150.791
G01 X184.428 Y151.291
G01 X184.892 Y151.774
G01 X185.237 Y152.101
G01 X185.698 Y152.730
G01 X186.209 Y153.341
G01 X186.771 Y153.933
G01 X187.381 Y154.500
G01 X188.040 Y155.040
G01 X188.746 Y155.550
G01 X189.496 Y156.025
G01 X189.563 Y156.064
G01 X190.366 Y156.723
G01 X191.233 Y157.339
G01 X192.161 Y157.910
G01 X193.148 Y158.430
G01 X194.190 Y158.894
G01 X195.286 Y159.299
G01 X196.431 Y159.640
G01 X196.498 Y159.658
G01 X197.769 Y160.130
G01 X199.101 Y160.522
G01 X200.490 Y160.830
G01 X201.930 Y161.050
G01 X203.415 Y161.176
G01 X204.941 Y161.206
G01 X206.501 Y161.135
G01 X208.088 Y160.961
G01 X209.697 Y160.680
G01 X211.320 Y160.290
G01 X211.941 Y160.113
G01 X213.556 Y159.555
G01 X215.168 Y158.886
G01 X216.769 Y158.105
G01 X218.352 Y157.211
G01 X219.910 Y156.205
G01 X221.436 Y155.085
G01 X222.923 Y153.855
G01 X224.362 Y152.514
G01 X225.007 Y151.859
G01 X226.150 Y150.299
G01 X227.222 Y148.655
G01 X228.219 Y146.930
G01 X229.134 Y145.127
G01 X229.963 Y143.252
G01 X230.253 Y142.524
G01 X230.706 Y140.551
G01 X231.062 Y138.540
G01 X231.317 Y136.495
G01 X231.469 Y134.421
G01 X231.515 Y132.859
G01 X231.224 Y130.807
G01 X230.831 Y128.765
G01 X230.337 Y126.740
G01 X229.743 Y124.737
G01 X229.276 Y123.373
G01 X228.270 Y121.534
G01 X227.180 Y119.754
G01 X226.007 Y118.036
G01 X224.756 Y116.384
G01 X223.843 Y115.278
G01 X222.262 Y113.912
G01 X220.629 Y112.642
G01 X218.949 Y111.467
G01 X217.229 Y110.391
G01 X215.474 Y109.415
G01 X215.032 Y109.187
G01 X213.096 Y108.532
G01 X211.158 Y107.991
G01 X209.223 Y107.564
G01 X207.297 Y107.248
G01 X205.388 Y107.041
G01 X203.501 Y106.942
G01 X202.606 Y106.931
G01 X200.720 Y107.114
G01 X198.883 Y107.401
G01 X197.100 Y107.787
G01 X195.377 Y108.267
G01 X194.895 Y108.421
G01 X196.011 Y110.778
G01 X196.909 Y113.163
G01 X197.040 Y113.572
G01 X197.905 Y115.275
G01 X198.620 Y116.997
G01 X199.186 Y118.723
G01 X199.824 Y120.003
G01 X200.360 Y121.292
G01 X200.794 Y122.583
G01 X200.795 Y122.586
G01 X201.319 Y123.596
G01 X201.772 Y124.614
G01 X202.152 Y125.636
G01 X202.404 Y126.449
G01 X202.846 Y127.279
G01 X203.238 Y128.120
G01 X203.579 Y128.968
G01 X203.869 Y129.820
G01 X204.013 Y130.312
G01 X204.350 Y131.087
G01 X204.549 Y131.600
G01 X204.673 Y131.330
G01 X203.886 Y130.988
G01 X203.253 Y131.706
G01 X203.336 Y132.538
G01 X203.345 Y132.671
G01 X203.873 Y133.245
G01 X204.000 Y133.393
G01 X204.936 Y133.671
G01 X205.895 Y133.486
G01 X206.688 Y132.913
G01 X207.171 Y131.691
G01 X207.365 Y131.114
G01 X207.061 Y130.184
G01 X206.721 Y129.294
G01 X205.887 Y128.691
G01 X205.125 Y128.197
G01 X203.750 Y128.140
G01 X203.186 Y128.147
G01 X201.488 Y129.091
G01 X200.451 Y130.736
G01 X200.406 Y131.651
G01 X200.298 Y132.538
G01 X200.275 Y132.674
G01 X200.526 Y133.249
G01 X200.746 Y133.830
G01 X200.934 Y134.417
G01 X200.957 Y134.498
G01 X201.449 Y134.939
G01 X201.923 Y135.414
G01 X202.335 Y135.876
G01 X203.371 Y136.248
G01 X204.149 Y136.590
G01 X206.099 Y136.554
G01 X208.662 Y135.186
G01 X209.466 Y133.945
G01 X210.154 Y132.689
G01 X210.228 Y131.517
G01 X210.235 Y130.321
G01 X210.215 Y129.778
G01 X209.745 Y128.767
G01 X209.224 Y127.778
G01 X208.882 Y127.187
G01 X207.965 Y126.477
G01 X207.024 Y125.825
G01 X206.507 Y125.497
G01 X205.225 Y125.238
G01 X203.959 Y125.069
G01 X203.626 Y125.039
G01 X201.982 Y125.471
G01 X200.827 Y125.866
G01 X198.630 Y127.789
G01 X197.405 Y130.441
G01 X197.356 Y131.410
G01 X197.231 Y132.350
G01 X197.225 Y132.388
G01 X197.370 Y132.961
G01 X197.477 Y133.530
G01 X197.546 Y134.091
G01 X197.564 Y134.313
G01 X197.794 Y134.718
G01 X198.003 Y135.132
G01 X198.190 Y135.554
G01 X198.355 Y135.982
G01 X198.391 Y136.086
G01 X198.735 Y136.436
G01 X199.064 Y136.811
G01 X199.377 Y137.210
G01 X199.643 Y137.588
G01 X200.246 Y137.966
G01 X200.834 Y138.397
G01 X201.232 Y138.728
G01 X202.832 Y139.182
G01 X204.017 Y139.622
G01 X206.937 Y139.459
G01 X209.054 Y138.453
G01 X210.396 Y137.688
G01 X211.367 Y136.509
G01 X212.269 Y135.229
G01 X212.692 Y134.552
G01 X213.001 Y133.268
G01 X213.236 Y131.942
G01 X213.382 Y130.724
G01 X213.117 Y129.489
G01 X212.786 Y128.258
G01 X212.390 Y127.034
G01 X212.367 Y126.969
G01 X211.601 Y125.952
G01 X210.790 Y124.978
G01 X209.936 Y124.050
G01 X209.871 Y123.983
G01 X208.710 Y123.340
G01 X207.535 Y122.771
G01 X206.369 Y122.283
G01 X204.909 Y122.184
G01 X203.480 Y122.183
G01 X202.088 Y122.278
G01 X201.520 Y122.345
G01 X199.857 Y123.141
G01 X198.301 Y124.054
G01 X197.303 Y124.742
G01 X195.069 Y127.934
G01 X194.281 Y130.757
G01 X194.285 Y131.826
G01 X194.215 Y132.714
G01 X194.354 Y133.259
G01 X194.451 Y133.800
G01 X194.505 Y134.334
G01 X194.518 Y134.648
G01 X194.683 Y134.975
G01 X194.827 Y135.304
G01 X194.951 Y135.636
G01 X195.054 Y135.968
G01 X195.136 Y136.300
G01 X195.175 Y136.492
G01 X195.364 Y136.736
G01 X195.542 Y136.990
G01 X195.707 Y137.254
G01 X195.860 Y137.527
G01 X196.000 Y137.808
G01 X196.127 Y138.097
G01 X196.161 Y138.183
G01 X196.445 Y138.439
G01 X196.718 Y138.718
G01 X196.979 Y139.020
G01 X197.226 Y139.345
G01 X197.440 Y139.665
G01 X197.981 Y140.033
G01 X198.502 Y140.453
G01 X198.967 Y140.891
G01 X200.500 Y141.566
G01 X201.607 Y142.166
G01 X205.471 Y142.701
G01 X207.772 Y142.210
G01 X210.056 Y141.500
G01 X210.172 Y141.458
G01 X211.528 Y140.497
G01 X212.836 Y139.406
G01 X213.921 Y138.359
G01 X214.665 Y137.087
G01 X215.339 Y135.738
G01 X215.939 Y134.316
G01 X216.061 Y133.990
G01 X216.208 Y132.585
G01 X216.279 Y131.151
G01 X216.271 Y129.692
G01 X216.247 Y129.128
G01 X215.817 Y127.789
G01 X215.318 Y126.467
G01 X214.751 Y125.164
G01 X214.478 Y124.593
G01 X213.542 Y123.516
G01 X212.560 Y122.493
G01 X211.535 Y121.526
G01 X211.069 Y121.118
G01 X209.757 Y120.463
G01 X208.432 Y119.890
G01 X207.099 Y119.400
G01 X206.580 Y119.231
G01 X205.040 Y119.138
G01 X203.532 Y119.143
G01 X202.062 Y119.245
G01 X200.755 Y119.419
G01 X199.185 Y120.102
G01 X197.709 Y120.886
G01 X196.334 Y121.764
G01 X195.064 Y122.727
G01 X194.910 Y122.856
G01 X193.575 Y124.720
G01 X192.436 Y126.668
G01 X191.867 Y127.831
G01 X191.177 Y131.677
G01 X191.357 Y132.929
G01 X191.417 Y134.177
G01 X191.410 Y134.602
G01 X191.578 Y134.981
G01 X191.713 Y135.362
G01 X191.814 Y135.744
G01 X191.882 Y136.124
G01 X191.917 Y136.494
G01 X192.022 Y136.697
G01 X192.113 Y136.902
G01 X192.188 Y137.107
G01 X192.248 Y137.313
G01 X192.271 Y137.408
G01 X192.365 Y137.554
G01 X192.449 Y137.704
G01 X192.525 Y137.856
G01 X192.592 Y138.009
G01 X192.650 Y138.164
G01 X192.691 Y138.293
G01 X192.785 Y138.419
G01 X192.874 Y138.551
G01 X192.956 Y138.687
G01 X193.032 Y138.828
G01 X193.101 Y138.973
G01 X193.164 Y139.122
G01 X193.173 Y139.146
G01 X193.332 Y139.277
G01 X193.486 Y139.421
G01 X193.633 Y139.578
G01 X193.773 Y139.749
G01 X193.905 Y139.932
G01 X194.027 Y140.128
G01 X194.140 Y140.335
G01 X194.241 Y140.554
G01 X194.314 Y140.738
G01 X194.692 Y141.042
G01 X195.049 Y141.384
G01 X195.383 Y141.764
G01 X195.671 Y142.151
G01 X197.051 Y143.078
G01 X198.046 Y143.875
G01 X202.633 Y145.529
G01 X204.703 Y145.593
G01 X206.805 Y145.465
G01 X208.926 Y145.142
G01 X209.409 Y145.042
G01 X210.908 Y144.348
G01 X212.381 Y143.519
G01 X213.821 Y142.556
G01 X215.196 Y141.477
G01 X216.136 Y140.247
G01 X217.015 Y138.929
G01 X217.824 Y137.525
G01 X218.559 Y136.040
G01 X218.726 Y135.667
G01 X219.015 Y134.154
G01 X219.224 Y132.603
G01 X219.350 Y131.018
G01 X219.387 Y129.862
G01 X219.062 Y128.349
G01 X218.659 Y126.843
G01 X218.178 Y125.349
G01 X217.769 Y124.247
G01 X216.882 Y122.955
G01 X215.934 Y121.712
G01 X214.930 Y120.520
G01 X214.143 Y119.664
G01 X212.818 Y118.781
G01 X211.466 Y117.978
G01 X210.090 Y117.256
G01 X209.062 Y116.774
G01 X207.470 Y116.446
G01 X205.892 Y116.217
G01 X204.335 Y116.084
G01 X202.805 Y116.046
G01 X202.294 Y116.054
G01 X200.674 Y116.430
G01 X199.121 Y116.906
G01 X197.641 Y117.475
G01 X196.240 Y118.132
G01 X195.036 Y118.801
G01 X193.735 Y119.946
G01 X192.559 Y121.165
G01 X191.513 Y122.447
G01 X190.598 Y123.784
G01 X189.819 Y125.164
G01 X189.176 Y126.579
G01 X188.672 Y128.017
G01 X188.583 Y128.322
G01 X188.344 Y130.339
G01 X188.298 Y132.347
G01 X188.444 Y134.332
G01 X188.779 Y136.279
G01 X189.230 Y137.957
G01 X189.606 Y138.862
G01 X189.665 Y138.851
G01 X189.723 Y138.843
G01 X189.781 Y138.839
G01 X189.840 Y138.837
G01 X189.898 Y138.837
G01 X189.955 Y138.841
G01 X190.012 Y138.848
G01 X190.068 Y138.857
G01 X190.123 Y138.869
G01 X190.177 Y138.884
G01 X190.230 Y138.901
G01 X190.282 Y138.921
G01 X190.333 Y138.943
G01 X190.382 Y138.967
G01 X190.429 Y138.994
G01 X190.474 Y139.023
G01 X190.518 Y139.054
G01 X190.560 Y139.087
G01 X190.600 Y139.122
G01 X190.638 Y139.158
G01 X190.674 Y139.196
G01 X190.708 Y139.235
G01 X190.739 Y139.276
G01 X190.768 Y139.318
G01 X190.795 Y139.361
G01 X190.819 Y139.405
G01 X190.841 Y139.450
G01 X190.861 Y139.496
G01 X190.878 Y139.542
G01 X190.893 Y139.589
G01 X190.905 Y139.636
G01 X190.915 Y139.683
G01 X190.922 Y139.731
G01 X190.927 Y139.778
G01 X190.930 Y139.825
G01 X190.930 Y139.872
G01 X190.928 Y139.918
G01 X190.923 Y139.964
G01 X190.917 Y140.009
G01 X190.908 Y140.054
G01 X190.897 Y140.098
G01 X190.883 Y140.140
G01 X190.868 Y140.182
G01 X190.851 Y140.223
G01 X190.832 Y140.262
G01 X190.811 Y140.300
G01 X190.789 Y140.336
G01 X190.765 Y140.371
G01 X190.739 Y140.405
G01 X190.712 Y140.437
G01 X190.684 Y140.467
G01 X190.654 Y140.496
G01 X190.623 Y140.522
G01 X190.592 Y140.547
G01 X190.559 Y140.571
G01 X190.525 Y140.592
G01 X190.515 Y140.598
G01 X192.909 Y143.691
G01 X194.164 Y144.782
G01 X195.531 Y145.755
G01 X197.000 Y146.602
G01 X198.563 Y147.317
G01 X200.210 Y147.891
G01 X201.931 Y148.319
G01 X203.716 Y148.595
G01 X205.552 Y148.714
G01 X206.240 Y148.717
G01 X207.811 Y148.462
G01 X209.393 Y148.073
G01 X210.977 Y147.548
G01 X212.553 Y146.885
G01 X214.112 Y146.085
G01 X215.311 Y145.365
G01 X216.512 Y144.273
G01 X217.664 Y143.075
G01 X218.761 Y141.774
G01 X219.794 Y140.373
G01 X220.387 Y139.475
G01 X221.005 Y137.939
G01 X221.544 Y136.342
G01 X221.999 Y134.686
G01 X222.367 Y132.978
G01 X222.371 Y132.952
G01 X222.354 Y131.273
G01 X222.248 Y129.579
G01 X222.054 Y127.874
G01 X221.768 Y126.165
G01 X221.767 Y126.159
G01 X221.112 Y124.587
G01 X220.378 Y123.045
G01 X219.568 Y121.538
G01 X218.686 Y120.075
G01 X217.485 Y118.837
G01 X216.232 Y117.669
G01 X214.930 Y116.572
G01 X213.585 Y115.549
G01 X211.995 Y114.834
G01 X210.394 Y114.215
G01 X208.785 Y113.691
G01 X207.175 Y113.263
G01 X206.214 Y113.051
G01 X204.470 Y113.037
G01 X202.764 Y113.128
G01 X201.103 Y113.320
G01 X199.493 Y113.608
G01 X197.938 Y113.987
G01 X197.538 Y114.102
G01 X196.008 Y114.812
G01 X194.566 Y115.608
G01 X193.218 Y116.481
G01 X191.966 Y117.426
G01 X190.815 Y118.434
G01 X189.768 Y119.498
G01 X188.828 Y120.610
G01 X187.996 Y121.763
G01 X187.273 Y122.948
G01 X186.662 Y124.157
G01 X186.163 Y125.383
G01 X185.775 Y126.617
G01 X185.498 Y127.851
G01 X185.331 Y129.078
G01 X185.304 Y129.416
G01 X185.121 Y130.316
G01 X185.014 Y131.207
G01 X184.982 Y132.083
G01 X185.024 Y132.940
G01 X185.136 Y133.772
G01 X185.247 Y134.304
G01 X185.249 Y134.843
G01 X185.292 Y135.368
G01 X185.374 Y135.875
G01 X185.494 Y136.363
G01 X185.649 Y136.828
G01 X185.801 Y137.188
G01 X185.838 Y137.500
G01 X185.895 Y137.800
G01 X185.971 Y138.089
G01 X186.065 Y138.365
G01 X186.176 Y138.627
G01 X186.303 Y138.874
G01 X186.409 Y139.051
G01 X186.435 Y139.243
G01 X186.472 Y139.430
G01 X186.518 Y139.612
G01 X186.573 Y139.787
G01 X186.637 Y139.957
G01 X186.709 Y140.119
G01 X186.789 Y140.275
G01 X186.876 Y140.422
G01 X186.970 Y140.562
G01 X187.069 Y140.694
G01 X187.175 Y140.817
G01 X187.199 Y140.844
G01 X187.228 Y140.986
G01 X187.265 Y141.127
G01 X187.309 Y141.267
G01 X187.360 Y141.405
G01 X187.418 Y141.541
G01 X187.483 Y141.675
G01 X187.556 Y141.806
