;  Created by Sandify
;  https://sandify.org
;  Version: 0.2.4
;
;  Machine type: Rectangular
;    Min X (mm): 0
;    Max X (mm): 380
;    Min Y (mm): 0
;    Max Y (mm): 280
;  Content type: shape
;  Layer:
;    Shape: FileImport
;    Name: Spiral3.thr
;    From file:: Spiral3.thr
;    Aspect Ratio: true
;    Comments: 
;    Visible: true
;    Initial width: 10
;    Initial height: 10
;    X offset: 0
;    Y offset: 0
;    Rotate (degrees): 0
;    Reverse path: false
;    Fine tuning:
;      Connect to next layer: line
;      Draw portion of path (%): 100
;      Backtrack at end (%): 0
;      Rotate starting point (%): 0
;  Reverse export path: false
;
; File name: 'Spiral3'
;

G01 X190.000 Y140.000
G01 X189.999 Y140.016
G01 X189.997 Y140.033
G01 X189.993 Y140.049
G01 X189.987 Y140.064
G01 X189.980 Y140.080
G01 X189.971 Y140.094
G01 X189.961 Y140.108
G01 X189.950 Y140.121
G01 X189.943 Y140.128
G01 X189.948 Y140.133
G01 X189.954 Y140.139
G01 X189.960 Y140.143
G01 X189.966 Y140.148
G01 X189.973 Y140.153
G01 X189.980 Y140.157
G01 X189.988 Y140.160
G01 X189.996 Y140.164
G01 X190.002 Y140.166
G01 X190.012 Y140.202
G01 X190.026 Y140.237
G01 X190.043 Y140.271
G01 X190.064 Y140.304
G01 X190.088 Y140.336
G01 X190.115 Y140.366
G01 X190.146 Y140.394
G01 X190.154 Y140.401
G01 X190.175 Y140.395
G01 X190.195 Y140.388
G01 X190.215 Y140.380
G01 X190.235 Y140.371
G01 X190.254 Y140.361
G01 X190.273 Y140.350
G01 X190.282 Y140.344
G01 X190.325 Y140.358
G01 X190.369 Y140.369
G01 X190.415 Y140.377
G01 X190.463 Y140.380
G01 X190.512 Y140.380
G01 X190.563 Y140.376
G01 X190.613 Y140.368
G01 X190.665 Y140.355
G01 X190.702 Y140.344
G01 X190.713 Y140.307
G01 X190.721 Y140.269
G01 X190.727 Y140.232
G01 X190.732 Y140.194
G01 X190.734 Y140.157
G01 X190.735 Y140.136
G01 X190.775 Y140.105
G01 X190.813 Y140.070
G01 X190.850 Y140.031
G01 X190.885 Y139.989
G01 X190.917 Y139.943
G01 X190.947 Y139.895
G01 X190.975 Y139.843
G01 X190.999 Y139.788
G01 X191.021 Y139.730
G01 X191.039 Y139.670
G01 X191.040 Y139.667
G01 X191.002 Y139.624
G01 X190.962 Y139.584
G01 X190.921 Y139.547
G01 X190.879 Y139.513
G01 X190.835 Y139.482
G01 X190.832 Y139.479
G01 X190.827 Y139.424
G01 X190.818 Y139.369
G01 X190.806 Y139.313
G01 X190.790 Y139.256
G01 X190.770 Y139.200
G01 X190.747 Y139.143
G01 X190.720 Y139.087
G01 X190.690 Y139.032
G01 X190.655 Y138.977
G01 X190.617 Y138.924
G01 X190.575 Y138.872
G01 X190.547 Y138.840
G01 X190.475 Y138.850
G01 X190.405 Y138.864
G01 X190.338 Y138.882
G01 X190.273 Y138.904
G01 X190.212 Y138.929
G01 X190.209 Y138.931
G01 X190.159 Y138.903
G01 X190.107 Y138.877
G01 X190.053 Y138.854
G01 X189.996 Y138.834
G01 X189.938 Y138.816
G01 X189.878 Y138.801
G01 X189.816 Y138.790
G01 X189.754 Y138.781
G01 X189.689 Y138.776
G01 X189.624 Y138.775
G01 X189.558 Y138.777
G01 X189.491 Y138.782
G01 X189.424 Y138.791
G01 X189.379 Y138.799
G01 X189.344 Y138.870
G01 X189.314 Y138.942
G01 X189.289 Y139.013
G01 X189.270 Y139.085
G01 X189.256 Y139.156
G01 X189.250 Y139.199
G01 X189.197 Y139.223
G01 X189.145 Y139.250
G01 X189.094 Y139.280
G01 X189.043 Y139.314
G01 X188.994 Y139.351
G01 X188.946 Y139.391
G01 X188.900 Y139.435
G01 X188.855 Y139.481
G01 X188.813 Y139.531
G01 X188.772 Y139.583
G01 X188.734 Y139.638
G01 X188.699 Y139.696
G01 X188.666 Y139.757
G01 X188.636 Y139.820
G01 X188.609 Y139.886
G01 X188.594 Y139.927
G01 X188.632 Y139.996
G01 X188.674 Y140.061
G01 X188.719 Y140.122
G01 X188.767 Y140.179
G01 X188.817 Y140.232
G01 X188.869 Y140.280
G01 X188.902 Y140.308
G01 X188.891 Y140.371
G01 X188.882 Y140.435
G01 X188.878 Y140.502
G01 X188.877 Y140.570
G01 X188.881 Y140.639
G01 X188.888 Y140.709
G01 X188.900 Y140.780
G01 X188.916 Y140.851
G01 X188.937 Y140.923
G01 X188.962 Y140.995
G01 X188.992 Y141.066
G01 X189.026 Y141.137
G01 X189.065 Y141.207
G01 X189.108 Y141.276
G01 X189.156 Y141.343
G01 X189.192 Y141.390
G01 X189.278 Y141.395
G01 X189.363 Y141.396
G01 X189.445 Y141.391
G01 X189.526 Y141.382
G01 X189.605 Y141.369
G01 X189.681 Y141.351
G01 X189.749 Y141.331
G01 X189.809 Y141.385
G01 X189.873 Y141.436
G01 X189.942 Y141.483
G01 X190.015 Y141.528
G01 X190.093 Y141.569
G01 X190.174 Y141.605
G01 X190.260 Y141.638
G01 X190.349 Y141.665
G01 X190.441 Y141.688
G01 X190.536 Y141.706
G01 X190.634 Y141.718
G01 X190.735 Y141.725
G01 X190.838 Y141.726
G01 X190.942 Y141.721
G01 X190.947 Y141.720
G01 X191.008 Y141.636
G01 X191.063 Y141.549
G01 X191.112 Y141.461
G01 X191.155 Y141.372
G01 X191.192 Y141.283
G01 X191.223 Y141.193
G01 X191.233 Y141.159
G01 X191.327 Y141.129
G01 X191.420 Y141.093
G01 X191.513 Y141.051
G01 X191.605 Y141.002
G01 X191.696 Y140.946
G01 X191.785 Y140.884
G01 X191.872 Y140.815
G01 X191.956 Y140.740
G01 X192.038 Y140.658
G01 X192.116 Y140.571
G01 X192.190 Y140.477
G01 X192.260 Y140.377
G01 X192.321 Y140.278
G01 X192.274 Y140.160
G01 X192.220 Y140.047
G01 X192.161 Y139.939
G01 X192.097 Y139.838
G01 X192.029 Y139.743
G01 X191.971 Y139.672
G01 X191.998 Y139.566
G01 X192.019 Y139.456
G01 X192.034 Y139.343
G01 X192.043 Y139.228
G01 X192.045 Y139.110
G01 X192.040 Y138.991
G01 X192.028 Y138.869
G01 X192.010 Y138.747
G01 X191.984 Y138.623
G01 X191.950 Y138.499
G01 X191.910 Y138.375
G01 X191.861 Y138.252
G01 X191.810 Y138.140
G01 X191.666 Y138.112
G01 X191.522 Y138.093
G01 X191.382 Y138.084
G01 X191.244 Y138.084
G01 X191.109 Y138.092
G01 X191.042 Y138.100
G01 X190.964 Y138.016
G01 X190.881 Y137.935
G01 X190.792 Y137.858
G01 X190.698 Y137.784
G01 X190.598 Y137.715
G01 X190.493 Y137.650
G01 X190.384 Y137.590
G01 X190.269 Y137.535
G01 X190.150 Y137.486
G01 X190.027 Y137.442
G01 X189.900 Y137.405
G01 X189.769 Y137.374
G01 X189.635 Y137.350
G01 X189.545 Y137.337
G01 X189.434 Y137.450
G01 X189.333 Y137.567
G01 X189.242 Y137.687
G01 X189.161 Y137.810
G01 X189.091 Y137.935
G01 X189.051 Y138.017
G01 X188.948 Y138.053
G01 X188.847 Y138.095
G01 X188.747 Y138.143
G01 X188.649 Y138.195
G01 X188.553 Y138.253
G01 X188.459 Y138.316
G01 X188.369 Y138.383
G01 X188.281 Y138.456
G01 X188.263 Y138.472
G01 X188.138 Y138.518
G01 X188.014 Y138.572
G01 X187.891 Y138.636
G01 X187.769 Y138.708
G01 X187.650 Y138.788
G01 X187.533 Y138.878
G01 X187.475 Y138.927
G01 X187.507 Y139.082
G01 X187.548 Y139.232
G01 X187.598 Y139.375
G01 X187.655 Y139.511
G01 X187.720 Y139.640
G01 X187.792 Y139.762
G01 X187.801 Y139.776
G01 X187.774 Y139.884
G01 X187.752 Y139.993
G01 X187.735 Y140.104
G01 X187.724 Y140.217
G01 X187.719 Y140.331
G01 X187.720 Y140.446
G01 X187.726 Y140.562
G01 X187.738 Y140.678
G01 X187.750 Y140.755
G01 X187.717 Y140.893
G01 X187.693 Y141.035
G01 X187.678 Y141.182
G01 X187.671 Y141.333
G01 X187.674 Y141.488
G01 X187.687 Y141.645
G01 X187.698 Y141.734
G01 X187.848 Y141.793
G01 X187.998 Y141.842
G01 X188.147 Y141.880
G01 X188.296 Y141.909
G01 X188.442 Y141.927
G01 X188.586 Y141.936
G01 X188.657 Y141.937
G01 X188.738 Y142.025
G01 X188.825 Y142.110
G01 X188.917 Y142.191
G01 X189.015 Y142.268
G01 X189.117 Y142.341
G01 X189.224 Y142.409
G01 X189.336 Y142.472
G01 X189.452 Y142.530
G01 X189.506 Y142.555
G01 X189.619 Y142.670
G01 X189.741 Y142.781
G01 X189.874 Y142.886
G01 X190.016 Y142.984
G01 X190.168 Y143.076
G01 X190.329 Y143.159
G01 X190.356 Y143.172
G01 X190.498 Y143.069
G01 X190.631 Y142.960
G01 X190.754 Y142.846
G01 X190.868 Y142.727
G01 X190.972 Y142.604
G01 X191.066 Y142.477
G01 X191.098 Y142.429
G01 X191.233 Y142.405
G01 X191.367 Y142.372
G01 X191.501 Y142.333
G01 X191.635 Y142.285
G01 X191.767 Y142.231
G01 X191.898 Y142.168
G01 X192.028 Y142.099
G01 X192.144 Y142.028
G01 X192.323 Y141.991
G01 X192.503 Y141.940
G01 X192.684 Y141.877
G01 X192.864 Y141.801
G01 X193.043 Y141.711
G01 X193.189 Y141.627
G01 X193.178 Y141.429
G01 X193.154 Y141.236
G01 X193.120 Y141.049
G01 X193.075 Y140.868
G01 X193.020 Y140.695
G01 X192.957 Y140.531
G01 X193.013 Y140.390
G01 X193.063 Y140.244
G01 X193.106 Y140.095
G01 X193.141 Y139.941
G01 X193.169 Y139.785
G01 X193.189 Y139.626
G01 X193.201 Y139.464
G01 X193.204 Y139.367
G01 X193.274 Y139.185
G01 X193.333 Y138.994
G01 X193.381 Y138.795
G01 X193.417 Y138.590
G01 X193.441 Y138.378
G01 X193.451 Y138.203
G01 X193.259 Y138.095
G01 X193.064 Y138.001
G01 X192.868 Y137.921
G01 X192.672 Y137.856
G01 X192.476 Y137.804
G01 X192.341 Y137.777
G01 X192.247 Y137.645
G01 X192.147 Y137.517
G01 X192.039 Y137.393
G01 X191.924 Y137.274
G01 X191.803 Y137.160
G01 X191.674 Y137.052
G01 X191.540 Y136.949
G01 X191.450 Y136.886
G01 X191.333 Y136.725
G01 X191.204 Y136.569
G01 X191.063 Y136.417
G01 X190.909 Y136.272
G01 X190.744 Y136.133
G01 X190.568 Y136.001
G01 X190.559 Y135.995
G01 X190.350 Y136.103
G01 X190.153 Y136.222
G01 X189.968 Y136.351
G01 X189.797 Y136.488
G01 X189.639 Y136.633
G01 X189.539 Y136.735
G01 X189.376 Y136.741
G01 X189.211 Y136.754
G01 X189.047 Y136.776
G01 X188.883 Y136.807
G01 X188.719 Y136.846
G01 X188.557 Y136.893
G01 X188.396 Y136.948
G01 X188.238 Y137.012
G01 X188.040 Y137.020
G01 X187.839 Y137.042
G01 X187.635 Y137.075
G01 X187.430 Y137.122
G01 X187.223 Y137.183
G01 X187.017 Y137.256
G01 X186.937 Y137.288
G01 X186.912 Y137.525
G01 X186.903 Y137.758
G01 X186.908 Y137.986
G01 X186.928 Y138.207
G01 X186.963 Y138.422
G01 X187.007 Y138.616
G01 X186.910 Y138.752
G01 X186.819 Y138.893
G01 X186.735 Y139.041
G01 X186.657 Y139.194
G01 X186.587 Y139.352
G01 X186.524 Y139.516
G01 X186.469 Y139.684
G01 X186.423 Y139.856
G01 X186.385 Y140.032
G01 X186.355 Y140.211
G01 X186.338 Y140.359
G01 X186.239 Y140.556
G01 X186.150 Y140.764
G01 X186.073 Y140.982
G01 X186.009 Y141.209
G01 X186.004 Y141.231
G01 X186.188 Y141.382
G01 X186.377 Y141.518
G01 X186.570 Y141.640
G01 X186.766 Y141.746
G01 X186.964 Y141.837
G01 X187.163 Y141.913
G01 X187.216 Y141.931
G01 X187.278 Y142.092
G01 X187.350 Y142.253
G01 X187.430 Y142.411
G01 X187.520 Y142.567
G01 X187.619 Y142.719
G01 X187.728 Y142.868
G01 X187.845 Y143.013
G01 X187.971 Y143.153
G01 X188.105 Y143.288
G01 X188.248 Y143.418
G01 X188.368 Y143.516
G01 X188.489 Y143.723
G01 X188.627 Y143.926
G01 X188.781 Y144.125
G01 X188.944 Y144.309
G01 X189.180 Y144.233
G01 X189.407 Y144.145
G01 X189.622 Y144.045
G01 X189.827 Y143.935
G01 X190.020 Y143.814
G01 X190.200 Y143.684
G01 X190.254 Y143.642
G01 X190.439 Y143.679
G01 X190.628 Y143.708
G01 X190.821 Y143.726
G01 X191.017 Y143.734
G01 X191.216 Y143.732
G01 X191.417 Y143.719
G01 X191.620 Y143.695
G01 X191.824 Y143.661
G01 X192.028 Y143.615
G01 X192.232 Y143.557
G01 X192.304 Y143.534
G01 X192.568 Y143.545
G01 X192.838 Y143.538
G01 X193.113 Y143.513
G01 X193.330 Y143.480
G01 X193.399 Y143.220
G01 X193.450 Y142.962
G01 X193.485 Y142.706
G01 X193.503 Y142.455
G01 X193.506 Y142.208
G01 X193.492 Y141.967
G01 X193.491 Y141.949
G01 X193.633 Y141.801
G01 X193.769 Y141.643
G01 X193.898 Y141.476
G01 X194.020 Y141.300
G01 X194.134 Y141.116
G01 X194.239 Y140.924
G01 X194.336 Y140.725
G01 X194.422 Y140.518
G01 X194.499 Y140.304
G01 X194.564 Y140.090
G01 X194.725 Y139.861
G01 X194.874 Y139.617
G01 X195.011 Y139.357
G01 X195.101 Y139.160
G01 X194.902 Y138.944
G01 X194.696 Y138.744
G01 X194.481 Y138.562
G01 X194.261 Y138.398
G01 X194.036 Y138.253
G01 X193.849 Y138.147
G01 X193.799 Y137.936
G01 X193.736 Y137.726
G01 X193.662 Y137.516
G01 X193.577 Y137.309
G01 X193.480 Y137.104
G01 X193.371 Y136.903
G01 X193.251 Y136.705
G01 X193.119 Y136.511
G01 X192.976 Y136.323
G01 X192.832 Y136.151
G01 X192.727 Y135.887
G01 X192.601 Y135.623
G01 X192.457 Y135.363
G01 X192.324 Y135.153
G01 X192.016 Y135.204
G01 X191.720 Y135.273
G01 X191.435 Y135.359
G01 X191.163 Y135.462
G01 X190.904 Y135.579
G01 X190.726 Y135.672
G01 X190.518 Y135.598
G01 X190.305 Y135.534
G01 X190.086 Y135.480
G01 X189.863 Y135.437
G01 X189.635 Y135.405
G01 X189.405 Y135.384
G01 X189.171 Y135.375
G01 X188.935 Y135.378
G01 X188.698 Y135.393
G01 X188.459 Y135.421
G01 X188.406 Y135.429
G01 X188.127 Y135.372
G01 X187.838 Y135.333
G01 X187.542 Y135.311
G01 X187.245 Y135.307
G01 X187.116 Y135.597
G01 X187.009 Y135.889
G01 X186.923 Y136.180
G01 X186.858 Y136.469
G01 X186.814 Y136.755
G01 X186.792 Y136.997
G01 X186.615 Y137.129
G01 X186.443 Y137.272
G01 X186.277 Y137.424
G01 X186.117 Y137.587
G01 X185.965 Y137.759
G01 X185.820 Y137.940
G01 X185.683 Y138.130
G01 X185.555 Y138.328
G01 X185.436 Y138.535
G01 X185.327 Y138.749
G01 X185.265 Y138.883
G01 X185.063 Y139.088
G01 X184.869 Y139.311
G01 X184.686 Y139.550
G01 X184.514 Y139.806
G01 X184.502 Y139.826
G01 X184.673 Y140.093
G01 X184.857 Y140.343
G01 X185.053 Y140.574
G01 X185.258 Y140.788
G01 X185.472 Y140.983
G01 X185.693 Y141.159
G01 X185.720 Y141.178
G01 X185.763 Y141.394
G01 X185.816 Y141.607
G01 X185.881 Y141.819
G01 X185.956 Y142.028
G01 X186.043 Y142.235
G01 X186.109 Y142.377
G01 X186.126 Y142.635
G01 X186.160 Y142.898
G01 X186.210 Y143.164
G01 X186.278 Y143.431
G01 X186.362 Y143.699
G01 X186.464 Y143.967
G01 X186.584 Y144.234
G01 X186.722 Y144.498
G01 X186.878 Y144.758
G01 X186.888 Y144.773
G01 X187.210 Y144.775
G01 X187.526 Y144.757
G01 X187.832 Y144.720
G01 X188.129 Y144.664
G01 X188.415 Y144.591
G01 X188.689 Y144.502
G01 X188.754 Y144.478
G01 X188.969 Y144.563
G01 X189.189 Y144.637
G01 X189.414 Y144.701
G01 X189.643 Y144.754
G01 X189.876 Y144.796
G01 X190.016 Y144.816
G01 X190.260 Y144.950
G01 X190.517 Y145.072
G01 X190.786 Y145.180
G01 X191.068 Y145.273
G01 X191.360 Y145.351
G01 X191.662 Y145.413
G01 X191.974 Y145.458
G01 X192.294 Y145.484
G01 X192.541 Y145.492
G01 X192.726 Y145.207
G01 X192.890 Y144.916
G01 X193.032 Y144.623
G01 X193.153 Y144.327
G01 X193.252 Y144.032
G01 X193.330 Y143.737
G01 X193.338 Y143.702
G01 X193.539 Y143.557
G01 X193.734 Y143.402
G01 X193.923 Y143.236
G01 X194.104 Y143.060
G01 X194.277 Y142.873
G01 X194.344 Y142.796
G01 X194.604 Y142.654
G01 X194.861 Y142.492
G01 X195.113 Y142.312
G01 X195.358 Y142.113
G01 X195.596 Y141.895
G01 X195.825 Y141.659
G01 X196.044 Y141.405
G01 X196.252 Y141.133
G01 X196.355 Y140.985
G01 X196.205 Y140.652
G01 X196.038 Y140.336
G01 X195.855 Y140.038
G01 X195.658 Y139.759
G01 X195.448 Y139.499
G01 X195.250 Y139.283
G01 X195.254 Y139.017
G01 X195.244 Y138.750
G01 X195.221 Y138.481
G01 X195.184 Y138.212
G01 X195.133 Y137.942
G01 X195.068 Y137.673
G01 X194.989 Y137.406
G01 X194.921 Y137.208
G01 X194.922 Y136.879
G01 X194.902 Y136.543
G01 X194.860 Y136.202
G01 X194.797 Y135.857
G01 X194.711 Y135.510
G01 X194.602 Y135.161
G01 X194.593 Y135.134
G01 X194.210 Y135.076
G01 X193.834 Y135.043
G01 X193.465 Y135.035
G01 X193.104 Y135.051
G01 X192.754 Y135.090
G01 X192.493 Y135.134
G01 X192.267 Y134.982
G01 X192.032 Y134.841
G01 X191.789 Y134.711
G01 X191.538 Y134.592
G01 X191.279 Y134.486
G01 X191.014 Y134.391
G01 X190.743 Y134.310
G01 X190.510 Y134.252
G01 X190.234 Y134.070
G01 X189.941 Y133.903
G01 X189.632 Y133.750
G01 X189.309 Y133.613
G01 X188.970 Y133.493
G01 X188.619 Y133.392
G01 X188.528 Y133.369
G01 X188.263 Y133.664
G01 X188.024 Y133.969
G01 X187.810 Y134.282
G01 X187.622 Y134.600
G01 X187.460 Y134.923
G01 X187.346 Y135.189
G01 X187.094 Y135.295
G01 X186.847 Y135.413
G01 X186.604 Y135.545
G01 X186.366 Y135.690
G01 X186.135 Y135.847
G01 X185.910 Y136.017
G01 X185.693 Y136.199
G01 X185.484 Y136.393
G01 X185.467 Y136.409
G01 X185.163 Y136.540
G01 X184.862 Y136.693
G01 X184.564 Y136.868
G01 X184.271 Y137.064
G01 X183.985 Y137.281
G01 X183.706 Y137.519
G01 X183.589 Y137.629
G01 X183.690 Y138.013
G01 X183.814 Y138.380
G01 X183.957 Y138.731
G01 X184.120 Y139.064
G01 X184.300 Y139.377
G01 X184.497 Y139.671
G01 X184.500 Y139.675
G01 X184.449 Y139.945
G01 X184.413 Y140.219
G01 X184.389 Y140.497
G01 X184.380 Y140.777
G01 X184.385 Y141.059
G01 X184.404 Y141.343
G01 X184.437 Y141.628
G01 X184.485 Y141.912
G01 X184.500 Y141.985
G01 X184.442 Y142.320
G01 X184.404 Y142.666
G01 X184.387 Y143.020
G01 X184.392 Y143.382
G01 X184.419 Y143.751
G01 X184.469 Y144.126
G01 X184.500 Y144.295
G01 X184.879 Y144.420
G01 X185.256 Y144.519
G01 X185.631 Y144.592
G01 X186.001 Y144.639
G01 X186.365 Y144.661
G01 X186.721 Y144.659
G01 X186.781 Y144.657
G01 X186.987 Y144.852
G01 X187.204 Y145.038
G01 X187.432 Y145.215
G01 X187.671 Y145.382
G01 X187.920 Y145.537
G01 X188.179 Y145.681
G01 X188.446 Y145.812
G01 X188.723 Y145.931
G01 X188.777 Y145.953
G01 X189.041 Y146.196
G01 X189.326 Y146.427
G01 X189.632 Y146.645
G01 X189.957 Y146.848
G01 X190.302 Y147.035
G01 X190.664 Y147.203
G01 X190.773 Y147.249
G01 X191.095 Y146.990
G01 X191.393 Y146.717
G01 X191.667 Y146.432
G01 X191.916 Y146.137
G01 X192.141 Y145.834
G01 X192.340 Y145.523
G01 X192.366 Y145.480
G01 X192.657 Y145.409
G01 X192.947 Y145.323
G01 X193.235 Y145.220
G01 X193.520 Y145.103
G01 X193.801 Y144.969
G01 X194.077 Y144.821
G01 X194.348 Y144.657
G01 X194.604 Y144.484
G01 X194.972 Y144.388
G01 X195.341 Y144.266
G01 X195.710 Y144.119
G01 X196.076 Y143.945
G01 X196.439 Y143.745
G01 X196.797 Y143.518
G01 X196.842 Y143.487
G01 X196.795 Y143.053
G01 X196.723 Y142.632
G01 X196.626 Y142.226
G01 X196.506 Y141.836
G01 X196.364 Y141.463
G01 X196.208 Y141.121
G01 X196.311 Y140.822
G01 X196.399 Y140.516
G01 X196.472 Y140.203
G01 X196.530 Y139.884
G01 X196.572 Y139.560
G01 X196.598 Y139.232
G01 X196.607 Y138.900
G01 X196.602 Y138.632
G01 X196.725 Y138.258
G01 X196.827 Y137.870
G01 X196.906 Y137.467
G01 X196.961 Y137.051
G01 X196.992 Y136.624
G01 X196.997 Y136.188
G01 X196.997 Y136.143
G01 X196.585 Y135.936
G01 X196.171 Y135.760
G01 X195.756 Y135.614
G01 X195.342 Y135.499
G01 X194.931 Y135.413
G01 X194.600 Y135.364
G01 X194.399 Y135.108
G01 X194.184 Y134.861
G01 X193.956 Y134.623
G01 X193.714 Y134.395
G01 X193.459 Y134.178
G01 X193.192 Y133.973
G01 X192.912 Y133.780
G01 X192.675 Y133.631
G01 X192.427 Y133.322
G01 X192.155 Y133.022
G01 X191.859 Y132.733
G01 X191.539 Y132.457
G01 X191.197 Y132.196
G01 X190.833 Y131.950
G01 X190.750 Y131.898
G01 X190.340 Y132.136
G01 X189.956 Y132.395
G01 X189.597 Y132.672
G01 X189.266 Y132.964
G01 X188.962 Y133.272
G01 X188.738 Y133.528
G01 X188.411 Y133.556
G01 X188.085 Y133.601
G01 X187.759 Y133.662
G01 X187.434 Y133.740
G01 X187.112 Y133.834
G01 X186.792 Y133.945
G01 X186.477 Y134.073
G01 X186.168 Y134.216
G01 X185.774 Y134.255
G01 X185.374 Y134.318
G01 X184.970 Y134.407
G01 X184.565 Y134.522
G01 X184.159 Y134.664
G01 X183.754 Y134.833
G01 X183.599 Y134.905
G01 X183.573 Y135.381
G01 X183.579 Y135.847
G01 X183.614 Y136.301
G01 X183.677 Y136.741
G01 X183.768 Y137.166
G01 X183.877 Y137.550
G01 X183.721 Y137.839
G01 X183.579 Y138.137
G01 X183.451 Y138.444
G01 X183.337 Y138.759
G01 X183.239 Y139.081
G01 X183.157 Y139.410
G01 X183.090 Y139.745
G01 X183.041 Y140.084
G01 X183.033 Y140.147
G01 X182.846 Y140.503
G01 X182.678 Y140.877
G01 X182.530 Y141.269
G01 X182.403 Y141.678
G01 X182.299 Y142.102
G01 X182.218 Y142.541
G01 X182.190 Y142.743
G01 X182.574 Y143.025
G01 X182.967 Y143.276
G01 X183.366 Y143.496
G01 X183.769 Y143.685
G01 X184.175 Y143.843
G01 X184.580 Y143.971
G01 X184.622 Y143.983
G01 X184.792 Y144.268
G01 X184.978 Y144.545
G01 X185.178 Y144.815
G01 X185.393 Y145.076
G01 X185.621 Y145.328
G01 X185.863 Y145.569
G01 X186.032 Y145.723
G01 X186.230 Y146.051
G01 X186.452 Y146.372
G01 X186.696 Y146.687
G01 X186.962 Y146.992
G01 X187.251 Y147.286
G01 X187.441 Y147.464
G01 X187.732 Y147.855
G01 X188.054 Y148.235
G01 X188.146 Y148.335
G01 X188.601 Y148.161
G01 X189.034 Y147.965
G01 X189.445 Y147.745
G01 X189.831 Y147.506
G01 X190.193 Y147.247
G01 X190.529 Y146.972
G01 X190.571 Y146.935
G01 X190.917 Y146.947
G01 X191.266 Y146.941
G01 X191.616 Y146.919
G01 X191.967 Y146.878
G01 X192.318 Y146.819
G01 X192.668 Y146.743
G01 X192.855 Y146.695
G01 X193.257 Y146.706
G01 X193.667 Y146.693
G01 X194.084 Y146.656
G01 X194.506 Y146.594
G01 X194.931 Y146.507
G01 X195.138 Y146.455
G01 X195.648 Y146.422
G01 X196.167 Y146.354
G01 X196.280 Y146.335
G01 X196.385 Y145.838
G01 X196.457 Y145.346
G01 X196.496 Y144.862
G01 X196.504 Y144.387
G01 X196.482 Y143.924
G01 X196.431 Y143.473
G01 X196.430 Y143.468
G01 X196.637 Y143.170
G01 X196.830 Y142.860
G01 X197.009 Y142.538
G01 X197.173 Y142.206
G01 X197.320 Y141.863
G01 X197.451 Y141.512
G01 X197.498 Y141.373
G01 X197.735 Y141.027
G01 X197.955 Y140.661
G01 X198.158 Y140.276
G01 X198.342 Y139.873
G01 X198.506 Y139.452
G01 X198.566 Y139.277
G01 X198.823 Y138.817
G01 X199.056 Y138.330
G01 X199.099 Y138.229
G01 X198.721 Y137.854
G01 X198.329 Y137.511
G01 X197.924 Y137.202
G01 X197.510 Y136.926
G01 X197.089 Y136.683
G01 X196.721 Y136.501
G01 X196.578 Y136.154
G01 X196.418 Y135.812
G01 X196.239 Y135.477
G01 X196.043 Y135.150
G01 X195.830 Y134.831
G01 X195.600 Y134.521
G01 X195.517 Y134.416
G01 X195.353 Y134.022
G01 X195.163 Y133.631
G01 X194.947 Y133.245
G01 X194.706 Y132.864
G01 X194.439 Y132.492
G01 X194.313 Y132.330
G01 X194.066 Y131.859
G01 X193.782 Y131.395
G01 X193.711 Y131.288
G01 X193.173 Y131.404
G01 X192.655 Y131.552
G01 X192.160 Y131.728
G01 X191.688 Y131.933
G01 X191.243 Y132.163
G01 X190.901 Y132.366
G01 X190.528 Y132.296
G01 X190.150 Y132.243
G01 X189.768 Y132.209
G01 X189.383 Y132.194
G01 X188.996 Y132.198
G01 X188.608 Y132.221
G01 X188.440 Y132.238
G01 X188.020 Y132.160
G01 X187.588 Y132.105
G01 X187.146 Y132.074
G01 X186.696 Y132.067
G01 X186.238 Y132.086
G01 X185.980 Y132.109
G01 X185.450 Y132.059
G01 X184.907 Y132.042
G01 X184.749 Y132.044
G01 X184.550 Y132.563
G01 X184.389 Y133.083
G01 X184.264 Y133.599
G01 X184.177 Y134.110
G01 X184.125 Y134.614
G01 X184.109 Y135.057
G01 X183.845 Y135.330
G01 X183.594 Y135.618
G01 X183.357 Y135.919
G01 X183.133 Y136.233
G01 X182.925 Y136.559
G01 X182.732 Y136.896
G01 X182.628 Y137.096
G01 X182.331 Y137.406
G01 X182.048 Y137.738
G01 X181.779 Y138.092
G01 X181.527 Y138.467
G01 X181.291 Y138.863
G01 X181.146 Y139.134
G01 X180.812 Y139.555
G01 X180.499 Y140.007
G01 X180.406 Y140.154
G01 X180.731 Y140.604
G01 X181.077 Y141.023
G01 X181.440 Y141.410
G01 X181.820 Y141.764
G01 X182.212 Y142.084
G01 X182.616 Y142.370
G01 X182.633 Y142.381
G01 X182.719 Y142.755
G01 X182.824 Y143.126
G01 X182.947 Y143.493
G01 X183.090 Y143.856
G01 X183.251 Y144.213
G01 X183.431 Y144.563
G01 X183.556 Y144.786
G01 X183.657 Y145.213
G01 X183.784 Y145.642
G01 X183.938 Y146.070
G01 X184.120 Y146.497
G01 X184.329 Y146.920
G01 X184.480 Y147.191
G01 X184.656 Y147.717
G01 X184.872 Y148.242
G01 X184.941 Y148.393
G01 X185.502 Y148.366
G01 X186.047 Y148.304
G01 X186.576 Y148.210
G01 X187.085 Y148.084
G01 X187.573 Y147.929
G01 X188.039 Y147.746
G01 X188.091 Y147.724
G01 X188.462 Y147.859
G01 X188.842 Y147.977
G01 X189.230 Y148.075
G01 X189.625 Y148.155
G01 X190.026 Y148.216
G01 X190.431 Y148.257
G01 X190.665 Y148.271
G01 X191.096 Y148.425
G01 X191.543 Y148.556
G01 X192.006 Y148.663
G01 X192.482 Y148.744
G01 X192.972 Y148.800
G01 X193.240 Y148.818
G01 X193.801 Y148.962
G01 X194.385 Y149.071
G01 X194.527 Y149.092
G01 X194.817 Y148.590
G01 X195.069 Y148.082
G01 X195.283 Y147.571
G01 X195.460 Y147.059
G01 X195.599 Y146.549
G01 X195.702 Y146.042
G01 X195.706 Y146.020
G01 X196.035 Y145.771
G01 X196.352 Y145.505
G01 X196.658 Y145.220
G01 X196.951 Y144.919
G01 X197.231 Y144.602
G01 X197.496 Y144.269
G01 X197.607 Y144.120
G01 X197.984 Y143.830
G01 X198.351 Y143.513
G01 X198.705 Y143.169
G01 X199.045 Y142.798
G01 X199.370 Y142.402
G01 X199.507 Y142.219
G01 X199.948 Y141.812
G01 X200.371 Y141.368
G01 X200.458 Y141.269
G01 X200.182 Y140.731
G01 X199.879 Y140.223
G01 X199.552 Y139.746
G01 X199.202 Y139.303
G01 X198.833 Y138.893
G01 X198.483 Y138.550
G01 X198.451 Y138.125
G01 X198.397 Y137.699
G01 X198.322 Y137.274
G01 X198.226 Y136.851
G01 X198.108 Y136.431
G01 X197.968 Y136.015
G01 X197.912 Y135.866
G01 X197.873 Y135.381
G01 X197.805 Y134.891
G01 X197.707 Y134.396
G01 X197.580 Y133.898
G01 X197.421 Y133.400
G01 X197.342 Y133.182
G01 X197.239 Y132.583
G01 X197.095 Y131.979
G01 X197.057 Y131.840
G01 X196.434 Y131.777
G01 X195.823 Y131.754
G01 X195.225 Y131.771
G01 X194.644 Y131.826
G01 X194.081 Y131.918
G01 X193.631 Y132.020
G01 X193.257 Y131.795
G01 X192.870 Y131.589
G01 X192.471 Y131.400
G01 X192.059 Y131.231
G01 X191.638 Y131.081
G01 X191.206 Y130.952
G01 X190.766 Y130.844
G01 X190.364 Y130.765
G01 X189.908 Y130.498
G01 X189.426 Y130.254
G01 X188.921 Y130.035
G01 X188.392 Y129.843
G01 X187.843 Y129.679
G01 X187.273 Y129.546
G01 X187.096 Y129.511
G01 X186.697 Y130.005
G01 X186.339 Y130.512
G01 X186.023 Y131.030
G01 X185.748 Y131.554
G01 X185.514 Y132.084
G01 X185.346 Y132.542
G01 X184.953 Y132.732
G01 X184.568 Y132.943
G01 X184.191 Y133.175
G01 X183.824 Y133.426
G01 X183.467 Y133.697
G01 X183.123 Y133.988
G01 X182.791 Y134.297
G01 X182.473 Y134.624
G01 X182.458 Y134.641
G01 X181.984 Y134.876
G01 X181.515 Y135.146
G01 X181.054 Y135.450
G01 X180.604 Y135.787
G01 X180.165 Y136.158
G01 X179.740 Y136.563
G01 X179.570 Y136.739
G01 X179.765 Y137.344
G01 X179.993 Y137.921
G01 X180.253 Y138.469
G01 X180.541 Y138.987
G01 X180.856 Y139.473
G01 X181.191 Y139.920
G01 X181.134 Y140.355
G01 X181.100 Y140.795
G01 X181.087 Y141.239
G01 X181.097 Y141.687
G01 X181.129 Y142.137
G01 X181.184 Y142.587
G01 X181.262 Y143.037
G01 X181.363 Y143.486
G01 X181.381 Y143.555
G01 X181.318 Y144.090
G01 X181.288 Y144.640
G01 X181.292 Y145.202
G01 X181.330 Y145.774
G01 X181.404 Y146.355
G01 X181.514 Y146.943
G01 X181.572 Y147.190
G01 X182.187 Y147.357
G01 X182.798 Y147.482
G01 X183.402 Y147.565
G01 X183.996 Y147.607
G01 X184.577 Y147.610
G01 X185.145 Y147.575
G01 X185.192 Y147.570
G01 X185.533 Y147.861
G01 X185.891 Y148.135
G01 X186.266 Y148.394
G01 X186.656 Y148.635
G01 X187.060 Y148.858
G01 X187.479 Y149.061
G01 X187.911 Y149.245
G01 X188.354 Y149.408
G01 X188.405 Y149.425
G01 X188.835 Y149.781
G01 X189.296 Y150.116
G01 X189.787 Y150.429
G01 X190.307 Y150.718
G01 X190.855 Y150.980
G01 X191.430 Y151.213
G01 X191.618 Y151.280
G01 X192.103 Y150.845
G01 X192.549 Y150.390
G01 X192.956 Y149.918
G01 X193.323 Y149.432
G01 X193.650 Y148.934
G01 X193.936 Y148.428
G01 X193.952 Y148.397
G01 X194.397 Y148.263
G01 X194.837 Y148.105
G01 X195.273 Y147.924
G01 X195.702 Y147.719
G01 X196.124 Y147.491
G01 X196.538 Y147.240
G01 X196.941 Y146.967
G01 X197.320 Y146.681
G01 X197.872 Y146.506
G01 X198.423 Y146.293
G01 X198.972 Y146.040
G01 X199.516 Y145.749
G01 X200.052 Y145.418
G01 X200.579 Y145.048
G01 X200.688 Y144.965
G01 X200.581 Y144.298
G01 X200.436 Y143.653
G01 X200.253 Y143.033
G01 X200.035 Y142.440
G01 X199.785 Y141.876
G01 X199.520 Y141.370
G01 X199.653 Y140.908
G01 X199.762 Y140.437
G01 X199.849 Y139.957
G01 X199.912 Y139.470
G01 X199.950 Y138.976
G01 X199.964 Y138.478
G01 X199.953 Y137.975
G01 X199.923 Y137.541
G01 X200.079 Y136.970
G01 X200.202 Y136.379
G01 X200.290 Y135.768
G01 X200.343 Y135.140
G01 X200.358 Y134.497
G01 X200.334 Y133.841
G01 X200.325 Y133.712
G01 X199.685 Y133.430
G01 X199.043 Y133.194
G01 X198.402 Y133.005
G01 X197.765 Y132.862
G01 X197.135 Y132.764
G01 X196.606 Y132.716
G01 X196.285 Y132.347
G01 X195.943 Y131.992
G01 X195.582 Y131.652
G01 X195.201 Y131.329
G01 X194.802 Y131.023
G01 X194.386 Y130.735
G01 X193.952 Y130.467
G01 X193.560 Y130.249
G01 X193.164 Y129.805
G01 X192.734 Y129.376
G01 X192.268 Y128.967
G01 X191.769 Y128.577
G01 X191.238 Y128.212
G01 X190.674 Y127.871
G01 X190.513 Y127.782
G01 X189.916 Y128.171
G01 X189.358 Y128.589
G01 X188.841 Y129.032
G01 X188.366 Y129.497
G01 X187.933 Y129.981
G01 X187.600 Y130.405
G01 X187.123 Y130.504
G01 X186.650 Y130.627
G01 X186.182 Y130.773
G01 X185.720 Y130.943
G01 X185.266 Y131.136
G01 X185.071 Y131.227
G01 X184.555 Y131.335
G01 X184.039 Y131.473
G01 X183.523 Y131.641
G01 X183.010 Y131.839
G01 X182.541 Y132.049
G01 X181.915 Y132.188
G01 X181.285 Y132.370
G01 X180.654 Y132.595
G01 X180.025 Y132.864
G01 X180.011 Y132.871
G01 X180.061 Y133.619
G01 X180.160 Y134.344
G01 X180.305 Y135.043
G01 X180.427 Y135.498
G01 X180.497 Y136.088
G01 X180.601 Y136.660
G01 X180.635 Y136.812
G01 X180.457 Y137.266
G01 X180.301 Y137.729
G01 X180.168 Y138.202
G01 X180.057 Y138.682
G01 X179.971 Y139.169
G01 X179.935 Y139.426
G01 X179.742 Y139.919
G01 X179.575 Y140.430
G01 X179.433 Y140.957
G01 X179.319 Y141.499
G01 X179.234 Y142.041
G01 X179.006 Y142.649
G01 X178.812 Y143.284
G01 X178.656 Y143.944
G01 X178.537 Y144.627
G01 X178.533 Y144.655
G01 X179.187 Y145.021
G01 X179.848 Y145.334
G01 X180.513 Y145.596
G01 X181.006 Y145.756
G01 X181.540 Y146.019
G01 X182.077 Y146.245
G01 X182.242 Y146.306
G01 X182.529 Y146.708
G01 X182.837 Y147.097
G01 X183.165 Y147.471
G01 X183.512 Y147.831
G01 X183.879 Y148.174
G01 X184.085 Y148.353
G01 X184.400 Y148.792
G01 X184.745 Y149.220
G01 X185.119 Y149.635
G01 X185.521 Y150.035
G01 X185.927 Y150.399
G01 X186.325 Y150.936
G01 X186.765 Y151.459
G01 X187.249 Y151.964
G01 X187.769 Y152.445
G01 X188.441 Y152.091
G01 X189.071 Y151.703
G01 X189.660 Y151.283
G01 X190.079 Y150.945
G01 X190.599 Y150.636
G01 X191.089 Y150.302
G01 X191.233 Y150.195
G01 X191.744 Y150.192
G01 X192.257 Y150.162
G01 X192.771 Y150.107
G01 X193.286 Y150.026
G01 X193.799 Y149.918
G01 X194.309 Y149.784
G01 X194.789 Y149.632
G01 X195.389 Y149.623
G01 X195.999 Y149.578
G01 X196.617 Y149.496
G01 X197.242 Y149.375
G01 X197.870 Y149.215
G01 X198.345 Y149.069
G01 X199.100 Y148.964
G01 X199.530 Y148.881
G01 X199.612 Y148.114
G01 X199.642 Y147.360
G01 X199.622 Y146.624
G01 X199.554 Y145.908
G01 X199.530 Y145.731
G01 X199.543 Y145.119
G01 X199.530 Y144.681
G01 X199.813 Y144.236
G01 X200.075 Y143.774
G01 X200.315 Y143.297
G01 X200.532 Y142.805
G01 X200.726 Y142.299
G01 X200.895 Y141.782
G01 X201.018 Y141.338
G01 X201.345 Y140.815
G01 X201.646 Y140.264
G01 X201.920 Y139.685
G01 X202.164 Y139.079
G01 X202.377 Y138.450
G01 X202.507 Y137.994
G01 X202.837 Y137.289
G01 X203.003 Y136.880
G01 X202.383 Y136.378
G01 X201.746 Y135.928
G01 X201.095 Y135.533
G01 X200.435 Y135.191
G01 X200.317 Y135.135
G01 X199.795 Y134.780
G01 X199.422 Y134.554
G01 X199.197 Y134.064
G01 X198.947 Y133.582
G01 X198.671 Y133.112
G01 X198.370 Y132.652
G01 X198.045 Y132.206
G01 X197.697 Y131.774
G01 X197.396 Y131.434
G01 X197.133 Y130.870
G01 X196.831 Y130.311
G01 X196.492 Y129.760
G01 X196.114 Y129.219
G01 X195.699 Y128.692
G01 X195.370 Y128.314
G01 X194.957 Y127.651
G01 X194.695 Y127.274
G01 X193.918 Y127.527
G01 X193.177 Y127.824
G01 X192.476 Y128.163
G01 X191.815 Y128.540
G01 X191.721 Y128.598
G01 X191.127 Y128.848
G01 X190.730 Y129.040
G01 X190.192 Y128.960
G01 X189.648 Y128.907
G01 X189.100 Y128.881
G01 X188.548 Y128.882
G01 X187.994 Y128.910
G01 X187.440 Y128.967
G01 X186.950 Y129.040
G01 X186.333 Y128.952
G01 X185.700 Y128.899
G01 X185.053 Y128.882
G01 X184.394 Y128.903
G01 X183.726 Y128.962
G01 X183.170 Y129.040
G01 X182.388 Y129.024
G01 X181.910 Y129.040
G01 X181.696 Y129.834
G01 X181.539 Y130.622
G01 X181.440 Y131.400
G01 X181.395 Y132.165
G01 X181.393 Y132.306
G01 X181.277 Y132.942
G01 X181.220 Y133.395
G01 X180.859 Y133.802
G01 X180.517 Y134.228
G01 X180.195 Y134.673
G01 X179.894 Y135.136
G01 X179.615 Y135.616
G01 X179.359 Y136.111
G01 X179.129 Y136.616
G01 X178.716 Y137.086
G01 X178.325 Y137.589
G01 X177.956 Y138.124
G01 X177.612 Y138.689
G01 X177.295 Y139.283
G01 X177.037 Y139.836
G01 X176.595 Y140.489
G01 X176.340 Y140.910
G01 X176.888 Y141.522
G01 X177.462 Y142.084
G01 X178.059 Y142.592
G01 X178.673 Y143.048
G01 X178.837 Y143.158
G01 X179.307 Y143.601
G01 X179.669 Y143.908
G01 X179.814 Y144.436
G01 X179.986 Y144.959
G01 X180.185 Y145.476
G01 X180.410 Y145.985
G01 X180.662 Y146.485
G01 X180.940 Y146.975
G01 X181.244 Y147.453
G01 X181.256 Y147.470
G01 X181.428 Y148.083
G01 X181.640 Y148.697
G01 X181.893 Y149.308
G01 X182.185 Y149.916
G01 X182.518 Y150.516
G01 X182.842 Y151.033
G01 X183.156 Y151.777
G01 X183.371 Y152.221
G01 X184.188 Y152.094
G01 X184.977 Y151.918
G01 X185.734 Y151.694
G01 X186.457 Y151.426
G01 X186.667 Y151.338
G01 X187.301 Y151.183
G01 X187.766 Y151.043
G01 X188.299 Y151.213
G01 X188.844 Y151.356
G01 X189.399 Y151.473
G01 X189.962 Y151.563
G01 X190.533 Y151.624
G01 X191.110 Y151.658
G01 X191.677 Y151.663
G01 X192.303 Y151.856
G01 X192.953 Y152.016
G01 X193.624 Y152.140
G01 X194.313 Y152.226
G01 X195.020 Y152.273
G01 X195.588 Y152.282
G01 X196.408 Y152.428
G01 X196.892 Y152.489
G01 X197.238 Y151.716
G01 X197.525 Y150.941
G01 X197.754 Y150.168
G01 X197.926 Y149.398
G01 X197.963 Y149.193
G01 X198.184 Y148.561
G01 X198.320 Y148.095
G01 X198.764 Y147.728
G01 X199.193 Y147.336
G01 X199.604 Y146.921
G01 X199.997 Y146.484
G01 X200.370 Y146.024
G01 X200.721 Y145.543
G01 X201.009 Y145.107
G01 X201.526 Y144.674
G01 X202.027 Y144.203
G01 X202.508 Y143.693
G01 X202.967 Y143.146
G01 X203.402 Y142.562
G01 X203.699 Y142.120
G01 X204.282 Y141.497
G01 X204.596 Y141.124
G01 X204.121 Y140.392
G01 X203.611 Y139.710
G01 X203.069 Y139.078
G01 X202.499 Y138.499
G01 X202.382 Y138.390
G01 X201.959 Y137.844
G01 X201.644 Y137.479
G01 X201.576 Y136.892
G01 X201.478 Y136.306
G01 X201.350 Y135.722
G01 X201.193 Y135.141
G01 X201.005 Y134.566
G01 X200.788 Y133.998
G01 X200.588 Y133.538
G01 X200.505 Y132.859
G01 X200.380 Y132.173
G01 X200.212 Y131.482
G01 X200.001 Y130.790
G01 X199.746 Y130.098
G01 X199.532 Y129.597
G01 X199.326 Y128.763
G01 X199.181 Y128.284
G01 X198.286 Y128.284
G01 X197.414 Y128.343
G01 X196.569 Y128.457
G01 X195.753 Y128.626
G01 X195.630 Y128.657
G01 X194.926 Y128.716
G01 X194.447 Y128.781
G01 X193.911 Y128.516
G01 X193.361 Y128.276
G01 X192.796 Y128.062
G01 X192.219 Y127.876
G01 X191.630 Y127.719
G01 X191.030 Y127.589
G01 X190.509 Y127.502
G01 X189.893 Y127.201
G01 X189.248 Y126.930
G01 X188.577 Y126.693
G01 X187.881 Y126.491
G01 X187.161 Y126.326
G01 X186.572 Y126.223
G01 X185.759 Y125.941
G01 X185.259 Y125.796
G01 X184.766 Y126.554
G01 X184.335 Y127.325
G01 X183.967 Y128.105
G01 X183.661 Y128.889
G01 X183.615 Y129.024
G01 X183.278 Y129.650
G01 X183.067 Y130.100
G01 X182.559 Y130.413
G01 X182.066 Y130.753
G01 X181.588 Y131.118
G01 X181.127 Y131.507
G01 X180.684 Y131.921
G01 X180.261 Y132.358
G01 X180.211 Y132.412
G01 X179.650 Y132.762
G01 X179.100 Y133.148
G01 X178.564 Y133.571
G01 X178.043 Y134.031
G01 X177.541 Y134.527
G01 X177.355 Y134.725
G01 X176.688 Y135.199
G01 X176.039 Y135.727
G01 X175.451 Y136.267
G01 X175.816 Y137.094
G01 X176.227 Y137.876
G01 X176.679 Y138.611
G01 X177.168 Y139.296
G01 X177.288 Y139.450
G01 X177.629 Y140.072
G01 X177.901 Y140.511
G01 X177.886 Y141.109
G01 X177.901 Y141.709
G01 X177.946 Y142.311
G01 X178.021 Y142.913
G01 X178.127 Y143.512
G01 X178.262 Y144.109
G01 X178.290 Y144.218
G01 X178.277 Y144.885
G01 X178.301 Y145.563
G01 X178.364 Y146.251
G01 X178.467 Y146.945
G01 X178.611 Y147.645
G01 X178.680 Y147.925
G01 X178.715 Y148.756
G01 X178.805 Y149.601
G01 X178.940 Y150.396
G01 X179.835 Y150.541
G01 X180.716 Y150.624
G01 X181.581 Y150.647
G01 X182.424 Y150.612
G01 X182.662 Y150.591
G01 X183.373 Y150.645
G01 X183.903 Y150.656
G01 X184.404 Y150.999
G01 X184.925 Y151.319
G01 X185.463 Y151.613
G01 X186.018 Y151.882
G01 X186.589 Y152.125
G01 X187.173 Y152.340
G01 X187.271 Y152.372
G01 X187.836 Y152.756
G01 X188.433 Y153.113
G01 X189.060 Y153.441
G01 X189.715 Y153.739
G01 X190.397 Y154.004
G01 X190.639 Y154.088
G01 X191.375 Y154.523
G01 X192.155 Y154.917
G01 X192.884 Y155.232
G01 X193.502 Y154.550
G01 X194.060 Y153.844
G01 X194.558 Y153.120
G01 X194.995 Y152.382
G01 X195.106 Y152.174
G01 X195.547 Y151.595
G01 X195.847 Y151.155
G01 X196.422 Y150.914
G01 X196.987 Y150.643
G01 X197.542 Y150.344
G01 X198.084 Y150.015
G01 X198.611 Y149.657
G01 X199.123 Y149.272
G01 X199.166 Y149.239
G01 X199.812 Y148.964
G01 X200.453 Y148.649
G01 X201.087 Y148.291
G01 X201.710 Y147.892
G01 X202.320 Y147.451
G01 X202.485 Y147.322
G01 X203.269 Y146.931
G01 X204.044 Y146.479
G01 X204.697 Y146.045
G01 X204.453 Y145.131
G01 X204.156 Y144.256
G01 X203.809 Y143.422
G01 X203.416 Y142.634
G01 X203.324 Y142.467
G01 X203.071 Y141.762
G01 X202.866 Y141.274
G01 X202.979 Y140.645
G01 X203.061 Y140.007
G01 X203.112 Y139.363
G01 X203.130 Y138.714
G01 X203.117 Y138.062
G01 X203.071 Y137.408
G01 X203.069 Y137.395
G01 X203.193 Y136.690
G01 X203.278 Y135.966
G01 X203.323 Y135.227
G01 X203.327 Y134.473
G01 X203.289 Y133.708
G01 X203.273 Y133.515
G01 X203.372 Y132.632
G01 X203.417 Y131.725
G01 X203.408 Y130.929
G01 X202.485 Y130.629
G01 X201.565 Y130.396
G01 X200.654 Y130.231
G01 X199.756 Y130.131
G01 X199.608 Y130.121
G01 X198.861 Y129.945
G01 X198.341 Y129.852
G01 X197.868 Y129.408
G01 X197.371 Y128.986
G01 X196.852 Y128.588
G01 X196.311 Y128.214
G01 X195.750 Y127.866
G01 X195.170 Y127.545
G01 X195.156 Y127.537
G01 X194.629 Y127.046
G01 X194.065 Y126.578
G01 X193.467 Y126.134
G01 X192.835 Y125.717
G01 X192.170 Y125.330
G01 X191.970 Y125.223
G01 X191.284 Y124.657
G01 X190.546 Y124.124
G01 X189.847 Y123.680
G01 X189.081 Y124.299
G01 X188.375 Y124.953
G01 X187.732 Y125.637
G01 X187.151 Y126.347
G01 X187.063 Y126.464
G01 X186.503 Y127.000
G01 X186.134 Y127.392
G01 X185.502 Y127.547
G01 X184.876 Y127.733
G01 X184.258 Y127.952
G01 X183.648 Y128.201
G01 X183.049 Y128.481
G01 X182.463 Y128.792
G01 X182.409 Y128.822
G01 X181.710 Y128.996
G01 X181.010 Y129.212
G01 X180.312 Y129.470
G01 X179.618 Y129.772
G01 X178.930 Y130.117
G01 X178.685 Y130.252
G01 X177.835 Y130.519
G01 X176.985 Y130.847
G01 X176.201 Y131.205
G01 X176.302 Y132.187
G01 X176.465 Y133.137
G01 X176.687 Y134.052
G01 X176.965 Y134.928
G01 X177.031 Y135.108
G01 X177.175 Y135.869
G01 X177.307 Y136.409
G01 X177.091 Y137.023
G01 X176.906 Y137.650
G01 X176.750 Y138.289
G01 X176.626 Y138.936
G01 X176.534 Y139.592
G01 X176.474 Y140.254
G01 X176.467 Y140.363
G01 X176.229 Y141.047
G01 X176.027 Y141.756
G01 X175.862 Y142.486
G01 X175.735 Y143.237
G01 X175.649 Y144.007
G01 X175.626 Y144.317
G01 X175.385 Y145.184
G01 X175.194 Y146.085
G01 X175.066 Y146.953
G01 X175.944 Y147.404
G01 X176.829 Y147.787
G01 X177.717 Y148.101
G01 X178.602 Y148.347
G01 X178.840 Y148.402
G01 X179.558 Y148.696
G01 X180.098 Y148.885
G01 X180.499 Y149.406
G01 X180.928 Y149.909
G01 X181.384 Y150.392
G01 X181.865 Y150.855
G01 X182.371 Y151.295
G01 X182.901 Y151.712
G01 X182.994 Y151.781
G01 X183.446 Y152.363
G01 X183.939 Y152.928
G01 X184.472 Y153.475
G01 X185.045 Y153.999
G01 X185.656 Y154.499
G01 X185.889 Y154.676
G01 X186.499 Y155.367
G01 X187.167 Y156.031
G01 X187.820 Y156.607
G01 X188.685 Y156.110
G01 X189.496 Y155.571
G01 X190.251 Y154.992
G01 X190.947 Y154.378
G01 X191.133 Y154.200
G01 X191.779 Y153.752
G01 X192.237 Y153.397
G01 X192.907 Y153.342
G01 X193.577 Y153.254
G01 X194.245 Y153.131
G01 X194.910 Y152.975
G01 X195.570 Y152.785
G01 X196.223 Y152.561
G01 X196.294 Y152.535
G01 X197.047 Y152.470
G01 X197.809 Y152.360
G01 X198.577 Y152.205
G01 X199.348 Y152.004
G01 X200.120 Y151.756
G01 X200.351 Y151.673
G01 X201.285 Y151.533
G01 X202.229 Y151.329
G01 X203.055 Y151.098
G01 X203.110 Y150.079
G01 X203.097 Y149.083
G01 X203.020 Y148.113
G01 X202.880 Y147.174
G01 X202.838 Y146.956
G01 X202.813 Y146.149
G01 X202.766 Y145.575
G01 X203.081 Y144.964
G01 X203.366 Y144.335
G01 X203.622 Y143.689
G01 X203.845 Y143.030
G01 X204.037 Y142.357
G01 X204.104 Y142.090
G01 X204.446 Y141.421
G01 X204.756 Y140.723
G01 X205.032 Y139.998
G01 X205.271 Y139.248
G01 X205.442 Y138.605
G01 X205.851 Y137.779
G01 X206.215 Y136.910
G01 X206.531 Y136.000
G01 X206.779 Y135.119
G01 X205.945 Y134.500
G01 X205.092 Y133.950
G01 X204.225 Y133.471
G01 X203.348 Y133.061
G01 X202.900 Y132.879
G01 X202.198 Y132.463
G01 X201.930 Y132.319
G01 X201.582 Y131.712
G01 X201.203 Y131.120
G01 X200.795 Y130.546
G01 X200.356 Y129.990
G01 X199.889 Y129.455
G01 X199.708 Y129.261
G01 X199.329 Y128.603
G01 X198.908 Y127.956
G01 X198.446 Y127.324
G01 X197.943 Y126.709
G01 X197.486 Y126.203
G01 X197.015 Y125.406
G01 X196.482 Y124.623
G01 X195.890 Y123.859
G01 X195.264 Y123.145
G01 X194.274 Y123.514
G01 X193.332 Y123.937
G01 X192.443 Y124.412
G01 X191.609 Y124.934
G01 X191.223 Y125.204
G01 X190.481 Y125.571
G01 X190.212 Y125.719
G01 X189.510 Y125.679
G01 X188.804 Y125.674
G01 X188.096 Y125.703
G01 X187.388 Y125.768
G01 X186.682 Y125.868
G01 X186.391 Y125.919
G01 X185.631 Y125.878
G01 X184.859 Y125.878
G01 X184.077 Y125.920
G01 X183.287 Y126.005
G01 X182.569 Y126.120
G01 X181.644 Y126.080
G01 X180.698 Y126.098
G01 X179.735 Y126.177
G01 X178.757 Y126.318
G01 X178.748 Y126.320
G01 X178.551 Y127.396
G01 X178.432 Y128.457
G01 X178.388 Y129.498
G01 X178.388 Y129.745
G01 X178.252 Y130.609
G01 X178.171 Y131.461
G01 X178.148 Y132.028
G01 X177.731 Y132.595
G01 X177.341 Y133.184
G01 X176.979 Y133.793
G01 X176.647 Y134.421
G01 X176.345 Y135.067
G01 X176.211 Y135.383
G01 X175.761 Y135.998
G01 X175.339 Y136.645
G01 X174.946 Y137.325
G01 X174.586 Y138.035
G01 X174.275 Y138.737
G01 X173.734 Y139.495
G01 X173.230 Y140.303
G01 X172.768 Y141.159
G01 X172.351 Y142.060
G01 X172.338 Y142.092
G01 X173.131 Y142.843
G01 X173.955 Y143.522
G01 X174.802 Y144.127
G01 X175.047 Y144.285
G01 X175.697 Y144.871
G01 X176.367 Y145.403
G01 X176.853 Y145.748
G01 X177.102 Y146.411
G01 X177.385 Y147.062
G01 X177.700 Y147.702
G01 X178.048 Y148.327
G01 X178.428 Y148.937
G01 X178.633 Y149.241
G01 X178.906 Y149.962
G01 X179.223 Y150.677
G01 X179.584 Y151.386
G01 X179.989 Y152.084
G01 X180.412 Y152.734
G01 X180.759 Y153.615
G01 X181.170 Y154.492
G01 X181.646 Y155.361
G01 X182.186 Y156.217
G01 X182.192 Y156.226
G01 X183.260 Y155.969
G01 X184.283 Y155.647
G01 X185.257 Y155.265
G01 X185.547 Y155.136
G01 X186.399 Y154.908
G01 X187.217 Y154.634
G01 X187.784 Y154.409
G01 X188.487 Y154.563
G01 X189.200 Y154.683
G01 X189.922 Y154.768
G01 X190.649 Y154.817
G01 X191.381 Y154.830
G01 X191.729 Y154.824
G01 X192.499 Y154.990
G01 X193.290 Y155.116
G01 X194.099 Y155.200
G01 X194.924 Y155.241
G01 X195.674 Y155.239
G01 X196.625 Y155.431
G01 X197.608 Y155.566
G01 X198.620 Y155.641
G01 X199.619 Y155.653
G01 X199.990 Y154.599
G01 X200.282 Y153.548
G01 X200.496 Y152.504
G01 X200.543 Y152.205
G01 X200.820 Y151.349
G01 X201.040 Y150.496
G01 X201.159 Y149.906
G01 X201.683 Y149.387
G01 X202.182 Y148.841
G01 X202.656 Y148.269
G01 X203.103 Y147.671
G01 X203.522 Y147.049
G01 X203.685 Y146.787
G01 X204.256 Y146.218
G01 X204.803 Y145.610
G01 X205.325 Y144.962
G01 X205.818 Y144.276
G01 X206.210 Y143.668
G01 X206.902 Y142.961
G01 X207.563 Y142.195
G01 X208.187 Y141.371
G01 X208.736 Y140.549
G01 X208.037 Y139.643
G01 X207.295 Y138.807
G01 X206.517 Y138.042
G01 X206.319 Y137.865
G01 X205.738 Y137.149
G01 X205.127 Y136.486
G01 X204.708 Y136.075
G01 X204.555 Y135.340
G01 X204.364 Y134.611
G01 X204.137 Y133.889
G01 X203.874 Y133.176
G01 X203.575 Y132.474
G01 X203.453 Y132.214
G01 X203.284 Y131.415
G01 X203.069 Y130.614
G01 X202.807 Y129.814
G01 X202.497 Y129.018
G01 X202.199 Y128.353
G01 X201.981 Y127.380
G01 X201.696 Y126.402
G01 X201.344 Y125.422
G01 X200.944 Y124.491
G01 X199.780 Y124.587
G01 X198.654 Y124.758
G01 X197.568 Y125.000
G01 X197.335 Y125.063
G01 X196.403 Y125.163
G01 X195.498 Y125.317
G01 X194.929 Y125.444
G01 X194.223 Y125.170
G01 X193.502 Y124.930
G01 X192.768 Y124.725
G01 X192.022 Y124.556
G01 X191.266 Y124.424
G01 X190.962 Y124.381
G01 X190.198 Y124.086
G01 X189.407 Y123.829
G01 X188.592 Y123.612
G01 X187.754 Y123.437
G01 X186.996 Y123.318
G01 X186.061 Y122.970
G01 X185.086 Y122.675
G01 X184.073 Y122.435
G01 X183.029 Y122.255
G01 X182.470 Y123.292
G01 X181.995 Y124.338
G01 X181.604 Y125.390
G01 X181.526 Y125.632
G01 X181.099 Y126.472
G01 X180.733 Y127.318
G01 X180.523 Y127.883
G01 X179.908 Y128.325
G01 X179.313 Y128.798
G01 X178.740 Y129.302
G01 X178.191 Y129.835
G01 X177.668 Y130.396
G01 X177.437 Y130.662
G01 X176.772 Y131.141
G01 X176.125 Y131.664
G01 X175.498 Y132.229
G01 X174.894 Y132.836
G01 X174.350 Y133.441
G01 X173.547 Y134.036
G01 X172.765 Y134.693
G01 X172.010 Y135.414
G01 X171.285 Y136.196
G01 X171.264 Y136.220
G01 X171.827 Y137.254
G01 X172.445 Y138.223
G01 X173.112 Y139.124
G01 X173.300 Y139.355
G01 X173.770 Y140.170
G01 X174.280 Y140.938
G01 X174.657 Y141.445
G01 X174.702 Y142.203
G01 X174.784 Y142.959
G01 X174.904 Y143.713
G01 X175.061 Y144.462
G01 X175.248 Y145.179
G01 X175.298 Y145.987
G01 X175.391 Y146.803
G01 X175.530 Y147.623
G01 X175.715 Y148.446
G01 X175.840 Y148.912
G01 X175.906 Y149.868
G01 X176.034 Y150.837
G01 X176.223 Y151.818
G01 X176.431 Y152.646
G01 X176.605 Y153.772
G01 X176.628 Y153.890
G01 X177.804 Y153.981
G01 X178.955 Y153.992
G01 X180.077 Y153.925
G01 X180.408 Y153.890
G01 X181.352 Y153.940
G01 X182.277 Y153.931
G01 X182.928 Y153.890
G01 X183.596 Y154.270
G01 X184.284 Y154.617
G01 X184.991 Y154.931
G01 X185.715 Y155.211
G01 X186.420 Y155.445
G01 X187.137 Y155.850
G01 X187.885 Y156.222
G01 X188.664 Y156.558
G01 X189.470 Y156.856
G01 X189.911 Y156.999
G01 X190.767 Y157.473
G01 X191.669 Y157.902
G01 X192.615 Y158.284
G01 X193.403 Y158.554
G01 X194.465 Y159.031
G01 X194.567 Y159.072
G01 X195.292 Y158.123
G01 X195.936 Y157.151
G01 X196.498 Y156.162
G01 X196.648 Y155.866
G01 X197.212 Y155.089
G01 X197.717 Y154.296
G01 X198.036 Y153.730
G01 X198.732 Y153.368
G01 X199.412 Y152.971
G01 X200.074 Y152.539
G01 X200.716 Y152.073
G01 X201.277 Y151.625
G01 X202.023 Y151.235
G01 X202.758 Y150.799
G01 X203.479 Y150.318
G01 X204.183 Y149.792
G01 X204.517 Y149.521
G01 X205.398 Y149.050
G01 X206.267 Y148.516
G01 X207.119 Y147.917
G01 X207.758 Y147.416
G01 X208.755 Y146.772
G01 X208.838 Y146.715
G01 X208.428 Y145.566
G01 X207.952 Y144.474
G01 X207.415 Y143.442
G01 X207.266 Y143.185
G01 X206.913 Y142.268
G01 X206.513 Y141.394
G01 X206.219 Y140.831
G01 X206.295 Y140.035
G01 X206.332 Y139.233
G01 X206.329 Y138.427
G01 X206.287 Y137.619
G01 X206.219 Y136.925
G01 X206.299 Y136.073
G01 X206.333 Y135.205
G01 X206.322 Y134.325
G01 X206.262 Y133.435
G01 X206.219 Y133.019
G01 X206.304 Y132.013
G01 X206.329 Y130.981
G01 X206.291 Y129.929
G01 X206.219 Y129.113
G01 X206.222 Y127.916
G01 X206.219 Y127.811
G01 X205.006 Y127.524
G01 X203.807 Y127.326
G01 X202.625 Y127.214
G01 X202.361 Y127.200
G01 X201.381 Y126.994
G01 X200.412 Y126.852
G01 X199.789 Y126.793
G01 X199.155 Y126.290
G01 X198.495 Y125.817
G01 X197.811 Y125.375
G01 X197.104 Y124.967
G01 X196.478 Y124.643
G01 X195.802 Y124.108
G01 X195.090 Y123.603
G01 X194.342 Y123.131
G01 X193.559 Y122.692
G01 X193.167 Y122.493
G01 X192.367 Y121.870
G01 X191.515 Y121.286
G01 X190.610 Y120.742
G01 X189.856 Y120.342
G01 X188.852 Y119.686
G01 X188.752 Y119.626
G01 X187.840 Y120.495
G01 X187.011 Y121.404
G01 X186.266 Y122.345
G01 X186.110 Y122.559
G01 X185.397 Y123.274
G01 X184.745 Y124.015
G01 X184.349 Y124.515
G01 X183.580 Y124.773
G01 X182.822 Y125.068
G01 X182.078 Y125.401
G01 X181.349 Y125.771
G01 X180.704 Y126.138
G01 X179.887 Y126.413
G01 X179.075 Y126.734
G01 X178.271 Y127.103
G01 X177.477 Y127.520
G01 X177.059 Y127.761
G01 X176.101 Y128.092
G01 X175.146 Y128.487
G01 X174.197 Y128.949
G01 X173.414 Y129.384
G01 X172.316 Y129.868
G01 X172.199 Y129.925
G01 X172.431 Y131.165
G01 X172.741 Y132.358
G01 X173.123 Y133.497
G01 X173.231 Y133.779
G01 X173.442 Y134.766
G01 X173.707 Y135.717
G01 X173.920 Y136.348
G01 X173.715 Y137.134
G01 X173.549 Y137.931
G01 X173.423 Y138.737
G01 X173.335 Y139.551
G01 X173.289 Y140.331
G01 X173.073 Y141.168
G01 X172.899 Y142.027
G01 X172.769 Y142.906
G01 X172.685 Y143.802
G01 X172.658 Y144.313
G01 X172.412 Y145.303
G01 X172.221 Y146.328
G01 X172.090 Y147.384
G01 X172.028 Y148.296
G01 X171.834 Y149.493
G01 X171.817 Y149.623
G01 X172.984 Y150.104
G01 X174.152 Y150.496
G01 X175.315 Y150.798
G01 X175.652 Y150.869
G01 X176.595 Y151.231
G01 X177.538 Y151.528
G01 X178.209 Y151.700
G01 X178.760 Y152.304
G01 X179.343 Y152.882
G01 X179.956 Y153.433
G01 X180.597 Y153.955
G01 X181.236 Y154.426
G01 X181.828 Y155.072
G01 X182.463 Y155.694
G01 X183.139 Y156.289
G01 X183.855 Y156.855
G01 X184.264 Y157.152
G01 X184.972 Y157.911
G01 X185.742 Y158.641
G01 X186.571 Y159.337
G01 X187.291 Y159.878
G01 X188.207 Y160.708
G01 X188.300 Y160.786
G01 X189.348 Y160.065
G01 X190.320 Y159.292
G01 X191.215 Y158.474
G01 X191.467 Y158.223
G01 X192.293 Y157.622
G01 X193.064 Y156.985
G01 X193.577 Y156.513
G01 X194.399 Y156.377
G01 X195.216 Y156.199
G01 X196.026 Y155.980
G01 X196.827 Y155.721
G01 X197.553 Y155.448
G01 X198.435 Y155.300
G01 X199.320 Y155.101
G01 X200.205 Y154.852
G01 X201.088 Y154.552
G01 X201.529 Y154.383
G01 X202.573 Y154.197
G01 X203.625 Y153.943
G01 X204.682 Y153.619
G01 X205.505 Y153.317
G01 X206.724 Y152.995
G01 X206.830 Y152.962
G01 X206.793 Y151.667
G01 X206.671 Y150.409
G01 X206.468 Y149.191
G01 X206.400 Y148.869
G01 X206.344 Y147.828
G01 X206.227 Y146.814
G01 X206.113 Y146.140
G01 X206.451 Y145.360
G01 X206.752 Y144.562
G01 X207.015 Y143.748
G01 X207.237 Y142.918
G01 X207.398 Y142.185
G01 X207.759 Y141.350
G01 X208.079 Y140.484
G01 X208.357 Y139.591
G01 X208.589 Y138.671
G01 X208.683 Y138.231
G01 X209.101 Y137.240
G01 X209.465 Y136.204
G01 X209.773 Y135.126
G01 X209.967 Y134.276
G01 X210.365 Y133.064
G01 X210.396 Y132.958
G01 X209.266 Y132.271
G01 X208.120 Y131.676
G01 X206.964 Y131.175
G01 X206.691 Y131.071
G01 X205.769 Y130.540
G01 X204.837 Y130.078
G01 X204.221 Y129.812
G01 X203.738 Y129.100
G01 X203.219 Y128.410
G01 X202.665 Y127.746
G01 X202.078 Y127.108
G01 X201.818 Y126.845
G01 X201.309 Y126.096
G01 X200.754 Y125.366
G01 X200.154 Y124.657
G01 X199.511 Y123.973
G01 X199.415 Y123.877
G01 X198.827 Y123.024
G01 X198.176 Y122.190
G01 X197.465 Y121.380
G01 X197.012 Y120.910
G01 X196.273 Y119.931
G01 X195.454 Y118.979
G01 X195.411 Y118.932
G01 X194.206 Y119.492
G01 X193.070 Y120.116
G01 X192.006 Y120.802
G01 X191.369 Y121.265
G01 X190.435 Y121.758
G01 X189.553 Y122.296
G01 X189.348 Y122.432
G01 X188.484 Y122.449
G01 X187.620 Y122.509
G01 X186.758 Y122.611
G01 X185.900 Y122.756
G01 X185.513 Y122.835
G01 X184.606 Y122.854
G01 X183.691 Y122.921
G01 X182.769 Y123.037
G01 X181.844 Y123.203
G01 X181.678 Y123.238
G01 X180.641 Y123.266
G01 X179.588 Y123.356
G01 X178.522 Y123.510
G01 X177.843 Y123.641
G01 X176.618 Y123.727
G01 X175.374 Y123.895
G01 X175.286 Y123.910
G01 X175.097 Y125.229
G01 X175.001 Y126.527
G01 X174.995 Y127.797
G01 X175.039 Y128.617
G01 X174.943 Y129.670
G01 X174.913 Y130.704
G01 X174.916 Y130.970
G01 X174.458 Y131.704
G01 X174.037 Y132.461
G01 X173.652 Y133.239
G01 X173.306 Y134.037
G01 X173.148 Y134.440
G01 X172.668 Y135.211
G01 X172.225 Y136.016
G01 X171.819 Y136.853
G01 X171.453 Y137.720
G01 X171.380 Y137.910
G01 X170.836 Y138.798
G01 X170.335 Y139.733
G01 X169.881 Y140.715
G01 X169.612 Y141.381
G01 X169.013 Y142.460
G01 X168.473 Y143.602
G01 X168.433 Y143.694
G01 X169.435 Y144.571
G01 X170.469 Y145.359
G01 X171.530 Y146.057
G01 X172.284 Y146.492
G01 X173.114 Y147.146
G01 X173.964 Y147.735
G01 X174.209 Y147.891
G01 X174.577 Y148.678
G01 X174.984 Y149.448
G01 X175.429 Y150.199
G01 X175.912 Y150.929
G01 X176.176 Y151.297
G01 X176.564 Y152.126
G01 X177.001 Y152.944
G01 X177.487 Y153.748
G01 X178.020 Y154.535
G01 X178.142 Y154.702
G01 X178.595 Y155.654
G01 X179.114 Y156.595
G01 X179.699 Y157.523
G01 X180.108 Y158.108
G01 X180.697 Y159.216
G01 X181.371 Y160.307
G01 X181.419 Y160.379
G01 X182.707 Y160.014
G01 X183.937 Y159.575
G01 X185.106 Y159.064
G01 X185.907 Y158.656
G01 X186.915 Y158.314
G01 X187.879 Y157.919
G01 X188.150 Y157.795
G01 X189.023 Y157.917
G01 X189.903 Y157.996
G01 X190.788 Y158.031
G01 X191.677 Y158.023
G01 X192.116 Y158.003
G01 X193.039 Y158.130
G01 X193.980 Y158.210
G01 X194.935 Y158.240
G01 X195.903 Y158.220
G01 X196.081 Y158.211
G01 X197.147 Y158.350
G01 X198.240 Y158.428
G01 X199.358 Y158.442
G01 X200.047 Y158.418
G01 X201.321 Y158.529
G01 X202.629 Y158.558
G01 X202.690 Y158.557
G01 X203.091 Y157.259
G01 X203.396 Y155.969
G01 X203.607 Y154.692
G01 X203.699 Y153.810
G01 X203.965 Y152.760
G01 X204.162 Y151.718
G01 X204.204 Y151.436
G01 X204.792 Y150.757
G01 X205.347 Y150.048
G01 X205.868 Y149.310
G01 X206.354 Y148.545
G01 X206.560 Y148.193
G01 X207.181 Y147.474
G01 X207.770 Y146.714
G01 X208.325 Y145.913
G01 X208.844 Y145.075
G01 X208.917 Y144.949
G01 X209.625 Y144.118
G01 X210.297 Y143.228
G01 X210.927 Y142.282
G01 X211.273 Y141.706
G01 X212.071 Y140.683
G01 X212.818 Y139.586
G01 X212.844 Y139.544
G01 X211.956 Y138.481
G01 X211.020 Y137.505
G01 X210.044 Y136.616
G01 X209.380 Y136.079
G01 X208.629 Y135.268
G01 X207.846 Y134.522
G01 X207.647 Y134.346
G01 X207.393 Y133.470
G01 X207.096 Y132.606
G01 X206.756 Y131.755
G01 X206.373 Y130.919
G01 X206.197 Y130.568
G01 X205.928 Y129.645
G01 X205.608 Y128.727
G01 X205.235 Y127.816
G01 X204.810 Y126.914
G01 X204.746 Y126.789
G01 X204.432 Y125.734
G01 X204.049 Y124.679
G01 X203.596 Y123.627
G01 X203.296 Y123.011
G01 X202.870 Y121.779
G01 X202.355 Y120.548
G01 X202.329 Y120.492
G01 X200.932 Y120.662
G01 X199.583 Y120.919
G01 X198.286 Y121.261
G01 X197.490 Y121.520
G01 X196.387 Y121.711
G01 X195.322 Y121.965
G01 X195.071 Y122.035
G01 X194.193 Y121.768
G01 X193.300 Y121.545
G01 X192.396 Y121.366
G01 X191.481 Y121.231
G01 X191.075 Y121.185
G01 X190.152 Y120.907
G01 X189.205 Y120.674
G01 X188.236 Y120.489
G01 X187.246 Y120.354
G01 X187.079 Y120.336
G01 X186.022 Y120.024
G01 X184.928 Y119.769
G01 X183.799 Y119.575
G01 X183.083 Y119.486
G01 X181.818 Y119.172
G01 X180.506 Y118.933
G01 X180.418 Y118.920
G01 X179.795 Y120.191
G01 X179.273 Y121.471
G01 X178.850 Y122.753
G01 X178.629 Y123.582
G01 X178.186 Y124.614
G01 X177.817 Y125.650
G01 X177.734 Y125.913
G01 X177.032 Y126.504
G01 X176.357 Y127.131
G01 X175.714 Y127.791
G01 X175.102 Y128.483
G01 X174.818 Y128.829
G01 X174.082 Y129.450
G01 X173.370 Y130.117
G01 X172.686 Y130.829
G01 X172.033 Y131.584
G01 X171.903 Y131.744
G01 X171.064 Y132.461
G01 X170.253 Y133.240
G01 X169.474 Y134.082
G01 X168.987 Y134.660
G01 X168.030 Y135.552
G01 X167.112 Y136.525
G01 X167.043 Y136.604
G01 X167.768 Y137.819
G01 X168.555 Y138.955
G01 X169.398 Y140.008
G01 X170.005 Y140.682
G01 X170.629 Y141.615
G01 X171.295 Y142.488
G01 X171.487 Y142.720
G01 X171.599 Y143.634
G01 X171.757 Y144.543
G01 X171.960 Y145.445
G01 X172.208 Y146.339
G01 X172.352 Y146.791
G01 X172.472 Y147.753
G01 X172.644 Y148.718
G01 X172.870 Y149.686
G01 X173.149 Y150.652
G01 X173.217 Y150.862
G01 X173.362 Y151.966
G01 X173.576 Y153.081
G01 X173.860 Y154.204
G01 X174.082 Y154.933
G01 X174.312 Y156.236
G01 X174.633 Y157.552
G01 X174.659 Y157.647
G01 X176.076 Y157.701
G01 X177.460 Y157.661
G01 X178.806 Y157.529
G01 X179.739 Y157.381
G01 X180.866 Y157.366
G01 X181.966 Y157.284
G01 X182.279 Y157.247
G01 X183.107 Y157.676
G01 X183.959 Y158.065
G01 X184.832 Y158.412
G01 X185.725 Y158.717
G01 X186.635 Y158.979
G01 X187.071 Y159.087
G01 X187.976 Y159.552
G01 X188.919 Y159.973
G01 X189.898 Y160.348
G01 X190.912 Y160.674
G01 X191.864 Y160.927
G01 X192.982 Y161.484
G01 X194.159 Y161.980
G01 X195.391 Y162.410
G01 X196.656 Y162.766
G01 X197.482 Y161.594
G01 X198.209 Y160.398
G01 X198.838 Y159.185
G01 X199.223 Y158.321
G01 X199.832 Y157.354
G01 X200.369 Y156.373
G01 X200.506 Y156.098
G01 X201.330 Y155.628
G01 X202.133 Y155.115
G01 X202.913 Y154.562
G01 X203.668 Y153.968
G01 X204.396 Y153.334
G01 X204.697 Y153.053
G01 X205.595 Y152.538
G01 X206.477 Y151.965
G01 X207.339 Y151.335
G01 X208.179 Y150.649
G01 X208.887 Y150.009
G01 X209.981 Y149.363
G01 X211.054 Y148.633
G01 X212.103 Y147.819
G01 X213.078 Y146.964
G01 X212.534 Y145.609
G01 X211.914 Y144.326
G01 X211.225 Y143.117
G01 X210.726 Y142.348
G01 X210.238 Y141.292
G01 X209.697 Y140.289
G01 X209.551 Y140.041
G01 X209.605 Y139.078
G01 X209.612 Y138.110
G01 X209.571 Y137.139
G01 X209.481 Y136.167
G01 X209.344 Y135.197
G01 X209.277 Y134.821
G01 X209.333 Y133.774
G01 X209.333 Y132.709
G01 X209.273 Y131.630
G01 X209.154 Y130.539
G01 X209.003 Y129.602
G01 X209.057 Y128.322
G01 X209.030 Y127.013
G01 X208.918 Y125.680
G01 X208.730 Y124.382
G01 X207.273 Y124.097
G01 X205.835 Y123.915
G01 X204.422 Y123.835
G01 X203.532 Y123.836
G01 X202.362 Y123.668
G01 X201.209 Y123.574
G01 X200.933 Y123.563
G01 X200.131 Y123.015
G01 X199.303 Y122.507
G01 X198.448 Y122.039
G01 X197.570 Y121.614
G01 X197.508 Y121.585
G01 X196.685 Y120.984
G01 X195.821 Y120.419
G01 X194.917 Y119.894
G01 X193.976 Y119.411
G01 X192.999 Y118.973
G01 X192.941 Y118.948
G01 X191.957 Y118.243
G01 X190.911 Y117.584
G01 X189.805 Y116.978
G01 X188.642 Y116.427
G01 X188.374 Y116.312
G01 X187.232 Y115.653
G01 X186.190 Y116.728
G01 X185.246 Y117.845
G01 X184.402 Y118.996
G01 X183.914 Y119.751
G01 X183.130 Y120.646
G01 X182.420 Y121.567
G01 X182.254 Y121.800
G01 X181.357 Y122.174
G01 X180.478 Y122.592
G01 X179.619 Y123.054
G01 X178.783 Y123.558
G01 X178.699 Y123.611
G01 X177.767 Y124.001
G01 X176.847 Y124.443
G01 X175.941 Y124.937
G01 X175.144 Y125.423
G01 X174.072 Y125.836
G01 X173.006 Y126.321
G01 X171.951 Y126.876
G01 X170.909 Y127.504
G01 X170.404 Y127.838
G01 X169.145 Y128.434
G01 X168.034 Y129.046
G01 X168.367 Y130.507
G01 X168.789 Y131.909
G01 X169.294 Y133.245
G01 X169.678 Y134.105
G01 X170.001 Y135.249
G01 X170.386 Y136.347
G01 X170.500 Y136.635
G01 X170.324 Y137.592
G01 X170.195 Y138.558
G01 X170.114 Y139.530
G01 X170.080 Y140.507
G01 X170.079 Y140.638
G01 X169.897 Y141.634
G01 X169.765 Y142.649
G01 X169.685 Y143.681
G01 X169.658 Y144.641
G01 X169.459 Y145.760
G01 X169.322 Y146.910
G01 X169.249 Y148.086
G01 X169.238 Y148.644
G01 X169.014 Y149.972
G01 X168.872 Y151.342
G01 X168.817 Y152.647
G01 X170.224 Y153.164
G01 X171.629 Y153.575
G01 X173.025 Y153.882
G01 X174.001 Y154.036
G01 X175.138 Y154.389
G01 X176.269 Y154.665
G01 X176.593 Y154.730
G01 X177.304 Y155.404
G01 X178.049 Y156.043
G01 X178.827 Y156.646
G01 X179.635 Y157.211
G01 X179.748 Y157.285
G01 X180.492 Y157.988
G01 X181.280 Y158.659
G01 X182.112 Y159.295
G01 X182.903 Y159.840
G01 X183.745 Y160.628
G01 X184.647 Y161.379
G01 X185.608 Y162.090
G01 X186.058 Y162.395
G01 X187.067 Y163.321
G01 X188.156 Y164.199
G01 X189.214 Y164.950
G01 X190.423 Y164.045
G01 X191.541 Y163.084
G01 X192.566 Y162.072
G01 X193.236 Y161.328
G01 X194.161 Y160.559
G01 X195.018 Y159.752
G01 X195.248 Y159.517
G01 X196.214 Y159.283
G01 X197.171 Y159.001
G01 X198.114 Y158.672
G01 X199.042 Y158.296
G01 X199.142 Y158.252
G01 X200.154 Y158.006
G01 X201.162 Y157.704
G01 X202.166 Y157.346
G01 X203.037 Y156.986
G01 X204.175 Y156.703
G01 X205.316 Y156.349
G01 X206.455 Y155.922
G01 X206.932 Y155.721
G01 X208.279 Y155.372
G01 X209.631 Y154.929
G01 X210.826 Y154.455
G01 X210.723 Y152.925
G01 X210.521 Y151.440
G01 X210.225 Y150.008
G01 X209.972 Y149.063
G01 X209.827 Y147.848
G01 X209.613 Y146.670
G01 X209.545 Y146.366
G01 X209.880 Y145.412
G01 X210.168 Y144.440
G01 X210.409 Y143.453
G01 X210.601 Y142.453
G01 X210.614 Y142.377
G01 X210.963 Y141.380
G01 X211.263 Y140.354
G01 X211.512 Y139.301
G01 X211.683 Y138.388
G01 X212.070 Y137.265
G01 X212.397 Y136.100
G01 X212.663 Y134.897
G01 X212.752 Y134.398
G01 X213.197 Y133.065
G01 X213.565 Y131.675
G01 X213.821 Y130.409
G01 X212.457 Y129.650
G01 X211.078 Y129.001
G01 X209.691 Y128.462
G01 X208.790 Y128.169
G01 X207.674 Y127.621
G01 X206.551 Y127.152
G01 X206.275 Y127.049
G01 X205.650 Y126.240
G01 X204.985 Y125.461
G01 X204.280 Y124.714
G01 X203.539 Y124.001
G01 X203.488 Y123.954
G01 X202.836 Y123.112
G01 X202.134 Y122.295
G01 X201.382 Y121.508
G01 X200.701 Y120.859
G01 X199.966 Y119.919
G01 X199.165 Y119.005
G01 X198.297 Y118.123
G01 X197.914 Y117.764
G01 X197.037 Y116.661
G01 X196.070 Y115.593
G01 X195.127 Y114.669
G01 X193.732 Y115.407
G01 X192.423 Y116.220
G01 X191.202 Y117.099
G01 X190.470 Y117.693
G01 X189.392 Y118.336
G01 X188.379 Y119.028
G01 X188.141 Y119.206
G01 X187.115 Y119.265
G01 X186.090 Y119.375
G01 X185.070 Y119.536
G01 X184.055 Y119.748
G01 X183.050 Y120.010
G01 X183.035 Y120.014
G01 X181.942 Y120.080
G01 X180.838 Y120.205
G01 X179.727 Y120.391
G01 X178.613 Y120.640
G01 X177.930 Y120.823
G01 X176.635 Y120.912
G01 X175.320 Y121.083
G01 X173.992 Y121.338
G01 X172.824 Y121.631
G01 X171.548 Y121.834
G01 X171.434 Y123.435
G01 X171.432 Y125.003
G01 X171.537 Y126.529
G01 X171.548 Y126.634
G01 X171.474 Y127.920
G01 X171.481 Y129.181
G01 X171.548 Y130.234
G01 X171.038 Y131.126
G01 X170.571 Y132.045
G01 X170.150 Y132.989
G01 X169.774 Y133.954
G01 X169.445 Y134.940
G01 X169.428 Y134.995
G01 X168.885 Y135.949
G01 X168.387 Y136.944
G01 X167.937 Y137.978
G01 X167.537 Y139.050
G01 X167.308 Y139.757
G01 X166.674 Y140.896
G01 X166.098 Y142.096
G01 X165.586 Y143.355
G01 X165.188 Y144.519
G01 X164.658 Y145.709
G01 X165.938 Y146.677
G01 X167.249 Y147.533
G01 X168.584 Y148.278
G01 X168.717 Y148.345
G01 X169.755 Y149.108
G01 X170.815 Y149.790
G01 X171.761 Y150.322
G01 X172.234 Y151.240
G01 X172.752 Y152.136
G01 X173.316 Y153.009
G01 X173.925 Y153.855
G01 X174.576 Y154.673
G01 X174.624 Y154.730
G01 X175.132 Y155.713
G01 X175.700 Y156.681
G01 X176.328 Y157.630
G01 X177.015 Y158.557
G01 X177.486 Y159.137
G01 X178.103 Y160.303
G01 X178.805 Y161.453
G01 X179.592 Y162.582
G01 X180.348 Y163.545
G01 X181.064 Y164.647
G01 X182.579 Y164.098
G01 X184.017 Y163.463
G01 X185.375 Y162.746
G01 X185.522 Y162.662
G01 X186.735 Y162.204
G01 X187.892 Y161.683
G01 X188.865 Y161.173
G01 X189.905 Y161.278
G01 X190.953 Y161.331
G01 X192.005 Y161.333
G01 X193.060 Y161.282
G01 X194.115 Y161.179
G01 X194.164 Y161.173
G01 X195.282 Y161.283
G01 X196.421 Y161.334
G01 X197.577 Y161.323
G01 X198.748 Y161.249
G01 X199.462 Y161.173
G01 X200.798 Y161.292
G01 X202.168 Y161.328
G01 X203.566 Y161.281
G01 X204.761 Y161.173
G01 X206.085 Y161.173
G01 X206.454 Y159.584
G01 X206.707 Y158.011
G01 X206.847 Y156.463
G01 X206.855 Y156.314
G01 X207.135 Y155.028
G01 X207.330 Y153.755
G01 X207.432 Y152.669
G01 X208.096 Y151.840
G01 X208.720 Y150.976
G01 X209.304 Y150.079
G01 X209.843 Y149.151
G01 X210.339 Y148.195
G01 X210.341 Y148.189
G01 X211.053 Y147.297
G01 X211.725 Y146.355
G01 X212.354 Y145.363
G01 X212.938 Y144.326
G01 X213.251 Y143.710
G01 X214.088 Y142.639
G01 X214.874 Y141.495
G01 X215.604 Y140.280
G01 X216.160 Y139.230
G01 X216.887 Y138.110
G01 X215.735 Y136.916
G01 X214.533 Y135.830
G01 X213.289 Y134.855
G01 X213.201 Y134.791
G01 X212.259 Y133.841
G01 X211.281 Y132.971
G01 X210.437 Y132.302
G01 X210.098 Y131.281
G01 X209.708 Y130.274
G01 X209.268 Y129.285
G01 X208.778 Y128.316
G01 X208.247 Y127.383
G01 X207.882 Y126.291
G01 X207.453 Y125.204
G01 X206.961 Y124.128
G01 X206.404 Y123.065
G01 X206.056 Y122.464
G01 X205.612 Y121.172
G01 X205.078 Y119.883
G01 X204.455 Y118.602
G01 X203.866 Y117.545
G01 X203.319 Y116.315
G01 X201.668 Y116.635
G01 X200.083 Y117.058
G01 X198.568 Y117.579
G01 X198.489 Y117.609
G01 X197.165 Y117.885
G01 X195.888 Y118.235
G01 X194.867 Y118.579
G01 X193.821 Y118.306
G01 X192.759 Y118.083
G01 X191.685 Y117.913
G01 X190.601 Y117.795
G01 X189.510 Y117.730
G01 X189.506 Y117.730
G01 X188.390 Y117.440
G01 X187.244 Y117.207
G01 X186.071 Y117.033
G01 X184.874 Y116.919
G01 X184.145 Y116.881
G01 X182.820 Y116.550
G01 X181.448 Y116.294
G01 X180.035 Y116.118
G01 X178.784 Y116.032
G01 X177.444 Y115.820
G01 X176.810 Y117.386
G01 X176.298 Y118.954
G01 X175.907 Y120.516
G01 X175.887 Y120.613
G01 X175.394 Y121.878
G01 X174.991 Y123.142
G01 X174.719 Y124.208
G01 X173.918 Y124.936
G01 X173.153 Y125.704
G01 X172.424 Y126.512
G01 X171.734 Y127.356
G01 X171.084 Y128.236
G01 X171.058 Y128.274
G01 X170.206 Y129.052
G01 X169.385 Y129.885
G01 X168.599 Y130.773
G01 X167.851 Y131.714
G01 X167.397 Y132.339
G01 X166.395 Y133.271
G01 X165.430 Y134.283
G01 X164.510 Y135.374
G01 X163.737 Y136.405
G01 X162.821 Y137.421
G01 X163.788 Y138.806
G01 X164.823 Y140.090
G01 X165.918 Y141.269
G01 X166.018 Y141.369
G01 X166.809 Y142.470
G01 X167.649 Y143.497
G01 X168.416 Y144.330
G01 X168.590 Y145.400
G01 X168.817 Y146.464
G01 X169.098 Y147.518
G01 X169.430 Y148.560
G01 X169.815 Y149.587
G01 X169.843 Y149.656
G01 X170.032 Y150.801
G01 X170.285 Y151.950
G01 X170.603 Y153.100
G01 X170.988 Y154.247
G01 X171.270 Y154.982
G01 X171.508 Y156.343
G01 X171.834 Y157.716
G01 X172.253 Y159.094
G01 X172.697 Y160.308
G01 X173.054 Y161.640
G01 X174.745 Y161.583
G01 X176.389 Y161.415
G01 X177.977 Y161.140
G01 X178.146 Y161.104
G01 X179.505 Y161.041
G01 X180.829 Y160.896
G01 X181.965 Y160.703
G01 X182.967 Y161.144
G01 X183.993 Y161.536
G01 X185.040 Y161.878
G01 X186.106 Y162.169
G01 X187.189 Y162.408
G01 X187.250 Y162.420
G01 X188.327 Y162.891
G01 X189.443 Y163.310
G01 X190.597 Y163.673
G01 X191.785 Y163.979
G01 X192.535 Y164.137
G01 X193.825 Y164.687
G01 X195.175 Y165.167
G01 X196.581 Y165.572
G01 X197.820 Y165.855
G01 X199.141 Y166.284
G01 X200.023 Y164.821
G01 X200.784 Y163.337
G01 X201.425 Y161.840
G01 X201.484 Y161.686
G01 X202.178 Y160.497
G01 X202.784 Y159.294
G01 X203.241 Y158.238
G01 X204.163 Y157.620
G01 X205.057 Y156.956
G01 X205.919 Y156.246
G01 X206.748 Y155.493
G01 X207.282 Y154.966
G01 X208.261 Y154.308
G01 X209.216 Y153.589
G01 X210.145 Y152.811
G01 X211.042 Y151.974
G01 X211.323 Y151.693
G01 X212.458 Y150.918
G01 X213.567 Y150.059
G01 X214.644 Y149.117
G01 X215.364 Y148.421
G01 X216.652 Y147.418
G01 X217.385 Y146.784
G01 X216.625 Y145.225
G01 X215.781 Y143.756
G01 X214.859 Y142.384
G01 X214.785 Y142.281
G01 X214.155 Y141.032
G01 X213.464 Y139.850
G01 X212.835 Y138.904
G01 X212.818 Y137.778
G01 X212.746 Y136.652
G01 X212.618 Y135.527
G01 X212.434 Y134.407
G01 X212.287 Y133.692
G01 X212.267 Y132.500
G01 X212.184 Y131.294
G01 X212.035 Y130.079
G01 X211.819 Y128.857
G01 X211.739 Y128.481
G01 X211.707 Y127.096
G01 X211.589 Y125.687
G01 X211.384 Y124.260
G01 X211.192 Y123.270
G01 X211.051 Y121.634
G01 X210.918 Y120.664
G01 X209.171 Y120.449
G01 X207.455 Y120.357
G01 X205.778 Y120.385
G01 X205.685 Y120.390
G01 X204.276 Y120.236
G01 X202.891 Y120.171
G01 X201.760 Y120.184
G01 X200.800 Y119.581
G01 X199.809 Y119.024
G01 X198.790 Y118.515
G01 X197.744 Y118.056
G01 X197.056 Y117.787
G01 X196.041 Y117.151
G01 X194.981 Y116.562
G01 X193.877 Y116.023
G01 X192.732 Y115.536
G01 X192.351 Y115.390
G01 X191.171 Y114.662
G01 X189.924 Y113.991
G01 X188.614 Y113.384
G01 X187.647 Y112.993
G01 X186.198 Y112.219
G01 X185.294 Y111.794
G01 X184.154 Y113.152
G01 X183.135 Y114.551
G01 X182.239 Y115.983
G01 X182.191 Y116.066
G01 X181.290 Y117.169
G01 X180.477 Y118.301
G01 X179.863 Y119.270
G01 X178.833 Y119.746
G01 X177.825 Y120.274
G01 X176.842 Y120.851
G01 X175.886 Y121.478
G01 X175.256 Y121.930
G01 X174.170 Y122.434
G01 X173.098 Y123.001
G01 X172.044 Y123.632
G01 X171.012 Y124.326
G01 X170.649 Y124.590
G01 X169.394 Y125.182
G01 X168.152 Y125.862
G01 X166.929 Y126.629
G01 X166.042 Y127.250
G01 X164.601 Y128.044
G01 X163.738 Y128.580
G01 X164.255 Y130.277
G01 X164.872 Y131.895
G01 X165.584 Y133.428
G01 X165.644 Y133.546
G01 X166.077 Y134.903
G01 X166.583 Y136.201
G01 X167.074 Y137.271
G01 X166.912 Y138.396
G01 X166.804 Y139.529
G01 X166.752 Y140.670
G01 X166.757 Y141.814
G01 X166.794 Y142.624
G01 X166.623 Y143.813
G01 X166.515 Y145.025
G01 X166.469 Y146.256
G01 X166.489 Y147.504
G01 X166.513 Y147.977
G01 X166.325 Y149.360
G01 X166.218 Y150.780
G01 X166.194 Y152.232
G01 X166.233 Y153.329
G01 X166.113 Y154.983
G01 X166.092 Y156.006
G01 X167.797 Y156.498
G01 X169.491 Y156.862
G01 X171.165 Y157.102
G01 X171.335 Y157.120
G01 X172.710 Y157.497
G01 X174.076 Y157.781
G01 X175.268 Y157.956
G01 X176.127 Y158.710
G01 X177.026 Y159.422
G01 X177.961 Y160.092
G01 X178.930 Y160.716
G01 X179.636 Y161.130
G01 X180.550 Y161.928
G01 X181.517 Y162.687
G01 X182.536 Y163.403
G01 X183.605 Y164.073
G01 X184.005 Y164.304
G01 X185.076 Y165.226
G01 X186.224 Y166.101
G01 X187.446 Y166.921
G01 X188.374 Y167.478
G01 X189.714 Y168.493
G01 X190.558 Y169.065
G01 X191.908 Y167.895
G01 X193.144 Y166.666
G01 X194.265 Y165.384
G01 X194.376 Y165.247
G01 X195.450 Y164.290
G01 X196.441 Y163.290
G01 X197.240 Y162.383
G01 X198.355 Y162.068
G01 X199.456 Y161.697
G01 X200.541 Y161.271
G01 X201.607 Y160.790
G01 X202.319 Y160.433
G01 X203.503 Y160.096
G01 X204.683 Y159.692
G01 X205.855 Y159.219
G01 X207.016 Y158.678
G01 X207.397 Y158.484
G01 X208.774 Y158.081
G01 X210.153 Y157.586
G01 X211.526 Y156.998
G01 X212.476 Y156.534
G01 X214.079 Y155.954
G01 X215.015 Y155.559
G01 X214.765 Y153.766
G01 X214.401 Y152.037
G01 X213.930 Y150.377
G01 X213.884 Y150.238
G01 X213.663 Y148.796
G01 X213.358 Y147.400
G01 X213.036 Y146.248
G01 X213.383 Y145.125
G01 X213.675 Y143.983
G01 X213.911 Y142.824
G01 X214.090 Y141.652
G01 X214.176 Y140.887
G01 X214.541 Y139.696
G01 X214.848 Y138.470
G01 X215.092 Y137.214
G01 X215.272 Y135.930
G01 X215.315 Y135.527
G01 X215.730 Y134.139
G01 X216.069 Y132.699
G01 X216.326 Y131.213
G01 X216.454 Y130.167
G01 X216.844 Y128.493
G01 X217.024 Y127.487
G01 X215.359 Y126.710
G01 X213.685 Y126.065
G01 X212.011 Y125.550
G01 X211.908 Y125.523
G01 X210.558 Y124.915
G01 X209.203 Y124.404
G01 X208.071 Y124.050
G01 X207.311 Y123.139
G01 X206.505 Y122.265
G01 X205.654 Y121.429
G01 X204.762 Y120.634
G01 X204.168 Y120.147
G01 X203.363 Y119.185
G01 X202.497 Y118.256
G01 X201.572 Y117.362
G01 X200.589 Y116.507
G01 X200.264 Y116.243
G01 X199.324 Y115.136
G01 X198.298 Y114.065
G01 X197.190 Y113.036
G01 X196.361 Y112.340
G01 X195.168 Y111.100
G01 X194.410 Y110.389
G01 X192.836 Y111.371
G01 X191.370 Y112.434
G01 X190.015 Y113.569
G01 X189.944 Y113.633
G01 X188.690 Y114.440
G01 X187.514 Y115.304
G01 X186.594 Y116.067
G01 X185.414 Y116.208
G01 X184.239 Y116.408
G01 X183.072 Y116.665
G01 X181.917 Y116.981
G01 X181.156 Y117.223
G01 X179.910 Y117.373
G01 X178.659 Y117.592
G01 X177.405 Y117.880
G01 X176.152 Y118.238
G01 X175.717 Y118.379
G01 X174.276 Y118.563
G01 X172.819 Y118.839
G01 X171.353 Y119.207
G01 X170.279 Y119.535
G01 X168.589 Y119.859
G01 X167.560 Y120.113
G01 X167.526 Y121.971
G01 X167.618 Y123.784
G01 X167.831 Y125.542
G01 X167.851 Y125.665
G01 X167.843 Y127.157
G01 X167.927 Y128.614
G01 X168.069 Y129.829
G01 X167.552 Y130.900
G01 X167.087 Y131.996
G01 X166.676 Y133.117
G01 X166.320 Y134.258
G01 X166.196 Y134.709
G01 X165.656 Y135.830
G01 X165.169 Y136.992
G01 X164.738 Y138.192
G01 X164.366 Y139.426
G01 X164.323 Y139.588
G01 X163.715 Y140.869
G01 X163.172 Y142.209
G01 X162.699 Y143.603
G01 X162.450 Y144.468
G01 X161.782 Y146.010
G01 X161.201 Y147.629
G01 X161.045 Y148.127
G01 X162.560 Y149.177
G01 X164.106 Y150.098
G01 X165.674 Y150.890
G01 X166.349 Y151.190
G01 X167.586 Y151.984
G01 X168.842 Y152.685
G01 X169.532 Y153.027
G01 X170.150 Y154.048
G01 X170.819 Y155.040
G01 X171.538 Y156.000
G01 X172.305 Y156.925
G01 X172.626 Y157.286
G01 X173.277 Y158.358
G01 X173.991 Y159.406
G01 X174.769 Y160.428
G01 X175.609 Y161.421
G01 X175.720 Y161.545
G01 X176.471 Y162.764
G01 X177.307 Y163.961
G01 X178.229 Y165.129
G01 X178.814 Y165.803
G01 X179.755 Y167.220
G01 X180.810 Y168.605
G01 X181.135 Y168.997
G01 X182.861 Y168.239
G01 X184.491 Y167.384
G01 X185.532 Y166.757
G01 X186.942 Y166.161
G01 X188.282 Y165.493
G01 X189.549 Y164.758
G01 X189.929 Y164.517
G01 X191.135 Y164.554
G01 X192.345 Y164.532
G01 X193.555 Y164.450
G01 X194.762 Y164.309
G01 X195.223 Y164.239
G01 X196.493 Y164.277
G01 X197.778 Y164.248
G01 X199.076 Y164.150
G01 X200.383 Y163.983
G01 X200.517 Y163.962
G01 X201.969 Y163.996
G01 X203.449 Y163.944
G01 X204.952 Y163.804
G01 X205.811 Y163.684
G01 X207.537 Y163.665
G01 X209.297 Y163.533
G01 X209.782 Y163.476
G01 X210.089 Y161.594
G01 X210.260 Y159.741
G01 X210.301 Y158.533
G01 X210.572 Y157.007
G01 X210.743 Y155.500
G01 X210.817 Y154.018
G01 X210.821 Y153.591
G01 X211.518 Y152.585
G01 X212.167 Y151.544
G01 X212.765 Y150.469
G01 X213.311 Y149.363
G01 X213.490 Y148.967
G01 X214.222 Y147.908
G01 X214.906 Y146.799
G01 X215.539 Y145.641
G01 X216.117 Y144.438
G01 X216.160 Y144.344
G01 X216.988 Y143.130
G01 X217.759 Y141.845
G01 X218.468 Y140.492
G01 X218.829 Y139.720
G01 X219.762 Y138.248
G01 X220.617 Y136.684
G01 X220.831 Y136.253
G01 X219.398 Y134.952
G01 X217.915 Y133.783
G01 X216.941 Y133.103
G01 X215.791 Y132.030
G01 X214.603 Y131.053
G01 X213.383 Y130.172
G01 X213.052 Y129.953
G01 X212.582 Y128.809
G01 X212.056 Y127.686
G01 X211.475 Y126.588
G01 X210.838 Y125.518
G01 X210.611 Y125.163
G01 X210.117 Y123.963
G01 X209.555 Y122.776
G01 X208.924 Y121.606
G01 X208.225 Y120.457
G01 X208.170 Y120.373
G01 X207.601 Y119.010
G01 X206.940 Y117.657
G01 X206.188 Y116.319
G01 X205.730 Y115.583
G01 X205.001 Y113.994
G01 X204.153 Y112.420
G01 X203.899 Y111.991
G01 X202.007 Y112.490
G01 X200.199 Y113.105
G01 X199.106 Y113.548
G01 X197.565 Y113.932
G01 X196.085 Y114.401
G01 X194.669 Y114.950
G01 X194.313 Y115.105
G01 X193.092 Y114.874
G01 X191.859 Y114.703
G01 X190.617 Y114.592
G01 X189.368 Y114.542
G01 X188.929 Y114.540
G01 X187.651 Y114.299
G01 X186.348 Y114.123
G01 X185.021 Y114.014
G01 X183.675 Y113.974
G01 X183.545 Y113.974
G01 X182.091 Y113.708
G01 X180.596 Y113.524
G01 X179.065 Y113.425
G01 X178.161 Y113.408
G01 X176.432 Y113.153
G01 X174.651 Y113.005
G01 X174.124 Y112.983
G01 X173.509 Y114.850
G01 X173.037 Y116.709
G01 X172.810 Y117.886
G01 X172.291 Y119.390
G01 X171.876 Y120.890
G01 X171.565 Y122.380
G01 X171.497 Y122.788
G01 X170.637 Y123.685
G01 X169.821 Y124.625
G01 X169.051 Y125.606
G01 X168.328 Y126.626
G01 X168.066 Y127.024
G01 X167.168 Y127.964
G01 X166.310 Y128.961
G01 X165.495 Y130.014
G01 X164.727 Y131.120
G01 X164.636 Y131.260
G01 X163.620 Y132.335
G01 X162.649 Y133.490
G01 X161.730 Y134.721
G01 X161.206 Y135.496
G01 X160.047 Y136.810
G01 X158.949 Y138.228
G01 X158.633 Y138.672
G01 X159.862 Y140.205
G01 X161.163 Y141.613
G01 X162.053 Y142.470
G01 X163.030 Y143.725
G01 X164.061 Y144.890
G01 X165.139 Y145.963
G01 X165.472 Y146.267
G01 X165.756 Y147.480
G01 X166.101 Y148.679
G01 X166.504 Y149.863
G01 X166.967 Y151.027
G01 X167.168 Y151.487
G01 X167.468 Y152.758
G01 X167.838 Y154.028
G01 X168.279 Y155.291
G01 X168.792 Y156.544
G01 X168.864 Y156.706
G01 X169.214 Y158.155
G01 X169.657 Y159.609
G01 X170.194 Y161.062
G01 X170.560 Y161.926
G01 X171.035 Y163.630
G01 X171.633 Y165.339
G01 X171.831 Y165.840
G01 X173.789 Y165.644
G01 X175.682 Y165.321
G01 X176.913 Y165.035
G01 X178.503 Y164.899
G01 X180.047 Y164.668
G01 X181.540 Y164.348
G01 X181.995 Y164.230
G01 X183.176 Y164.656
G01 X184.380 Y165.023
G01 X185.604 Y165.332
G01 X186.844 Y165.580
G01 X187.332 Y165.661
G01 X188.575 Y166.106
G01 X189.856 Y166.491
G01 X191.171 Y166.812
G01 X192.517 Y167.066
G01 X192.669 Y167.091
G01 X194.094 Y167.592
G01 X195.574 Y168.016
G01 X197.105 Y168.361
G01 X198.006 Y168.521
G01 X199.718 Y169.057
G01 X201.501 Y169.491
G01 X202.009 Y169.593
G01 X202.918 Y167.829
G01 X203.684 Y166.051
G01 X204.116 Y164.861
G01 X204.874 Y163.438
G01 X205.528 Y162.002
G01 X206.078 Y160.561
G01 X206.223 Y160.129
G01 X207.235 Y159.359
G01 X208.212 Y158.538
G01 X209.149 Y157.667
G01 X210.044 Y156.749
G01 X210.356 Y156.407
G01 X211.421 Y155.595
G01 X212.454 Y154.718
G01 X213.453 Y153.776
G01 X214.412 Y152.772
G01 X214.490 Y152.685
G01 X215.701 Y151.750
G01 X216.877 Y150.727
G01 X218.014 Y149.615
G01 X218.624 Y148.962
G01 X220.022 Y147.805
G01 X221.372 Y146.531
G01 X221.725 Y146.171
G01 X220.726 Y144.425
G01 X219.636 Y142.792
G01 X218.884 Y141.797
G01 X218.092 Y140.367
G01 X217.231 Y139.018
G01 X216.308 Y137.755
G01 X216.044 Y137.423
G01 X215.939 Y136.141
G01 X215.771 Y134.862
G01 X215.540 Y133.591
G01 X215.247 Y132.330
G01 X215.223 Y132.238
G01 X215.112 Y130.901
G01 X214.931 Y129.556
G01 X214.677 Y128.207
G01 X214.401 Y127.053
G01 X214.270 Y125.553
G01 X214.050 Y124.036
G01 X213.738 Y122.507
G01 X213.580 Y121.867
G01 X213.409 Y120.097
G01 X213.120 Y118.301
G01 X212.759 Y116.682
G01 X210.725 Y116.568
G01 X208.738 Y116.595
G01 X207.509 Y116.682
G01 X205.860 Y116.566
G01 X204.242 Y116.554
G01 X202.663 Y116.643
G01 X202.259 Y116.682
G01 X201.119 Y116.067
G01 X199.949 Y115.508
G01 X198.750 Y115.007
G01 X197.526 Y114.564
G01 X197.431 Y114.532
G01 X196.245 Y113.894
G01 X195.014 Y113.312
G01 X193.741 Y112.788
G01 X192.603 Y112.383
G01 X191.272 Y111.675
G01 X189.878 Y111.032
G01 X188.424 Y110.459
G01 X187.775 Y110.233
G01 X186.196 Y109.411
G01 X184.533 Y108.675
G01 X182.947 Y108.084
G01 X181.735 Y109.737
G01 X180.669 Y111.429
G01 X180.068 Y112.516
G01 X179.068 Y113.841
G01 X178.173 Y115.197
G01 X177.384 Y116.575
G01 X177.190 Y116.948
G01 X176.052 Y117.569
G01 X174.945 Y118.247
G01 X173.870 Y118.978
G01 X172.831 Y119.764
G01 X172.728 Y119.846
G01 X171.547 Y120.492
G01 X170.387 Y121.206
G01 X169.255 Y121.988
G01 X168.266 Y122.743
G01 X166.947 Y123.473
G01 X165.648 Y124.291
G01 X164.375 Y125.198
G01 X163.804 Y125.641
G01 X162.253 Y126.517
G01 X160.727 Y127.511
G01 X159.343 Y128.538
G01 X160.069 Y130.455
G01 X160.906 Y132.273
G01 X161.507 Y133.398
G01 X162.072 Y134.959
G01 X162.720 Y136.447
G01 X163.445 Y137.860
G01 X163.670 Y138.258
G01 X163.571 Y139.552
G01 X163.535 Y140.850
G01 X163.563 Y142.152
G01 X163.655 Y143.452
G01 X163.670 Y143.613
G01 X163.568 Y144.959
G01 X163.535 Y146.324
G01 X163.573 Y147.704
G01 X163.670 Y148.968
G01 X163.563 Y150.479
G01 X163.541 Y152.022
G01 X163.609 Y153.591
G01 X163.670 Y154.323
G01 X163.559 Y156.113
G01 X163.562 Y157.948
G01 X163.670 Y159.678
G01 X165.674 Y160.115
G01 X167.655 Y160.403
G01 X168.960 Y160.516
G01 X170.578 Y160.893
G01 X172.182 Y161.161
G01 X173.764 Y161.324
G01 X174.249 Y161.354
G01 X175.285 Y162.147
G01 X176.361 Y162.889
G01 X177.475 Y163.579
G01 X178.624 Y164.214
G01 X178.769 Y164.289
G01 X179.851 Y165.115
G01 X180.988 Y165.893
G01 X182.177 Y166.619
G01 X183.289 Y167.225
G01 X184.511 Y168.148
G01 X185.808 Y169.015
G01 X187.176 Y169.822
G01 X187.810 Y170.161
G01 X189.269 Y171.242
G01 X190.829 Y172.250
G01 X192.330 Y173.096
G01 X193.796 Y171.645
G01 X195.125 Y170.132
G01 X195.937 Y169.091
G01 X197.143 Y167.928
G01 X198.251 Y166.720
G01 X199.257 Y165.472
G01 X199.544 Y165.085
G01 X200.787 Y164.642
G01 X202.010 Y164.137
G01 X203.209 Y163.571
G01 X204.382 Y162.945
G01 X204.500 Y162.879
G01 X205.798 Y162.414
G01 X207.086 Y161.876
G01 X208.358 Y161.266
G01 X209.456 Y160.672
G01 X210.914 Y160.142
G01 X212.365 Y159.518
G01 X213.805 Y158.800
G01 X214.412 Y158.465
G01 X216.133 Y157.822
G01 X217.849 Y157.052
G01 X219.367 Y156.259
G01 X218.942 Y154.215
G01 X218.390 Y152.253
G01 X217.963 Y151.019
G01 X217.641 Y149.353
G01 X217.224 Y147.745
G01 X216.718 Y146.202
G01 X216.559 Y145.779
G01 X216.868 Y144.478
G01 X217.113 Y143.161
G01 X217.293 Y141.831
G01 X217.407 Y140.490
G01 X217.413 Y140.386
G01 X217.734 Y139.029
G01 X217.986 Y137.641
G01 X218.169 Y136.226
G01 X218.268 Y134.993
G01 X218.620 Y133.468
G01 X218.889 Y131.896
G01 X219.072 Y130.283
G01 X219.122 Y129.600
G01 X219.522 Y127.793
G01 X219.813 Y125.922
G01 X219.976 Y124.208
G01 X218.004 Y123.442
G01 X216.032 Y122.830
G01 X214.783 Y122.520
G01 X213.191 Y121.876
G01 X211.596 Y121.345
G01 X210.007 Y120.925
G01 X209.590 Y120.833
G01 X208.660 Y119.858
G01 X207.681 Y118.929
G01 X206.656 Y118.047
G01 X205.587 Y117.215
G01 X205.507 Y117.156
G01 X204.538 Y116.143
G01 X203.506 Y115.170
G01 X202.414 Y114.242
G01 X201.423 Y113.479
G01 X200.333 Y112.349
G01 X199.158 Y111.264
G01 X197.902 Y110.229
G01 X197.340 Y109.802
G01 X196.040 Y108.480
G01 X194.629 Y107.215
G01 X193.256 Y106.126
G01 X191.526 Y107.372
G01 X189.926 Y108.704
G01 X188.986 Y109.584
G01 X187.569 Y110.574
G01 X186.247 Y111.629
G01 X185.022 Y112.739
G01 X184.715 Y113.042
G01 X183.388 Y113.291
G01 X182.073 Y113.606
G01 X180.773 Y113.985
G01 X179.491 Y114.429
G01 X179.374 Y114.473
G01 X177.995 Y114.733
G01 X176.617 Y115.068
G01 X175.243 Y115.478
G01 X174.032 Y115.904
G01 X172.491 Y116.203
G01 X170.941 Y116.595
G01 X169.388 Y117.084
G01 X168.690 Y117.336
G01 X166.873 Y117.704
G01 X165.043 Y118.198
G01 X163.349 Y118.767
G01 X163.451 Y120.900
G01 X163.696 Y122.971
G01 X163.927 Y124.267
G01 X163.985 Y125.995
G01 X164.148 Y127.679
G01 X164.412 Y129.312
G01 X164.505 Y129.766
G01 X163.990 Y131.015
G01 X163.537 Y132.289
G01 X163.147 Y133.586
G01 X162.819 Y134.903
G01 X162.785 Y135.059
G01 X162.251 Y136.358
G01 X161.780 Y137.697
G01 X161.375 Y139.074
G01 X161.066 Y140.352
G01 X160.474 Y141.810
G01 X159.957 Y143.328
G01 X159.520 Y144.900
G01 X159.346 Y145.644
G01 X158.662 Y147.376
G01 X158.076 Y149.189
G01 X157.626 Y150.937
G01 X159.470 Y152.013
G01 X161.338 Y152.936
G01 X162.585 Y153.463
G01 X164.066 Y154.356
G01 X165.566 Y155.138
G01 X167.080 Y155.807
G01 X167.543 Y155.990
G01 X168.319 Y157.101
G01 X169.150 Y158.174
G01 X170.034 Y159.207
G01 X170.860 Y160.086
G01 X171.665 Y161.236
G01 X172.538 Y162.356
G01 X173.476 Y163.440
G01 X174.177 Y164.182
G01 X175.075 Y165.454
G01 X176.060 Y166.695
G01 X177.132 Y167.900
G01 X177.494 Y168.278
G01 X178.535 Y169.797
G01 X179.696 Y171.279
G01 X180.976 Y172.717
G01 X181.640 Y173.398
G01 X183.548 Y172.463
G01 X185.344 Y171.425
G01 X187.021 Y170.292
G01 X187.029 Y170.287
G01 X188.561 Y169.522
G01 X190.011 Y168.682
G01 X191.339 Y167.798
G01 X192.707 Y167.751
G01 X194.073 Y167.637
G01 X195.434 Y167.456
G01 X196.614 Y167.243
G01 X198.034 Y167.194
G01 X199.464 Y167.070
G01 X200.902 Y166.870
G01 X201.888 Y166.689
G01 X203.464 Y166.628
G01 X205.061 Y166.475
G01 X206.675 Y166.228
G01 X207.163 Y166.135
G01 X209.027 Y166.087
G01 X210.926 Y165.917
G01 X212.853 Y165.622
G01 X213.756 Y165.442
G01 X214.013 Y163.311
G01 X214.120 Y161.218
G01 X214.084 Y159.189
G01 X214.278 Y157.468
G01 X214.363 Y155.775
G01 X214.346 Y154.187
G01 X215.060 Y153.000
G01 X215.715 Y151.777
G01 X216.312 Y150.520
G01 X216.768 Y149.432
G01 X217.508 Y148.200
G01 X218.190 Y146.917
G01 X218.813 Y145.587
G01 X219.191 Y144.678
G01 X220.006 Y143.308
G01 X220.754 Y141.869
G01 X221.433 Y140.365
G01 X221.614 Y139.923
G01 X222.597 Y138.319
G01 X223.497 Y136.618
G01 X224.306 Y134.825
G01 X224.642 Y133.979
G01 X222.973 Y132.586
G01 X221.254 Y131.342
G01 X219.545 Y130.276
G01 X218.190 Y129.162
G01 X216.799 Y128.157
G01 X215.468 Y127.314
G01 X214.855 Y126.057
G01 X214.180 Y124.830
G01 X213.444 Y123.635
G01 X212.783 Y122.664
G01 X212.147 Y121.363
G01 X211.438 Y120.083
G01 X210.656 Y118.828
G01 X210.099 Y118.014
G01 X209.390 Y116.578
G01 X208.588 Y115.159
G01 X207.692 Y113.764
G01 X207.414 Y113.364
G01 X206.578 Y111.701
G01 X205.620 Y110.059
G01 X204.729 Y108.713
G01 X204.058 Y107.551
G01 X201.961 Y108.199
G01 X199.962 Y108.971
G01 X198.140 Y109.823
G01 X196.454 Y110.357
G01 X194.841 Y110.981
G01 X193.406 Y111.640
G01 X192.013 Y111.469
G01 X190.611 Y111.366
G01 X189.204 Y111.332
G01 X188.011 Y111.357
G01 X186.571 Y111.181
G01 X185.110 Y111.078
G01 X183.630 Y111.050
G01 X182.616 Y111.074
G01 X181.025 Y110.886
G01 X179.398 Y110.785
G01 X177.740 Y110.776
G01 X177.221 Y110.792
G01 X175.372 Y110.587
G01 X173.473 Y110.495
G01 X171.826 Y110.509
G01 X170.477 Y110.438
G01 X169.875 Y112.557
G01 X169.432 Y114.661
G01 X169.151 Y116.677
G01 X168.679 Y118.384
G01 X168.323 Y120.080
G01 X168.090 Y121.667
G01 X167.187 Y122.742
G01 X166.337 Y123.861
G01 X165.542 Y125.022
G01 X164.896 Y126.065
G01 X163.963 Y127.176
G01 X163.080 Y128.345
G01 X162.250 Y129.571
G01 X161.701 Y130.462
G01 X160.675 Y131.694
G01 X159.703 Y133.005
G01 X158.790 Y134.391
G01 X158.506 Y134.859
G01 X157.324 Y136.301
G01 X156.209 Y137.847
G01 X155.311 Y139.256
G01 X154.513 Y140.356
G01 X155.960 Y142.014
G01 X157.481 Y143.532
G01 X159.050 Y144.893
G01 X160.224 Y146.219
G01 X161.450 Y147.441
G01 X162.680 Y148.523
G01 X163.089 Y149.868
G01 X163.565 Y151.194
G01 X164.107 Y152.497
G01 X164.639 Y153.628
G01 X165.065 Y155.021
G01 X165.566 Y156.404
G01 X166.144 Y157.775
G01 X166.599 Y158.733
G01 X167.076 Y160.274
G01 X167.650 Y161.813
G01 X168.320 Y163.343
G01 X168.559 Y163.838
G01 X169.129 Y165.629
G01 X169.824 Y167.421
G01 X170.518 Y168.943
G01 X171.008 Y170.219
G01 X173.192 Y169.909
G01 X175.297 Y169.460
G01 X177.317 Y168.879
G01 X177.323 Y168.877
G01 X179.079 Y168.614
G01 X180.779 Y168.250
G01 X182.374 Y167.803
G01 X183.736 Y168.195
G01 X185.118 Y168.521
G01 X186.517 Y168.778
G01 X187.755 Y168.947
G01 X189.169 Y169.353
G01 X190.617 Y169.688
G01 X192.096 Y169.952
G01 X193.136 Y170.091
G01 X194.707 Y170.534
G01 X196.328 Y170.895
G01 X197.996 Y171.169
G01 X198.517 Y171.235
G01 X200.352 Y171.738
G01 X202.256 Y172.133
G01 X203.898 Y172.378
G01 X205.243 Y172.664
G01 X206.179 Y170.648
G01 X206.955 Y168.621
G01 X207.571 Y166.601
G01 X208.313 Y164.969
G01 X208.939 Y163.329
G01 X209.433 Y161.751
G01 X210.515 Y160.810
G01 X211.553 Y159.816
G01 X212.541 Y158.770
G01 X213.346 Y157.837
G01 X214.469 Y156.860
G01 X215.551 Y155.816
G01 X216.590 Y154.705
G01 X217.259 Y153.924
G01 X218.500 Y152.836
G01 X219.698 Y151.659
G01 X220.848 Y150.394
G01 X221.172 Y150.011
G01 X222.608 Y148.732
G01 X223.990 Y147.336
G01 X225.086 Y146.098
G01 X226.064 Y145.120
G01 X224.867 Y143.214
G01 X223.573 Y141.439
G01 X222.224 Y139.834
G01 X221.246 Y138.304
G01 X220.198 Y136.869
G01 X219.151 Y135.606
G01 X218.950 Y134.171
G01 X218.677 Y132.745
G01 X218.335 Y131.332
G01 X217.994 Y130.160
G01 X217.784 Y128.673
G01 X217.494 Y127.184
G01 X217.125 Y125.696
G01 X216.837 Y124.715
G01 X216.598 Y123.070
G01 X216.261 Y121.414
G01 X215.824 Y119.750
G01 X215.679 Y119.269
G01 X215.387 Y117.360
G01 X214.967 Y115.431
G01 X214.522 Y113.824
G01 X214.232 Y112.463
G01 X211.958 Y112.429
G01 X209.741 Y112.550
G01 X207.669 Y112.807
G01 X205.836 Y112.793
G01 X204.045 Y112.892
G01 X202.418 Y113.082
G01 X201.096 Y112.473
G01 X199.743 Y111.929
G01 X198.363 Y111.452
G01 X197.481 Y111.186
G01 X196.119 Y110.561
G01 X194.714 Y110.000
G01 X193.268 Y109.508
G01 X192.543 Y109.291
G01 X191.055 Y108.574
G01 X189.501 Y107.930
G01 X187.888 Y107.364
G01 X186.371 Y106.922
G01 X184.584 Y106.082
G01 X182.705 Y105.341
G01 X180.742 Y104.705
G01 X180.199 Y104.553
G01 X178.926 Y106.451
G01 X177.814 Y108.386
G01 X176.894 Y110.278
G01 X175.880 Y111.813
G01 X174.984 Y113.374
G01 X174.249 Y114.858
G01 X173.017 Y115.636
G01 X171.823 Y116.475
G01 X170.671 Y117.372
G01 X169.945 Y117.985
G01 X168.679 Y118.786
G01 X167.443 Y119.659
G01 X166.242 Y120.602
G01 X165.641 Y121.112
G01 X164.260 Y121.992
G01 X162.908 Y122.962
G01 X161.589 Y124.022
G01 X161.337 Y124.239
G01 X159.721 Y125.237
G01 X158.135 Y126.356
G01 X156.588 Y127.596
G01 X155.957 Y128.148
G01 X154.881 Y128.930
G01 X155.779 Y131.033
G01 X156.795 Y133.020
G01 X157.900 Y134.855
G01 X158.634 Y136.541
G01 X159.454 Y138.142
G01 X160.316 Y139.595
G01 X160.296 Y141.053
G01 X160.349 Y142.513
G01 X160.473 Y143.969
G01 X160.596 Y144.939
G01 X160.577 Y146.441
G01 X160.635 Y147.956
G01 X160.772 Y149.481
G01 X160.876 Y150.283
G01 X160.860 Y151.927
G01 X160.938 Y153.596
G01 X161.110 Y155.286
G01 X161.156 Y155.626
G01 X161.111 Y157.537
G01 X161.187 Y159.488
G01 X161.386 Y161.472
G01 X161.506 Y162.306
G01 X161.576 Y163.642
G01 X163.829 Y164.036
G01 X166.050 Y164.267
G01 X168.228 Y164.341
G01 X170.044 Y164.645
G01 X171.837 Y164.830
G01 X173.550 Y164.901
G01 X174.769 Y165.716
G01 X176.029 Y166.471
G01 X177.326 Y167.164
G01 X178.211 Y167.592
G01 X179.470 Y168.432
G01 X180.783 Y169.214
G01 X182.148 Y169.935
G01 X182.872 Y170.283
G01 X184.256 Y171.199
G01 X185.712 Y172.052
G01 X187.239 Y172.835
G01 X187.533 Y172.974
G01 X189.129 Y174.063
G01 X190.825 Y175.073
G01 X192.618 Y175.995
G01 X193.360 Y176.338
G01 X194.525 Y177.011
G01 X196.091 Y175.325
G01 X197.503 Y173.579
G01 X198.759 Y171.782
G01 X200.012 Y170.414
G01 X201.152 Y169.001
G01 X202.146 Y167.599
G01 X203.508 Y167.014
G01 X204.841 Y166.361
G01 X206.143 Y165.643
G01 X206.969 Y165.142
G01 X208.375 Y164.536
G01 X209.762 Y163.852
G01 X211.126 Y163.091
G01 X211.793 Y162.684
G01 X213.332 Y162.015
G01 X214.858 Y161.248
G01 X216.363 Y160.383
G01 X216.616 Y160.227
G01 X218.418 Y159.473
G01 X220.207 Y158.589
G01 X221.977 Y157.576
G01 X222.645 Y157.155
G01 X223.851 Y156.540
G01 X223.283 Y154.285
G01 X222.579 Y152.126
G01 X221.760 Y150.105
G01 X221.288 Y148.288
G01 X220.716 Y146.542
G01 X220.087 Y144.956
G01 X220.340 Y143.479
G01 X220.520 Y141.989
G01 X220.627 Y140.490
G01 X220.656 Y139.542
G01 X220.916 Y138.018
G01 X221.099 Y136.467
G01 X221.204 Y134.894
G01 X221.225 Y134.127
G01 X221.504 Y132.457
G01 X221.693 Y130.746
G01 X221.788 Y128.999
G01 X221.795 Y128.712
G01 X222.145 Y126.778
G01 X222.380 Y124.783
G01 X222.495 Y122.734
G01 X222.506 Y121.944
G01 X222.648 Y120.591
G01 X220.422 Y119.831
G01 X218.202 Y119.241
G01 X216.075 Y118.829
G01 X214.275 Y118.230
G01 X212.481 Y117.754
G01 X210.816 Y117.420
G01 X209.707 Y116.397
G01 X208.548 Y115.428
G01 X207.341 Y114.516
G01 X206.560 Y113.974
G01 X205.418 Y112.921
G01 X204.212 Y111.919
G01 X202.944 Y110.970
G01 X202.305 Y110.528
G01 X201.053 Y109.382
G01 X199.717 Y108.288
G01 X198.301 Y107.254
G01 X198.050 Y107.082
G01 X196.617 Y105.733
G01 X195.070 Y104.447
G01 X193.413 Y103.232
G01 X192.731 Y102.775
G01 X191.667 Y101.914
G01 X189.804 Y103.377
G01 X188.089 Y104.928
G01 X186.580 Y106.493
G01 X185.089 Y107.682
G01 X183.706 Y108.934
G01 X182.511 Y110.157
G01 X181.047 Y110.530
G01 X179.601 Y110.975
G01 X178.177 Y111.490
G01 X177.274 Y111.859
G01 X175.768 Y112.243
G01 X174.269 Y112.708
G01 X172.783 Y113.254
G01 X172.037 Y113.561
G01 X170.393 Y113.985
G01 X168.749 Y114.509
G01 X167.109 Y115.133
G01 X166.800 Y115.262
G01 X164.887 Y115.728
G01 X162.966 Y116.323
G01 X161.044 Y117.050
G01 X160.253 Y117.389
G01 X158.944 Y117.815
G01 X159.156 Y120.177
G01 X159.522 Y122.463
G01 X160.021 Y124.613
G01 X160.205 Y126.512
G01 X160.501 Y128.354
G01 X160.882 Y130.052
G01 X160.396 Y131.483
G01 X159.981 Y132.938
G01 X159.637 Y134.414
G01 X159.449 Y135.401
G01 X158.950 Y136.875
G01 X158.523 Y138.386
G01 X158.170 Y139.932
G01 X158.016 Y140.750
G01 X157.475 Y142.364
G01 X157.017 Y144.032
G01 X156.646 Y145.750
G01 X156.582 Y146.099
G01 X155.974 Y147.953
G01 X155.470 Y149.881
G01 X155.149 Y151.448
G01 X154.553 Y153.605
G01 X154.432 Y154.123
G01 X156.528 Y155.233
G01 X158.643 Y156.172
G01 X160.756 Y156.939
G01 X162.449 Y157.819
G01 X164.155 Y158.575
G01 X165.815 Y159.191
G01 X166.754 Y160.382
G01 X167.752 Y161.528
G01 X168.806 Y162.625
G01 X169.542 Y163.329
G01 X170.511 Y164.557
G01 X171.552 Y165.746
G01 X172.663 Y166.891
G01 X173.268 Y167.468
G01 X174.334 Y168.810
G01 X175.493 Y170.113
G01 X176.742 Y171.369
G01 X176.994 Y171.606
G01 X178.229 Y173.140
G01 X179.584 Y174.626
G01 X180.721 Y175.745
G01 X182.220 Y177.436
G01 X182.584 Y177.814
G01 X184.663 Y176.657
G01 X186.610 Y175.390
G01 X188.420 Y174.024
G01 X188.422 Y174.023
G01 X190.090 Y173.078
G01 X191.662 Y172.053
G01 X193.092 Y170.990
G01 X194.620 Y170.875
G01 X196.144 Y170.684
G01 X197.661 Y170.418
G01 X199.166 Y170.077
G01 X199.642 Y169.952
G01 X201.246 Y169.830
G01 X202.860 Y169.620
G01 X204.481 Y169.324
G01 X206.103 Y168.939
G01 X206.192 Y168.915
G01 X208.017 Y168.765
G01 X209.865 Y168.503
G01 X211.729 Y168.129
G01 X212.742 Y167.878
G01 X214.901 Y167.636
G01 X217.088 Y167.248
G01 X217.982 Y167.048
G01 X218.119 Y164.630
G01 X218.090 Y162.265
G01 X217.982 Y160.748
G01 X218.121 Y158.785
G01 X218.137 Y156.860
G01 X218.033 Y154.980
G01 X217.982 Y154.448
G01 X218.725 Y153.088
G01 X219.402 Y151.690
G01 X220.010 Y150.258
G01 X220.549 Y148.793
G01 X220.694 Y148.356
G01 X221.472 Y146.929
G01 X222.182 Y145.445
G01 X222.822 Y143.909
G01 X223.388 Y142.322
G01 X223.407 Y142.264
G01 X224.281 Y140.637
G01 X225.075 Y138.930
G01 X225.782 Y137.146
G01 X226.119 Y136.172
G01 X227.099 Y134.215
G01 X227.971 Y132.154
G01 X228.289 Y131.298
G01 X226.312 Y129.850
G01 X224.289 Y128.574
G01 X222.976 Y127.848
G01 X221.387 Y126.650
G01 X219.763 Y125.577
G01 X218.111 Y124.631
G01 X217.663 Y124.398
G01 X216.921 Y123.023
G01 X216.110 Y121.684
G01 X215.233 Y120.384
G01 X214.291 Y119.126
G01 X214.011 Y118.774
G01 X213.233 Y117.337
G01 X212.370 Y115.925
G01 X211.425 Y114.544
G01 X210.397 Y113.199
G01 X210.359 Y113.151
G01 X209.467 Y111.525
G01 X208.464 Y109.924
G01 X207.350 Y108.354
G01 X206.707 Y107.527
G01 X205.598 Y105.636
G01 X204.342 Y103.778
G01 X203.785 Y103.029
G01 X201.475 Y103.905
G01 X199.285 Y104.916
G01 X197.966 Y105.619
G01 X196.083 Y106.304
G01 X194.286 Y107.087
G01 X192.582 Y107.964
G01 X192.147 Y108.210
G01 X190.585 Y108.083
G01 X189.017 Y108.033
G01 X187.445 Y108.060
G01 X185.873 Y108.164
G01 X185.405 Y108.210
G01 X183.773 Y108.079
G01 X182.118 Y108.033
G01 X180.444 Y108.073
G01 X178.755 Y108.201
G01 X178.663 Y108.210
G01 X176.814 Y108.072
G01 X174.924 Y108.040
G01 X173.001 Y108.118
G01 X171.920 Y108.210
G01 X169.730 Y108.110
G01 X167.488 Y108.150
G01 X166.527 Y108.210
G01 X166.001 Y110.632
G01 X165.655 Y113.025
G01 X165.525 Y114.537
G01 X165.071 Y116.491
G01 X164.749 Y118.427
G01 X164.555 Y120.336
G01 X164.523 Y120.863
G01 X163.565 Y122.102
G01 X162.668 Y123.390
G01 X161.833 Y124.723
G01 X161.064 Y126.098
G01 X160.831 Y126.548
G01 X159.831 Y127.845
G01 X158.890 Y129.207
G01 X158.010 Y130.633
G01 X157.197 Y132.120
G01 X157.139 Y132.233
G01 X156.013 Y133.710
G01 X154.955 Y135.279
G01 X153.971 Y136.936
G01 X153.447 Y137.919
G01 X152.165 Y139.705
G01 X150.974 Y141.612
G01 X150.493 Y142.467
G01 X152.236 Y144.226
G01 X154.053 Y145.821
G01 X155.279 Y146.776
G01 X156.670 Y148.221
G01 X158.117 Y149.546
G01 X159.611 Y150.750
G01 X160.065 Y151.085
G01 X160.583 Y152.567
G01 X161.175 Y154.024
G01 X161.840 Y155.454
G01 X162.575 Y156.852
G01 X162.837 Y157.312
G01 X163.382 Y158.863
G01 X164.014 Y160.401
G01 X164.734 Y161.923
G01 X165.542 Y163.422
G01 X165.609 Y163.538
G01 X166.238 Y165.298
G01 X166.983 Y167.051
G01 X167.843 Y168.790
G01 X168.381 Y169.765
G01 X169.188 Y171.829
G01 X170.148 Y173.883
G01 X170.599 Y174.746
G01 X173.028 Y174.242
G01 X175.360 Y173.586
G01 X176.853 Y173.070
G01 X178.829 Y172.689
G01 X180.735 Y172.196
G01 X182.564 Y171.598
G01 X183.108 Y171.394
G01 X184.650 Y171.736
G01 X186.208 Y172.001
G01 X187.780 Y172.190
G01 X188.522 Y172.252
G01 X190.108 Y172.602
G01 X191.724 Y172.873
G01 X193.367 Y173.063
G01 X193.937 Y173.110
G01 X195.666 Y173.524
G01 X197.445 Y173.846
G01 X199.270 Y174.074
G01 X200.705 Y174.182
G01 X202.751 Y174.652
G01 X204.869 Y175.002
G01 X207.050 Y175.226
G01 X207.474 Y175.254
G01 X208.827 Y175.468
G01 X209.733 Y173.139
G01 X210.458 Y170.809
G01 X210.839 Y169.277
G01 X211.601 Y167.395
G01 X212.231 Y165.512
G01 X212.729 Y163.635
G01 X212.851 Y163.085
G01 X213.988 Y161.966
G01 X215.071 Y160.790
G01 X216.095 Y159.561
G01 X216.539 Y158.989
G01 X217.707 Y157.837
G01 X218.826 Y156.616
G01 X219.892 Y155.328
G01 X220.227 Y154.893
G01 X221.528 Y153.655
G01 X222.780 Y152.325
G01 X223.975 Y150.904
G01 X224.837 Y149.773
G01 X226.359 Y148.300
G01 X227.818 Y146.700
G01 X229.205 Y144.976
G01 X229.446 Y144.654
G01 X230.368 Y143.630
G01 X228.892 Y141.579
G01 X227.315 Y139.683
G01 X226.250 Y138.543
G01 X225.073 Y136.861
G01 X223.822 Y135.291
G01 X222.503 Y133.836
G01 X222.131 Y133.457
G01 X221.808 Y131.879
G01 X221.407 Y130.317
G01 X220.930 Y128.774
G01 X220.697 Y128.105
G01 X220.364 Y126.484
G01 X219.946 Y124.869
G01 X219.441 Y123.262
G01 X219.262 Y122.752
G01 X218.931 Y120.976
G01 X218.494 Y119.191
G01 X217.950 Y117.404
G01 X217.470 Y116.062
G01 X217.061 Y113.974
G01 X216.512 Y111.871
G01 X215.820 Y109.760
G01 X215.677 Y109.372
G01 X215.319 Y108.034
G01 X212.770 Y108.157
G01 X210.297 Y108.451
G01 X208.775 Y108.721
G01 X206.706 Y108.793
G01 X204.691 Y108.989
G01 X202.737 Y109.306
G01 X202.231 Y109.409
G01 X200.725 Y108.818
G01 X199.190 Y108.301
G01 X197.630 Y107.859
G01 X196.933 Y107.688
G01 X195.389 Y107.083
G01 X193.802 Y106.552
G01 X192.176 Y106.098
G01 X191.635 Y105.966
G01 X189.962 Y105.276
G01 X188.226 Y104.669
G01 X186.430 Y104.150
G01 X185.013 Y103.815
G01 X183.039 Y103.019
G01 X180.976 Y102.333
G01 X178.829 Y101.763
G01 X178.390 Y101.663
G01 X177.066 Y101.233
G01 X175.775 Y103.447
G01 X174.670 Y105.690
G01 X174.063 Y107.127
G01 X172.992 Y108.905
G01 X172.056 Y110.707
G01 X171.255 Y112.523
G01 X171.059 Y113.021
G01 X169.726 Y113.941
G01 X168.438 Y114.928
G01 X167.198 Y115.978
G01 X166.009 Y117.090
G01 X165.891 Y117.206
G01 X164.507 Y118.163
G01 X163.159 Y119.203
G01 X161.853 Y120.322
G01 X160.723 Y121.391
G01 X159.178 Y122.470
G01 X157.670 Y123.657
G01 X156.206 Y124.951
G01 X155.555 Y125.576
G01 X153.741 Y126.867
G01 X151.974 Y128.303
G01 X150.387 Y129.761
G01 X151.540 Y132.049
G01 X152.819 Y134.199
G01 X153.712 Y135.520
G01 X154.619 Y137.386
G01 X155.619 Y139.152
G01 X156.705 Y140.813
G01 X157.037 Y141.279
G01 X157.083 Y142.900
G01 X157.208 Y144.519
G01 X157.413 Y146.133
G01 X157.697 Y147.738
G01 X157.736 Y147.927
G01 X157.785 Y149.614
G01 X157.922 Y151.314
G01 X158.150 Y153.025
G01 X158.435 Y154.575
G01 X158.498 Y156.467
G01 X158.673 Y158.387
G01 X158.962 Y160.328
G01 X159.134 Y161.224
G01 X159.229 Y163.462
G01 X159.473 Y165.740
G01 X159.832 Y167.872
G01 X162.381 Y168.152
G01 X164.881 Y168.252
G01 X166.508 Y168.222
G01 X168.570 Y168.478
G01 X170.599 Y168.602
G01 X172.587 Y168.598
G01 X173.184 Y168.572
G01 X174.576 Y169.421
G01 X176.010 Y170.203
G01 X177.484 Y170.914
G01 X178.994 Y171.553
G01 X179.172 Y171.623
G01 X180.624 Y172.507
G01 X182.137 Y173.324
G01 X183.707 Y174.069
G01 X185.159 Y174.674
G01 X186.795 Y175.659
G01 X188.517 Y176.566
G01 X190.320 Y177.388
G01 X191.147 Y177.724
G01 X193.096 Y178.874
G01 X195.161 Y179.920
G01 X197.134 Y180.775
G01 X198.766 Y178.780
G01 X200.219 Y176.726
G01 X201.084 Y175.339
G01 X202.431 Y173.737
G01 X203.648 Y172.092
G01 X204.735 Y170.410
G01 X205.034 Y169.902
G01 X206.518 Y169.190
G01 X207.969 Y168.404
G01 X209.381 Y167.546
G01 X210.753 Y166.618
G01 X210.884 Y166.525
G01 X212.432 Y165.780
G01 X213.957 Y164.947
G01 X215.453 Y164.025
G01 X216.734 Y163.147
G01 X218.469 Y162.302
G01 X220.184 Y161.341
G01 X221.872 Y160.265
G01 X222.584 Y159.770
G01 X224.629 Y158.750
G01 X226.650 Y157.576
G01 X228.434 Y156.392
G01 X227.640 Y153.913
G01 X226.699 Y151.552
G01 X226.013 Y150.086
G01 X225.397 Y148.063
G01 X224.670 Y146.126
G01 X223.842 Y144.280
G01 X223.593 Y143.779
G01 X223.805 Y142.131
G01 X223.937 Y140.470
G01 X223.986 Y138.802
G01 X223.954 Y137.130
G01 X223.948 Y136.999
G01 X224.168 Y135.280
G01 X224.300 Y133.533
G01 X224.341 Y131.762
G01 X224.303 Y130.218
G01 X224.541 Y128.289
G01 X224.670 Y126.314
G01 X224.686 Y124.299
G01 X224.659 Y123.437
G01 X224.919 Y121.155
G01 X225.036 Y118.809
G01 X225.014 Y116.657
G01 X222.476 Y115.966
G01 X219.958 Y115.466
G01 X218.372 Y115.245
G01 X216.321 Y114.656
G01 X214.282 Y114.206
G01 X212.264 Y113.894
G01 X211.731 Y113.833
G01 X210.456 Y112.751
G01 X209.128 Y111.731
G01 X207.749 Y110.775
G01 X206.322 Y109.887
G01 X206.209 Y109.821
G01 X204.883 Y108.697
G01 X203.484 Y107.631
G01 X202.017 Y106.628
G01 X200.688 Y105.810
G01 X199.197 Y104.558
G01 X197.608 Y103.371
G01 X195.925 Y102.257
G01 X195.166 Y101.798
G01 X193.393 Y100.336
G01 X191.488 Y98.958
G01 X189.645 Y97.787
G01 X187.671 Y99.549
G01 X185.870 Y101.400
G01 X184.819 Y102.613
G01 X183.199 Y104.018
G01 X181.705 Y105.490
G01 X180.338 Y107.019
G01 X179.993 Y107.439
G01 X178.389 Y107.918
G01 X176.807 Y108.476
G01 X175.253 Y109.113
G01 X173.730 Y109.826
G01 X173.588 Y109.897
G01 X171.922 Y110.397
G01 X170.266 Y110.988
G01 X168.625 Y111.671
G01 X167.184 Y112.355
G01 X165.322 Y112.923
G01 X163.461 Y113.608
G01 X161.610 Y114.412
G01 X160.780 Y114.814
G01 X158.586 Y115.504
G01 X156.393 Y116.350
G01 X154.375 Y117.272
G01 X154.778 Y119.890
G01 X155.349 Y122.411
G01 X155.801 Y123.982
G01 X156.097 Y126.106
G01 X156.517 Y128.161
G01 X157.053 Y130.141
G01 X157.228 Y130.692
G01 X156.755 Y132.299
G01 X156.362 Y133.929
G01 X156.048 Y135.580
G01 X155.815 Y137.247
G01 X155.794 Y137.437
G01 X155.304 Y139.108
G01 X154.897 Y140.821
G01 X154.575 Y142.572
G01 X154.361 Y144.181
G01 X153.820 Y146.057
G01 X153.380 Y147.995
G01 X153.045 Y149.991
G01 X152.927 Y150.925
G01 X152.308 Y153.150
G01 X151.821 Y155.460
G01 X151.494 Y157.670
G01 X153.907 Y158.758
G01 X156.332 Y159.654
G01 X157.931 Y160.141
G01 X159.873 Y161.050
G01 X161.826 Y161.819
G01 X163.779 Y162.449
G01 X164.368 Y162.612
G01 X165.461 Y163.888
G01 X166.619 Y165.111
G01 X167.837 Y166.277
G01 X169.113 Y167.385
G01 X169.268 Y167.512
G01 X170.409 Y168.840
G01 X171.631 Y170.122
G01 X172.932 Y171.353
G01 X174.168 Y172.412
G01 X175.457 Y173.898
G01 X176.854 Y175.334
G01 X178.357 Y176.712
G01 X179.068 Y177.312
G01 X180.611 Y179.058
G01 X182.299 Y180.740
G01 X183.969 Y182.213
G01 X186.204 Y180.776
G01 X188.283 Y179.226
G01 X189.575 Y178.139
G01 X191.405 Y176.999
G01 X193.122 Y175.774
G01 X194.722 Y174.473
G01 X195.182 Y174.066
G01 X196.861 Y173.841
G01 X198.531 Y173.534
G01 X200.188 Y173.143
G01 X201.826 Y172.671
G01 X201.994 Y172.618
G01 X203.747 Y172.381
G01 X205.504 Y172.051
G01 X207.262 Y171.625
G01 X208.807 Y171.170
G01 X210.775 Y170.895
G01 X212.760 Y170.500
G01 X214.755 Y169.984
G01 X215.620 Y169.722
G01 X217.947 Y169.374
G01 X220.300 Y168.868
G01 X222.433 Y168.273
G01 X222.444 Y165.594
G01 X222.275 Y162.983
G01 X222.068 Y161.318
G01 X222.108 Y159.142
G01 X222.014 Y157.015
G01 X221.791 Y154.944
G01 X221.704 Y154.363
G01 X222.429 Y152.813
G01 X223.078 Y151.226
G01 X223.650 Y149.607
G01 X224.093 Y148.139
G01 X224.844 Y146.530
G01 X225.519 Y144.866
G01 X226.113 Y143.152
G01 X226.482 Y141.915
G01 X227.309 Y140.125
G01 X228.046 Y138.259
G01 X228.688 Y136.320
G01 X228.871 Y135.691
G01 X229.820 Y133.595
G01 X230.653 Y131.396
G01 X231.260 Y129.467
G01 X231.738 Y128.222
G01 X229.444 Y126.748
G01 X227.110 Y125.470
G01 X226.227 Y125.041
G01 X224.348 Y123.801
G01 X222.436 Y122.708
G01 X220.716 Y121.859
G01 X219.614 Y121.222
G01 X218.702 Y119.760
G01 X217.718 Y118.342
G01 X216.664 Y116.971
G01 X215.676 Y115.802
G01 X214.730 Y114.288
G01 X213.697 Y112.809
