;  Created by Sandify
;  https://sandify.org
;  Version: 0.2.4
;
;  Machine type: Rectangular
;    Min X (mm): 0
;    Max X (mm): 380
;    Min Y (mm): 0
;    Max Y (mm): 280
;  Content type: shape
;  Layer:
;    Shape: FileImport
;    Name: Swirly1.thr
;    From file:: Swirly1.thr
;    Aspect Ratio: true
;    Comments: 
;    Visible: true
;    Initial width: 10
;    Initial height: 10
;    X offset: 0
;    Y offset: 0
;    Rotate (degrees): 0
;    Reverse path: false
;    Fine tuning:
;      Connect to next layer: line
;      Draw portion of path (%): 100
;      Backtrack at end (%): 0
;      Rotate starting point (%): 0
;  Reverse export path: false
;
; File name: 'Swirly1'
;

G01 X190.000 Y140.000
G01 X189.998 Y140.032
G01 X189.994 Y140.064
G01 X189.986 Y140.095
G01 X189.975 Y140.126
G01 X189.961 Y140.156
G01 X189.944 Y140.184
G01 X189.924 Y140.212
G01 X189.902 Y140.237
G01 X189.876 Y140.261
G01 X189.849 Y140.283
G01 X189.818 Y140.303
G01 X189.786 Y140.320
G01 X189.751 Y140.335
G01 X189.715 Y140.348
G01 X189.676 Y140.357
G01 X189.637 Y140.363
G01 X189.595 Y140.367
G01 X189.553 Y140.367
G01 X189.510 Y140.363
G01 X189.466 Y140.357
G01 X189.422 Y140.347
G01 X189.377 Y140.333
G01 X189.332 Y140.316
G01 X189.288 Y140.295
G01 X189.244 Y140.270
G01 X189.201 Y140.242
G01 X189.159 Y140.211
G01 X189.118 Y140.175
G01 X189.079 Y140.137
G01 X189.041 Y140.094
G01 X189.021 Y140.069
G01 X182.500 Y140.902
G01 X176.075 Y142.373
G01 X169.791 Y144.474
G01 X163.695 Y147.194
G01 X157.833 Y150.519
G01 X152.249 Y154.431
G01 X146.986 Y158.911
G01 X143.450 Y162.443
G01 X139.518 Y167.469
G01 X135.980 Y172.928
G01 X132.868 Y178.793
G01 X130.511 Y184.257
G01 X128.833 Y190.351
G01 X127.618 Y196.708
G01 X126.890 Y203.298
G01 X126.877 Y203.475
G01 X127.136 Y209.749
G01 X127.864 Y216.143
G01 X128.535 Y220.034
G01 X130.433 Y225.989
G01 X132.773 Y231.943
G01 X133.607 Y233.824
G01 X136.858 Y239.130
G01 X140.496 Y244.336
G01 X141.189 Y245.257
G01 X145.539 Y249.680
G01 X150.208 Y253.924
G01 X150.385 Y254.077
G01 X155.565 Y257.473
G01 X160.373 Y260.295
G01 X166.123 Y262.572
G01 X171.408 Y264.378
G01 X177.504 Y265.429
G01 X183.044 Y266.120
G01 X189.242 Y266.032
G01 X190.000 Y266.000
G01 X196.185 Y265.901
G01 X202.361 Y265.499
G01 X208.511 Y264.794
G01 X214.623 Y263.787
G01 X219.152 Y262.840
G01 X225.081 Y261.044
G01 X230.904 Y258.961
G01 X236.608 Y256.599
G01 X242.178 Y253.965
G01 X247.168 Y251.311
G01 X252.315 Y247.947
G01 X257.271 Y244.347
G01 X262.024 Y240.521
G01 X266.565 Y236.482
G01 X270.883 Y232.240
G01 X272.806 Y230.209
G01 X276.620 Y225.531
G01 X280.175 Y220.697
G01 X283.467 Y215.721
G01 X286.488 Y210.618
G01 X289.235 Y205.402
G01 X291.704 Y200.088
G01 X293.408 Y195.953
G01 X295.266 Y190.446
G01 X296.835 Y184.892
G01 X298.114 Y179.307
G01 X299.104 Y173.705
G01 X299.807 Y168.101
G01 X300.225 Y162.510
G01 X300.361 Y156.946
G01 X300.218 Y151.423
G01 X299.801 Y145.956
G01 X299.115 Y140.557
G01 X298.166 Y135.239
G01 X296.960 Y130.016
G01 X295.503 Y124.900
G01 X293.805 Y119.902
G01 X291.872 Y115.034
G01 X289.714 Y110.307
G01 X288.279 Y107.477
G01 X285.937 Y102.936
G01 X283.387 Y98.547
G01 X280.639 Y94.317
G01 X277.703 Y90.257
G01 X274.588 Y86.374
G01 X271.304 Y82.676
G01 X267.863 Y79.171
G01 X267.678 Y78.992
G01 X264.238 Y75.559
G01 X260.650 Y72.317
G01 X256.923 Y69.271
G01 X253.069 Y66.426
G01 X249.097 Y63.789
G01 X245.019 Y61.363
G01 X244.467 Y61.056
G01 X240.399 Y58.686
G01 X236.230 Y56.524
G01 X231.971 Y54.576
G01 X227.632 Y52.843
G01 X223.224 Y51.331
G01 X219.326 Y50.191
G01 X214.880 Y48.872
G01 X210.376 Y47.774
G01 X205.824 Y46.897
G01 X201.235 Y46.246
G01 X196.621 Y45.820
G01 X193.303 Y45.655
G01 X188.666 Y45.384
G01 X184.011 Y45.342
G01 X179.349 Y45.528
G01 X174.691 Y45.945
G01 X170.048 Y46.592
G01 X166.930 Y47.159
G01 X162.270 Y47.963
G01 X157.633 Y49.003
G01 X153.033 Y50.276
G01 X148.479 Y51.783
G01 X143.985 Y53.522
G01 X140.677 Y54.969
G01 X136.188 Y56.911
G01 X131.771 Y59.090
G01 X127.440 Y61.504
G01 X123.207 Y64.149
G01 X119.084 Y67.022
G01 X115.399 Y69.861
G01 X111.350 Y73.012
G01 X107.432 Y76.393
G01 X103.659 Y79.998
G01 X100.042 Y83.822
G01 X96.594 Y87.857
G01 X93.327 Y92.096
G01 X91.647 Y94.462
G01 X88.496 Y98.924
G01 X85.549 Y103.587
G01 X82.817 Y108.440
G01 X80.313 Y113.475
G01 X78.047 Y118.681
G01 X76.031 Y124.045
G01 X74.274 Y129.556
G01 X72.785 Y135.201
G01 X72.577 Y136.099
G01 X71.316 Y141.885
G01 X70.343 Y147.785
G01 X69.666 Y153.784
G01 X69.292 Y159.869
G01 X69.229 Y166.023
G01 X69.368 Y170.272
G01 X69.567 Y170.654
G01 X70.133 Y170.752
G01 X70.951 Y169.840
G01 X70.840 Y168.743
G01 X70.190 Y167.902
G01 X69.258 Y167.432
G01 X68.231 Y167.347
G01 X66.385 Y168.153
G01 X65.279 Y169.823
G01 X65.116 Y171.812
G01 X65.839 Y173.666
G01 X67.247 Y175.067
G01 X69.076 Y175.832
G01 X72.024 Y175.678
G01 X74.533 Y174.127
G01 X76.077 Y171.614
G01 X76.408 Y168.684
G01 X75.530 Y165.870
G01 X73.638 Y163.611
G01 X71.048 Y162.206
G01 X68.129 Y161.810
G01 X65.250 Y162.433
G01 X62.737 Y163.971
G01 X60.848 Y166.230
G01 X59.751 Y168.963
G01 X59.529 Y171.899
G01 X60.177 Y174.771
G01 X62.254 Y178.090
G01 X65.400 Y180.421
G01 X69.168 Y181.484
G01 X73.072 Y181.182
G01 X76.649 Y179.587
G01 X79.505 Y176.907
G01 X80.997 Y174.371
G01 X81.976 Y170.578
G01 X81.740 Y166.668
G01 X80.338 Y163.011
G01 X77.919 Y159.930
G01 X74.712 Y157.681
G01 X70.998 Y156.435
G01 X69.950 Y156.284
G01 X70.146 Y156.665
G01 X70.699 Y156.772
G01 X71.583 Y155.377
G01 X71.214 Y154.359
G01 X70.423 Y153.662
G01 X69.434 Y153.347
G01 X67.461 Y153.782
G01 X66.086 Y155.244
G01 X65.620 Y157.186
G01 X66.073 Y159.126
G01 X67.282 Y160.704
G01 X69.000 Y161.696
G01 X71.945 Y161.898
G01 X74.617 Y160.645
G01 X76.429 Y158.317
G01 X77.070 Y155.439
G01 X76.488 Y152.548
G01 X74.835 Y150.108
G01 X72.397 Y148.454
G01 X69.530 Y147.774
G01 X66.604 Y148.117
G01 X63.956 Y149.408
G01 X61.862 Y151.480
G01 X60.515 Y154.099
G01 X60.022 Y157.002
G01 X60.403 Y159.921
G01 X62.167 Y163.416
G01 X65.089 Y166.024
G01 X68.746 Y167.424
G01 X72.661 Y167.476
G01 X76.367 Y166.208
G01 X78.758 Y164.492
G01 X80.660 Y162.246
G01 X82.263 Y158.672
G01 X82.682 Y154.778
G01 X81.902 Y150.939
G01 X80.019 Y147.504
G01 X77.219 Y144.765
G01 X73.753 Y142.938
G01 X71.925 Y142.424
G01 X72.118 Y142.803
G01 X72.660 Y142.919
G01 X73.573 Y141.596
G01 X73.247 Y140.559
G01 X72.482 Y139.831
G01 X71.503 Y139.482
G01 X69.515 Y139.852
G01 X68.094 Y141.271
G01 X67.569 Y143.200
G01 X67.963 Y145.153
G01 X69.123 Y146.767
G01 X70.810 Y147.813
G01 X73.748 Y148.108
G01 X76.460 Y146.941
G01 X78.347 Y144.674
G01 X79.086 Y141.818
G01 X78.605 Y138.909
G01 X77.039 Y136.411
G01 X74.662 Y134.669
G01 X71.822 Y133.883
G01 X68.885 Y134.114
G01 X66.189 Y135.302
G01 X64.014 Y137.289
G01 X62.562 Y139.851
G01 X61.949 Y142.731
G01 X62.207 Y145.665
G01 X63.820 Y149.233
G01 X66.624 Y151.966
G01 X70.215 Y153.530
G01 X74.124 Y153.761
G01 X77.885 Y152.669
G01 X80.356 Y151.069
G01 X82.364 Y148.917
G01 X83.802 Y146.349
G01 X84.714 Y142.539
G01 X84.426 Y138.632
G01 X82.991 Y134.987
G01 X80.556 Y131.919
G01 X77.346 Y129.674
G01 X75.275 Y128.831
G01 X75.464 Y129.209
G01 X75.994 Y129.332
G01 X76.932 Y128.080
G01 X76.650 Y127.026
G01 X75.911 Y126.268
G01 X74.943 Y125.885
G01 X72.943 Y126.192
G01 X71.479 Y127.568
G01 X70.895 Y129.481
G01 X71.230 Y131.445
G01 X72.342 Y133.095
G01 X73.996 Y134.192
G01 X76.925 Y134.578
G01 X79.672 Y133.499
G01 X81.634 Y131.294
G01 X82.468 Y128.464
G01 X82.087 Y125.540
G01 X80.611 Y122.988
G01 X78.298 Y121.161
G01 X75.489 Y120.270
G01 X72.545 Y120.390
G01 X69.805 Y121.472
G01 X67.553 Y123.371
G01 X65.998 Y125.873
G01 X65.267 Y128.726
G01 X65.402 Y131.668
G01 X66.860 Y135.302
G01 X69.542 Y138.156
G01 X73.059 Y139.879
G01 X76.954 Y140.290
G01 X80.762 Y139.375
G01 X83.306 Y137.894
G01 X85.417 Y135.842
G01 X87.363 Y132.442
G01 X88.169 Y128.609
G01 X87.784 Y124.710
G01 X86.266 Y121.098
G01 X83.769 Y118.079
G01 X80.518 Y115.893
G01 X79.965 Y115.640
G01 X80.150 Y116.016
G01 X80.668 Y116.147
G01 X81.627 Y114.964
G01 X81.390 Y113.895
G01 X80.678 Y113.109
G01 X79.722 Y112.693
G01 X77.711 Y112.938
G01 X76.206 Y114.270
G01 X75.566 Y116.165
G01 X75.842 Y118.140
G01 X76.904 Y119.822
G01 X78.525 Y120.969
G01 X81.441 Y121.445
G01 X84.222 Y120.453
G01 X86.254 Y118.313
G01 X87.182 Y115.513
G01 X86.902 Y112.577
G01 X85.516 Y109.974
G01 X83.271 Y108.064
G01 X80.496 Y107.070
G01 X77.549 Y107.079
G01 X74.769 Y108.055
G01 X72.444 Y109.864
G01 X70.790 Y112.301
G01 X69.942 Y115.122
G01 X70.146 Y119.033
G01 X71.789 Y122.588
G01 X74.602 Y125.312
G01 X78.191 Y126.881
G01 X82.100 Y127.136
G01 X84.966 Y126.461
G01 X87.577 Y125.103
G01 X89.784 Y123.155
G01 X91.895 Y119.855
G01 X92.892 Y116.066
G01 X92.706 Y112.153
G01 X91.377 Y108.467
G01 X89.042 Y105.321
G01 X85.948 Y102.983
G01 X86.130 Y103.358
G01 X86.637 Y103.496
G01 X87.613 Y102.380
G01 X87.420 Y101.298
G01 X86.735 Y100.486
G01 X85.792 Y100.038
G01 X83.773 Y100.221
G01 X82.228 Y101.508
G01 X81.533 Y103.385
G01 X81.751 Y105.368
G01 X82.763 Y107.081
G01 X84.350 Y108.276
G01 X86.256 Y108.823
G01 X89.178 Y108.389
G01 X91.569 Y106.657
G01 X92.975 Y104.062
G01 X93.195 Y101.121
G01 X92.252 Y98.326
G01 X90.338 Y96.084
G01 X87.749 Y94.673
G01 X84.835 Y94.236
G01 X81.940 Y94.791
G01 X79.377 Y96.243
G01 X77.391 Y98.419
G01 X76.155 Y101.093
G01 X75.757 Y104.012
G01 X76.542 Y107.849
G01 X78.672 Y111.135
G01 X81.828 Y113.455
G01 X85.590 Y114.549
G01 X88.533 Y114.500
G01 X91.373 Y113.722
G01 X93.937 Y112.276
G01 X96.081 Y110.259
G01 X98.095 Y106.899
G01 X98.990 Y103.085
G01 X98.710 Y99.177
G01 X97.302 Y95.520
G01 X94.907 Y92.420
G01 X93.165 Y90.986
G01 X93.340 Y91.358
G01 X93.824 Y91.510
G01 X94.825 Y90.525
G01 X94.721 Y89.422
G01 X94.092 Y88.560
G01 X93.177 Y88.051
G01 X91.147 Y88.113
G01 X89.528 Y89.311
G01 X88.726 Y91.146
G01 X88.831 Y93.140
G01 X89.742 Y94.910
G01 X91.257 Y96.197
G01 X93.127 Y96.858
G01 X96.072 Y96.603
G01 X98.568 Y95.026
G01 X100.140 Y92.527
G01 X100.557 Y89.606
G01 X99.808 Y86.752
G01 X98.056 Y84.380
G01 X95.577 Y82.785
G01 X92.702 Y82.133
G01 X89.773 Y82.466
G01 X87.104 Y83.715
G01 X84.952 Y85.727
G01 X83.502 Y88.292
G01 X82.840 Y92.153
G01 X83.660 Y95.983
G01 X85.805 Y99.262
G01 X88.960 Y101.584
G01 X92.716 Y102.697
G01 X95.661 Y102.675
G01 X98.509 Y101.931
G01 X101.095 Y100.524
G01 X103.275 Y98.545
G01 X105.360 Y95.228
G01 X106.350 Y91.436
G01 X106.180 Y87.522
G01 X104.887 Y83.823
G01 X102.622 Y80.663
G01 X102.793 Y81.033
G01 X103.266 Y81.191
G01 X104.275 Y80.269
G01 X104.215 Y79.158
G01 X103.614 Y78.273
G01 X102.714 Y77.735
G01 X100.681 Y77.738
G01 X99.029 Y78.890
G01 X98.175 Y80.704
G01 X98.224 Y82.700
G01 X99.085 Y84.496
G01 X100.561 Y85.827
G01 X102.412 Y86.543
G01 X105.364 Y86.377
G01 X107.909 Y84.879
G01 X109.561 Y82.432
G01 X110.074 Y79.525
G01 X109.423 Y76.648
G01 X107.756 Y74.215
G01 X105.335 Y72.531
G01 X102.485 Y71.774
G01 X99.546 Y71.996
G01 X96.830 Y73.140
G01 X94.600 Y75.066
G01 X93.048 Y77.571
G01 X92.226 Y81.401
G01 X92.883 Y85.263
G01 X94.883 Y88.632
G01 X97.932 Y91.093
G01 X101.634 Y92.376
G01 X104.576 Y92.491
G01 X107.457 Y91.883
G01 X110.107 Y90.601
G01 X112.381 Y88.731
G01 X114.627 Y85.520
G01 X115.808 Y81.784
G01 X115.838 Y77.865
G01 X114.741 Y74.103
G01 X113.061 Y71.335
G01 X113.691 Y71.867
G01 X114.705 Y71.007
G01 X114.690 Y69.889
G01 X114.117 Y68.982
G01 X113.233 Y68.417
G01 X111.199 Y68.361
G01 X109.514 Y69.468
G01 X108.611 Y71.258
G01 X108.604 Y73.255
G01 X109.414 Y75.075
G01 X110.852 Y76.448
G01 X112.682 Y77.219
G01 X115.637 Y77.142
G01 X118.228 Y75.723
G01 X119.958 Y73.330
G01 X120.567 Y70.442
G01 X120.014 Y67.543
G01 X118.433 Y65.053
G01 X116.073 Y63.284
G01 X113.254 Y62.422
G01 X110.308 Y62.533
G01 X107.550 Y63.572
G01 X105.245 Y65.408
G01 X103.593 Y67.848
G01 X102.613 Y71.641
G01 X103.106 Y75.528
G01 X104.957 Y78.981
G01 X107.893 Y81.576
G01 X110.580 Y82.781
G01 X113.483 Y83.275
G01 X116.419 Y83.042
G01 X119.211 Y82.109
G01 X121.705 Y80.543
G01 X124.338 Y77.641
G01 X125.977 Y74.082
G01 X126.497 Y70.198
G01 X125.875 Y66.328
G01 X124.380 Y63.096
G01 X124.996 Y63.631
G01 X126.012 Y62.831
G01 X126.041 Y61.708
G01 X125.497 Y60.781
G01 X124.628 Y60.189
G01 X122.595 Y60.076
G01 X120.880 Y61.137
G01 X119.928 Y62.903
G01 X119.866 Y64.900
G01 X120.626 Y66.742
G01 X122.024 Y68.156
G01 X123.831 Y68.979
G01 X126.788 Y68.991
G01 X129.422 Y67.652
G01 X131.228 Y65.315
G01 X131.932 Y62.448
G01 X131.477 Y59.532
G01 X129.983 Y56.988
G01 X127.688 Y55.135
G01 X124.902 Y54.170
G01 X121.953 Y54.170
G01 X119.157 Y55.102
G01 X116.781 Y56.846
G01 X115.032 Y59.218
G01 X113.897 Y62.968
G01 X114.224 Y66.873
G01 X115.924 Y70.403
G01 X118.742 Y73.126
G01 X121.371 Y74.452
G01 X124.249 Y75.080
G01 X127.192 Y74.985
G01 X130.026 Y74.187
G01 X132.592 Y72.743
G01 X135.366 Y69.974
G01 X137.182 Y66.501
G01 X137.899 Y62.649
G01 X137.479 Y58.752
G01 X136.465 Y56.028
G01 X137.053 Y56.570
G01 X138.067 Y55.882
G01 X138.182 Y54.755
G01 X137.696 Y53.790
G01 X136.861 Y53.147
G01 X134.833 Y52.922
G01 X133.062 Y53.892
G01 X132.016 Y55.606
G01 X131.847 Y57.599
G01 X132.505 Y59.481
G01 X133.823 Y60.972
G01 X135.580 Y61.898
G01 X138.533 Y62.084
G01 X141.245 Y60.908
G01 X143.195 Y58.689
G01 X144.084 Y55.873
G01 X143.827 Y52.932
G01 X142.512 Y50.290
G01 X140.354 Y48.278
G01 X137.645 Y47.112
G01 X134.705 Y46.891
G01 X131.844 Y47.606
G01 X129.338 Y49.158
G01 X126.915 Y52.237
G01 X125.827 Y56.002
G01 X126.182 Y59.905
G01 X127.889 Y63.433
G01 X130.700 Y66.164
G01 X133.321 Y67.508
G01 X136.192 Y68.164
G01 X139.136 Y68.108
G01 X141.983 Y67.355
G01 X145.361 Y65.367
G01 X147.983 Y62.454
G01 X149.630 Y58.898
G01 X150.181 Y55.017
G01 X149.714 Y51.502
G01 X150.287 Y52.046
G01 X151.297 Y51.412
G01 X151.455 Y50.284
G01 X150.998 Y49.303
G01 X150.180 Y48.635
G01 X148.157 Y48.357
G01 X146.360 Y49.281
G01 X145.270 Y50.968
G01 X145.048 Y52.956
G01 X145.655 Y54.856
G01 X146.931 Y56.383
G01 X148.662 Y57.358
G01 X151.609 Y57.631
G01 X154.356 Y56.537
G01 X156.375 Y54.380
G01 X157.355 Y51.594
G01 X157.196 Y48.646
G01 X155.972 Y45.960
G01 X153.887 Y43.872
G01 X151.222 Y42.608
G01 X148.292 Y42.277
G01 X145.406 Y42.882
G01 X142.841 Y44.335
G01 X140.295 Y47.315
G01 X139.052 Y51.032
G01 X139.241 Y54.946
G01 X140.792 Y58.545
G01 X142.718 Y60.775
G01 X145.143 Y62.446
G01 X147.906 Y63.466
G01 X150.834 Y63.786
G01 X153.754 Y63.400
G01 X156.503 Y62.343
G01 X159.655 Y60.013
G01 X161.973 Y56.852
G01 X163.272 Y53.154
G01 X163.464 Y49.239
G01 X163.347 Y48.321
G01 X163.908 Y48.868
G01 X164.912 Y48.284
G01 X165.112 Y47.157
G01 X164.682 Y46.160
G01 X163.882 Y45.470
G01 X161.865 Y45.139
G01 X160.044 Y46.018
G01 X158.911 Y47.678
G01 X158.638 Y49.660
G01 X159.194 Y51.576
G01 X160.429 Y53.137
G01 X162.133 Y54.161
G01 X165.071 Y54.518
G01 X167.850 Y53.507
G01 X169.935 Y51.412
G01 X171.004 Y48.659
G01 X170.943 Y45.707
G01 X169.811 Y42.980
G01 X167.801 Y40.821
G01 X165.183 Y39.461
G01 X162.266 Y39.021
G01 X159.359 Y39.516
G01 X156.739 Y40.868
G01 X154.076 Y43.743
G01 X152.680 Y47.406
G01 X152.703 Y51.326
G01 X154.097 Y54.989
G01 X155.921 Y57.302
G01 X158.269 Y59.082
G01 X160.982 Y60.228
G01 X163.892 Y60.684
G01 X166.827 Y60.438
G01 X169.624 Y59.515
G01 X172.887 Y57.343
G01 X175.361 Y54.302
G01 X176.847 Y50.676
G01 X177.231 Y46.517
G01 X177.781 Y47.066
G01 X178.779 Y46.523
G01 X179.015 Y45.398
G01 X178.610 Y44.389
G01 X177.825 Y43.678
G01 X175.815 Y43.301
G01 X173.973 Y44.139
G01 X172.801 Y45.772
G01 X172.480 Y47.748
G01 X172.989 Y49.678
G01 X174.184 Y51.271
G01 X175.860 Y52.339
G01 X178.788 Y52.777
G01 X181.595 Y51.846
G01 X183.742 Y49.814
G01 X184.896 Y47.095
G01 X184.930 Y44.142
G01 X183.890 Y41.379
G01 X181.955 Y39.151
G01 X179.386 Y37.700
G01 X176.487 Y37.154
G01 X173.563 Y37.540
G01 X170.893 Y38.791
G01 X168.118 Y41.559
G01 X166.575 Y45.163
G01 X166.434 Y49.080
G01 X167.239 Y51.914
G01 X168.749 Y54.444
G01 X170.849 Y56.511
G01 X173.395 Y57.993
G01 X176.224 Y58.814
G01 X179.167 Y58.939
G01 X182.057 Y58.374
G01 X185.565 Y56.624
G01 X188.396 Y53.913
G01 X190.319 Y50.497
G01 X191.190 Y46.675
G01 X191.225 Y46.109
G01 X191.765 Y46.660
G01 X192.756 Y46.157
G01 X193.027 Y45.034
G01 X192.647 Y44.012
G01 X191.878 Y43.282
G01 X189.875 Y42.859
G01 X188.014 Y43.655
G01 X186.803 Y45.262
G01 X186.435 Y47.230
G01 X186.896 Y49.173
G01 X188.050 Y50.796
G01 X189.698 Y51.908
G01 X192.613 Y52.427
G01 X195.447 Y51.576
G01 X197.654 Y49.609
G01 X198.892 Y46.926
G01 X199.021 Y43.976
G01 X198.073 Y41.180
G01 X196.215 Y38.886
G01 X193.699 Y37.345
G01 X190.822 Y36.694
G01 X187.886 Y36.971
G01 X185.169 Y38.118
G01 X182.287 Y40.775
G01 X180.598 Y44.313
G01 X180.293 Y48.222
G01 X180.977 Y51.088
G01 X182.375 Y53.682
G01 X184.381 Y55.840
G01 X186.857 Y57.436
G01 X189.645 Y58.387
G01 X192.578 Y58.650
G01 X195.493 Y58.223
G01 X199.082 Y56.646
G01 X202.045 Y54.079
G01 X204.137 Y50.764
G01 X205.190 Y47.099
G01 X205.720 Y47.652
G01 X206.703 Y47.187
G01 X207.009 Y46.068
G01 X206.654 Y45.035
G01 X205.901 Y44.286
G01 X203.906 Y43.818
G01 X202.026 Y44.573
G01 X200.779 Y46.152
G01 X200.364 Y48.111
G01 X200.777 Y50.065
G01 X201.890 Y51.718
G01 X203.508 Y52.873
G01 X206.409 Y53.471
G01 X209.266 Y52.702
G01 X211.531 Y50.801
G01 X212.852 Y48.158
G01 X213.075 Y45.212
G01 X212.221 Y42.386
G01 X210.442 Y40.030
G01 X207.982 Y38.400
G01 X205.130 Y37.645
G01 X202.185 Y37.812
G01 X199.427 Y38.854
G01 X196.442 Y41.396
G01 X194.610 Y44.862
G01 X194.142 Y48.755
G01 X194.702 Y51.648
G01 X195.985 Y54.301
G01 X197.893 Y56.546
G01 X200.294 Y58.254
G01 X203.035 Y59.332
G01 X205.953 Y59.733
G01 X208.885 Y59.446
G01 X212.547 Y58.046
G01 X215.634 Y55.629
G01 X217.892 Y52.424
G01 X218.986 Y49.478
G01 X219.497 Y50.035
G01 X220.461 Y49.644
G01 X220.836 Y48.534
G01 X220.530 Y47.480
G01 X219.810 Y46.696
G01 X217.834 Y46.139
G01 X215.920 Y46.810
G01 X214.601 Y48.332
G01 X214.094 Y50.272
G01 X214.412 Y52.244
G01 X215.440 Y53.952
G01 X216.997 Y55.191
G01 X219.862 Y55.946
G01 X222.759 Y55.340
G01 X225.134 Y53.577
G01 X226.617 Y51.019
G01 X227.028 Y48.094
G01 X226.363 Y45.216
G01 X224.750 Y42.743
G01 X222.411 Y40.943
G01 X219.621 Y39.983
G01 X216.671 Y39.928
G01 X212.966 Y41.214
G01 X210.023 Y43.805
G01 X208.228 Y47.291
G01 X207.762 Y50.202
G01 X208.071 Y53.133
G01 X209.117 Y55.888
G01 X210.817 Y58.295
G01 X213.053 Y60.214
G01 X215.683 Y61.542
G01 X218.551 Y62.216
G01 X222.469 Y62.060
G01 X226.162 Y60.743
G01 X229.312 Y58.409
G01 X231.666 Y55.273
G01 X232.035 Y54.551
G01 X232.536 Y55.109
G01 X233.489 Y54.753
G01 X233.899 Y53.649
G01 X233.617 Y52.586
G01 X232.913 Y51.784
G01 X230.948 Y51.184
G01 X229.019 Y51.814
G01 X227.665 Y53.307
G01 X227.113 Y55.235
G01 X227.383 Y57.215
G01 X228.369 Y58.948
G01 X229.893 Y60.228
G01 X232.737 Y61.060
G01 X235.651 Y60.537
G01 X238.078 Y58.845
G01 X239.638 Y56.334
G01 X240.144 Y53.422
G01 X239.574 Y50.523
G01 X238.047 Y47.997
G01 X235.772 Y46.115
G01 X233.019 Y45.053
G01 X230.073 Y44.889
G01 X226.321 Y46.030
G01 X223.276 Y48.502
G01 X221.339 Y51.912
G01 X220.751 Y54.800
G01 X220.933 Y57.742
G01 X221.857 Y60.541
G01 X223.448 Y63.022
G01 X225.594 Y65.041
G01 X228.160 Y66.490
G01 X230.993 Y67.299
G01 X234.914 Y67.331
G01 X238.668 Y66.198
G01 X241.931 Y64.025
G01 X244.511 Y60.902
G01 X245.004 Y61.461
G01 X245.945 Y61.138
G01 X246.388 Y60.040
G01 X246.131 Y58.968
G01 X245.444 Y58.151
G01 X243.491 Y57.508
G01 X241.547 Y58.097
G01 X240.160 Y59.559
G01 X239.563 Y61.475
G01 X239.785 Y63.462
G01 X240.727 Y65.219
G01 X242.218 Y66.538
G01 X245.039 Y67.448
G01 X247.968 Y67.007
G01 X250.444 Y65.387
G01 X252.081 Y62.925
G01 X252.680 Y60.030
G01 X252.207 Y57.114
G01 X250.767 Y54.536
G01 X248.560 Y52.575
G01 X245.847 Y51.413
G01 X242.909 Y51.139
G01 X239.115 Y52.134
G01 X235.974 Y54.483
G01 X234.301 Y56.911
G01 X233.340 Y59.698
G01 X233.140 Y62.640
G01 X233.697 Y65.534
G01 X234.959 Y68.198
G01 X236.832 Y70.472
G01 X239.196 Y72.232
G01 X241.906 Y73.389
G01 X245.793 Y73.908
G01 X249.658 Y73.248
G01 X253.164 Y71.491
G01 X256.292 Y68.466
G01 X256.775 Y69.026
G01 X257.703 Y68.735
G01 X258.181 Y67.645
G01 X257.948 Y66.565
G01 X257.278 Y65.732
G01 X255.336 Y65.048
G01 X253.379 Y65.595
G01 X251.959 Y67.027
G01 X251.318 Y68.928
G01 X251.493 Y70.921
G01 X252.391 Y72.702
G01 X253.848 Y74.059
G01 X256.644 Y75.044
G01 X259.584 Y74.687
G01 X262.108 Y73.140
G01 X263.821 Y70.729
G01 X264.512 Y67.855
G01 X264.136 Y64.925
G01 X262.785 Y62.298
G01 X260.649 Y60.260
G01 X257.979 Y59.000
G01 X255.053 Y58.615
G01 X251.223 Y59.463
G01 X247.990 Y61.685
G01 X246.219 Y64.043
G01 X245.142 Y66.787
G01 X244.816 Y69.717
G01 X245.246 Y72.634
G01 X246.387 Y75.351
G01 X248.156 Y77.709
G01 X250.435 Y79.577
G01 X253.088 Y80.860
G01 X256.945 Y81.566
G01 X260.839 Y81.096
G01 X264.429 Y79.518
G01 X267.259 Y77.169
G01 X267.723 Y77.730
G01 X268.625 Y77.501
G01 X269.168 Y76.427
G01 X268.984 Y75.333
G01 X268.347 Y74.469
G01 X266.433 Y73.703
G01 X264.452 Y74.168
G01 X262.969 Y75.537
G01 X262.241 Y77.409
G01 X262.321 Y79.409
G01 X263.130 Y81.233
G01 X264.516 Y82.664
G01 X267.257 Y83.799
G01 X270.214 Y83.608
G01 X272.825 Y82.212
G01 X274.683 Y79.911
G01 X275.557 Y77.086
G01 X275.376 Y74.136
G01 X274.208 Y71.422
G01 X272.221 Y69.237
G01 X269.650 Y67.786
G01 X266.761 Y67.182
G01 X262.876 Y67.732
G01 X259.475 Y69.688
G01 X257.516 Y71.892
G01 X256.211 Y74.537
G01 X255.634 Y77.428
G01 X255.807 Y80.372
G01 X256.700 Y83.181
G01 X258.247 Y85.690
G01 X260.343 Y87.762
G01 X263.772 Y89.666
G01 X267.615 Y90.453
G01 X271.519 Y90.081
G01 X275.154 Y88.607
G01 X276.278 Y87.876
G01 X276.733 Y88.439
G01 X277.621 Y88.238
G01 X278.197 Y87.174
G01 X278.036 Y86.072
G01 X277.416 Y85.195
G01 X275.516 Y84.389
G01 X273.525 Y84.813
G01 X272.012 Y86.150
G01 X271.241 Y88.006
G01 X271.274 Y90.008
G01 X272.038 Y91.852
G01 X273.387 Y93.318
G01 X276.097 Y94.526
G01 X279.059 Y94.418
G01 X281.711 Y93.100
G01 X283.640 Y90.856
G01 X284.603 Y88.061
G01 X284.521 Y85.106
G01 X283.446 Y82.354
G01 X281.538 Y80.099
G01 X279.021 Y78.555
G01 X276.157 Y77.843
G01 X272.253 Y78.241
G01 X269.578 Y79.485
G01 X267.345 Y81.413
G01 X265.707 Y83.865
G01 X264.762 Y86.659
G01 X264.557 Y89.600
G01 X265.087 Y92.500
G01 X266.305 Y95.185
G01 X268.125 Y97.503
G01 X271.291 Y99.819
G01 X275.007 Y101.075
G01 X278.928 Y101.186
G01 X282.716 Y100.167
G01 X284.183 Y99.431
G01 X284.629 Y99.994
G01 X285.502 Y99.820
G01 X286.110 Y98.766
G01 X285.973 Y97.659
G01 X285.371 Y96.768
G01 X283.485 Y95.923
G01 X281.484 Y96.306
G01 X279.942 Y97.611
G01 X279.130 Y99.450
G01 X279.115 Y101.452
G01 X279.835 Y103.315
G01 X281.146 Y104.816
G01 X283.823 Y106.096
G01 X286.788 Y106.071
G01 X289.477 Y104.832
G01 X291.475 Y102.648
G01 X292.527 Y99.884
G01 X292.543 Y96.928
G01 X291.564 Y94.140
G01 X289.736 Y91.819
G01 X287.278 Y90.183
G01 X284.442 Y89.364
G01 X281.490 Y89.407
G01 X278.673 Y90.283
G01 X276.205 Y91.900
G01 X274.261 Y94.119
G01 X272.963 Y96.767
G01 X272.383 Y99.658
G01 X272.541 Y102.602
G01 X273.410 Y105.419
G01 X274.926 Y107.947
G01 X277.780 Y110.639
G01 X281.312 Y112.346
G01 X285.190 Y112.938
G01 X289.074 Y112.389
G01 X290.895 Y111.717
G01 X291.332 Y112.280
G01 X292.190 Y112.133
G01 X292.830 Y111.090
G01 X292.716 Y109.977
G01 X292.131 Y109.072
G01 X290.261 Y108.190
G01 X288.252 Y108.531
G01 X286.681 Y109.804
G01 X285.827 Y111.624
G01 X285.766 Y113.627
G01 X286.439 Y115.507
G01 X287.713 Y117.041
G01 X290.356 Y118.393
G01 X293.320 Y118.451
G01 X296.045 Y117.291
G01 X298.109 Y115.170
G01 X299.250 Y112.440
G01 X299.364 Y109.486
G01 X298.481 Y106.665
G01 X296.737 Y104.281
G01 X294.340 Y102.556
G01 X291.536 Y101.630
G01 X288.585 Y101.559
G01 X285.735 Y102.322
G01 X283.203 Y103.838
G01 X281.168 Y105.973
G01 X279.758 Y108.564
G01 X279.052 Y111.427
G01 X279.079 Y114.376
G01 X279.820 Y117.230
G01 X281.217 Y119.825
G01 X283.941 Y122.649
G01 X287.387 Y124.525
G01 X291.231 Y125.308
G01 X295.138 Y124.957
G01 X296.346 Y124.612
G01 X296.767 Y125.175
G01 X297.593 Y125.077
G01 X298.296 Y124.057
G01 X298.228 Y122.935
G01 X297.678 Y122.005
G01 X295.840 Y121.048
G01 X293.816 Y121.308
G01 X292.191 Y122.514
G01 X291.256 Y124.296
G01 X291.102 Y126.295
G01 X291.683 Y128.207
G01 X292.878 Y129.804
G01 X295.446 Y131.295
G01 X298.404 Y131.520
G01 X301.194 Y130.522
G01 X303.385 Y128.531
G01 X304.699 Y125.879
G01 X305.008 Y122.938
G01 X304.322 Y120.063
G01 X302.752 Y117.560
G01 X300.487 Y115.663
G01 X297.761 Y114.528
G01 X294.824 Y114.228
G01 X291.921 Y114.762
G01 X289.273 Y116.066
G01 X287.066 Y118.024
G01 X285.440 Y120.485
G01 X284.486 Y123.276
G01 X284.250 Y126.215
G01 X284.728 Y129.125
G01 X286.399 Y132.676
G01 X289.070 Y135.550
G01 X292.473 Y137.503
G01 X296.295 Y138.389
G01 X299.128 Y138.333
G01 X299.540 Y138.896
G01 X300.350 Y138.821
G01 X301.083 Y137.813
G01 X301.039 Y136.687
G01 X300.505 Y135.745
G01 X298.685 Y134.752
G01 X296.654 Y134.971
G01 X295.004 Y136.144
G01 X294.030 Y137.906
G01 X293.828 Y139.901
G01 X294.364 Y141.827
G01 X296.276 Y144.104
G01 X299.012 Y145.258
G01 X301.976 Y145.144
G01 X304.647 Y143.862
G01 X306.638 Y141.671
G01 X307.714 Y138.915
G01 X307.785 Y135.958
G01 X306.884 Y133.143
G01 X305.144 Y130.755
G01 X302.761 Y129.009
G01 X299.971 Y128.041
G01 X297.022 Y127.906
G01 X294.151 Y128.592
G01 X291.570 Y130.023
G01 X289.454 Y132.079
G01 X287.933 Y134.607
G01 X287.091 Y137.434
G01 X286.961 Y140.380
G01 X287.538 Y143.272
G01 X289.318 Y146.769
G01 X292.068 Y149.568
G01 X295.518 Y151.437
G01 X299.359 Y152.239
G01 X300.526 Y152.263
G01 X300.929 Y152.826
G01 X301.723 Y152.773
G01 X302.487 Y151.777
G01 X302.465 Y150.648
G01 X301.949 Y149.695
G01 X300.145 Y148.666
G01 X298.110 Y148.845
G01 X296.434 Y149.983
G01 X295.421 Y151.724
G01 X295.174 Y153.715
G01 X295.663 Y155.654
G01 X297.517 Y157.980
G01 X300.221 Y159.208
G01 X303.187 Y159.178
G01 X305.896 Y157.976
G01 X307.955 Y155.848
G01 X309.120 Y153.128
G01 X309.291 Y150.175
G01 X308.489 Y147.329
G01 X306.835 Y144.880
G01 X304.519 Y143.046
G01 X301.768 Y141.972
G01 X298.826 Y141.721
G01 X295.929 Y142.290
G01 X293.291 Y143.613
G01 X291.090 Y145.578
G01 X289.461 Y148.038
G01 X288.494 Y150.825
G01 X288.231 Y153.762
G01 X288.674 Y156.678
G01 X290.287 Y160.256
G01 X292.899 Y163.185
G01 X296.253 Y165.222
G01 X300.526 Y166.263
G01 X300.912 Y166.825
G01 X301.673 Y166.813
G01 X302.497 Y165.844
G01 X302.519 Y164.709
G01 X302.037 Y163.734
G01 X300.271 Y162.636
G01 X298.227 Y162.735
G01 X296.504 Y163.804
G01 X295.415 Y165.500
G01 X295.076 Y167.479
G01 X295.471 Y169.440
G01 X297.205 Y171.859
G01 X299.841 Y173.232
G01 X302.805 Y173.371
G01 X305.582 Y172.332
G01 X307.770 Y170.337
G01 X309.111 Y167.697
G01 X309.480 Y164.762
G01 X308.879 Y161.866
G01 X307.407 Y159.303
G01 X305.233 Y157.302
G01 X302.572 Y156.019
G01 X299.658 Y155.537
G01 X296.725 Y155.869
G01 X293.986 Y156.969
G01 X291.625 Y158.741
G01 X289.788 Y161.050
G01 X288.577 Y163.740
G01 X288.049 Y166.642
G01 X288.429 Y170.549
G01 X289.976 Y174.156
G01 X292.521 Y177.144
G01 X295.819 Y179.271
G01 X297.744 Y179.984
G01 X298.123 Y180.545
G01 X298.867 Y180.552
G01 X299.720 Y179.597
G01 X299.764 Y178.460
G01 X299.300 Y177.475
G01 X297.552 Y176.343
G01 X295.505 Y176.403
G01 X293.759 Y177.437
G01 X292.633 Y179.109
G01 X292.249 Y181.080
G01 X292.597 Y183.051
G01 X294.270 Y185.514
G01 X296.868 Y186.958
G01 X299.828 Y187.181
G01 X302.635 Y186.226
G01 X304.885 Y184.299
G01 X306.311 Y181.705
G01 X306.779 Y178.783
G01 X306.280 Y175.868
G01 X304.902 Y173.253
G01 X302.804 Y171.171
G01 X300.194 Y169.787
G01 X297.302 Y169.189
G01 X294.357 Y169.403
G01 X291.574 Y170.387
G01 X289.140 Y172.056
G01 X287.203 Y174.283
G01 X285.873 Y176.917
G01 X285.214 Y179.792
G01 X285.411 Y183.713
G01 X286.784 Y187.390
G01 X289.179 Y190.500
G01 X292.367 Y192.790
G01 X293.607 Y193.359
G01 X293.977 Y193.919
G01 X294.705 Y193.944
G01 X295.587 Y193.003
G01 X295.653 Y191.864
G01 X295.205 Y190.869
G01 X293.477 Y189.705
G01 X291.428 Y189.725
G01 X289.661 Y190.724
G01 X288.498 Y192.372
G01 X288.069 Y194.334
G01 X288.369 Y196.314
G01 X289.980 Y198.819
G01 X292.538 Y200.332
G01 X295.491 Y200.640
G01 X298.326 Y199.769
G01 X300.636 Y197.914
G01 X302.146 Y195.366
G01 X302.713 Y192.462
G01 X302.317 Y189.531
G01 X301.034 Y186.867
G01 X299.016 Y184.708
G01 X296.461 Y183.224
G01 X293.594 Y182.512
G01 X290.643 Y182.605
G01 X287.821 Y183.473
G01 X285.317 Y185.036
G01 X283.285 Y187.176
G01 X281.838 Y189.748
G01 X280.937 Y193.569
G01 X281.253 Y197.482
G01 X282.726 Y201.121
G01 X285.196 Y204.172
G01 X288.155 Y206.254
G01 X288.518 Y206.813
G01 X289.228 Y206.855
G01 X290.139 Y205.929
G01 X290.226 Y204.788
G01 X289.796 Y203.784
G01 X289.036 Y203.037
G01 X287.059 Y202.438
G01 X285.084 Y202.946
G01 X283.563 Y204.282
G01 X282.720 Y206.110
G01 X282.615 Y208.113
G01 X283.726 Y210.879
G01 X285.980 Y212.822
G01 X288.842 Y213.619
G01 X291.781 Y213.213
G01 X294.350 Y211.735
G01 X296.224 Y209.441
G01 X297.208 Y206.649
G01 X297.232 Y203.690
G01 X296.331 Y200.873
G01 X294.626 Y198.458
G01 X292.294 Y196.644
G01 X289.546 Y195.559
G01 X286.607 Y195.265
G01 X283.696 Y195.760
G01 X281.013 Y196.990
G01 X278.725 Y198.855
G01 X276.966 Y201.225
G01 X275.826 Y203.946
G01 X275.352 Y207.844
G01 X276.078 Y211.702
G01 X277.906 Y215.176
G01 X280.654 Y217.980
G01 X281.443 Y218.540
G01 X281.798 Y219.098
G01 X282.492 Y219.156
G01 X283.431 Y218.245
G01 X283.539 Y217.104
G01 X283.125 Y216.091
G01 X282.378 Y215.329
G01 X280.411 Y214.694
G01 X278.425 Y215.163
G01 X276.876 Y216.467
G01 X275.992 Y218.277
G01 X275.841 Y220.278
G01 X276.884 Y223.072
G01 X279.086 Y225.073
G01 X281.924 Y225.951
G01 X284.875 Y225.631
G01 X287.489 Y224.233
G01 X289.437 Y222.000
G01 X290.514 Y219.243
G01 X290.641 Y216.286
G01 X289.842 Y213.438
G01 X288.228 Y210.961
G01 X285.967 Y209.058
G01 X283.264 Y207.865
G01 X280.339 Y207.452
G01 X277.410 Y207.826
G01 X274.676 Y208.940
G01 X272.309 Y210.704
G01 X270.445 Y212.992
G01 X268.906 Y216.605
G01 X268.551 Y220.516
G01 X269.381 Y224.354
G01 X271.293 Y227.783
G01 X273.538 Y230.094
G01 X273.878 Y230.651
G01 X274.538 Y230.738
G01 X275.638 Y229.556
G01 X275.624 Y228.423
G01 X275.137 Y227.449
G01 X273.388 Y226.312
G01 X271.337 Y226.323
G01 X269.549 Y227.288
G01 X268.334 Y228.901
G01 X267.825 Y230.846
G01 X268.027 Y232.839
G01 X269.488 Y235.437
G01 X271.939 Y237.125
G01 X274.861 Y237.661
G01 X277.762 Y237.037
G01 X280.237 Y235.404
G01 X281.995 Y233.019
G01 X282.870 Y230.191
G01 X282.807 Y227.232
G01 X281.850 Y224.433
G01 X280.115 Y222.039
G01 X277.774 Y220.235
G01 X275.028 Y219.142
G01 X272.092 Y218.821
G01 X269.173 Y219.271
G01 X266.463 Y220.443
G01 X264.125 Y222.246
G01 X261.805 Y225.416
G01 X260.577 Y229.146
G01 X260.524 Y233.073
G01 X261.620 Y236.843
G01 X263.495 Y239.848
G01 X263.827 Y240.403
G01 X264.470 Y240.504
G01 X265.584 Y239.407
G01 X265.624 Y238.268
G01 X265.176 Y237.272
G01 X263.468 Y236.070
G01 X261.415 Y236.010
G01 X259.594 Y236.914
G01 X258.326 Y238.486
G01 X257.750 Y240.413
G01 X257.884 Y242.413
G01 X259.254 Y245.062
G01 X261.644 Y246.836
G01 X264.545 Y247.480
G01 X267.468 Y246.966
G01 X270.005 Y245.429
G01 X271.857 Y243.117
G01 X272.847 Y240.326
G01 X272.908 Y237.366
G01 X272.071 Y234.529
G01 X270.442 Y232.061
G01 X268.184 Y230.153
G01 X265.491 Y228.936
G01 X262.572 Y228.478
G01 X259.635 Y228.790
G01 X256.871 Y229.829
G01 X254.447 Y231.514
G01 X251.970 Y234.563
G01 X250.551 Y238.225
G01 X250.292 Y242.144
G01 X251.184 Y245.969
G01 X252.528 Y248.551
G01 X252.846 Y249.103
G01 X253.456 Y249.228
G01 X254.582 Y248.294
G01 X254.730 Y247.150
G01 X254.361 Y246.115
G01 X253.652 Y245.312
G01 X251.722 Y244.553
G01 X249.702 Y244.876
G01 X248.048 Y246.049
G01 X247.000 Y247.773
G01 X246.650 Y249.752
G01 X247.385 Y252.646
G01 X249.338 Y254.897
G01 X252.046 Y256.129
G01 X255.015 Y256.212
G01 X257.805 Y255.202
G01 X260.069 Y253.287
G01 X261.569 Y250.732
G01 X262.182 Y247.835
G01 X261.883 Y244.891
G01 X260.733 Y242.165
G01 X258.859 Y239.878
G01 X256.429 Y238.194
G01 X253.640 Y237.217
G01 X250.694 Y236.996
G01 X247.788 Y237.524
G01 X245.101 Y238.748
G01 X242.118 Y241.306
G01 X240.067 Y244.657
G01 X239.111 Y248.467
G01 X239.304 Y252.390
G01 X240.052 Y254.901
G01 X240.362 Y255.452
G01 X240.955 Y255.587
G01 X242.082 Y254.731
G01 X242.284 Y253.588
G01 X241.954 Y252.536
G01 X241.272 Y251.706
G01 X239.366 Y250.882
G01 X237.335 Y251.140
G01 X235.642 Y252.260
G01 X234.539 Y253.950
G01 X234.125 Y255.918
G01 X234.763 Y258.836
G01 X236.638 Y261.153
G01 X239.300 Y262.481
G01 X242.265 Y262.673
G01 X245.092 Y261.769
G01 X247.429 Y259.943
G01 X249.030 Y257.449
G01 X249.761 Y254.579
G01 X249.586 Y251.624
G01 X248.554 Y248.851
G01 X246.782 Y246.484
G01 X244.431 Y244.691
G01 X241.689 Y243.588
G01 X238.757 Y243.228
G01 X235.828 Y243.616
G01 X233.084 Y244.708
G01 X229.978 Y247.114
G01 X227.758 Y250.356
G01 X226.604 Y254.111
G01 X226.587 Y258.039
G01 X227.003 Y259.974
G01 X227.306 Y260.523
G01 X227.883 Y260.669
G01 X229.007 Y259.887
G01 X229.262 Y258.746
G01 X228.971 Y257.679
G01 X228.317 Y256.824
G01 X226.436 Y255.937
G01 X224.396 Y256.130
G01 X222.668 Y257.198
G01 X221.511 Y258.853
G01 X221.033 Y260.806
G01 X221.574 Y263.746
G01 X223.369 Y266.126
G01 X225.984 Y267.547
G01 X228.941 Y267.847
G01 X231.801 Y267.049
G01 X234.206 Y265.314
G01 X235.906 Y262.886
G01 X236.753 Y260.048
G01 X236.702 Y257.088
G01 X235.790 Y254.273
G01 X234.124 Y251.829
G01 X231.855 Y249.933
G01 X229.167 Y248.704
G01 X226.254 Y248.207
G01 X223.310 Y248.455
G01 X220.516 Y249.411
G01 X217.293 Y251.660
G01 X214.910 Y254.784
G01 X213.561 Y258.475
G01 X213.335 Y262.397
G01 X213.513 Y263.719
G01 X213.809 Y264.266
G01 X214.370 Y264.422
G01 X215.488 Y263.711
G01 X215.795 Y262.575
G01 X215.542 Y261.493
G01 X214.917 Y260.615
G01 X213.063 Y259.667
G01 X211.016 Y259.797
G01 X209.254 Y260.811
G01 X208.045 Y262.430
G01 X207.505 Y264.368
G01 X207.950 Y267.324
G01 X209.664 Y269.765
G01 X212.228 Y271.277
G01 X215.173 Y271.683
G01 X218.061 Y270.993
G01 X220.532 Y269.351
G01 X222.327 Y266.992
G01 X223.289 Y264.190
G01 X223.361 Y261.230
G01 X222.571 Y258.378
G01 X221.013 Y255.863
G01 X218.831 Y253.867
G01 X216.202 Y252.516
G01 X213.315 Y251.883
G01 X210.362 Y251.990
G01 X207.524 Y252.809
G01 X204.193 Y254.894
G01 X201.653 Y257.893
G01 X200.114 Y261.508
G01 X199.678 Y265.413
G01 X199.717 Y266.099
G01 X200.000 Y266.642
G01 X200.529 Y266.815
G01 X201.626 Y266.236
G01 X202.035 Y265.115
G01 X201.859 Y264.011
G01 X201.290 Y263.089
G01 X199.494 Y262.024
G01 X197.439 Y262.031
G01 X195.617 Y262.937
G01 X194.309 Y264.480
G01 X193.648 Y266.382
G01 X193.902 Y269.364
G01 X195.450 Y271.915
G01 X197.905 Y273.602
G01 X200.815 Y274.218
G01 X203.747 Y273.742
G01 X206.337 Y272.293
G01 X208.312 Y270.081
G01 X209.497 Y267.366
G01 X209.815 Y264.421
G01 X209.271 Y261.511
G01 X207.938 Y258.870
G01 X205.943 Y256.686
G01 X203.448 Y255.100
G01 X200.632 Y254.200
G01 X197.682 Y254.024
G01 X193.848 Y254.895
G01 X190.471 Y256.906
G01 X187.851 Y259.836
G01 X186.198 Y263.401
G01 X185.723 Y265.690
G01 X185.999 Y266.231
G01 X186.512 Y266.412
G01 X187.595 Y265.895
G01 X188.054 Y264.783
G01 X187.917 Y263.670
G01 X187.376 Y262.728
G01 X185.611 Y261.608
G01 X183.555 Y261.554
G01 X181.705 Y262.407
G01 X180.351 Y263.911
G01 X179.631 Y265.792
G01 X179.790 Y268.781
G01 X181.254 Y271.383
G01 X183.650 Y273.153
G01 X186.536 Y273.872
G01 X189.485 Y273.505
G01 X192.128 Y272.155
G01 X194.189 Y270.021
G01 X195.483 Y267.355
G01 X195.923 Y264.426
G01 X195.502 Y261.495
G01 X194.286 Y258.798
G01 X192.390 Y256.527
G01 X189.970 Y254.828
G01 X187.199 Y253.798
G01 X184.261 Y253.481
G01 X180.388 Y254.163
G01 X176.914 Y256.003
G01 X174.147 Y258.795
G01 X172.308 Y262.268
G01 X171.840 Y263.886
G01 X172.103 Y264.423
G01 X172.586 Y264.617
G01 X173.634 Y264.214
G01 X174.192 Y263.127
G01 X174.129 Y261.999
G01 X173.644 Y261.022
G01 X171.943 Y259.797
G01 X169.889 Y259.624
G01 X167.991 Y260.369
G01 X166.548 Y261.792
G01 X165.715 Y263.628
G01 X165.686 Y266.624
G01 X166.978 Y269.317
G01 X169.250 Y271.247
G01 X172.081 Y272.168
G01 X175.049 Y272.016
G01 X177.788 Y270.869
G01 X180.009 Y268.901
G01 X181.513 Y266.347
G01 X182.193 Y263.463
G01 X182.023 Y260.506
G01 X181.045 Y257.713
G01 X179.359 Y255.281
G01 X177.103 Y253.368
G01 X174.440 Y252.083
G01 X171.545 Y251.488
G01 X167.623 Y251.789
G01 X163.981 Y253.272
G01 X160.941 Y255.765
G01 X158.747 Y259.026
G01 X158.591 Y259.360
G01 X158.830 Y259.753
G01 X159.513 Y259.736
G01 X160.116 Y258.732
G01 X159.853 Y257.681
G01 X159.100 Y256.946
G01 X158.119 Y256.615
G01 X157.096 Y256.679
G01 X155.403 Y257.754
G01 X154.589 Y259.576
G01 X154.777 Y261.557
G01 X155.829 Y263.240
G01 X157.480 Y264.336
G01 X159.424 Y264.709
G01 X162.262 Y263.919
G01 X164.344 Y261.835
G01 X165.229 Y259.027
G01 X164.803 Y256.114
G01 X163.210 Y253.638
G01 X160.770 Y251.992
G01 X157.888 Y251.392
G01 X154.985 Y251.881
G01 X152.439 Y253.357
G01 X150.544 Y255.608
G01 X149.493 Y258.357
G01 X149.373 Y261.297
G01 X150.169 Y264.130
G01 X151.783 Y266.590
G01 X154.049 Y268.468
G01 X157.720 Y269.820
G01 X161.632 Y269.730
G01 X165.253 Y268.248
G01 X168.134 Y265.598
G01 X169.945 Y262.129
G01 X170.505 Y258.255
G01 X169.782 Y254.407
G01 X167.878 Y250.987
G01 X165.008 Y248.324
G01 X161.464 Y246.660
G01 X157.585 Y246.126
G01 X153.720 Y246.750
G01 X150.196 Y248.458
G01 X147.272 Y251.121
G01 X147.503 Y251.512
G01 X148.162 Y251.523
G01 X148.811 Y250.536
G01 X148.579 Y249.473
G01 X147.847 Y248.714
G01 X146.875 Y248.354
G01 X145.849 Y248.387
G01 X144.121 Y249.408
G01 X143.245 Y251.203
G01 X143.361 Y253.190
G01 X144.349 Y254.913
G01 X145.955 Y256.075
G01 X147.882 Y256.530
G01 X150.754 Y255.867
G01 X152.932 Y253.884
G01 X153.957 Y251.122
G01 X153.683 Y248.189
G01 X152.228 Y245.630
G01 X149.884 Y243.848
G01 X147.042 Y243.079
G01 X144.114 Y243.390
G01 X141.480 Y244.702
G01 X139.442 Y246.826
G01 X138.209 Y249.499
G01 X137.887 Y252.424
G01 X138.482 Y255.306
G01 X139.913 Y257.877
G01 X142.034 Y259.917
G01 X145.592 Y261.546
G01 X149.500 Y261.761
G01 X153.229 Y260.574
G01 X156.318 Y258.171
G01 X158.416 Y254.866
G01 X159.309 Y251.054
G01 X158.928 Y247.158
G01 X157.340 Y243.579
G01 X154.726 Y240.664
G01 X151.354 Y238.674
G01 X147.543 Y237.772
G01 X143.635 Y238.017
G01 X139.959 Y239.368
G01 X137.816 Y240.798
G01 X138.034 Y241.185
G01 X138.658 Y241.233
G01 X139.373 Y240.274
G01 X139.188 Y239.196
G01 X138.488 Y238.404
G01 X137.530 Y238.000
G01 X136.502 Y237.987
G01 X134.725 Y238.926
G01 X133.758 Y240.677
G01 X133.767 Y242.669
G01 X134.655 Y244.447
G01 X136.190 Y245.704
G01 X138.085 Y246.280
G01 X140.996 Y245.811
G01 X143.311 Y243.985
G01 X144.540 Y241.307
G01 X144.497 Y238.361
G01 X143.256 Y235.689
G01 X141.072 Y233.713
G01 X138.308 Y232.695
G01 X135.364 Y232.736
G01 X132.616 Y233.793
G01 X130.379 Y235.708
G01 X128.883 Y238.243
G01 X128.260 Y241.120
G01 X128.545 Y244.050
G01 X129.689 Y246.762
G01 X132.331 Y249.649
G01 X135.855 Y251.351
G01 X139.756 Y251.673
G01 X143.524 Y250.608
G01 X146.703 Y248.324
G01 X148.943 Y245.113
G01 X150.020 Y241.349
G01 X149.847 Y237.437
G01 X148.468 Y233.771
G01 X146.041 Y230.698
G01 X142.808 Y228.488
G01 X139.070 Y227.319
G01 X135.154 Y227.271
G01 X131.833 Y228.140
G01 X132.043 Y228.526
G01 X132.642 Y228.596
G01 X133.401 Y227.656
G01 X133.247 Y226.569
G01 X132.567 Y225.756
G01 X131.620 Y225.325
G01 X130.592 Y225.281
G01 X128.785 Y226.166
G01 X127.760 Y227.884
G01 X127.697 Y229.877
G01 X128.517 Y231.688
G01 X130.001 Y233.006
G01 X131.872 Y233.662
G01 X134.802 Y233.322
G01 X137.201 Y231.608
G01 X138.562 Y228.993
G01 X138.674 Y226.048
G01 X137.581 Y223.312
G01 X135.513 Y221.213
G01 X132.814 Y220.033
G01 X129.872 Y219.893
G01 X127.062 Y220.773
G01 X124.704 Y222.537
G01 X123.041 Y224.967
G01 X122.219 Y227.794
G01 X122.295 Y230.737
G01 X123.728 Y234.379
G01 X126.429 Y237.212
G01 X129.979 Y238.862
G01 X133.884 Y239.143
G01 X137.646 Y238.058
G01 X140.823 Y235.770
G01 X143.073 Y232.565
G01 X144.176 Y228.808
G01 X144.046 Y224.894
G01 X142.720 Y221.209
G01 X140.348 Y218.092
G01 X137.162 Y215.814
G01 X133.454 Y214.553
G01 X129.540 Y214.397
G01 X128.483 Y214.547
G01 X128.686 Y214.930
G01 X129.261 Y215.020
G01 X130.063 Y214.100
G01 X129.939 Y213.006
G01 X129.280 Y212.172
G01 X128.344 Y211.714
G01 X127.316 Y211.641
G01 X125.481 Y212.470
G01 X124.398 Y214.155
G01 X124.265 Y216.145
G01 X125.017 Y217.987
G01 X126.447 Y219.364
G01 X129.278 Y220.201
G01 X132.142 Y219.492
G01 X134.335 Y217.519
G01 X135.431 Y214.782
G01 X135.282 Y211.838
G01 X133.976 Y209.196
G01 X131.764 Y207.248
G01 X128.996 Y206.240
G01 X126.051 Y206.265
G01 X123.287 Y207.284
G01 X121.009 Y209.151
G01 X119.440 Y211.643
G01 X118.714 Y214.496
G01 X118.874 Y217.436
G01 X120.393 Y221.044
G01 X123.146 Y223.828
G01 X126.717 Y225.432
G01 X130.625 Y225.682
G01 X134.384 Y224.584
G01 X137.563 Y222.298
G01 X139.829 Y219.104
G01 X140.966 Y215.356
G01 X140.885 Y211.441
G01 X139.619 Y207.734
G01 X137.308 Y204.571
G01 X134.176 Y202.220
G01 X130.501 Y200.862
G01 X127.901 Y200.559
G01 X128.096 Y200.939
G01 X128.648 Y201.048
G01 X129.537 Y199.665
G01 X129.175 Y198.644
G01 X128.389 Y197.941
G01 X127.401 Y197.621
G01 X125.425 Y198.045
G01 X124.042 Y199.499
G01 X123.566 Y201.440
G01 X124.009 Y203.382
G01 X125.210 Y204.966
G01 X126.923 Y205.967
G01 X129.868 Y206.185
G01 X132.546 Y204.947
G01 X134.371 Y202.629
G01 X135.028 Y199.754
G01 X134.464 Y196.860
G01 X132.825 Y194.410
G01 X130.397 Y192.741
G01 X127.534 Y192.043
G01 X124.606 Y192.367
G01 X121.950 Y193.641
G01 X119.842 Y195.698
G01 X118.477 Y198.308
G01 X117.964 Y201.208
G01 X118.631 Y205.066
G01 X120.695 Y208.393
G01 X123.825 Y210.745
G01 X127.584 Y211.844
G01 X131.492 Y211.587
G01 X135.090 Y210.040
G01 X137.988 Y207.406
G01 X139.899 Y203.987
G01 X140.652 Y200.143
G01 X140.424 Y197.209
G01 X139.539 Y194.402
G01 X137.537 Y191.268
G01 X137.435 Y191.098
G01 X134.677 Y188.734
G01 X134.466 Y188.543
G01 X130.893 Y186.936
G01 X130.109 Y186.734
G01 X130.298 Y187.112
G01 X130.826 Y187.237
G01 X131.767 Y185.996
G01 X131.493 Y184.939
G01 X130.758 Y184.177
G01 X129.793 Y183.788
G01 X127.790 Y184.085
G01 X126.319 Y185.453
G01 X125.726 Y187.363
G01 X126.051 Y189.330
G01 X127.154 Y190.985
G01 X129.751 Y192.396
G01 X132.702 Y192.288
G01 X135.250 Y190.798
G01 X136.874 Y188.335
G01 X137.318 Y185.419
G01 X136.568 Y182.567
G01 X134.793 Y180.214
G01 X132.284 Y178.666
G01 X129.394 Y178.093
G01 X126.479 Y178.526
G01 X123.864 Y179.883
G01 X121.812 Y181.996
G01 X120.504 Y184.635
G01 X120.078 Y188.527
G01 X121.159 Y192.291
G01 X123.544 Y195.397
G01 X126.878 Y197.452
G01 X130.717 Y198.228
G01 X134.593 Y197.667
G01 X138.072 Y195.866
G01 X140.791 Y193.047
G01 X142.493 Y189.518
G01 X143.011 Y186.621
G01 X142.858 Y183.682
G01 X142.051 Y180.852
G01 X140.444 Y178.188
G01 X140.049 Y177.484
G01 X137.716 Y175.363
G01 X137.167 Y174.830
G01 X135.020 Y173.624
G01 X135.200 Y173.998
G01 X135.699 Y174.141
G01 X136.685 Y173.070
G01 X136.522 Y171.980
G01 X135.855 Y171.150
G01 X134.921 Y170.682
G01 X133.893 Y170.584
G01 X132.023 Y171.344
G01 X130.846 Y172.969
G01 X130.576 Y174.949
G01 X131.178 Y176.849
G01 X132.478 Y178.352
G01 X135.213 Y179.477
G01 X138.143 Y179.103
G01 X140.571 Y177.422
G01 X142.033 Y174.859
G01 X142.319 Y171.922
G01 X141.455 Y169.157
G01 X141.441 Y169.106
G01 X139.652 Y166.913
G01 X139.580 Y166.819
G01 X137.027 Y165.346
G01 X134.123 Y164.837
G01 X131.216 Y165.317
G01 X128.615 Y166.702
G01 X126.572 Y168.825
G01 X125.009 Y172.416
G01 X124.940 Y176.332
G01 X126.253 Y179.823
G01 X126.324 Y179.997
G01 X128.792 Y182.773
G01 X128.931 Y182.921
G01 X132.392 Y184.754
G01 X136.270 Y185.308
G01 X140.114 Y184.551
G01 X143.511 Y182.598
G01 X146.122 Y179.678
G01 X147.419 Y177.035
G01 X148.078 Y174.166
G01 X148.078 Y171.223
G01 X147.465 Y168.545
G01 X147.427 Y168.353
G01 X146.339 Y166.079
G01 X146.168 Y165.692
G01 X144.609 Y163.694
G01 X144.367 Y163.364
G01 X143.022 Y162.136
G01 X143.193 Y162.506
G01 X143.664 Y162.665
G01 X144.674 Y161.754
G01 X144.622 Y160.641
G01 X144.025 Y159.752
G01 X143.128 Y159.210
G01 X142.108 Y159.036
G01 X140.184 Y159.660
G01 X138.894 Y161.201
G01 X138.484 Y163.159
G01 X138.950 Y165.098
G01 X140.872 Y167.224
G01 X140.937 Y167.292
G01 X143.773 Y168.131
G01 X146.661 Y167.505
G01 X148.961 Y165.651
G01 X150.263 Y163.002
G01 X150.370 Y160.413
G01 X150.398 Y160.054
G01 X149.642 Y158.006
G01 X149.401 Y157.278
G01 X147.861 Y155.538
G01 X147.462 Y155.055
G01 X144.869 Y153.651
G01 X141.955 Y153.202
G01 X139.054 Y153.724
G01 X136.465 Y155.131
G01 X133.904 Y158.096
G01 X132.746 Y161.625
G01 X132.689 Y161.820
G01 X132.887 Y165.018
G01 X132.954 Y165.728
G01 X134.238 Y168.521
G01 X134.615 Y169.277
G01 X136.871 Y171.512
G01 X137.415 Y172.017
G01 X140.625 Y173.490
G01 X140.982 Y173.639
G01 X144.885 Y173.985
G01 X148.690 Y173.051
G01 X152.007 Y170.965
G01 X154.519 Y167.958
G01 X155.740 Y165.279
G01 X156.330 Y162.395
G01 X156.263 Y160.125
G01 X156.270 Y159.452
G01 X155.781 Y157.555
G01 X155.573 Y156.592
G01 X154.724 Y154.915
G01 X154.280 Y153.948
G01 X153.618 Y152.985
G01 X154.230 Y153.521
G01 X155.247 Y152.730
G01 X155.283 Y151.607
G01 X154.744 Y150.677
G01 X153.878 Y150.080
G01 X152.867 Y149.847
G01 X150.909 Y150.365
G01 X149.536 Y151.834
G01 X149.019 Y153.768
G01 X149.376 Y155.731
G01 X150.747 Y157.461
G01 X151.237 Y158.036
G01 X153.904 Y159.003
G01 X154.020 Y159.040
G01 X156.942 Y158.590
G01 X159.354 Y156.883
G01 X160.825 Y154.322
G01 X160.993 Y152.513
G01 X161.156 Y151.389
G01 X160.706 Y149.935
G01 X160.350 Y148.550
G01 X159.314 Y147.239
G01 X158.572 Y146.197
G01 X156.520 Y144.909
G01 X156.087 Y144.609
G01 X153.214 Y143.945
G01 X150.281 Y144.245
G01 X146.791 Y146.026
G01 X144.616 Y148.618
G01 X144.291 Y149.042
G01 X143.456 Y151.607
G01 X143.130 Y152.784
G01 X143.281 Y155.243
G01 X143.429 Y156.691
G01 X144.433 Y158.902
G01 X145.103 Y160.234
G01 X146.886 Y162.036
G01 X147.900 Y162.978
G01 X150.434 Y164.188
G01 X151.458 Y164.620
G01 X154.834 Y164.975
G01 X155.358 Y165.006
G01 X159.177 Y164.127
G01 X162.531 Y162.100
G01 X165.109 Y159.149
G01 X166.396 Y156.501
G01 X166.809 Y154.573
G01 X167.066 Y153.634
G01 X167.036 Y152.169
G01 X167.092 Y150.734
G01 X167.095 Y150.691
G01 X166.796 Y149.473
G01 X166.561 Y148.252
G01 X166.492 Y147.809
G01 X166.025 Y146.678
G01 X165.820 Y146.122
G01 X166.404 Y146.664
G01 X167.418 Y145.985
G01 X167.541 Y144.858
G01 X167.059 Y143.890
G01 X166.227 Y143.243
G01 X165.228 Y142.954
G01 X163.242 Y143.367
G01 X161.792 Y144.763
G01 X161.276 Y146.313
G01 X161.172 Y146.668
G01 X161.465 Y148.094
G01 X161.828 Y149.508
G01 X161.842 Y149.558
G01 X162.967 Y150.683
G01 X163.989 Y151.599
G01 X166.049 Y152.123
G01 X166.868 Y152.284
G01 X169.733 Y151.551
G01 X171.991 Y149.645
G01 X172.834 Y148.137
G01 X172.966 Y147.925
G01 X173.208 Y146.831
G01 X173.443 Y146.008
G01 X173.398 Y145.117
G01 X173.400 Y144.237
G01 X173.407 Y144.033
G01 X173.154 Y143.228
G01 X172.941 Y142.409
G01 X172.878 Y142.131
G01 X172.382 Y141.319
G01 X171.926 Y140.464
G01 X171.902 Y140.416
G01 X170.846 Y139.500
G01 X169.839 Y138.481
G01 X169.757 Y138.391
G01 X167.055 Y137.209
G01 X164.116 Y136.969
G01 X160.587 Y138.012
G01 X160.361 Y138.091
G01 X158.564 Y139.521
G01 X157.361 Y140.612
G01 X156.424 Y142.282
G01 X155.575 Y144.044
G01 X155.555 Y144.090
G01 X155.320 Y145.856
G01 X155.177 Y147.654
G01 X155.160 Y147.989
G01 X155.569 Y149.696
G01 X156.060 Y151.382
G01 X156.187 Y151.771
G01 X157.232 Y153.244
G01 X158.339 Y154.642
G01 X159.191 Y155.623
G01 X160.879 Y156.611
G01 X162.588 Y157.473
G01 X163.521 Y157.888
G01 X165.787 Y158.148
G01 X168.012 Y158.232
G01 X168.396 Y158.229
G01 X171.471 Y157.260
G01 X173.022 Y156.651
G01 X176.075 Y154.194
G01 X177.806 Y151.811
G01 X178.480 Y150.111
G01 X178.966 Y149.105
G01 X179.069 Y148.153
G01 X179.236 Y147.234
G01 X179.467 Y146.352
G01 X179.510 Y146.212
G01 X179.425 Y145.581
G01 X179.376 Y144.956
G01 X179.362 Y144.341
G01 X179.382 Y143.736
G01 X179.421 Y143.269
G01 X179.296 Y142.741
G01 X179.197 Y142.207
G01 X179.142 Y141.819
G01 X179.598 Y142.272
G01 X179.701 Y142.366
G01 X180.704 Y141.789
G01 X180.773 Y141.310
G01 X180.867 Y140.842
G01 X180.910 Y140.662
G01 X180.703 Y140.220
G01 X180.519 Y139.759
G01 X180.484 Y139.664
G01 X179.870 Y139.143
G01 X179.686 Y138.969
G01 X178.702 Y138.628
G01 X176.695 Y138.940
G01 X175.911 Y139.571
G01 X175.174 Y140.262
G01 X174.918 Y141.009
G01 X174.701 Y141.781
G01 X174.524 Y142.576
G01 X174.425 Y143.140
G01 X174.661 Y143.884
G01 X174.932 Y144.613
G01 X175.237 Y145.325
G01 X175.515 Y145.899
G01 X176.154 Y146.448
G01 X176.811 Y146.950
G01 X177.482 Y147.402
G01 X177.901 Y147.656
G01 X178.892 Y147.817
G01 X179.869 Y147.901
G01 X180.825 Y147.909
G01 X181.757 Y147.843
G01 X181.813 Y147.836
G01 X183.231 Y147.147
G01 X184.417 Y146.436
G01 X186.201 Y144.080
G01 X186.277 Y143.624
G01 X186.388 Y143.186
G01 X186.532 Y142.768
G01 X186.708 Y142.373
G01 X186.801 Y142.197
G01 X186.800 Y141.973
G01 X186.813 Y141.755
G01 X186.840 Y141.544
G01 X186.880 Y141.339
G01 X186.911 Y141.213
G01 X186.887 Y141.049
G01 X186.872 Y140.886
G01 X186.864 Y140.724
G01 X186.865 Y140.564
G01 X186.875 Y140.405
G01 X186.892 Y140.248
G01 X186.895 Y140.224
G01 X186.852 Y140.072
G01 X186.817 Y139.916
G01 X186.789 Y139.758
G01 X186.770 Y139.596
G01 X186.758 Y139.432
G01 X186.755 Y139.265
G01 X186.755 Y139.244
G01 X186.677 Y139.052
G01 X186.610 Y138.850
G01 X186.556 Y138.640
G01 X186.514 Y138.421
G01 X186.495 Y138.290
G01 X186.255 Y137.940
G01 X186.042 Y137.562
G01 X185.858 Y137.159
G01 X185.704 Y136.733
G01 X185.639 Y136.512
G01 X183.767 Y134.492
G01 X183.641 Y134.340
G01 X181.817 Y133.407
G01 X180.078 Y132.708
G01 X178.862 Y132.627
G01 X177.617 Y132.650
G01 X176.349 Y132.779
G01 X175.207 Y132.984
G01 X174.242 Y133.453
G01 X173.288 Y134.000
G01 X172.352 Y134.626
G01 X171.438 Y135.329
G01 X171.097 Y135.617
G01 X170.492 Y136.475
G01 X169.927 Y137.382
G01 X169.404 Y138.337
G01 X168.928 Y139.336
G01 X168.700 Y139.871
G01 X168.556 Y140.923
G01 X168.463 Y141.989
G01 X168.424 Y143.067
G01 X168.439 Y144.153
G01 X168.471 Y144.750
G01 X168.804 Y145.780
G01 X169.186 Y146.789
G01 X169.616 Y147.775
G01 X170.093 Y148.735
G01 X170.373 Y149.249
G01 X171.129 Y150.053
G01 X171.915 Y150.806
G01 X172.729 Y151.505
G01 X173.568 Y152.152
G01 X174.427 Y152.744
G01 X174.848 Y153.010
G01 X175.902 Y153.361
G01 X176.953 Y153.641
G01 X177.997 Y153.851
G01 X179.029 Y153.992
G01 X180.045 Y154.067
G01 X181.041 Y154.076
G01 X182.013 Y154.023
G01 X182.527 Y153.969
G01 X183.489 Y153.754
G01 X184.412 Y153.478
G01 X185.291 Y153.147
G01 X186.123 Y152.764
G01 X186.907 Y152.332
G01 X187.638 Y151.855
G01 X188.314 Y151.337
G01 X188.934 Y150.784
G01 X189.496 Y150.198
G01 X189.997 Y149.585
G01 X190.437 Y148.948
G01 X190.572 Y148.727
G01 X190.952 Y148.276
G01 X191.290 Y147.811
G01 X191.584 Y147.333
G01 X191.835 Y146.846
G01 X192.042 Y146.353
G01 X192.205 Y145.858
G01 X192.325 Y145.362
G01 X192.349 Y145.233
G01 X192.513 Y144.935
G01 X192.654 Y144.634
G01 X192.772 Y144.332
G01 X192.866 Y144.029
G01 X192.938 Y143.729
G01 X192.988 Y143.431
G01 X193.015 Y143.137
G01 X193.022 Y142.850
G01 X193.008 Y142.570
G01 X192.983 Y142.357
G01 X193.045 Y142.172
G01 X193.096 Y141.987
G01 X193.136 Y141.802
G01 X193.166 Y141.618
G01 X193.185 Y141.435
G01 X193.194 Y141.255
G01 X193.194 Y141.077
G01 X193.183 Y140.902
G01 X193.164 Y140.731
G01 X193.135 Y140.564
G01 X193.098 Y140.401
G01 X193.054 Y140.249
G01 X192.042 Y140.268
G01 X191.654 Y140.249
G01 X191.631 Y140.328
G01 X191.604 Y140.405
G01 X191.574 Y140.481
G01 X191.540 Y140.555
G01 X191.503 Y140.626
G01 X191.462 Y140.695
G01 X191.419 Y140.762
G01 X191.372 Y140.826
G01 X191.323 Y140.888
G01 X191.270 Y140.946
G01 X191.216 Y141.002
G01 X191.158 Y141.054
G01 X191.099 Y141.104
G01 X191.038 Y141.150
G01 X190.974 Y141.192
G01 X190.910 Y141.232
G01 X190.843 Y141.268
G01 X190.775 Y141.300
G01 X190.707 Y141.328
G01 X190.637 Y141.354
G01 X190.566 Y141.375
G01 X190.495 Y141.393
G01 X190.424 Y141.407
G01 X190.352 Y141.418
G01 X190.280 Y141.424
G01 X190.209 Y141.428
G01 X190.138 Y141.428
G01 X190.067 Y141.424
G01 X189.997 Y141.416
G01 X189.928 Y141.406
G01 X189.860 Y141.392
G01 X189.793 Y141.375
G01 X189.728 Y141.354
G01 X189.664 Y141.331
G01 X189.601 Y141.304
G01 X189.541 Y141.275
G01 X189.482 Y141.242
G01 X189.426 Y141.208
G01 X189.371 Y141.170
G01 X189.319 Y141.130
G01 X189.270 Y141.088
G01 X189.222 Y141.044
G01 X189.178 Y140.998
G01 X189.136 Y140.950
G01 X189.096 Y140.900
G01 X189.060 Y140.849
G01 X189.026 Y140.796
G01 X188.995 Y140.742
G01 X188.967 Y140.687
G01 X188.943 Y140.631
G01 X188.921 Y140.574
G01 X188.902 Y140.517
G01 X188.886 Y140.459
G01 X188.873 Y140.401
G01 X188.863 Y140.342
G01 X188.856 Y140.284
G01 X188.854 Y140.249
G01 X188.820 Y140.318
G01 X188.789 Y140.390
G01 X188.764 Y140.467
G01 X188.743 Y140.547
G01 X188.727 Y140.629
G01 X188.716 Y140.715
G01 X188.711 Y140.804
G01 X188.711 Y140.894
G01 X188.717 Y140.986
G01 X188.729 Y141.080
G01 X188.748 Y141.175
G01 X188.761 Y141.228
G01 X188.673 Y141.451
G01 X188.605 Y141.684
G01 X188.557 Y141.928
G01 X188.529 Y142.180
G01 X188.523 Y142.439
G01 X188.540 Y142.703
G01 X188.579 Y142.971
G01 X188.627 Y143.190
G01 X188.472 Y144.094
G01 X188.403 Y145.018
G01 X188.421 Y145.957
G01 X188.529 Y146.903
G01 X188.566 Y147.123
G01 X188.540 Y149.687
G01 X188.764 Y152.264
G01 X189.237 Y154.837
G01 X189.265 Y154.954
G01 X189.999 Y159.286
G01 X191.157 Y163.573
G01 X192.735 Y167.782
G01 X194.728 Y171.882
G01 X195.130 Y172.607
G01 X197.700 Y177.009
G01 X200.713 Y181.225
G01 X204.154 Y185.224
G01 X208.011 Y188.974
G01 X212.265 Y192.443
G01 X216.899 Y195.602
G01 X221.891 Y198.423
G01 X225.896 Y200.316
G01 X231.179 Y202.048
G01 X236.713 Y203.399
G01 X242.473 Y204.348
G01 X246.941 Y204.786
G01 X252.648 Y204.591
G01 X258.466 Y203.985
G01 X264.369 Y202.958
G01 X265.433 Y202.729
G01 X270.946 Y200.851
G01 X276.450 Y198.579
G01 X280.866 Y196.457
G01 X285.789 Y193.186
G01 X290.604 Y189.566
G01 X293.502 Y187.167
G01 X297.568 Y182.777
G01 X301.447 Y178.101
G01 X303.063 Y175.991
G01 X306.095 Y170.771
G01 X308.883 Y165.340
G01 X309.974 Y163.008
G01 X311.824 Y157.216
G01 X313.392 Y151.297
G01 X313.950 Y148.848
G01 X314.652 Y142.765
G01 X314.854 Y140.249
G01 X314.855 Y134.116
G01 X314.554 Y127.983
G01 X313.953 Y121.866
G01 X313.050 Y115.779
G01 X311.925 Y110.076
G01 X310.182 Y104.167
G01 X308.153 Y98.358
G01 X305.844 Y92.661
G01 X303.261 Y87.090
G01 X300.411 Y81.658
G01 X300.103 Y81.108
G01 X296.748 Y75.976
G01 X293.155 Y71.031
G01 X289.335 Y66.283
G01 X285.298 Y61.744
G01 X281.056 Y57.423
G01 X277.532 Y54.138
G01 X272.802 Y50.392
G01 X267.916 Y46.903
G01 X262.887 Y43.676
G01 X257.731 Y40.717
G01 X252.461 Y38.031
G01 X247.091 Y35.621
G01 X241.636 Y33.492
G01 X240.212 Y32.987
G01 X234.632 Y31.306
G01 X229.009 Y29.913
G01 X223.357 Y28.808
G01 X217.692 Y27.992
G01 X212.027 Y27.462
G01 X206.376 Y27.216
G01 X200.756 Y27.252
G01 X195.178 Y27.566
G01 X189.657 Y28.154
G01 X184.206 Y29.011
G01 X178.839 Y30.133
G01 X173.567 Y31.511
G01 X168.403 Y33.141
G01 X163.360 Y35.015
G01 X158.448 Y37.124
G01 X154.347 Y39.115
G01 X149.645 Y41.486
G01 X145.089 Y44.074
G01 X140.689 Y46.870
G01 X136.454 Y49.866
G01 X132.394 Y53.052
G01 X128.517 Y56.419
G01 X124.831 Y59.955
G01 X124.128 Y60.672
G01 X120.542 Y64.247
G01 X117.147 Y67.982
G01 X113.951 Y71.868
G01 X110.960 Y75.893
G01 X108.181 Y80.047
G01 X105.618 Y84.319
G01 X104.521 Y86.305
G01 X102.089 Y90.620
G01 X99.874 Y95.044
G01 X97.882 Y99.566
G01 X96.115 Y104.176
G01 X94.579 Y108.861
G01 X93.319 Y113.439
G01 X92.023 Y118.190
G01 X90.959 Y123.005
G01 X90.133 Y127.871
G01 X89.546 Y132.778
G01 X89.200 Y137.713
G01 X89.099 Y141.505
G01 X88.949 Y146.477
G01 X89.045 Y151.466
G01 X89.388 Y156.462
G01 X89.979 Y161.451
G01 X90.818 Y166.422
G01 X91.754 Y170.742
G01 X92.836 Y175.726
G01 X94.172 Y180.677
G01 X95.761 Y185.583
G01 X97.602 Y190.430
G01 X99.692 Y195.206
G01 X101.756 Y199.377
G01 X104.128 Y204.119
G01 X106.755 Y208.770
G01 X109.633 Y213.317
G01 X112.757 Y217.745
G01 X116.124 Y222.042
G01 X119.728 Y226.195
G01 X120.392 Y226.915
G01 X124.141 Y231.054
G01 X128.130 Y235.033
G01 X132.353 Y238.838
G01 X136.801 Y242.455
G01 X141.466 Y245.872
G01 X146.339 Y249.075
G01 X151.411 Y252.053
G01 X151.517 Y252.111
G01 X156.737 Y254.997
G01 X162.148 Y257.637
G01 X167.738 Y260.021
G01 X173.497 Y262.137
G01 X179.409 Y263.974
G01 X185.462 Y265.522
G01 X188.854 Y266.249
G01 X189.123 Y266.788
G01 X189.621 Y266.975
G01 X190.688 Y266.517
G01 X191.197 Y265.417
G01 X191.097 Y264.295
G01 X190.584 Y263.336
G01 X188.850 Y262.162
G01 X186.795 Y262.049
G01 X184.919 Y262.847
G01 X183.520 Y264.311
G01 X182.743 Y266.171
G01 X182.808 Y269.164
G01 X184.186 Y271.813
G01 X186.522 Y273.665
G01 X189.382 Y274.485
G01 X192.342 Y274.226
G01 X195.035 Y272.977
G01 X197.178 Y270.925
G01 X198.578 Y268.312
G01 X199.139 Y265.403
G01 X198.843 Y262.457
G01 X197.745 Y259.709
G01 X195.952 Y257.355
G01 X193.612 Y255.547
G01 X190.892 Y254.388
G01 X187.972 Y253.932
G01 X184.070 Y254.424
G01 X180.507 Y256.087
G01 X177.600 Y258.733
G01 X175.581 Y262.106
G01 X175.220 Y263.068
G01 X175.472 Y263.463
G01 X176.189 Y263.400
G01 X176.722 Y262.374
G01 X176.410 Y261.342
G01 X175.626 Y260.644
G01 X174.633 Y260.360
G01 X173.616 Y260.471
G01 X171.980 Y261.625
G01 X171.263 Y263.485
G01 X171.558 Y265.451
G01 X172.705 Y267.070
G01 X174.418 Y268.062
G01 X176.381 Y268.311
G01 X179.158 Y267.333
G01 X181.086 Y265.108
G01 X181.759 Y262.243
G01 X181.106 Y259.373
G01 X179.317 Y257.036
G01 X176.746 Y255.604
G01 X173.824 Y255.261
G01 X170.979 Y256.013
G01 X168.584 Y257.721
G01 X166.916 Y260.146
G01 X166.146 Y262.985
G01 X166.328 Y265.921
G01 X167.418 Y268.654
G01 X169.287 Y270.925
G01 X171.746 Y272.540
G01 X175.546 Y273.468
G01 X179.420 Y272.923
G01 X182.838 Y271.018
G01 X185.371 Y268.036
G01 X186.731 Y264.366
G01 X186.789 Y260.453
G01 X185.566 Y256.735
G01 X183.221 Y253.601
G01 X180.013 Y251.357
G01 X176.272 Y250.204
G01 X172.358 Y250.227
G01 X168.624 Y251.404
G01 X165.390 Y253.612
G01 X162.919 Y256.649
G01 X161.972 Y258.542
G01 X162.215 Y258.935
G01 X162.909 Y258.904
G01 X163.489 Y257.893
G01 X163.209 Y256.847
G01 X162.446 Y256.124
G01 X161.461 Y255.809
G01 X160.440 Y255.889
G01 X158.765 Y256.990
G01 X157.984 Y258.825
G01 X158.207 Y260.802
G01 X159.291 Y262.464
G01 X160.964 Y263.526
G01 X162.915 Y263.857
G01 X165.734 Y263.005
G01 X167.765 Y260.873
G01 X168.580 Y258.044
G01 X168.079 Y255.143
G01 X166.419 Y252.711
G01 X163.933 Y251.136
G01 X161.035 Y250.621
G01 X158.149 Y251.198
G01 X155.651 Y252.754
G01 X153.830 Y255.065
G01 X152.871 Y257.847
G01 X152.852 Y260.790
G01 X153.748 Y263.592
G01 X155.449 Y265.993
G01 X157.782 Y267.785
G01 X161.502 Y268.997
G01 X165.407 Y268.754
G01 X168.966 Y267.128
G01 X171.735 Y264.363
G01 X173.399 Y260.820
G01 X173.792 Y256.926
G01 X172.900 Y253.115
G01 X170.844 Y249.783
G01 X167.855 Y247.255
G01 X164.237 Y245.758
G01 X160.338 Y245.410
G01 X156.507 Y246.221
G01 X153.072 Y248.101
G01 X150.309 Y250.876
G01 X149.887 Y251.474
G01 X150.126 Y251.867
G01 X150.808 Y251.850
G01 X151.412 Y250.846
G01 X151.148 Y249.795
G01 X150.395 Y249.060
G01 X149.414 Y248.729
G01 X148.391 Y248.793
G01 X146.698 Y249.868
G01 X145.885 Y251.690
G01 X146.072 Y253.671
G01 X147.124 Y255.354
G01 X148.776 Y256.450
G01 X150.720 Y256.823
G01 X153.558 Y256.033
G01 X155.639 Y253.950
G01 X156.525 Y251.141
G01 X156.099 Y248.228
G01 X154.506 Y245.752
G01 X152.065 Y244.106
G01 X149.183 Y243.506
G01 X146.281 Y243.995
G01 X143.734 Y245.471
G01 X141.839 Y247.722
G01 X140.788 Y250.471
G01 X140.668 Y253.411
G01 X141.465 Y256.244
G01 X143.078 Y258.704
G01 X145.344 Y260.582
G01 X149.015 Y261.934
G01 X152.927 Y261.844
G01 X156.549 Y260.362
G01 X159.429 Y257.712
G01 X161.240 Y254.243
G01 X161.801 Y250.369
G01 X161.078 Y246.522
G01 X159.174 Y243.101
G01 X156.303 Y240.439
G01 X152.760 Y238.774
G01 X148.881 Y238.240
G01 X145.015 Y238.864
G01 X141.491 Y240.572
G01 X138.568 Y243.235
G01 X138.802 Y243.627
G01 X139.473 Y243.624
G01 X140.100 Y242.629
G01 X139.852 Y241.572
G01 X139.109 Y240.825
G01 X138.133 Y240.479
G01 X137.108 Y240.527
G01 X135.398 Y241.575
G01 X134.553 Y243.384
G01 X134.704 Y245.368
G01 X135.724 Y247.072
G01 X137.353 Y248.201
G01 X139.289 Y248.615
G01 X142.145 Y247.889
G01 X144.275 Y245.854
G01 X145.231 Y243.068
G01 X144.881 Y240.144
G01 X143.356 Y237.626
G01 X140.963 Y235.911
G01 X138.100 Y235.226
G01 X135.183 Y235.627
G01 X132.592 Y237.022
G01 X130.624 Y239.211
G01 X129.482 Y241.923
G01 X129.260 Y244.857
G01 X129.957 Y247.717
G01 X131.480 Y250.234
G01 X133.675 Y252.194
G01 X137.292 Y253.685
G01 X141.205 Y253.748
G01 X144.884 Y252.412
G01 X147.871 Y249.883
G01 X149.827 Y246.493
G01 X150.554 Y242.646
G01 X150.001 Y238.771
G01 X148.793 Y236.089
G01 X146.274 Y233.092
G01 X142.961 Y231.004
G01 X139.177 Y230.000
G01 X135.264 Y230.148
G01 X131.559 Y231.416
G01 X128.363 Y233.679
G01 X128.128 Y233.907
G01 X128.358 Y234.298
G01 X129.017 Y234.309
G01 X129.667 Y233.322
G01 X129.435 Y232.259
G01 X128.702 Y231.501
G01 X127.730 Y231.140
G01 X126.705 Y231.173
G01 X124.977 Y232.194
G01 X124.101 Y233.989
G01 X124.217 Y235.976
G01 X125.204 Y237.699
G01 X126.810 Y238.861
G01 X128.738 Y239.316
G01 X131.609 Y238.653
G01 X133.788 Y236.670
G01 X134.812 Y233.908
G01 X134.539 Y230.976
G01 X133.083 Y228.416
G01 X130.739 Y226.634
G01 X127.897 Y225.865
G01 X124.970 Y226.176
G01 X122.335 Y227.488
G01 X120.297 Y229.612
G01 X119.064 Y232.285
G01 X118.742 Y235.210
G01 X119.337 Y238.092
G01 X120.769 Y240.663
G01 X122.889 Y242.703
G01 X126.448 Y244.332
G01 X130.355 Y244.547
G01 X134.085 Y243.361
G01 X137.174 Y240.957
G01 X139.272 Y237.652
G01 X140.164 Y233.840
G01 X139.997 Y230.903
G01 X139.131 Y228.092
G01 X137.002 Y224.806
G01 X133.971 Y222.327
G01 X130.338 Y220.867
G01 X126.436 Y220.538
G01 X122.604 Y221.347
G01 X119.158 Y223.207
G01 X118.671 Y223.584
G01 X118.898 Y223.973
G01 X119.545 Y223.997
G01 X120.216 Y223.019
G01 X120.000 Y221.951
G01 X119.279 Y221.181
G01 X118.311 Y220.806
G01 X117.285 Y220.824
G01 X115.540 Y221.817
G01 X114.633 Y223.598
G01 X114.713 Y225.587
G01 X115.668 Y227.330
G01 X117.251 Y228.524
G01 X119.168 Y229.019
G01 X122.055 Y228.421
G01 X124.280 Y226.489
G01 X125.373 Y223.753
G01 X125.176 Y220.814
G01 X123.791 Y218.215
G01 X121.498 Y216.367
G01 X118.680 Y215.514
G01 X115.744 Y215.736
G01 X113.069 Y216.964
G01 X110.963 Y219.021
G01 X109.641 Y221.651
G01 X109.218 Y224.563
G01 X109.710 Y227.465
G01 X111.048 Y230.087
G01 X113.898 Y232.767
G01 X117.543 Y234.194
G01 X121.456 Y234.205
G01 X125.124 Y232.838
G01 X128.102 Y230.297
G01 X130.059 Y226.906
G01 X130.736 Y224.043
G01 X130.698 Y221.102
G01 X129.960 Y218.254
G01 X127.982 Y214.874
G01 X125.071 Y212.256
G01 X121.511 Y210.625
G01 X117.629 Y210.107
G01 X113.762 Y210.726
G01 X110.293 Y212.368
G01 X110.515 Y212.756
G01 X111.150 Y212.793
G01 X111.844 Y211.824
G01 X111.644 Y210.751
G01 X110.932 Y209.969
G01 X109.970 Y209.580
G01 X108.942 Y209.582
G01 X107.181 Y210.549
G01 X106.244 Y212.314
G01 X106.289 Y214.306
G01 X107.210 Y216.066
G01 X108.769 Y217.292
G01 X110.676 Y217.828
G01 X113.576 Y217.294
G01 X115.846 Y215.415
G01 X117.007 Y212.707
G01 X116.888 Y209.763
G01 X115.574 Y207.127
G01 X113.335 Y205.214
G01 X110.543 Y204.278
G01 X107.601 Y204.410
G01 X104.888 Y205.553
G01 X102.716 Y207.540
G01 X101.306 Y210.124
G01 X100.783 Y213.020
G01 X101.172 Y215.938
G01 X102.413 Y218.606
G01 X105.162 Y221.392
G01 X108.749 Y222.958
G01 X112.659 Y223.124
G01 X116.380 Y221.907
G01 X119.461 Y219.492
G01 X121.561 Y216.188
G01 X122.362 Y213.357
G01 X122.454 Y210.416
G01 X121.845 Y207.538
G01 X120.025 Y204.071
G01 X117.238 Y201.320
G01 X113.760 Y199.521
G01 X109.908 Y198.815
G01 X106.015 Y199.242
G01 X103.076 Y200.371
G01 X103.294 Y200.759
G01 X103.917 Y200.807
G01 X104.633 Y199.847
G01 X104.448 Y198.769
G01 X103.747 Y197.977
G01 X102.790 Y197.574
G01 X101.762 Y197.561
G01 X99.985 Y198.500
G01 X99.018 Y200.250
G01 X99.027 Y202.243
G01 X99.915 Y204.021
G01 X101.449 Y205.278
G01 X103.345 Y205.854
G01 X106.256 Y205.384
G01 X108.571 Y203.559
G01 X109.800 Y200.880
G01 X109.757 Y197.934
G01 X108.515 Y195.263
G01 X106.332 Y193.287
G01 X103.568 Y192.268
G01 X100.624 Y192.310
G01 X97.876 Y193.367
G01 X95.639 Y195.281
G01 X94.143 Y197.817
G01 X93.520 Y200.694
G01 X93.805 Y203.623
G01 X94.949 Y206.336
G01 X97.591 Y209.222
G01 X101.115 Y210.925
G01 X105.016 Y211.246
G01 X108.784 Y210.182
G01 X111.963 Y207.898
G01 X114.203 Y204.687
G01 X115.127 Y201.893
G01 X115.350 Y198.959
G01 X114.871 Y196.056
G01 X113.211 Y192.509
G01 X110.557 Y189.630
G01 X107.168 Y187.667
G01 X103.355 Y186.775
G01 X99.445 Y187.008
G01 X97.092 Y187.714
G01 X97.307 Y188.101
G01 X97.918 Y188.160
G01 X98.656 Y187.210
G01 X98.486 Y186.128
G01 X97.796 Y185.325
G01 X96.843 Y184.908
G01 X95.815 Y184.879
G01 X94.023 Y185.791
G01 X93.027 Y187.525
G01 X93.000 Y189.518
G01 X93.854 Y191.313
G01 X95.363 Y192.602
G01 X97.247 Y193.217
G01 X100.168 Y192.813
G01 X102.526 Y191.042
G01 X103.821 Y188.395
G01 X103.856 Y185.448
G01 X102.688 Y182.743
G01 X100.561 Y180.705
G01 X97.829 Y179.605
G01 X94.884 Y179.556
G01 X92.104 Y180.525
G01 X89.805 Y182.366
G01 X88.225 Y184.850
G01 X87.502 Y187.703
G01 X87.683 Y190.642
G01 X88.727 Y193.394
G01 X91.259 Y196.378
G01 X94.715 Y198.216
G01 X98.601 Y198.692
G01 X102.408 Y197.782
G01 X105.681 Y195.633
G01 X107.562 Y193.370
G01 X108.829 Y190.714
G01 X109.415 Y187.831
G01 X109.300 Y184.891
G01 X108.091 Y181.166
G01 X105.810 Y177.983
G01 X102.686 Y175.621
G01 X99.009 Y174.272
G01 X95.100 Y174.030
G01 X92.403 Y174.523
G01 X92.613 Y174.908
G01 X93.212 Y174.979
G01 X93.971 Y174.038
G01 X93.817 Y172.952
G01 X93.137 Y172.139
G01 X92.190 Y171.707
G01 X91.162 Y171.664
G01 X89.355 Y172.548
G01 X88.330 Y174.267
G01 X88.267 Y176.259
G01 X89.087 Y178.071
G01 X90.571 Y179.389
G01 X92.442 Y180.044
G01 X95.372 Y179.705
G01 X97.771 Y177.990
G01 X99.132 Y175.375
G01 X99.244 Y172.430
G01 X98.151 Y169.694
G01 X96.083 Y167.596
G01 X93.384 Y166.415
G01 X90.442 Y166.275
G01 X87.632 Y167.156
G01 X85.274 Y168.920
G01 X83.610 Y171.349
G01 X82.789 Y174.176
G01 X82.865 Y177.119
G01 X83.807 Y179.908
G01 X86.226 Y182.986
G01 X89.608 Y184.956
G01 X93.472 Y185.586
G01 X97.314 Y184.834
G01 X100.674 Y182.823
G01 X102.651 Y180.643
G01 X104.032 Y178.045
G01 X104.746 Y175.190
G01 X104.764 Y172.248
G01 X103.727 Y168.471
G01 X101.597 Y165.185
G01 X98.590 Y162.676
G01 X94.983 Y161.149
G01 X91.090 Y160.714
G01 X89.053 Y160.930
G01 X89.256 Y161.312
G01 X89.831 Y161.403
G01 X90.633 Y160.483
G01 X90.509 Y159.388
G01 X89.850 Y158.555
G01 X88.914 Y158.097
G01 X87.886 Y158.023
G01 X86.051 Y158.853
G01 X84.968 Y160.537
G01 X84.835 Y162.528
G01 X85.587 Y164.370
G01 X87.017 Y165.747
G01 X88.859 Y166.480
G01 X91.803 Y166.271
G01 X94.281 Y164.672
G01 X95.772 Y162.127
G01 X96.038 Y159.191
G01 X95.097 Y156.399
G01 X93.152 Y154.185
G01 X90.527 Y152.846
G01 X87.599 Y152.524
G01 X84.738 Y153.224
G01 X82.269 Y154.830
G01 X80.444 Y157.141
G01 X79.428 Y159.905
G01 X79.293 Y162.846
G01 X80.454 Y166.584
G01 X82.933 Y169.615
G01 X86.343 Y171.537
G01 X90.214 Y172.132
G01 X94.053 Y171.361
G01 X97.413 Y169.350
G01 X99.397 Y167.176
G01 X100.795 Y164.587
G01 X101.536 Y161.739
G01 X101.455 Y157.823
G01 X100.189 Y154.117
G01 X97.878 Y150.954
G01 X94.746 Y148.602
G01 X91.071 Y147.245
G01 X88.471 Y146.942
G01 X88.670 Y147.323
G01 X89.234 Y147.423
G01 X90.056 Y146.513
G01 X89.946 Y145.415
G01 X89.298 Y144.572
G01 X88.368 Y144.101
G01 X86.351 Y144.270
G01 X84.824 Y145.575
G01 X84.178 Y147.466
G01 X84.471 Y149.437
G01 X85.561 Y151.100
G01 X87.211 Y152.204
G01 X90.139 Y152.578
G01 X92.872 Y151.465
G01 X94.788 Y149.223
G01 X95.546 Y146.373
G01 X95.071 Y143.464
G01 X93.498 Y140.971
G01 X91.110 Y139.246
G01 X88.262 Y138.491
G01 X85.329 Y138.765
G01 X82.655 Y140.001
G01 X80.523 Y142.033
G01 X79.134 Y144.629
G01 X78.599 Y147.525
G01 X78.944 Y150.449
G01 X80.673 Y153.962
G01 X83.573 Y156.592
G01 X87.222 Y158.013
G01 X91.137 Y158.079
G01 X94.845 Y156.818
G01 X97.237 Y155.103
G01 X99.136 Y152.854
G01 X100.439 Y150.216
G01 X101.083 Y147.344
G01 X100.878 Y143.433
G01 X99.505 Y139.764
G01 X97.111 Y136.664
G01 X93.922 Y134.389
G01 X90.219 Y133.112
G01 X89.288 Y132.966
G01 X89.484 Y133.346
G01 X90.035 Y133.454
G01 X90.924 Y132.072
G01 X90.562 Y131.050
G01 X89.776 Y130.348
G01 X88.788 Y130.028
G01 X86.812 Y130.451
G01 X85.430 Y131.906
G01 X84.954 Y133.846
G01 X85.396 Y135.788
G01 X86.597 Y137.372
G01 X88.310 Y138.374
G01 X91.255 Y138.592
G01 X93.934 Y137.353
G01 X95.758 Y135.035
G01 X96.415 Y132.160
G01 X95.851 Y129.267
G01 X94.212 Y126.817
G01 X91.784 Y125.147
G01 X88.921 Y124.449
G01 X85.993 Y124.774
G01 X83.337 Y126.048
G01 X81.229 Y128.105
G01 X79.865 Y130.715
G01 X79.351 Y133.614
G01 X80.018 Y137.472
G01 X82.082 Y140.800
G01 X85.212 Y143.152
G01 X88.971 Y144.250
G01 X92.879 Y143.993
G01 X95.630 Y142.945
G01 X98.035 Y141.248
G01 X99.955 Y139.018
G01 X101.286 Y136.393
G01 X101.964 Y133.529
G01 X101.811 Y129.615
G01 X100.494 Y125.926
G01 X98.152 Y122.786
G01 X95.005 Y120.453
G01 X91.497 Y119.141
G01 X91.688 Y119.520
G01 X92.228 Y119.637
G01 X93.146 Y118.326
G01 X92.827 Y117.286
G01 X92.066 Y116.552
G01 X91.089 Y116.198
G01 X89.099 Y116.557
G01 X87.671 Y117.969
G01 X87.136 Y119.895
G01 X87.520 Y121.850
G01 X88.672 Y123.471
G01 X90.354 Y124.525
G01 X92.299 Y124.904
G01 X95.169 Y124.213
G01 X97.392 Y122.272
G01 X98.548 Y119.558
G01 X98.484 Y116.610
G01 X97.271 Y113.923
G01 X95.141 Y111.886
G01 X92.421 Y110.751
G01 X89.477 Y110.626
G01 X86.661 Y111.490
G01 X84.274 Y113.216
G01 X82.548 Y115.603
G01 X81.628 Y118.401
G01 X81.577 Y121.345
G01 X82.816 Y125.059
G01 X85.334 Y128.058
G01 X88.757 Y129.962
G01 X92.627 Y130.562
G01 X95.538 Y130.128
G01 X98.248 Y128.979
G01 X100.594 Y127.201
G01 X102.441 Y124.909
G01 X103.693 Y122.245
G01 X104.338 Y118.382
G01 X103.789 Y114.503
G01 X102.117 Y110.960
G01 X99.490 Y108.054
G01 X96.145 Y106.014
G01 X95.074 Y105.606
G01 X95.259 Y105.982
G01 X95.775 Y106.114
G01 X96.737 Y104.942
G01 X96.507 Y103.871
G01 X95.800 Y103.081
G01 X94.846 Y102.659
G01 X92.834 Y102.893
G01 X91.322 Y104.218
G01 X90.672 Y106.110
G01 X90.939 Y108.086
G01 X91.992 Y109.774
G01 X93.608 Y110.929
G01 X95.527 Y111.428
G01 X98.436 Y110.918
G01 X100.780 Y109.124
G01 X102.114 Y106.492
G01 X102.251 Y103.545
G01 X101.229 Y100.780
G01 X99.249 Y98.595
G01 X96.619 Y97.263
G01 X93.693 Y96.918
G01 X90.818 Y97.563
G01 X88.303 Y99.098
G01 X86.391 Y101.339
G01 X85.245 Y104.053
G01 X85.041 Y107.964
G01 X86.316 Y111.666
G01 X88.849 Y114.654
G01 X92.271 Y116.559
G01 X96.139 Y117.178
G01 X99.054 Y116.769
G01 X101.778 Y115.651
G01 X104.149 Y113.907
G01 X106.036 Y111.648
G01 X107.635 Y108.072
G01 X108.075 Y104.179
G01 X107.340 Y100.330
G01 X105.516 Y96.863
G01 X102.779 Y94.060
G01 X101.270 Y93.051
G01 X101.454 Y93.427
G01 X101.971 Y93.560
G01 X102.933 Y92.388
G01 X102.703 Y91.316
G01 X101.995 Y90.526
G01 X101.041 Y90.105
G01 X99.029 Y90.339
G01 X97.517 Y91.663
G01 X96.867 Y93.556
G01 X97.134 Y95.532
G01 X98.188 Y97.219
G01 X99.803 Y98.374
G01 X101.722 Y98.873
G01 X104.631 Y98.363
G01 X106.975 Y96.569
G01 X108.309 Y93.937
G01 X108.447 Y90.991
G01 X107.424 Y88.225
G01 X105.444 Y86.040
G01 X102.815 Y84.709
G01 X99.888 Y84.363
G01 X97.013 Y85.009
G01 X94.498 Y86.543
G01 X92.586 Y88.784
G01 X91.441 Y91.498
G01 X91.236 Y95.409
G01 X92.512 Y99.112
G01 X95.044 Y102.100
G01 X98.466 Y104.005
G01 X101.351 Y104.594
G01 X104.290 Y104.432
G01 X107.097 Y103.544
G01 X109.602 Y101.997
G01 X111.663 Y99.895
G01 X113.170 Y97.367
G01 X114.199 Y93.587
G01 X114.046 Y89.672
G01 X112.750 Y85.975
G01 X110.443 Y82.808
G01 X107.465 Y80.497
G01 X107.642 Y80.870
G01 X108.136 Y81.016
G01 X109.128 Y79.978
G01 X108.987 Y78.882
G01 X108.334 Y78.040
G01 X107.408 Y77.557
G01 X105.381 Y77.668
G01 X103.793 Y78.903
G01 X103.034 Y80.757
G01 X103.186 Y82.746
G01 X104.139 Y84.494
G01 X105.684 Y85.743
G01 X107.570 Y86.357
G01 X110.507 Y86.028
G01 X112.961 Y84.386
G01 X114.465 Y81.846
G01 X114.800 Y78.915
G01 X113.970 Y76.084
G01 X112.150 Y73.765
G01 X109.624 Y72.245
G01 X106.730 Y71.682
G01 X103.814 Y72.107
G01 X101.187 Y73.442
G01 X99.102 Y75.524
G01 X97.740 Y78.136
G01 X97.211 Y82.017
G01 X98.167 Y85.816
G01 X100.429 Y89.014
G01 X103.667 Y91.217
G01 X106.487 Y92.067
G01 X109.429 Y92.178
G01 X112.307 Y91.557
G01 X114.948 Y90.256
G01 X117.203 Y88.364
G01 X119.407 Y85.124
G01 X120.525 Y81.369
G01 X120.478 Y77.451
G01 X119.295 Y73.716
G01 X117.096 Y70.473
G01 X116.031 Y69.423
G01 X116.205 Y69.795
G01 X116.687 Y69.947
G01 X117.690 Y68.973
G01 X117.593 Y67.868
G01 X116.969 Y67.002
G01 X116.056 Y66.489
G01 X114.026 Y66.541
G01 X112.401 Y67.731
G01 X111.590 Y69.563
G01 X111.686 Y71.557
G01 X112.589 Y73.331
G01 X114.097 Y74.626
G01 X115.964 Y75.296
G01 X118.910 Y75.057
G01 X121.415 Y73.492
G01 X123.001 Y71.002
G01 X123.433 Y68.083
G01 X122.701 Y65.226
G01 X120.963 Y62.843
G01 X118.493 Y61.233
G01 X115.622 Y60.563
G01 X112.692 Y60.877
G01 X110.014 Y62.109
G01 X107.849 Y64.107
G01 X106.382 Y66.662
G01 X105.693 Y70.518
G01 X106.486 Y74.354
G01 X108.606 Y77.648
G01 X111.744 Y79.994
G01 X114.521 Y80.971
G01 X117.456 Y81.218
G01 X120.360 Y80.733
G01 X123.060 Y79.560
G01 X125.404 Y77.779
G01 X127.765 Y74.652
G01 X129.070 Y70.958
G01 X129.224 Y67.042
G01 X128.236 Y63.250
G01 X126.212 Y59.895
G01 X125.660 Y59.260
G01 X125.830 Y59.630
G01 X126.301 Y59.788
G01 X127.311 Y58.877
G01 X127.259 Y57.765
G01 X126.663 Y56.876
G01 X125.765 Y56.334
G01 X123.732 Y56.327
G01 X122.074 Y57.472
G01 X121.212 Y59.281
G01 X121.252 Y61.277
G01 X122.104 Y63.077
G01 X123.574 Y64.415
G01 X125.422 Y65.141
G01 X128.374 Y64.990
G01 X130.927 Y63.505
G01 X132.592 Y61.067
G01 X133.122 Y58.163
G01 X132.487 Y55.282
G01 X130.834 Y52.839
G01 X128.423 Y51.141
G01 X125.579 Y50.366
G01 X122.638 Y50.569
G01 X119.915 Y51.696
G01 X117.671 Y53.607
G01 X116.102 Y56.101
G01 X115.254 Y59.926
G01 X115.883 Y63.792
G01 X117.859 Y67.176
G01 X120.052 Y69.141
G01 X122.679 Y70.473
G01 X125.556 Y71.099
G01 X128.499 Y70.993
G01 X131.327 Y70.175
G01 X133.879 Y68.707
G01 X136.617 Y65.904
G01 X138.377 Y62.403
G01 X139.019 Y58.537
G01 X138.511 Y54.651
G01 X136.918 Y51.071
G01 X136.255 Y50.109
G01 X136.882 Y50.641
G01 X137.897 Y49.791
G01 X137.889 Y48.673
G01 X137.321 Y47.762
G01 X136.439 Y47.193
G01 X134.405 Y47.127
G01 X132.715 Y48.227
G01 X131.804 Y50.012
G01 X131.788 Y52.010
G01 X132.589 Y53.834
G01 X134.021 Y55.214
G01 X135.846 Y55.993
G01 X138.802 Y55.931
G01 X141.401 Y54.526
G01 X143.144 Y52.142
G01 X143.769 Y49.257
G01 X143.232 Y46.355
G01 X141.665 Y43.856
G01 X139.317 Y42.072
G01 X136.502 Y41.193
G01 X133.556 Y41.285
G01 X130.791 Y42.306
G01 X128.474 Y44.127
G01 X126.805 Y46.556
G01 X125.799 Y50.343
G01 X126.264 Y54.233
G01 X128.090 Y57.699
G01 X130.195 Y59.760
G01 X132.758 Y61.209
G01 X135.604 Y61.967
G01 X138.549 Y61.998
G01 X141.413 Y61.316
G01 X144.033 Y59.973
G01 X146.905 Y57.307
G01 X148.838 Y53.898
G01 X149.676 Y50.070
G01 X149.370 Y46.163
G01 X147.967 Y42.503
G01 X147.711 Y42.061
G01 X148.309 Y42.601
G01 X149.326 Y41.867
G01 X149.405 Y40.741
G01 X148.895 Y39.791
G01 X148.046 Y39.169
G01 X146.015 Y38.990
G01 X144.266 Y39.998
G01 X143.259 Y41.734
G01 X143.134 Y43.729
G01 X143.834 Y45.596
G01 X145.186 Y47.055
G01 X146.965 Y47.939
G01 X149.920 Y48.053
G01 X152.601 Y46.809
G01 X154.492 Y44.539
G01 X155.305 Y41.701
G01 X154.966 Y38.769
G01 X153.575 Y36.166
G01 X151.360 Y34.219
G01 X148.616 Y33.136
G01 X145.671 Y33.006
G01 X142.835 Y33.812
G01 X140.381 Y35.445
G01 X138.523 Y37.733
G01 X137.208 Y41.424
G01 X137.342 Y45.340
G01 X138.860 Y48.953
G01 X140.774 Y51.192
G01 X143.197 Y52.867
G01 X145.961 Y53.883
G01 X148.890 Y54.189
G01 X151.807 Y53.781
G01 X155.391 Y52.196
G01 X158.319 Y49.591
G01 X160.336 Y46.231
G01 X161.283 Y42.428
G01 X161.101 Y38.513
G01 X160.537 Y36.450
G01 X161.122 Y36.992
G01 X162.135 Y36.314
G01 X162.258 Y35.186
G01 X161.777 Y34.219
G01 X160.944 Y33.571
G01 X158.918 Y33.338
G01 X157.142 Y34.300
G01 X156.089 Y36.009
G01 X155.911 Y38.001
G01 X156.560 Y39.887
G01 X157.871 Y41.384
G01 X159.624 Y42.318
G01 X162.576 Y42.519
G01 X165.294 Y41.357
G01 X167.256 Y39.147
G01 X168.160 Y36.336
G01 X167.919 Y33.394
G01 X166.620 Y30.745
G01 X164.474 Y28.720
G01 X161.772 Y27.537
G01 X158.833 Y27.298
G01 X155.968 Y27.994
G01 X153.452 Y29.530
G01 X151.007 Y32.593
G01 X149.893 Y36.350
G01 X150.220 Y40.255
G01 X151.366 Y42.969
G01 X153.178 Y45.291
G01 X155.523 Y47.075
G01 X158.238 Y48.216
G01 X161.150 Y48.659
G01 X164.082 Y48.390
G01 X167.739 Y46.979
G01 X170.793 Y44.522
G01 X172.976 Y41.267
G01 X174.116 Y37.517
G01 X174.139 Y33.598
G01 X173.859 Y32.148
G01 X174.430 Y32.692
G01 X175.439 Y32.067
G01 X175.605 Y30.939
G01 X175.153 Y29.956
G01 X174.338 Y29.284
G01 X172.316 Y28.996
G01 X170.515 Y29.912
G01 X169.417 Y31.595
G01 X169.186 Y33.582
G01 X169.784 Y35.485
G01 X171.054 Y37.018
G01 X172.780 Y38.001
G01 X175.726 Y38.288
G01 X178.478 Y37.209
G01 X180.509 Y35.062
G01 X181.504 Y32.281
G01 X181.361 Y29.332
G01 X180.153 Y26.639
G01 X178.081 Y24.539
G01 X175.423 Y23.259
G01 X172.495 Y22.909
G01 X169.605 Y23.496
G01 X167.031 Y24.932
G01 X164.464 Y27.894
G01 X163.195 Y31.602
G01 X163.356 Y35.518
G01 X164.382 Y38.280
G01 X166.090 Y40.680
G01 X168.352 Y42.568
G01 X171.012 Y43.833
G01 X173.900 Y44.411
G01 X176.843 Y44.282
G01 X180.563 Y43.049
G01 X183.735 Y40.746
G01 X186.079 Y37.605
G01 X187.410 Y33.918
G01 X187.637 Y30.005
G01 X187.545 Y29.196
G01 X188.104 Y29.743
G01 X189.107 Y29.167
G01 X189.313 Y28.040
G01 X188.887 Y27.041
G01 X188.089 Y26.347
G01 X186.073 Y26.008
G01 X184.249 Y26.881
G01 X183.109 Y28.536
G01 X182.828 Y30.517
G01 X183.377 Y32.436
G01 X184.605 Y34.002
G01 X186.304 Y35.033
G01 X189.240 Y35.404
G01 X192.024 Y34.406
G01 X194.120 Y32.322
G01 X195.204 Y29.574
G01 X195.158 Y26.622
G01 X194.042 Y23.889
G01 X192.044 Y21.718
G01 X189.434 Y20.343
G01 X186.520 Y19.885
G01 X183.610 Y20.362
G01 X180.982 Y21.697
G01 X178.299 Y24.554
G01 X176.878 Y28.207
G01 X176.874 Y32.127
G01 X177.779 Y34.931
G01 X179.380 Y37.404
G01 X181.555 Y39.391
G01 X184.155 Y40.777
G01 X187.013 Y41.489
G01 X189.958 Y41.499
G01 X193.734 Y40.447
G01 X197.015 Y38.302
G01 X199.514 Y35.282
G01 X201.032 Y31.668
G01 X201.456 Y27.626
G01 X202.005 Y28.176
G01 X203.002 Y27.640
G01 X203.244 Y26.515
G01 X202.843 Y25.503
G01 X202.061 Y24.789
G01 X200.052 Y24.404
G01 X198.207 Y25.235
G01 X197.028 Y26.864
G01 X196.699 Y28.838
G01 X197.200 Y30.771
G01 X198.388 Y32.369
G01 X200.059 Y33.444
G01 X202.985 Y33.896
G01 X205.797 Y32.978
G01 X207.955 Y30.958
G01 X209.123 Y28.244
G01 X209.173 Y25.291
G01 X208.148 Y22.523
G01 X206.225 Y20.284
G01 X203.666 Y18.817
G01 X200.770 Y18.254
G01 X197.844 Y18.621
G01 X195.166 Y19.855
G01 X192.372 Y22.605
G01 X190.804 Y26.197
G01 X190.545 Y29.133
G01 X191.076 Y32.032
G01 X192.343 Y34.692
G01 X194.244 Y36.942
G01 X196.646 Y38.649
G01 X199.391 Y39.717
G01 X202.312 Y40.098
G01 X206.190 Y39.528
G01 X209.712 Y37.807
G01 X212.566 Y35.120
G01 X214.517 Y31.720
G01 X215.455 Y27.453
G01 X215.994 Y28.004
G01 X216.984 Y27.508
G01 X217.261 Y26.386
G01 X216.885 Y25.362
G01 X216.118 Y24.629
G01 X214.117 Y24.198
G01 X212.252 Y24.987
G01 X211.036 Y26.589
G01 X210.660 Y28.556
G01 X211.113 Y30.501
G01 X212.260 Y32.129
G01 X213.903 Y33.249
G01 X216.816 Y33.780
G01 X219.653 Y32.943
G01 X221.870 Y30.988
G01 X223.123 Y28.311
G01 X223.267 Y25.361
G01 X222.335 Y22.560
G01 X220.490 Y20.256
G01 X217.983 Y18.699
G01 X215.110 Y18.031
G01 X212.172 Y18.289
G01 X209.448 Y19.419
G01 X206.548 Y22.057
G01 X204.836 Y25.583
G01 X204.454 Y28.506
G01 X204.861 Y31.424
G01 X206.011 Y34.137
G01 X207.811 Y36.470
G01 X210.134 Y38.283
G01 X212.827 Y39.476
G01 X216.710 Y40.012
G01 X220.570 Y39.325
G01 X224.045 Y37.510
G01 X226.833 Y34.754
G01 X228.710 Y31.312
G01 X229.402 Y28.678
G01 X229.911 Y29.235
G01 X230.873 Y28.849
G01 X231.254 Y27.740
G01 X230.953 Y26.685
G01 X230.235 Y25.898
G01 X228.261 Y25.333
G01 X226.345 Y25.998
G01 X225.019 Y27.515
G01 X224.505 Y29.453
G01 X224.814 Y31.427
G01 X225.836 Y33.139
G01 X227.387 Y34.385
G01 X230.249 Y35.153
G01 X233.149 Y34.561
G01 X235.533 Y32.809
G01 X237.028 Y30.259
G01 X237.456 Y27.336
G01 X236.807 Y24.454
G01 X235.208 Y21.972
G01 X232.879 Y20.158
G01 X230.095 Y19.181
G01 X227.146 Y19.108
G01 X224.309 Y19.918
G01 X221.117 Y22.195
G01 X218.986 Y25.487
G01 X218.242 Y28.340
G01 X218.273 Y31.287
G01 X219.060 Y34.127
G01 X220.534 Y36.679
G01 X222.591 Y38.789
G01 X225.094 Y40.343
G01 X228.865 Y41.419
G01 X232.784 Y41.294
G01 X236.488 Y40.009
G01 X239.658 Y37.701
G01 X242.039 Y34.585
G01 X242.363 Y33.969
G01 X242.873 Y34.526
G01 X243.835 Y34.141
G01 X244.216 Y33.032
G01 X243.914 Y31.976
G01 X243.196 Y31.189
G01 X241.222 Y30.625
G01 X239.306 Y31.290
G01 X237.981 Y32.807
G01 X237.466 Y34.744
G01 X237.776 Y36.718
G01 X238.797 Y38.430
G01 X240.348 Y39.676
G01 X243.210 Y40.444
G01 X246.110 Y39.853
G01 X248.494 Y38.101
G01 X249.990 Y35.551
G01 X250.417 Y32.627
G01 X249.768 Y29.746
G01 X248.169 Y27.264
G01 X245.841 Y25.450
G01 X243.056 Y24.472
G01 X240.107 Y24.400
G01 X237.271 Y25.209
G01 X234.078 Y27.487
G01 X232.364 Y29.886
G01 X231.366 Y32.660
G01 X231.138 Y35.598
G01 X231.678 Y38.496
G01 X232.934 Y41.162
G01 X234.810 Y43.435
G01 X237.180 Y45.184
G01 X240.855 Y46.553
G01 X244.772 Y46.729
G01 X248.562 Y45.725
G01 X251.892 Y43.654
G01 X254.490 Y40.717
G01 X255.325 Y39.261
G01 X255.825 Y39.819
G01 X256.775 Y39.468
G01 X257.191 Y38.365
G01 X256.914 Y37.301
G01 X256.212 Y36.497
G01 X254.249 Y35.890
G01 X252.318 Y36.513
G01 X250.958 Y38.000
G01 X250.398 Y39.926
G01 X250.660 Y41.907
G01 X251.639 Y43.645
G01 X253.157 Y44.931
G01 X255.998 Y45.777
G01 X258.914 Y45.267
G01 X261.349 Y43.587
G01 X262.923 Y41.084
G01 X263.444 Y38.175
G01 X262.891 Y35.273
G01 X261.378 Y32.737
G01 X259.115 Y30.842
G01 X256.368 Y29.764
G01 X253.423 Y29.580
G01 X250.557 Y30.281
G01 X248.016 Y31.778
G01 X245.997 Y33.927
G01 X244.642 Y36.545
G01 X244.033 Y39.430
G01 X244.194 Y42.373
G01 X245.097 Y45.179
G01 X246.669 Y47.671
G01 X248.800 Y49.707
G01 X252.273 Y51.526
G01 X256.138 Y52.189
G01 X260.024 Y51.661
G01 X263.584 Y50.017
G01 X266.522 Y47.420
G01 X267.693 Y45.820
G01 X268.174 Y46.381
G01 X269.101 Y46.095
G01 X269.583 Y45.007
G01 X269.355 Y43.925
G01 X268.687 Y43.089
G01 X266.748 Y42.398
G01 X264.789 Y42.938
G01 X263.363 Y44.365
G01 X262.715 Y46.264
G01 X262.882 Y48.257
G01 X263.773 Y50.042
G01 X265.223 Y51.406
G01 X268.016 Y52.404
G01 X270.957 Y52.060
G01 X273.489 Y50.526
G01 X275.214 Y48.124
G01 X275.920 Y45.254
G01 X275.561 Y42.321
G01 X274.225 Y39.687
G01 X272.101 Y37.636
G01 X269.439 Y36.360
G01 X266.516 Y35.956
G01 X263.604 Y36.434
G01 X260.163 Y38.317
G01 X258.169 Y40.490
G01 X256.832 Y43.118
G01 X256.232 Y46.005
G01 X256.391 Y48.948
G01 X257.282 Y51.758
G01 X258.834 Y54.264
G01 X261.745 Y56.892
G01 X265.327 Y58.490
G01 X269.224 Y58.933
G01 X273.078 Y58.208
G01 X276.560 Y56.404
G01 X278.512 Y54.706
G01 X278.984 Y55.267
G01 X279.897 Y55.013
G01 X280.413 Y53.932
G01 X280.208 Y52.843
G01 X279.558 Y51.992
G01 X277.632 Y51.260
G01 X275.660 Y51.759
G01 X274.203 Y53.154
G01 X273.511 Y55.039
G01 X273.630 Y57.036
G01 X274.477 Y58.843
G01 X275.893 Y60.244
G01 X278.657 Y61.317
G01 X281.609 Y61.056
G01 X284.184 Y59.598
G01 X285.983 Y57.249
G01 X286.781 Y54.403
G01 X286.519 Y51.459
G01 X285.274 Y48.780
G01 X283.224 Y46.655
G01 X280.610 Y45.283
G01 X277.704 Y44.770
G01 X274.776 Y45.135
G01 X272.075 Y46.321
G01 X269.810 Y48.211
G01 X268.140 Y50.642
G01 X267.170 Y53.426
G01 X266.949 Y56.366
G01 X267.475 Y59.267
G01 X268.697 Y61.949
G01 X271.255 Y64.922
G01 X274.610 Y66.955
G01 X278.422 Y67.877
G01 X282.336 Y67.633
G01 X286.013 Y66.268
G01 X288.389 Y64.627
G01 X288.852 Y65.189
G01 X289.752 Y64.965
G01 X290.300 Y63.893
G01 X290.120 Y62.797
G01 X289.486 Y61.931
G01 X287.574 Y61.159
G01 X285.591 Y61.616
G01 X284.103 Y62.980
G01 X283.368 Y64.850
G01 X283.440 Y66.850
G01 X284.242 Y68.678
G01 X285.622 Y70.114
G01 X288.357 Y71.261
G01 X291.315 Y71.084
G01 X293.933 Y69.702
G01 X295.804 Y67.410
G01 X296.693 Y64.589
G01 X296.528 Y61.639
G01 X295.376 Y58.918
G01 X293.402 Y56.721
G01 X290.840 Y55.254
G01 X287.955 Y54.632
G01 X285.015 Y54.884
G01 X282.268 Y55.963
G01 X279.928 Y57.759
G01 X278.159 Y60.119
G01 X277.072 Y62.860
G01 X276.724 Y65.788
G01 X277.120 Y68.709
G01 X278.220 Y71.444
G01 X280.639 Y74.532
G01 X283.893 Y76.721
G01 X287.657 Y77.827
G01 X291.579 Y77.776
G01 X295.320 Y76.598
G01 X297.227 Y75.485
G01 X297.672 Y76.048
G01 X298.542 Y75.879
G01 X299.156 Y74.827
G01 X299.023 Y73.719
G01 X298.423 Y72.825
G01 X296.540 Y71.974
G01 X294.538 Y72.350
G01 X292.991 Y73.650
G01 X292.171 Y75.485
G01 X292.149 Y77.488
G01 X292.861 Y79.354
G01 X294.166 Y80.860
G01 X296.837 Y82.152
G01 X299.802 Y82.142
G01 X302.498 Y80.915
G01 X304.506 Y78.742
G01 X305.574 Y75.984
G01 X305.606 Y73.028
G01 X304.643 Y70.234
G01 X302.830 Y67.902
G01 X300.381 Y66.251
G01 X297.550 Y65.414
G01 X294.599 Y65.438
G01 X291.775 Y66.295
G01 X289.296 Y67.895
G01 X287.337 Y70.100
G01 X286.020 Y72.739
G01 X285.419 Y75.626
G01 X285.554 Y78.571
G01 X286.402 Y81.395
G01 X288.525 Y84.694
G01 X291.559 Y87.182
G01 X295.198 Y88.647
G01 X299.106 Y88.985
G01 X302.948 Y88.193
G01 X303.731 Y87.883
G01 X304.096 Y88.281
G01 X304.979 Y87.671
G01 X304.913 Y86.598
G01 X304.219 Y85.822
G01 X303.245 Y85.498
G01 X302.236 Y85.620
G01 X301.354 Y86.112
G01 X300.319 Y87.803
G01 X300.427 Y89.779
G01 X301.527 Y91.420
G01 X303.264 Y92.356
G01 X305.233 Y92.447
G01 X307.069 Y91.731
G01 X308.489 Y90.366
G01 X309.477 Y87.605
G01 X308.961 Y84.717
G01 X307.149 Y82.408
G01 X304.498 Y81.148
G01 X301.562 Y81.136
G01 X298.876 Y82.321
G01 X296.868 Y84.464
G01 X295.818 Y87.206
G01 X295.842 Y90.143
G01 X296.902 Y92.882
G01 X298.838 Y95.092
G01 X301.399 Y96.529
G01 X304.289 Y97.057
G01 X307.198 Y96.643
G01 X309.836 Y95.351
G01 X311.962 Y93.323
G01 X313.393 Y90.757
G01 X314.045 Y86.905
G01 X313.219 Y83.085
G01 X311.066 Y79.824
G01 X307.897 Y77.534
G01 X304.133 Y76.481
G01 X300.233 Y76.764
G01 X296.647 Y78.323
G01 X293.762 Y80.963
G01 X291.867 Y84.384
G01 X291.138 Y88.227
G01 X291.626 Y92.108
G01 X293.262 Y95.662
G01 X295.880 Y98.568
G01 X299.234 Y100.583
G01 X303.026 Y101.548
G01 X306.936 Y101.398
G01 X308.966 Y100.867
G01 X309.324 Y101.266
G01 X310.207 Y100.688
G01 X310.169 Y99.611
G01 X309.491 Y98.819
G01 X308.523 Y98.475
G01 X307.511 Y98.577
G01 X306.619 Y99.053
G01 X305.551 Y100.724
G01 X305.620 Y102.701
G01 X306.686 Y104.365
G01 X308.403 Y105.338
G01 X310.371 Y105.472
G01 X312.223 Y104.797
G01 X313.674 Y103.466
G01 X314.729 Y100.729
G01 X314.285 Y97.828
G01 X312.535 Y95.472
G01 X309.918 Y94.141
G01 X306.984 Y94.046
G01 X304.264 Y95.153
G01 X302.193 Y97.235
G01 X301.059 Y99.944
G01 X300.989 Y102.881
G01 X301.960 Y105.653
G01 X303.821 Y107.926
G01 X306.332 Y109.450
G01 X309.202 Y110.078
G01 X312.124 Y109.768
G01 X314.808 Y108.573
G01 X317.007 Y106.625
G01 X318.535 Y104.115
G01 X319.335 Y100.290
G01 X318.661 Y96.441
G01 X316.641 Y93.095
G01 X313.571 Y90.676
G01 X309.853 Y89.465
G01 X305.945 Y89.579
G01 X302.294 Y90.979
G01 X299.293 Y93.487
G01 X297.245 Y96.819
G01 X296.339 Y100.624
G01 X296.642 Y104.524
G01 X298.107 Y108.152
G01 X300.581 Y111.183
G01 X303.831 Y113.361
G01 X307.570 Y114.514
G01 X311.483 Y114.564
G01 X312.877 Y114.310
G01 X313.226 Y114.709
G01 X314.105 Y114.187
G01 X314.119 Y113.105
G01 X313.470 Y112.284
G01 X312.514 Y111.905
G01 X311.498 Y111.972
G01 X310.589 Y112.416
G01 X309.462 Y114.050
G01 X309.460 Y116.030
G01 X310.464 Y117.733
G01 X312.143 Y118.771
G01 X314.104 Y118.983
G01 X315.983 Y118.385
G01 X317.490 Y117.116
G01 X318.664 Y114.427
G01 X318.354 Y111.508
G01 X316.718 Y109.071
G01 X314.170 Y107.611
G01 X311.244 Y107.366
G01 X308.468 Y108.327
G01 X306.286 Y110.292
G01 X305.001 Y112.934
G01 X304.761 Y115.862
G01 X305.565 Y118.687
G01 X307.285 Y121.070
G01 X309.696 Y122.748
G01 X312.520 Y123.558
G01 X315.456 Y123.440
G01 X318.214 Y122.426
G01 X320.541 Y120.632
G01 X322.240 Y118.234
G01 X323.309 Y114.475
G01 X322.916 Y110.587
G01 X321.151 Y107.099
G01 X318.272 Y104.454
G01 X314.659 Y102.959
G01 X310.754 Y102.764
G01 X307.001 Y103.866
G01 X303.805 Y106.119
G01 X301.485 Y109.269
G01 X300.259 Y112.983
G01 X300.224 Y116.895
G01 X301.365 Y120.637
G01 X303.559 Y123.877
G01 X306.599 Y126.341
G01 X310.216 Y127.833
G01 X314.275 Y128.240
G01 X314.619 Y128.640
G01 X315.494 Y128.147
G01 X315.535 Y127.063
G01 X314.904 Y126.227
G01 X313.954 Y125.829
G01 X312.936 Y125.877
G01 X312.018 Y126.304
G01 X310.860 Y127.917
G01 X310.820 Y129.897
G01 X311.789 Y131.620
G01 X313.447 Y132.694
G01 X315.404 Y132.948
G01 X317.295 Y132.391
G01 X318.832 Y131.157
G01 X320.070 Y128.497
G01 X319.833 Y125.571
G01 X318.260 Y123.091
G01 X315.753 Y121.563
G01 X312.834 Y121.236
G01 X310.032 Y122.116
G01 X307.792 Y124.016
G01 X306.426 Y126.617
G01 X306.094 Y129.536
G01 X306.806 Y132.386
G01 X308.445 Y134.825
G01 X310.798 Y136.584
G01 X313.592 Y137.493
G01 X316.530 Y137.480
G01 X319.324 Y136.567
G01 X321.716 Y134.861
G01 X323.504 Y132.529
G01 X324.719 Y128.814
G01 X324.481 Y124.913
G01 X322.858 Y121.356
G01 X320.091 Y118.594
G01 X316.545 Y116.946
G01 X312.652 Y116.583
G01 X308.854 Y117.518
G01 X305.559 Y119.626
G01 X303.098 Y122.666
G01 X301.700 Y126.320
G01 X301.481 Y130.226
G01 X302.440 Y134.019
G01 X304.473 Y137.362
G01 X307.387 Y139.973
G01 X310.925 Y141.646
G01 X314.275 Y142.240
G01 X314.613 Y142.640
G01 X315.485 Y142.177
G01 X315.554 Y141.090
G01 X314.939 Y140.241
G01 X313.996 Y139.824
G01 X312.977 Y139.852
G01 X312.051 Y140.262
G01 X310.862 Y141.854
G01 X310.783 Y143.834
G01 X311.719 Y145.576
G01 X313.354 Y146.684
G01 X315.305 Y146.981
G01 X317.209 Y146.466
G01 X318.773 Y145.267
G01 X320.075 Y142.637
G01 X319.911 Y139.705
G01 X318.404 Y137.186
G01 X315.938 Y135.590
G01 X313.029 Y135.181
G01 X310.203 Y135.980
G01 X307.906 Y137.812
G01 X306.461 Y140.370
G01 X306.036 Y143.277
G01 X306.655 Y146.150
G01 X308.212 Y148.641
G01 X310.504 Y150.481
G01 X313.265 Y151.487
G01 X316.202 Y151.578
G01 X319.027 Y150.768
G01 X321.481 Y149.152
G01 X323.357 Y146.889
G01 X324.715 Y143.224
G01 X324.632 Y139.317
G01 X323.155 Y135.697
G01 X320.506 Y132.822
G01 X317.032 Y131.025
G01 X313.158 Y130.493
G01 X309.323 Y131.260
G01 X305.936 Y133.217
G01 X303.338 Y136.142
G01 X301.772 Y139.726
G01 X301.367 Y143.618
G01 X302.143 Y147.453
G01 X304.010 Y150.891
G01 X306.791 Y153.644
G01 X310.240 Y155.493
G01 X312.877 Y156.170
G01 X313.200 Y156.571
G01 X314.056 Y156.190
G01 X314.207 Y155.102
G01 X313.642 Y154.213
G01 X312.722 Y153.743
G01 X311.701 Y153.714
G01 X310.752 Y154.074
G01 X309.475 Y155.598
G01 X309.283 Y157.572
G01 X310.114 Y159.369
G01 X311.679 Y160.576
G01 X313.609 Y160.997
G01 X315.543 Y160.609
G01 X317.187 Y159.520
G01 X318.673 Y156.988
G01 X318.729 Y154.051
G01 X317.421 Y151.421
G01 X315.092 Y149.631
G01 X312.227 Y148.979
G01 X309.340 Y149.530
G01 X306.889 Y151.150
G01 X305.213 Y153.564
G01 X304.515 Y156.419
G01 X304.851 Y159.338
G01 X306.151 Y161.974
G01 X308.243 Y164.038
G01 X310.884 Y165.328
G01 X313.795 Y165.734
G01 X316.692 Y165.238
G01 X319.312 Y163.906
G01 X321.999 Y161.068
G01 X323.439 Y157.434
G01 X323.465 Y153.525
G01 X322.108 Y149.858
G01 X319.569 Y146.884
G01 X316.174 Y144.941
G01 X312.329 Y144.228
G01 X308.458 Y144.797
G01 X304.968 Y146.565
G01 X302.201 Y149.330
G01 X300.411 Y152.809
G01 X299.747 Y156.666
G01 X300.250 Y160.546
G01 X301.857 Y164.114
G01 X304.416 Y167.075
G01 X307.426 Y169.065
G01 X307.738 Y169.465
G01 X308.581 Y169.136
G01 X308.786 Y168.051
G01 X308.255 Y167.137
G01 X307.351 Y166.632
G01 X306.330 Y166.567
G01 X305.368 Y166.893
G01 X304.035 Y168.372
G01 X303.769 Y170.338
G01 X304.530 Y172.167
G01 X306.045 Y173.437
G01 X307.956 Y173.939
G01 X309.906 Y173.637
G01 X312.276 Y171.902
G01 X313.432 Y169.201
G01 X313.156 Y166.276
G01 X311.587 Y163.791
G01 X309.103 Y162.222
G01 X306.193 Y161.809
G01 X303.356 Y162.575
G01 X301.019 Y164.358
G01 X299.495 Y166.871
G01 X298.956 Y169.761
G01 X299.438 Y172.660
G01 X300.855 Y175.235
G01 X303.028 Y177.215
G01 X305.714 Y178.410
G01 X308.636 Y178.725
G01 X311.519 Y178.150
G01 X314.107 Y176.757
G01 X316.740 Y173.868
G01 X318.127 Y170.212
G01 X318.114 Y166.302
G01 X316.734 Y162.643
G01 X314.187 Y159.674
G01 X310.796 Y157.726
G01 X306.953 Y156.994
G01 X303.078 Y157.530
G01 X299.567 Y159.256
G01 X296.758 Y161.981
G01 X294.905 Y165.427
G01 X294.160 Y169.269
G01 X294.570 Y173.161
G01 X296.083 Y176.771
G01 X298.554 Y179.805
G01 X299.521 Y180.619
G01 X299.823 Y181.020
G01 X300.651 Y180.739
G01 X300.908 Y179.658
G01 X300.411 Y178.722
G01 X299.524 Y178.184
G01 X298.505 Y178.083
G01 X297.531 Y178.375
G01 X296.145 Y179.807
G01 X295.806 Y181.763
G01 X296.496 Y183.621
G01 X297.960 Y184.952
G01 X299.848 Y185.534
G01 X301.811 Y185.316
G01 X304.258 Y183.691
G01 X305.542 Y181.048
G01 X305.413 Y178.112
G01 X303.976 Y175.548
G01 X301.581 Y173.844
G01 X298.698 Y173.269
G01 X295.821 Y173.868
G01 X293.380 Y175.507
G01 X291.703 Y177.920
G01 X290.980 Y180.770
G01 X291.270 Y183.695
G01 X292.510 Y186.360
G01 X294.542 Y188.485
G01 X297.136 Y189.868
G01 X300.029 Y190.394
G01 X302.946 Y190.033
G01 X306.437 Y188.274
G01 X309.020 Y185.340
G01 X310.361 Y181.666
G01 X310.314 Y177.756
G01 X308.918 Y174.102
G01 X306.369 Y171.135
G01 X302.983 Y169.176
G01 X299.145 Y168.418
G01 X295.264 Y168.915
G01 X291.730 Y170.595
G01 X288.876 Y173.272
G01 X286.956 Y176.682
G01 X286.125 Y180.507
G01 X286.437 Y184.408
G01 X287.848 Y188.059
G01 X289.478 Y190.373
G01 X289.771 Y190.773
G01 X290.581 Y190.538
G01 X290.891 Y189.463
G01 X290.428 Y188.506
G01 X289.558 Y187.937
G01 X288.541 Y187.801
G01 X287.557 Y188.059
G01 X286.120 Y189.442
G01 X285.709 Y191.387
G01 X286.328 Y193.270
G01 X287.738 Y194.659
G01 X289.602 Y195.320
G01 X291.572 Y195.187
G01 X294.092 Y193.674
G01 X295.501 Y191.094
G01 X295.519 Y188.155
G01 X294.218 Y185.519
G01 X291.918 Y183.687
G01 X289.072 Y182.949
G01 X286.164 Y183.379
G01 X283.629 Y184.868
G01 X281.804 Y187.173
G01 X280.900 Y189.971
G01 X280.997 Y192.910
G01 X282.054 Y195.653
G01 X283.934 Y197.914
G01 X286.424 Y199.477
G01 X289.271 Y200.211
G01 X292.208 Y200.068
G01 X295.823 Y198.579
G01 X298.627 Y195.854
G01 X300.257 Y192.299
G01 X300.529 Y188.397
G01 X299.443 Y184.639
G01 X297.158 Y181.464
G01 X293.955 Y179.217
G01 X290.199 Y178.120
G01 X286.289 Y178.264
G01 X282.614 Y179.610
G01 X279.521 Y182.008
G01 X277.284 Y185.219
G01 X276.085 Y188.944
G01 X276.009 Y192.858
G01 X277.046 Y196.632
G01 X277.697 Y197.938
G01 X277.981 Y198.337
G01 X278.772 Y198.145
G01 X279.133 Y197.078
G01 X278.704 Y196.101
G01 X277.853 Y195.501
G01 X276.839 Y195.331
G01 X275.846 Y195.556
G01 X274.361 Y196.890
G01 X273.879 Y198.820
G01 X274.427 Y200.726
G01 X275.781 Y202.171
G01 X277.616 Y202.908
G01 X279.592 Y202.861
G01 X282.178 Y201.463
G01 X283.709 Y198.952
G01 X283.874 Y196.016
G01 X282.712 Y193.315
G01 X280.515 Y191.361
G01 X277.715 Y190.464
G01 X274.785 Y190.723
G01 X272.165 Y192.056
G01 X270.199 Y194.243
G01 X269.117 Y196.977
G01 X269.020 Y199.916
G01 X269.890 Y202.725
G01 X271.608 Y205.112
G01 X273.981 Y206.848
G01 X276.768 Y207.787
G01 X279.707 Y207.862
G01 X283.425 Y206.653
G01 X286.434 Y204.155
G01 X288.344 Y200.741
G01 X288.936 Y196.875
G01 X288.169 Y193.038
G01 X286.163 Y189.679
G01 X283.169 Y187.160
G01 X279.526 Y185.732
G01 X275.619 Y185.519
G01 X271.835 Y186.518
G01 X268.529 Y188.614
G01 X265.993 Y191.595
G01 X264.436 Y195.186
G01 X263.973 Y199.073
G01 X264.648 Y203.011
G01 X264.920 Y203.409
G01 X265.687 Y203.267
G01 X266.111 Y202.212
G01 X265.723 Y201.214
G01 X264.896 Y200.577
G01 X263.889 Y200.365
G01 X262.885 Y200.549
G01 X261.343 Y201.820
G01 X260.775 Y203.727
G01 X261.233 Y205.659
G01 X262.515 Y207.170
G01 X264.311 Y208.000
G01 X266.287 Y208.059
G01 X268.949 Y206.808
G01 X270.628 Y204.393
G01 X270.975 Y201.472
G01 X269.992 Y198.699
G01 X267.932 Y196.600
G01 X265.201 Y195.507
G01 X262.260 Y195.551
G01 X259.545 Y196.683
G01 X257.414 Y198.710
G01 X256.116 Y201.349
G01 X255.777 Y204.271
G01 X256.405 Y207.144
G01 X257.910 Y209.671
G01 X260.119 Y211.612
G01 X262.809 Y212.801
G01 X266.710 Y213.075
G01 X270.429 Y211.867
G01 X273.453 Y209.386
G01 X275.400 Y205.993
G01 X276.052 Y202.135
G01 X275.361 Y198.284
G01 X273.438 Y194.876
G01 X270.516 Y192.273
G01 X266.921 Y190.727
G01 X263.023 Y190.373
G01 X259.202 Y191.221
G01 X255.808 Y193.171
G01 X253.135 Y196.030
G01 X251.399 Y199.539
G01 X250.729 Y203.396
G01 X250.750 Y204.698
G01 X251.013 Y205.095
G01 X251.758 Y204.989
G01 X252.232 Y203.946
G01 X251.878 Y202.932
G01 X251.070 Y202.268
G01 X250.068 Y202.023
G01 X249.058 Y202.175
G01 X247.473 Y203.394
G01 X246.837 Y205.282
G01 X247.223 Y207.230
G01 X248.446 Y208.790
G01 X250.207 Y209.694
G01 X252.179 Y209.838
G01 X254.896 Y208.707
G01 X256.688 Y206.373
G01 X257.181 Y203.472
G01 X256.343 Y200.652
G01 X254.400 Y198.443
G01 X251.735 Y197.197
G01 X248.796 Y197.068
G01 X246.017 Y198.034
G01 X243.763 Y199.924
G01 X242.297 Y202.475
G01 X241.765 Y205.368
G01 X242.197 Y208.277
G01 X243.521 Y210.903
G01 X245.586 Y212.998
G01 X248.182 Y214.381
G01 X252.052 Y214.947
G01 X255.854 Y214.029
G01 X259.065 Y211.795
G01 X261.281 Y208.571
G01 X262.252 Y204.780
G01 X261.891 Y200.884
G01 X260.271 Y197.321
G01 X257.592 Y194.469
G01 X254.151 Y192.604
G01 X250.302 Y191.891
G01 X247.372 Y192.144
G01 X243.696 Y193.490
G01 X240.722 Y195.747
G01 X240.575 Y195.853
G01 X238.324 Y198.939
G01 X238.266 Y199.015
G01 X236.947 Y202.701
G01 X236.794 Y203.590
G01 X237.046 Y203.985
G01 X237.763 Y203.922
G01 X238.297 Y202.896
G01 X237.984 Y201.864
G01 X237.201 Y201.166
G01 X236.208 Y200.882
G01 X235.191 Y200.993
G01 X233.555 Y202.147
G01 X232.837 Y204.007
G01 X233.133 Y205.973
G01 X234.279 Y207.591
G01 X235.993 Y208.584
G01 X237.956 Y208.833
G01 X240.733 Y207.855
G01 X242.660 Y205.630
G01 X243.333 Y202.765
G01 X242.681 Y199.895
G01 X240.892 Y197.558
G01 X238.321 Y196.126
G01 X235.398 Y195.783
G01 X232.553 Y196.535
G01 X230.158 Y198.243
G01 X228.491 Y200.668
G01 X227.720 Y203.507
G01 X227.902 Y206.443
G01 X228.993 Y209.176
G01 X230.862 Y211.447
G01 X234.233 Y213.431
G01 X238.104 Y213.991
G01 X241.910 Y213.087
G01 X245.142 Y210.882
G01 X247.403 Y207.688
G01 X248.444 Y203.915
G01 X248.174 Y200.011
G01 X246.651 Y196.405
G01 X244.062 Y193.469
G01 X240.689 Y191.484
G01 X237.847 Y190.726
G01 X234.907 Y190.633
G01 X232.021 Y191.199
G01 X229.058 Y192.659
G01 X228.501 Y192.912
G01 X226.116 Y195.131
G01 X225.620 Y195.564
G01 X223.715 Y198.750
G01 X223.605 Y198.921
G01 X223.546 Y199.064
G01 X223.789 Y199.457
G01 X224.483 Y199.426
G01 X225.064 Y198.415
G01 X224.784 Y197.369
G01 X224.021 Y196.646
G01 X223.036 Y196.331
G01 X222.015 Y196.411
G01 X220.340 Y197.512
G01 X219.558 Y199.347
G01 X219.782 Y201.324
G01 X220.866 Y202.986
G01 X222.538 Y204.048
G01 X225.476 Y204.266
G01 X228.101 Y202.932
G01 X229.758 Y200.498
G01 X230.131 Y197.577
G01 X229.215 Y194.779
G01 X227.237 Y192.599
G01 X224.566 Y191.363
G01 X221.626 Y191.217
G01 X218.831 Y192.139
G01 X216.531 Y193.975
G01 X214.983 Y196.477
G01 X214.334 Y199.348
G01 X214.627 Y202.275
G01 X215.807 Y204.971
G01 X217.741 Y207.188
G01 X221.158 Y209.092
G01 X225.040 Y209.580
G01 X228.835 Y208.624
G01 X232.014 Y206.414
G01 X232.047 Y206.390
G01 X234.293 Y203.185
G01 X235.333 Y199.412
G01 X235.076 Y195.506
G01 X233.580 Y191.889
G01 X231.023 Y188.924
G01 X227.678 Y186.890
G01 X224.850 Y186.083
G01 X221.912 Y185.932
G01 X219.014 Y186.435
G01 X216.517 Y187.473
G01 X216.296 Y187.558
G01 X214.086 Y189.107
G01 X213.884 Y189.241
G01 X211.926 Y191.497
G01 X211.461 Y191.996
G01 X211.696 Y192.388
G01 X212.367 Y192.385
G01 X212.993 Y191.390
G01 X212.745 Y190.333
G01 X212.003 Y189.586
G01 X211.026 Y189.240
G01 X210.002 Y189.288
G01 X208.291 Y190.336
G01 X207.446 Y192.145
G01 X207.598 Y194.129
G01 X208.618 Y195.833
G01 X210.247 Y196.962
G01 X213.174 Y197.306
G01 X215.858 Y196.092
G01 X217.631 Y193.740
G01 X218.151 Y190.841
G01 X217.384 Y187.998
G01 X215.530 Y185.711
G01 X212.933 Y184.323
G01 X210.101 Y184.015
G01 X210.007 Y184.002
G01 X207.702 Y184.623
G01 X207.160 Y184.750
G01 X205.151 Y186.170
G01 X204.748 Y186.437
G01 X203.038 Y188.832
G01 X202.197 Y191.652
G01 X202.287 Y194.594
G01 X203.273 Y197.366
G01 X205.774 Y200.374
G01 X209.232 Y202.204
G01 X212.776 Y202.601
G01 X213.122 Y202.629
G01 X216.329 Y201.797
G01 X216.906 Y201.629
G01 X219.640 Y199.716
G01 X220.103 Y199.372
G01 X222.176 Y196.413
G01 X222.341 Y196.161
G01 X223.386 Y192.388
G01 X223.150 Y188.481
G01 X221.687 Y184.850
G01 X219.167 Y181.853
G01 X216.740 Y180.190
G01 X214.000 Y179.121
G01 X211.208 Y178.711
G01 X211.091 Y178.690
G01 X208.782 Y178.880
G01 X208.157 Y178.909
G01 X206.140 Y179.541
G01 X205.342 Y179.761
G01 X203.489 Y180.819
G01 X202.774 Y181.195
G01 X201.021 Y182.668
G01 X201.244 Y183.057
G01 X201.879 Y183.093
G01 X202.573 Y182.124
G01 X202.372 Y181.051
G01 X201.661 Y180.270
G01 X200.698 Y179.881
G01 X199.671 Y179.883
G01 X197.910 Y180.849
G01 X196.973 Y182.615
G01 X197.017 Y184.606
G01 X197.939 Y186.367
G01 X199.498 Y187.593
G01 X202.074 Y188.073
G01 X202.399 Y188.123
G01 X204.691 Y187.284
G01 X205.161 Y187.095
G01 X206.976 Y185.026
G01 X207.100 Y184.875
G01 X207.839 Y182.023
G01 X207.301 Y179.127
G01 X205.642 Y176.693
G01 X203.174 Y175.086
G01 X201.119 Y174.698
G01 X200.288 Y174.504
G01 X198.547 Y174.822
G01 X197.383 Y174.985
G01 X195.758 Y175.936
G01 X194.819 Y176.433
G01 X193.168 Y178.344
