;  Created by Sandify
;  https://sandify.org
;  Version: 0.2.4
;
;  Machine type: Rectangular
;    Min X (mm): 0
;    Max X (mm): 380
;    Min Y (mm): 0
;    Max Y (mm): 280
;  Content type: shape
;  Layer:
;    Shape: FileImport
;    Name: TriangleSwoop.thr
;    From file:: TriangleSwoop.thr
;    Aspect Ratio: true
;    Comments: 
;    Visible: true
;    Initial width: 10
;    Initial height: 10
;    X offset: 0
;    Y offset: 0
;    Rotate (degrees): 0
;    Reverse path: false
;    Fine tuning:
;      Connect to next layer: line
;      Draw portion of path (%): 100
;      Backtrack at end (%): 0
;      Rotate starting point (%): 0
;  Reverse export path: false
;
; File name: 'TrianleSwoop'
;

G01 X190.000 Y140.000
G01 X189.966 Y140.686
G01 X189.865 Y141.368
G01 X189.697 Y142.039
G01 X189.464 Y142.696
G01 X189.444 Y142.744
G01 X187.219 Y153.721
G01 X188.112 Y152.415
G01 X188.870 Y151.058
G01 X189.319 Y150.084
G01 X189.828 Y149.369
G01 X190.265 Y148.631
G01 X190.630 Y147.874
G01 X190.719 Y147.659
G01 X191.045 Y147.273
G01 X191.334 Y146.874
G01 X191.588 Y146.465
G01 X191.804 Y146.049
G01 X191.984 Y145.628
G01 X192.119 Y145.234
G01 X192.306 Y144.979
G01 X192.474 Y144.719
G01 X192.621 Y144.455
G01 X192.749 Y144.187
G01 X192.819 Y144.021
G01 X192.970 Y143.823
G01 X193.108 Y143.619
G01 X193.233 Y143.412
G01 X193.346 Y143.200
G01 X193.446 Y142.986
G01 X193.519 Y142.809
G01 X193.653 Y142.634
G01 X193.779 Y142.452
G01 X193.896 Y142.264
G01 X194.004 Y142.071
G01 X194.102 Y141.873
G01 X194.190 Y141.670
G01 X194.219 Y141.597
G01 X194.361 Y141.410
G01 X194.496 Y141.214
G01 X194.622 Y141.007
G01 X194.738 Y140.791
G01 X194.843 Y140.566
G01 X194.919 Y140.384
G01 X195.095 Y140.147
G01 X195.259 Y139.894
G01 X195.410 Y139.624
G01 X195.547 Y139.340
G01 X195.619 Y139.172
G01 X195.915 Y138.829
G01 X196.191 Y138.455
G01 X196.444 Y138.052
G01 X196.671 Y137.620
G01 X196.871 Y137.161
G01 X197.019 Y136.747
G01 X197.510 Y136.060
G01 X197.950 Y135.318
G01 X198.333 Y134.525
G01 X198.419 Y134.322
G01 X199.295 Y133.044
G01 X200.063 Y131.668
G01 X200.519 Y130.685
G01 X202.271 Y128.009
G01 X203.780 Y125.143
G01 X204.019 Y124.622
G01 X207.622 Y118.654
G01 X208.919 Y116.135
G01 X215.919 Y104.011
G01 X226.419 Y85.825
G01 X241.819 Y59.151
G01 X257.219 Y32.477
G01 X250.187 Y32.306
G01 X244.619 Y32.477
G01 X238.197 Y32.339
G01 X233.419 Y32.477
G01 X227.444 Y32.334
G01 X222.219 Y32.477
G01 X216.581 Y32.332
G01 X211.019 Y32.477
G01 X205.608 Y32.332
G01 X200.234 Y32.457
G01 X199.819 Y32.477
G01 X194.522 Y32.332
G01 X189.235 Y32.447
G01 X188.619 Y32.477
G01 X183.323 Y32.332
G01 X178.010 Y32.448
G01 X177.419 Y32.477
G01 X172.009 Y32.332
G01 X166.555 Y32.460
G01 X166.219 Y32.477
G01 X160.577 Y32.332
G01 X155.019 Y32.477
G01 X149.028 Y32.335
G01 X143.819 Y32.477
G01 X137.360 Y32.340
G01 X132.619 Y32.477
G01 X125.548 Y32.308
G01 X120.019 Y32.477
G01 X117.219 Y32.477
G01 X132.619 Y59.151
G01 X144.519 Y79.762
G01 X153.619 Y95.524
G01 X159.919 Y106.436
G01 X164.107 Y113.817
G01 X164.819 Y114.923
G01 X167.286 Y119.499
G01 X169.019 Y122.198
G01 X170.561 Y125.083
G01 X171.819 Y127.047
G01 X172.726 Y128.930
G01 X173.771 Y130.690
G01 X174.619 Y131.897
G01 X175.175 Y133.097
G01 X175.809 Y134.222
G01 X176.516 Y135.267
G01 X176.719 Y135.534
G01 X177.044 Y136.341
G01 X177.415 Y137.104
G01 X177.828 Y137.822
G01 X178.280 Y138.492
G01 X178.767 Y139.112
G01 X178.819 Y139.172
G01 X179.062 Y139.728
G01 X179.333 Y140.259
G01 X179.629 Y140.762
G01 X179.948 Y141.237
G01 X180.219 Y141.597
G01 X180.412 Y142.052
G01 X180.626 Y142.493
G01 X180.861 Y142.918
G01 X181.114 Y143.326
G01 X181.385 Y143.716
G01 X181.619 Y144.021
G01 X181.796 Y144.444
G01 X181.995 Y144.859
G01 X182.215 Y145.265
G01 X182.456 Y145.661
G01 X182.716 Y146.046
G01 X182.997 Y146.419
G01 X183.019 Y146.446
G01 X183.216 Y146.911
G01 X183.442 Y147.372
G01 X183.697 Y147.827
G01 X183.982 Y148.274
G01 X184.295 Y148.712
G01 X184.419 Y148.871
G01 X184.679 Y149.458
G01 X184.984 Y150.039
G01 X185.333 Y150.612
G01 X185.727 Y151.175
G01 X185.819 Y151.296
G01 X186.191 Y152.080
G01 X186.631 Y152.853
G01 X187.138 Y153.610
G01 X187.219 Y153.721
G01 X188.029 Y152.958
G01 X188.758 Y152.151
G01 X189.403 Y151.306
G01 X189.918 Y150.504
G01 X190.415 Y150.036
G01 X190.865 Y149.546
G01 X191.269 Y149.037
G01 X191.624 Y148.512
G01 X191.718 Y148.359
G01 X192.072 Y148.052
G01 X192.399 Y147.732
G01 X192.701 Y147.399
G01 X192.976 Y147.056
G01 X193.223 Y146.704
G01 X193.444 Y146.346
G01 X193.518 Y146.214
G01 X193.790 Y145.988
G01 X194.048 Y145.750
G01 X194.292 Y145.502
G01 X194.521 Y145.244
G01 X194.735 Y144.976
G01 X194.935 Y144.701
G01 X195.118 Y144.417
G01 X195.286 Y144.127
G01 X195.318 Y144.069
G01 X195.581 Y143.851
G01 X195.836 Y143.618
G01 X196.081 Y143.369
G01 X196.316 Y143.104
G01 X196.539 Y142.824
G01 X196.750 Y142.530
G01 X196.947 Y142.222
G01 X197.118 Y141.924
G01 X197.460 Y141.628
G01 X197.791 Y141.304
G01 X198.106 Y140.951
G01 X198.406 Y140.569
G01 X198.686 Y140.161
G01 X198.917 Y139.779
G01 X199.418 Y139.303
G01 X199.893 Y138.777
G01 X200.337 Y138.204
G01 X200.717 Y137.634
G01 X201.539 Y136.851
G01 X202.309 Y135.983
G01 X203.018 Y135.032
G01 X203.417 Y134.417
G01 X204.862 Y132.941
G01 X206.190 Y131.312
G01 X207.016 Y130.127
G01 X209.561 Y127.328
G01 X211.516 Y124.764
G01 X216.077 Y119.542
G01 X217.815 Y117.257
G01 X225.914 Y107.605
G01 X237.613 Y93.663
G01 X253.811 Y74.359
G01 X275.409 Y48.620
G01 X277.209 Y46.475
G01 X270.187 Y45.064
G01 X264.800 Y44.287
G01 X258.401 Y43.019
G01 X253.770 Y42.342
G01 X247.837 Y41.150
G01 X242.741 Y40.397
G01 X237.164 Y39.266
G01 X231.711 Y38.452
G01 X226.381 Y37.364
G01 X221.046 Y36.553
G01 X220.681 Y36.507
G01 X215.488 Y35.444
G01 X210.266 Y34.640
G01 X209.651 Y34.562
G01 X204.484 Y33.503
G01 X199.260 Y32.698
G01 X198.621 Y32.618
G01 X193.366 Y31.543
G01 X188.026 Y30.727
G01 X187.591 Y30.673
G01 X182.133 Y29.562
G01 X176.562 Y28.728
G01 X170.783 Y27.563
G01 X165.532 Y26.783
G01 X159.316 Y25.546
G01 X154.502 Y24.838
G01 X147.714 Y23.467
G01 X142.093 Y22.650
G01 X139.336 Y22.164
G01 X150.828 Y53.738
G01 X158.968 Y76.102
G01 X165.193 Y93.205
G01 X169.951 Y106.290
G01 X169.981 Y106.360
G01 X172.552 Y113.709
G01 X173.333 Y115.569
G01 X174.781 Y119.889
G01 X175.727 Y122.147
G01 X176.535 Y124.757
G01 X177.562 Y127.239
G01 X177.642 Y127.410
G01 X178.109 Y129.019
G01 X178.701 Y130.550
G01 X179.079 Y131.356
G01 X179.304 Y132.358
G01 X179.601 Y133.315
G01 X179.964 Y134.224
G01 X180.389 Y135.080
G01 X180.515 Y135.303
G01 X180.663 Y135.934
G01 X180.849 Y136.538
G01 X181.071 Y137.115
G01 X181.326 Y137.660
G01 X181.473 Y137.934
G01 X181.564 Y138.390
G01 X181.680 Y138.832
G01 X181.818 Y139.258
G01 X181.977 Y139.668
G01 X182.156 Y140.061
G01 X182.355 Y140.435
G01 X182.430 Y140.565
G01 X182.465 Y140.936
G01 X182.518 Y141.305
G01 X182.589 Y141.671
G01 X182.678 Y142.033
G01 X182.785 Y142.391
G01 X182.909 Y142.743
G01 X183.050 Y143.088
G01 X183.208 Y143.426
G01 X183.383 Y143.756
G01 X183.573 Y144.078
G01 X183.780 Y144.389
G01 X183.867 Y144.512
G01 X183.947 Y144.928
G01 X184.054 Y145.347
G01 X184.188 Y145.767
G01 X184.349 Y146.187
G01 X184.537 Y146.604
G01 X184.753 Y147.018
G01 X184.824 Y147.143
G01 X184.958 Y147.730
G01 X185.138 Y148.320
G01 X185.364 Y148.910
G01 X185.637 Y149.498
G01 X185.782 Y149.774
G01 X185.988 Y150.713
G01 X186.277 Y151.653
G01 X186.649 Y152.589
G01 X187.105 Y153.515
G01 X187.219 Y153.721
G01 X187.987 Y153.239
G01 X188.701 Y152.716
G01 X189.358 Y152.157
G01 X189.958 Y151.565
G01 X190.436 Y151.021
G01 X190.949 Y150.682
G01 X191.430 Y150.319
G01 X191.878 Y149.936
G01 X192.292 Y149.535
G01 X192.581 Y149.221
G01 X192.989 Y148.961
G01 X193.378 Y148.682
G01 X193.747 Y148.388
G01 X194.096 Y148.078
G01 X194.423 Y147.755
G01 X194.726 Y147.422
G01 X195.091 Y147.191
G01 X195.446 Y146.942
G01 X195.788 Y146.676
G01 X196.117 Y146.392
G01 X196.432 Y146.093
G01 X196.732 Y145.778
G01 X196.871 Y145.622
G01 X197.265 Y145.372
G01 X197.651 Y145.096
G01 X198.027 Y144.795
G01 X198.392 Y144.470
G01 X198.744 Y144.120
G01 X199.016 Y143.822
G01 X199.515 Y143.493
G01 X200.002 Y143.125
G01 X200.475 Y142.716
G01 X200.932 Y142.269
G01 X201.161 Y142.022
G01 X201.903 Y141.558
G01 X202.624 Y141.026
G01 X203.321 Y140.426
G01 X203.988 Y139.761
G01 X204.378 Y139.322
G01 X205.535 Y138.501
G01 X206.643 Y137.565
G01 X207.595 Y136.623
G01 X209.435 Y135.270
G01 X211.178 Y133.731
G01 X211.885 Y133.023
G01 X214.885 Y130.699
G01 X217.248 Y128.524
G01 X222.305 Y124.486
G01 X224.755 Y122.224
G01 X233.436 Y115.023
G01 X234.407 Y114.125
G01 X246.204 Y104.226
G01 X262.291 Y90.728
G01 X283.740 Y72.730
G01 X294.465 Y63.731
G01 X287.655 Y61.074
G01 X282.625 Y59.421
G01 X276.426 Y57.021
G01 X272.100 Y55.591
G01 X266.370 Y53.354
G01 X261.576 Y51.760
G01 X256.208 Y49.652
G01 X251.051 Y47.929
G01 X245.942 Y45.915
G01 X240.784 Y44.178
G01 X240.526 Y44.099
G01 X235.571 Y42.140
G01 X230.546 Y40.436
G01 X230.002 Y40.268
G01 X225.094 Y38.327
G01 X220.092 Y36.628
G01 X219.477 Y36.437
G01 X214.509 Y34.474
G01 X209.419 Y32.751
G01 X208.953 Y32.607
G01 X203.815 Y30.582
G01 X198.524 Y28.806
G01 X198.428 Y28.776
G01 X193.010 Y26.651
G01 X187.904 Y24.946
G01 X182.092 Y22.681
G01 X177.379 Y21.115
G01 X171.076 Y18.768
G01 X169.486 Y18.242
G01 X181.641 Y87.179
G01 X186.746 Y116.132
G01 X188.934 Y128.540
G01 X189.653 Y132.043
G01 X189.907 Y134.055
G01 X190.166 Y135.027
G01 X190.330 Y136.008
G01 X190.393 Y136.813
G01 X190.499 Y137.126
G01 X190.574 Y137.442
G01 X190.621 Y137.757
G01 X190.637 Y138.070
G01 X190.636 Y138.192
G01 X190.702 Y138.280
G01 X190.760 Y138.370
G01 X190.812 Y138.462
G01 X190.856 Y138.554
G01 X190.893 Y138.647
G01 X190.924 Y138.741
G01 X190.947 Y138.833
G01 X190.963 Y138.925
G01 X190.973 Y139.016
G01 X190.977 Y139.105
G01 X190.974 Y139.192
G01 X190.965 Y139.276
G01 X190.950 Y139.357
G01 X190.930 Y139.436
G01 X190.905 Y139.510
G01 X190.879 Y139.570
G01 X190.918 Y139.606
G01 X190.956 Y139.644
G01 X190.992 Y139.685
G01 X191.027 Y139.729
G01 X191.059 Y139.775
G01 X191.090 Y139.824
G01 X191.118 Y139.875
G01 X191.143 Y139.929
G01 X191.166 Y139.985
G01 X191.186 Y140.043
G01 X191.204 Y140.103
G01 X191.218 Y140.165
G01 X191.229 Y140.228
G01 X191.236 Y140.293
G01 X191.240 Y140.359
G01 X191.241 Y140.426
G01 X191.238 Y140.494
G01 X191.231 Y140.563
G01 X191.221 Y140.632
G01 X191.206 Y140.702
G01 X191.188 Y140.772
G01 X191.165 Y140.841
G01 X191.139 Y140.910
G01 X191.122 Y140.949
G01 X191.205 Y141.125
G01 X191.272 Y141.310
G01 X191.324 Y141.505
G01 X191.360 Y141.708
G01 X191.378 Y141.917
G01 X191.380 Y142.132
G01 X191.365 Y142.328
G01 X191.590 Y143.043
G01 X191.746 Y143.784
G01 X191.833 Y144.547
G01 X191.852 Y145.085
G01 X192.392 Y147.729
G01 X192.581 Y149.221
G01 X193.015 Y149.038
G01 X193.438 Y148.835
G01 X193.847 Y148.612
G01 X194.244 Y148.370
G01 X194.625 Y148.110
G01 X194.992 Y147.832
G01 X195.006 Y147.821
G01 X195.436 Y147.640
G01 X195.861 Y147.436
G01 X196.278 Y147.208
G01 X196.687 Y146.957
G01 X197.087 Y146.682
G01 X197.431 Y146.421
G01 X197.935 Y146.204
G01 X198.436 Y145.953
G01 X198.931 Y145.667
G01 X199.418 Y145.346
G01 X199.856 Y145.021
G01 X200.566 Y144.746
G01 X201.273 Y144.412
G01 X201.971 Y144.020
G01 X202.656 Y143.569
G01 X203.325 Y143.061
G01 X203.493 Y142.921
G01 X204.600 Y142.418
G01 X205.687 Y141.813
G01 X206.748 Y141.106
G01 X207.130 Y140.821
G01 X208.903 Y139.978
G01 X210.631 Y138.962
G01 X211.980 Y138.021
G01 X214.921 Y136.517
G01 X217.760 Y134.720
G01 X218.042 Y134.521
G01 X222.884 Y131.882
G01 X225.317 Y130.321
G01 X233.329 Y125.806
G01 X235.016 Y124.721
G01 X247.141 Y117.721
G01 X262.902 Y108.621
G01 X283.514 Y96.721
G01 X307.762 Y82.721
G01 X301.421 Y78.871
G01 X296.850 Y76.421
G01 X291.113 Y72.907
G01 X285.938 Y70.121
G01 X280.649 Y66.905
G01 X276.239 Y64.521
G01 X271.280 Y61.493
G01 X266.540 Y58.921
G01 X261.816 Y56.027
G01 X256.994 Y53.400
G01 X256.840 Y53.321
G01 X252.255 Y50.508
G01 X247.555 Y47.934
G01 X247.141 Y47.721
G01 X242.597 Y44.932
G01 X237.918 Y42.366
G01 X237.441 Y42.121
G01 X232.842 Y39.299
G01 X228.079 Y36.694
G01 X227.742 Y36.521
G01 X222.986 Y33.609
G01 X218.042 Y30.921
G01 X213.029 Y27.862
G01 X208.343 Y25.321
G01 X202.968 Y22.059
G01 X198.643 Y19.721
G01 X192.801 Y16.340
G01 X192.581 Y16.221
G01 X192.581 Y65.221
G01 X192.581 Y94.621
G01 X192.581 Y112.821
G01 X192.614 Y121.942
G01 X192.581 Y122.621
G01 X192.746 Y126.206
G01 X192.581 Y129.621
G01 X192.714 Y130.997
G01 X192.720 Y132.358
G01 X192.599 Y133.695
G01 X192.581 Y133.821
G01 X192.680 Y134.378
G01 X192.731 Y134.927
G01 X192.735 Y135.468
G01 X192.693 Y135.995
G01 X192.607 Y136.507
G01 X192.581 Y136.621
G01 X192.624 Y136.894
G01 X192.647 Y137.162
G01 X192.650 Y137.425
G01 X192.633 Y137.680
G01 X192.599 Y137.928
G01 X192.581 Y138.021
G01 X192.618 Y138.190
G01 X192.646 Y138.356
G01 X192.663 Y138.522
G01 X192.671 Y138.684
G01 X192.669 Y138.844
G01 X192.658 Y139.001
G01 X192.638 Y139.154
G01 X192.610 Y139.302
G01 X192.581 Y139.421
G01 X192.612 Y139.548
G01 X192.637 Y139.676
G01 X192.656 Y139.805
G01 X192.668 Y139.935
G01 X192.674 Y140.067
G01 X192.673 Y140.198
G01 X192.666 Y140.330
G01 X192.652 Y140.461
G01 X192.632 Y140.592
G01 X192.606 Y140.722
G01 X192.581 Y140.821
G01 X192.617 Y140.977
G01 X192.644 Y141.138
G01 X192.661 Y141.303
G01 X192.669 Y141.473
G01 X192.665 Y141.647
G01 X192.651 Y141.824
G01 X192.626 Y142.004
G01 X192.590 Y142.185
G01 X192.581 Y142.221
G01 X192.623 Y142.492
G01 X192.644 Y142.771
G01 X192.643 Y143.058
G01 X192.621 Y143.351
G01 X192.581 Y143.621
G01 X192.677 Y144.175
G01 X192.724 Y144.746
G01 X192.720 Y145.330
G01 X192.666 Y145.924
G01 X192.581 Y146.421
G01 X192.653 Y147.668
G01 X192.608 Y148.934
G01 X192.581 Y149.221
G01 X193.041 Y149.115
G01 X193.496 Y148.985
G01 X193.946 Y148.833
G01 X194.390 Y148.658
G01 X194.826 Y148.461
G01 X195.212 Y148.264
G01 X195.715 Y148.146
G01 X196.218 Y147.998
G01 X196.721 Y147.820
G01 X197.221 Y147.612
G01 X197.716 Y147.373
G01 X197.843 Y147.306
G01 X198.472 Y147.149
G01 X199.104 Y146.946
G01 X199.735 Y146.699
G01 X200.363 Y146.405
G01 X200.474 Y146.348
G01 X201.369 Y146.149
G01 X202.267 Y145.876
G01 X203.165 Y145.529
G01 X204.056 Y145.108
G01 X204.421 Y144.912
G01 X205.800 Y144.530
G01 X207.173 Y144.023
G01 X208.368 Y143.475
G01 X210.519 Y142.848
G01 X212.648 Y142.017
G01 X213.630 Y141.560
G01 X217.109 Y140.457
G01 X220.208 Y139.166
G01 X225.817 Y137.248
G01 X228.101 Y136.293
G01 X237.215 Y133.054
G01 X238.626 Y132.462
G01 X251.782 Y127.674
G01 X268.884 Y121.449
G01 X291.249 Y113.309
G01 X317.560 Y103.733
G01 X311.904 Y98.776
G01 X307.908 Y95.634
G01 X302.790 Y91.115
G01 X298.256 Y87.534
G01 X293.531 Y83.390
G01 X289.676 Y80.335
G01 X285.250 Y76.436
G01 X281.096 Y73.136
G01 X276.883 Y69.415
G01 X272.527 Y65.944
G01 X272.517 Y65.937
G01 X268.433 Y62.324
G01 X264.194 Y58.933
G01 X263.937 Y58.738
G01 X259.898 Y55.162
G01 X255.686 Y51.788
G01 X255.357 Y51.538
G01 X251.277 Y47.928
G01 X246.999 Y44.507
G01 X246.778 Y44.339
G01 X242.569 Y40.622
G01 X238.198 Y37.140
G01 X233.772 Y33.242
G01 X229.618 Y29.941
G01 X224.885 Y25.790
G01 X221.038 Y22.742
G01 X216.419 Y48.937
G01 X212.773 Y69.618
G01 X209.856 Y86.163
G01 X207.706 Y98.403
G01 X207.668 Y98.572
G01 X206.426 Y106.185
G01 X205.966 Y108.223
G01 X205.199 Y113.124
G01 X204.750 Y115.116
G01 X204.374 Y118.260
G01 X203.728 Y121.300
G01 X203.535 Y122.010
G01 X203.268 Y124.057
G01 X202.836 Y126.032
G01 X202.805 Y126.146
G01 X202.668 Y127.578
G01 X202.423 Y128.960
G01 X202.076 Y130.283
G01 X202.024 Y131.261
G01 X201.906 Y132.209
G01 X201.726 Y133.124
G01 X201.486 Y134.002
G01 X201.347 Y134.419
G01 X201.291 Y135.119
G01 X201.194 Y135.800
G01 X201.058 Y136.459
G01 X200.886 Y137.095
G01 X200.861 Y137.176
G01 X200.822 Y137.747
G01 X200.754 Y138.306
G01 X200.657 Y138.854
G01 X200.533 Y139.388
G01 X200.383 Y139.907
G01 X200.374 Y139.934
G01 X200.342 Y140.442
G01 X200.285 Y140.947
G01 X200.204 Y141.447
G01 X200.098 Y141.942
G01 X199.968 Y142.429
G01 X199.888 Y142.691
G01 X199.855 Y143.209
G01 X199.796 Y143.731
G01 X199.708 Y144.254
G01 X199.592 Y144.777
G01 X199.448 Y145.299
G01 X199.402 Y145.449
G01 X199.322 Y146.032
G01 X199.207 Y146.621
G01 X199.159 Y146.827
G01 X200.103 Y146.786
G01 X201.063 Y146.668
G01 X202.035 Y146.471
G01 X203.012 Y146.193
G01 X203.295 Y146.098
G01 X204.832 Y145.941
G01 X206.383 Y145.646
G01 X207.431 Y145.369
G01 X209.900 Y145.075
G01 X212.377 Y144.550
G01 X212.946 Y144.396
G01 X217.021 Y143.814
G01 X219.840 Y143.181
G01 X226.738 Y142.100
G01 X229.491 Y141.479
G01 X241.415 Y139.401
G01 X241.899 Y139.291
G01 X258.444 Y136.374
G01 X280.504 Y132.484
G01 X309.457 Y127.379
G01 X323.245 Y124.948
G01 X318.506 Y119.054
G01 X315.145 Y115.295
G01 X310.851 Y109.914
G01 X307.046 Y105.643
G01 X303.106 Y100.676
G01 X298.966 Y96.011
G01 X298.947 Y95.991
G01 X295.273 Y91.338
G01 X291.407 Y86.938
G01 X290.848 Y86.339
G01 X287.320 Y81.917
G01 X283.649 Y77.759
G01 X280.208 Y73.441
G01 X276.570 Y69.310
G01 X276.450 Y69.180
G01 X273.026 Y64.882
G01 X269.389 Y60.750
G01 X269.250 Y60.600
G01 X265.773 Y56.238
G01 X262.058 Y52.028
G01 X262.051 Y52.020
G01 X258.470 Y47.479
G01 X254.615 Y43.080
G01 X253.952 Y42.368
G01 X250.139 Y37.551
G01 X246.005 Y32.878
G01 X245.853 Y32.716
G01 X242.253 Y28.426
G01 X233.156 Y53.422
G01 X225.973 Y73.155
G01 X220.227 Y88.942
G01 X215.953 Y100.698
G01 X215.918 Y100.782
G01 X213.291 Y108.261
G01 X212.566 Y109.991
G01 X211.002 Y114.753
G01 X209.693 Y117.885
G01 X208.791 Y120.876
G01 X207.648 Y123.720
G01 X207.299 Y124.463
G01 X206.774 Y126.360
G01 X206.108 Y128.166
G01 X205.384 Y129.725
G01 X205.046 Y130.985
G01 X204.624 Y132.186
G01 X204.123 Y133.323
G01 X203.947 Y133.672
G01 X203.746 Y134.560
G01 X203.492 Y135.412
G01 X203.189 Y136.226
G01 X202.839 Y136.999
G01 X202.511 Y137.618
G01 X202.339 Y138.273
G01 X202.134 Y138.906
G01 X201.897 Y139.514
G01 X201.630 Y140.096
G01 X201.553 Y140.249
G01 X201.411 Y140.808
G01 X201.243 Y141.353
G01 X201.049 Y141.883
G01 X200.830 Y142.398
G01 X200.595 Y142.881
G01 X200.464 Y143.404
G01 X200.306 Y143.922
G01 X200.123 Y144.433
G01 X199.914 Y144.934
G01 X199.681 Y145.427
G01 X199.638 Y145.512
G01 X199.465 Y146.048
G01 X199.263 Y146.581
G01 X199.159 Y146.827
G01 X200.350 Y146.952
G01 X201.574 Y146.976
G01 X202.823 Y146.894
G01 X203.359 Y146.827
G01 X205.495 Y146.982
G01 X207.673 Y146.942
G01 X208.959 Y146.827
G01 X212.821 Y146.974
G01 X215.959 Y146.827
G01 X222.965 Y146.961
G01 X225.759 Y146.827
G01 X238.359 Y146.827
G01 X256.559 Y146.827
G01 X280.359 Y146.827
G01 X313.959 Y146.827
G01 X325.159 Y146.827
G01 X321.503 Y140.182
G01 X318.859 Y135.915
G01 X315.542 Y129.837
G01 X312.559 Y125.003
G01 X309.511 Y119.381
G01 X306.259 Y114.092
G01 X303.411 Y108.813
G01 X300.330 Y103.751
G01 X299.959 Y103.180
G01 X297.244 Y98.131
G01 X294.300 Y93.260
G01 X293.659 Y92.268
G01 X291.009 Y87.334
G01 X288.126 Y82.545
G01 X287.359 Y81.356
G01 X284.707 Y76.419
G01 X281.805 Y71.601
G01 X281.059 Y70.444
G01 X278.337 Y65.383
G01 X275.336 Y60.424
G01 X274.759 Y59.532
G01 X271.896 Y54.226
G01 X268.713 Y49.011
G01 X268.459 Y48.620
G01 X265.659 Y43.770
G01 X255.159 Y61.957
G01 X246.059 Y77.718
G01 X238.359 Y91.055
G01 X232.920 Y100.626
G01 X232.059 Y101.967
G01 X228.345 Y108.604
G01 X227.159 Y110.454
G01 X224.605 Y115.155
G01 X222.959 Y117.729
G01 X221.181 Y121.090
G01 X219.459 Y123.791
G01 X218.174 Y126.254
G01 X216.723 Y128.549
G01 X216.659 Y128.641
G01 X215.751 Y130.492
G01 X214.729 Y132.225
G01 X213.859 Y133.490
G01 X213.162 Y134.887
G01 X212.388 Y136.199
G01 X211.759 Y137.128
G01 X211.220 Y138.253
G01 X210.624 Y139.318
G01 X209.977 Y140.320
G01 X209.659 Y140.765
G01 X209.226 Y141.696
G01 X208.750 Y142.586
G01 X208.234 Y143.434
G01 X207.681 Y144.238
G01 X207.559 Y144.402
G01 X207.151 Y145.207
G01 X206.707 Y145.982
G01 X206.228 Y146.726
G01 X206.159 Y146.827
G01 X211.704 Y147.939
G01 X214.431 Y148.286
G01 X226.616 Y150.446
G01 X226.840 Y150.474
G01 X246.142 Y153.877
G01 X275.095 Y158.983
G01 X319.215 Y166.762
G01 X323.351 Y167.491
G01 X320.918 Y160.352
G01 X319.041 Y155.651
G01 X316.832 Y149.098
G01 X314.732 Y143.811
G01 X312.697 Y137.725
G01 X310.423 Y131.971
G01 X308.515 Y126.231
G01 X306.337 Y120.658
G01 X306.113 Y120.131
G01 X304.287 Y114.616
G01 X302.200 Y109.231
G01 X301.804 Y108.291
G01 X300.013 Y102.877
G01 X297.962 Y97.562
G01 X297.494 Y96.451
G01 X295.695 Y91.012
G01 X293.620 Y85.645
G01 X293.185 Y84.611
G01 X291.331 Y79.019
G01 X289.174 Y73.478
G01 X288.875 Y72.770
G01 X286.918 Y66.898
G01 X284.620 Y61.058
G01 X284.566 Y60.930
G01 X282.651 Y55.668
G01 X268.252 Y72.827
G01 X256.553 Y86.769
G01 X246.654 Y98.566
G01 X239.014 Y107.722
G01 X238.555 Y108.219
G01 X233.283 Y114.612
G01 X232.256 Y115.726
G01 X228.579 Y120.290
G01 X226.857 Y122.161
G01 X224.265 Y125.444
G01 X222.357 Y127.523
G01 X220.588 Y129.899
G01 X218.670 Y132.070
G01 X217.858 Y132.885
G01 X216.620 Y134.577
G01 X215.288 Y136.130
G01 X214.258 Y137.175
G01 X213.323 Y138.439
G01 X212.325 Y139.604
G01 X211.558 Y140.393
G01 X210.837 Y141.404
G01 X210.069 Y142.346
G01 X209.261 Y143.216
G01 X208.859 Y143.610
G01 X208.283 Y144.440
G01 X207.672 Y145.222
G01 X207.030 Y145.955
G01 X206.359 Y146.638
G01 X206.159 Y146.827
G01 X228.523 Y154.967
G01 X281.146 Y174.120
G01 X317.982 Y187.528
G01 X316.837 Y180.139
G01 X315.794 Y175.119
G01 X314.760 Y168.313
G01 X313.606 Y162.711
G01 X312.656 Y156.363
G01 X311.418 Y150.302
G01 X310.528 Y144.287
G01 X309.343 Y138.385
G01 X309.230 Y137.893
G01 X308.376 Y132.086
G01 X307.241 Y126.357
G01 X307.042 Y125.485
G01 X306.202 Y119.757
G01 X305.082 Y114.077
G01 X304.854 Y113.076
G01 X304.006 Y107.298
G01 X302.865 Y101.538
G01 X302.666 Y100.668
G01 X301.786 Y94.707
G01 X300.589 Y88.738
G01 X300.478 Y88.259
G01 X299.506 Y82.000
G01 X298.534 Y77.229
G01 X283.519 Y89.828
G01 X270.650 Y100.627
G01 X259.925 Y109.626
G01 X251.469 Y116.814
G01 X250.273 Y117.725
G01 X244.172 Y122.950
G01 X242.766 Y124.024
G01 X238.277 Y127.934
G01 X236.331 Y129.424
G01 X232.970 Y132.387
G01 X230.968 Y133.923
G01 X228.478 Y136.210
G01 X225.868 Y138.238
G01 X225.606 Y138.423
G01 X223.718 Y140.162
G01 X221.750 Y141.713
G01 X221.316 Y142.022
G01 X219.869 Y143.407
G01 X218.365 Y144.655
G01 X217.026 Y145.622
G01 X215.909 Y146.731
G01 X214.749 Y147.744
G01 X213.555 Y148.661
G01 X212.737 Y149.221
G01 X223.649 Y155.521
G01 X241.835 Y166.021
G01 X269.721 Y182.121
G01 X309.731 Y205.221
G01 X309.887 Y197.868
G01 X309.731 Y192.621
G01 X309.893 Y185.813
G01 X309.731 Y180.021
G01 X309.896 Y173.634
G01 X309.731 Y167.421
G01 X309.897 Y161.329
G01 X309.755 Y155.287
G01 X309.731 Y154.821
G01 X309.897 Y148.898
G01 X309.770 Y142.993
G01 X309.731 Y142.221
G01 X309.896 Y136.338
G01 X309.772 Y130.443
G01 X309.731 Y129.621
G01 X309.897 Y123.647
G01 X309.762 Y117.632
G01 X309.731 Y117.021
G01 X309.897 Y110.825
G01 X309.738 Y104.557
G01 X309.731 Y104.421
G01 X309.857 Y97.881
G01 X309.731 Y93.221
G01 X291.545 Y103.721
G01 X275.783 Y112.821
G01 X262.446 Y120.521
G01 X252.093 Y126.534
G01 X251.535 Y126.821
G01 X244.344 Y131.124
G01 X241.835 Y132.421
G01 X236.733 Y135.496
G01 X234.560 Y136.621
G01 X230.819 Y138.914
G01 X228.498 Y140.121
G01 X225.787 Y141.871
G01 X223.002 Y143.356
G01 X222.436 Y143.621
G01 X220.441 Y144.921
G01 X218.400 Y146.034
G01 X217.586 Y146.421
G01 X216.096 Y147.442
G01 X214.575 Y148.332
G01 X213.032 Y149.092
G01 X212.737 Y149.221
G01 X216.802 Y152.435
G01 X219.171 Y154.621
G01 X226.307 Y160.485
G01 X227.751 Y161.820
G01 X239.548 Y171.719
G01 X254.563 Y184.318
G01 X274.939 Y201.416
G01 X298.534 Y221.214
G01 X299.939 Y214.139
G01 X300.722 Y208.805
G01 X302.046 Y202.224
G01 X302.910 Y196.396
G01 X304.171 Y190.186
G01 X305.097 Y183.989
G01 X305.098 Y183.988
G01 X306.315 Y178.025
G01 X307.227 Y172.049
G01 X307.285 Y171.579
G01 X308.481 Y165.740
G01 X309.387 Y159.860
G01 X309.473 Y159.171
G01 X310.669 Y153.329
G01 X311.579 Y147.417
G01 X311.661 Y146.762
G01 X312.880 Y140.791
G01 X313.804 Y134.717
G01 X313.849 Y134.354
G01 X315.114 Y128.123
G01 X316.037 Y121.945
G01 X316.767 Y117.809
G01 X298.349 Y124.512
G01 X282.562 Y130.258
G01 X269.406 Y135.047
G01 X258.400 Y139.096
G01 X257.566 Y139.356
G01 X249.680 Y142.362
G01 X247.041 Y143.187
G01 X241.417 Y145.413
G01 X237.832 Y146.539
G01 X233.671 Y148.170
G01 X231.255 Y148.933
G01 X228.116 Y150.234
G01 X224.954 Y151.251
G01 X224.677 Y151.327
G01 X222.275 Y152.326
G01 X219.863 Y153.118
G01 X219.415 Y153.242
G01 X218.099 Y153.721
G01 X221.241 Y157.203
G01 X223.498 Y160.156
G01 X228.280 Y165.672
G01 X229.798 Y167.663
G01 X237.143 Y176.325
G01 X237.897 Y177.315
G01 X247.796 Y189.112
G01 X260.394 Y204.127
G01 X275.693 Y222.359
G01 X285.592 Y234.156
G01 X288.142 Y227.607
G01 X289.901 Y222.315
G01 X292.304 Y216.185
G01 X294.211 Y210.475
G01 X296.505 Y204.647
G01 X298.480 Y198.764
G01 X298.520 Y198.635
G01 X300.747 Y192.991
G01 X302.683 Y187.271
G01 X302.829 Y186.795
G01 X305.032 Y181.218
G01 X306.959 Y175.537
G01 X307.139 Y174.955
G01 X309.361 Y169.324
G01 X311.311 Y163.559
G01 X311.448 Y163.115
G01 X313.734 Y157.309
G01 X315.739 Y151.335
G01 X315.758 Y151.275
G01 X318.151 Y145.171
G01 X320.067 Y139.435
G01 X321.504 Y135.488
G01 X299.444 Y139.378
G01 X281.521 Y142.538
G01 X266.355 Y145.212
G01 X253.946 Y147.400
G01 X244.860 Y149.096
G01 X242.916 Y149.345
G01 X236.613 Y150.614
G01 X233.265 Y151.047
G01 X228.759 Y151.950
G01 X226.371 Y152.262
G01 X223.095 Y152.999
G01 X219.840 Y153.446
G01 X219.478 Y153.478
G01 X218.099 Y153.721
G01 X219.851 Y156.437
G01 X221.398 Y159.355
G01 X221.599 Y159.783
G01 X224.072 Y163.735
G01 X225.799 Y167.058
G01 X229.310 Y172.863
G01 X230.699 Y175.545
G01 X235.661 Y184.010
G01 X236.299 Y185.244
G01 X243.299 Y197.369
G01 X251.699 Y211.918
G01 X262.199 Y230.104
G01 X270.599 Y244.654
G01 X274.148 Y238.824
G01 X276.899 Y233.742
G01 X280.255 Y228.252
G01 X283.199 Y222.830
G01 X286.422 Y217.571
G01 X289.356 Y212.197
G01 X289.499 Y211.918
G01 X292.651 Y206.782
G01 X295.540 Y201.511
G01 X295.799 Y201.006
G01 X298.943 Y195.884
G01 X301.839 Y190.600
G01 X302.099 Y190.094
G01 X305.300 Y184.875
G01 X308.256 Y179.461
G01 X308.399 Y179.182
G01 X311.720 Y173.753
G01 X314.699 Y168.270
G01 X318.126 Y162.502
G01 X319.599 Y159.783
G01 X297.199 Y159.783
G01 X278.999 Y159.783
G01 X263.599 Y159.783
G01 X251.474 Y159.806
G01 X250.999 Y159.783
G01 X242.457 Y159.907
G01 X239.799 Y159.783
G01 X233.682 Y159.887
G01 X231.399 Y159.783
G01 X226.860 Y159.892
G01 X224.399 Y159.783
G01 X221.599 Y159.783
G01 X222.895 Y162.915
G01 X223.954 Y166.218
G01 X223.993 Y166.361
G01 X225.716 Y170.618
G01 X226.866 Y174.254
G01 X229.180 Y180.162
G01 X230.218 Y183.463
G01 X233.334 Y191.704
G01 X234.048 Y193.988
G01 X238.232 Y205.424
G01 X238.358 Y205.828
G01 X243.625 Y220.299
G01 X249.850 Y237.402
G01 X255.117 Y251.873
G01 X259.478 Y246.927
G01 X263.216 Y242.221
G01 X267.367 Y237.527
G01 X271.236 Y232.673
G01 X271.315 Y232.569
G01 X275.336 Y228.030
G01 X279.108 Y223.321
G01 X279.414 Y222.917
G01 X283.385 Y218.437
G01 X287.131 Y213.768
G01 X287.513 Y213.264
G01 X291.516 Y208.747
G01 X295.309 Y204.013
G01 X295.613 Y203.612
G01 X299.731 Y198.957
G01 X303.644 Y194.050
G01 X303.712 Y193.960
G01 X308.029 Y189.066
G01 X311.811 Y184.308
G01 X316.329 Y179.047
G01 X318.110 Y176.801
G01 X291.914 Y172.182
G01 X271.233 Y168.535
G01 X254.688 Y165.618
G01 X241.247 Y163.265
G01 X240.901 Y163.187
G01 X232.143 Y161.754
G01 X229.871 Y161.242
G01 X224.018 Y160.327
G01 X221.599 Y159.783
G01 X222.227 Y162.450
G01 X222.666 Y165.224
G01 X222.814 Y166.677
G01 X223.563 Y170.138
G01 X224.030 Y173.570
G01 X224.984 Y178.076
G01 X225.489 Y181.843
G01 X226.711 Y187.859
G01 X227.190 Y191.494
G01 X228.756 Y199.622
G01 X229.135 Y202.524
G01 X231.140 Y213.518
G01 X231.323 Y214.932
G01 X233.754 Y228.720
G01 X236.672 Y245.264
G01 X238.616 Y256.294
G01 X243.583 Y252.341
G01 X248.269 Y248.195
G01 X253.030 Y244.415
G01 X257.562 Y240.430
G01 X257.921 Y240.096
G01 X262.573 Y236.407
G01 X267.027 Y232.503
G01 X267.573 Y231.997
G01 X272.214 Y228.317
G01 X276.681 Y224.402
G01 X277.225 Y223.898
G01 X281.955 Y220.143
G01 X286.526 Y216.125
G01 X286.877 Y215.799
G01 X291.798 Y211.884
G01 X296.529 Y207.700
G01 X301.741 Y203.538
G01 X306.182 Y199.600
G01 X308.327 Y197.801
G01 X284.646 Y189.182
G01 X264.913 Y181.999
G01 X249.126 Y176.253
G01 X236.252 Y171.583
G01 X235.970 Y171.465
G01 X227.581 Y168.528
G01 X225.446 Y167.634
G01 X222.814 Y166.677
G01 X222.958 Y169.595
G01 X222.891 Y172.588
G01 X222.814 Y173.677
G01 X222.942 Y177.307
G01 X222.814 Y180.677
G01 X222.968 Y185.242
G01 X222.814 Y189.077
G01 X222.978 Y194.981
G01 X222.814 Y198.877
G01 X222.908 Y206.526
G01 X222.814 Y208.677
G01 X222.877 Y218.492
G01 X222.814 Y219.877
G01 X222.814 Y232.477
G01 X222.814 Y247.877
G01 X222.814 Y257.677
G01 X228.168 Y254.779
G01 X233.317 Y251.642
G01 X233.726 Y251.377
G01 X238.906 Y248.579
G01 X243.916 Y245.543
G01 X244.638 Y245.077
G01 X249.755 Y242.315
G01 X254.732 Y239.304
G01 X255.550 Y238.777
G01 X260.719 Y235.985
G01 X265.770 Y232.923
G01 X266.462 Y232.477
G01 X271.798 Y229.589
G01 X277.033 Y226.398
G01 X277.374 Y226.177
G01 X282.994 Y223.124
G01 X288.286 Y219.877
G01 X294.307 Y216.588
G01 X299.198 Y213.577
G01 X301.623 Y212.177
G01 X270.099 Y193.977
G01 X247.063 Y180.677
G01 X231.302 Y171.577
G01 X222.814 Y166.677
G01 X222.513 Y169.195
G01 X222.040 Y171.745
G01 X221.599 Y173.570
G01 X221.203 Y176.593
G01 X220.584 Y179.654
G01 X220.383 Y180.464
G01 X219.902 Y184.183
G01 X219.125 Y187.946
G01 X218.925 Y188.736
G01 X218.249 Y193.405
G01 X217.466 Y197.009
G01 X216.587 Y202.905
G01 X215.764 Y206.660
G01 X214.544 Y214.131
G01 X214.063 Y216.311
G01 X212.474 Y225.736
G01 X212.118 Y227.341
G01 X210.024 Y239.327
G01 X209.930 Y239.749
G01 X207.256 Y254.916
G01 X207.013 Y256.294
G01 X212.531 Y254.468
G01 X217.911 Y252.382
G01 X218.853 Y251.985
G01 X224.241 Y250.205
G01 X229.525 Y248.167
G01 X230.693 Y247.675
G01 X236.078 Y245.897
G01 X241.387 Y243.848
G01 X242.533 Y243.366
G01 X248.044 Y241.542
G01 X253.501 Y239.425
G01 X254.373 Y239.056
G01 X260.139 Y237.140
G01 X265.870 Y234.893
G01 X266.213 Y234.747
G01 X272.365 Y232.688
G01 X278.053 Y230.438
G01 X284.622 Y228.091
G01 X285.947 Y227.565
G01 X256.990 Y203.267
G01 X236.613 Y186.169
G01 X221.599 Y173.570
G01 X220.808 Y176.129
G01 X219.839 Y178.688
G01 X219.205 Y180.148
G01 X218.252 Y183.140
G01 X217.073 Y186.130
G01 X216.811 Y186.726
G01 X215.678 Y190.321
G01 X214.254 Y193.913
G01 X213.938 Y194.620
G01 X212.486 Y199.028
G01 X211.065 Y202.513
G01 X209.248 Y207.978
G01 X207.713 Y211.722
G01 X205.350 Y218.531
G01 X204.361 Y220.931
G01 X201.375 Y229.415
G01 X200.531 Y231.455
G01 X196.704 Y242.131
G01 X196.221 Y243.296
G01 X192.869 Y252.505
G01 X198.345 Y251.682
G01 X203.748 Y250.594
G01 X203.899 Y250.560
G01 X209.308 Y249.749
G01 X214.671 Y248.674
G01 X214.929 Y248.615
G01 X220.379 Y247.797
G01 X225.809 Y246.704
G01 X225.959 Y246.670
G01 X231.561 Y245.825
G01 X236.989 Y244.725
G01 X242.872 Y243.867
G01 X248.782 Y242.680
G01 X249.397 Y242.537
G01 X255.716 Y241.600
G01 X261.806 Y240.349
G01 X268.702 Y239.303
G01 X274.214 Y238.161
G01 X275.593 Y237.918
G01 X242.297 Y198.237
G01 X222.499 Y174.643
G01 X221.599 Y173.570
G01 X220.484 Y175.750
G01 X219.231 Y177.899
G01 X218.099 Y179.633
G01 X216.832 Y182.079
G01 X215.391 Y184.494
G01 X214.599 Y185.695
G01 X213.118 Y188.506
G01 X211.418 Y191.278
G01 X211.099 Y191.757
G01 X209.362 Y195.087
G01 X207.348 Y198.365
G01 X206.899 Y199.032
G01 X204.744 Y203.049
G01 X202.699 Y206.306
G01 X200.048 Y211.228
G01 X197.799 Y214.793
G01 X194.436 Y220.854
G01 X192.899 Y223.280
G01 X188.703 Y230.771
G01 X187.299 Y232.980
G01 X181.988 Y242.340
G01 X180.999 Y243.892
G01 X179.599 Y246.317
G01 X184.840 Y246.463
G01 X190.070 Y246.352
G01 X190.799 Y246.317
G01 X196.032 Y246.463
G01 X201.282 Y246.352
G01 X201.999 Y246.317
G01 X207.342 Y246.464
G01 X212.728 Y246.340
G01 X213.199 Y246.317
G01 X218.770 Y246.463
G01 X224.399 Y246.317
G01 X230.317 Y246.461
G01 X235.599 Y246.317
G01 X241.984 Y246.456
G01 X246.799 Y246.317
G01 X253.746 Y246.404
G01 X256.599 Y246.317
G01 X236.299 Y211.156
G01 X222.999 Y188.120
G01 X218.099 Y179.633
G01 X216.560 Y181.653
G01 X214.889 Y183.615
G01 X213.599 Y184.995
G01 X211.885 Y187.226
G01 X210.008 Y189.394
G01 X209.100 Y190.357
G01 X207.155 Y192.928
G01 X205.003 Y195.424
G01 X203.701 Y196.792
G01 X201.359 Y199.825
G01 X198.751 Y202.759
G01 X198.301 Y203.227
G01 X195.456 Y206.833
G01 X192.902 Y209.662
G01 X189.448 Y214.032
G01 X186.602 Y217.169
G01 X182.300 Y222.483
G01 X180.303 Y224.676
G01 X174.993 Y231.187
G01 X173.104 Y233.256
G01 X168.604 Y238.618
G01 X173.456 Y239.629
G01 X178.355 Y240.402
G01 X179.634 Y240.563
G01 X184.547 Y241.585
G01 X189.535 Y242.366
G01 X190.664 Y242.508
G01 X195.760 Y243.563
G01 X200.962 Y244.362
G01 X201.694 Y244.453
G01 X207.098 Y245.561
G01 X212.638 Y246.387
G01 X212.724 Y246.397
G01 X218.561 Y247.579
G01 X223.754 Y248.342
G01 X230.149 Y249.614
G01 X234.783 Y250.287
G01 X241.841 Y251.617
G01 X244.435 Y251.989
G01 X235.816 Y228.309
G01 X229.112 Y209.891
G01 X223.845 Y195.419
G01 X219.535 Y183.579
G01 X218.099 Y179.633
G01 X216.319 Y181.275
G01 X214.445 Y182.838
G01 X212.737 Y184.132
G01 X210.850 Y185.868
G01 X208.847 Y187.523
G01 X207.374 Y188.632
G01 X205.300 Y190.526
G01 X203.082 Y192.332
G01 X202.012 Y193.131
G01 X199.678 Y195.298
G01 X197.159 Y197.360
G01 X195.577 Y198.531
G01 X192.805 Y201.059
G01 X189.799 Y203.450
G01 X189.142 Y203.930
G01 X185.813 Y206.907
G01 X182.708 Y209.329
G01 X178.689 Y212.920
G01 X175.200 Y215.629
G01 X170.234 Y219.963
G01 X167.693 Y221.928
G01 X161.587 Y227.221
G01 X159.114 Y229.127
G01 X163.427 Y230.869
G01 X167.836 Y232.401
G01 X169.638 Y232.958
G01 X174.073 Y234.745
G01 X178.634 Y236.318
G01 X180.163 Y236.788
G01 X184.845 Y238.666
G01 X189.688 Y240.314
G01 X190.687 Y240.619
G01 X195.745 Y242.632
G01 X201.001 Y244.386
G01 X201.212 Y244.450
G01 X206.774 Y246.641
G01 X211.736 Y248.280
G01 X217.933 Y250.690
G01 X222.261 Y252.111
G01 X224.892 Y253.069
G01 X221.002 Y231.009
G01 X217.842 Y213.085
G01 X215.168 Y197.919
G01 X213.391 Y187.330
G01 X212.980 Y185.511
G01 X212.737 Y184.132
G01 X210.664 Y185.459
G01 X208.515 Y186.688
G01 X206.674 Y187.632
G01 X204.502 Y189.018
G01 X202.234 Y190.305
G01 X200.612 Y191.132
G01 X198.260 Y192.670
G01 X195.781 Y194.097
G01 X193.338 Y195.332
G01 X190.637 Y197.073
G01 X187.773 Y198.679
G01 X186.063 Y199.532
G01 X182.883 Y201.545
G01 X179.497 Y203.383
G01 X178.788 Y203.732
G01 X174.999 Y206.081
G01 X171.514 Y207.932
G01 X166.962 Y210.753
G01 X163.027 Y212.832
G01 X157.441 Y216.207
G01 X154.540 Y217.732
G01 X152.115 Y219.132
G01 X155.820 Y221.428
G01 X159.660 Y223.549
G01 X160.602 Y224.032
G01 X164.453 Y226.413
G01 X168.468 Y228.615
G01 X169.089 Y228.932
G01 X173.183 Y231.452
G01 X177.475 Y233.781
G01 X177.576 Y233.832
G01 X182.008 Y236.590
G01 X186.681 Y239.133
G01 X187.276 Y239.432
G01 X192.224 Y242.481
G01 X196.975 Y245.032
G01 X202.569 Y248.438
G01 X206.674 Y250.632
G01 X212.737 Y254.132
G01 X212.737 Y235.932
G01 X212.737 Y220.532
G01 X212.737 Y207.932
G01 X212.817 Y198.470
G01 X212.737 Y196.732
G01 X212.868 Y189.829
G01 X212.737 Y186.932
G01 X212.737 Y184.132
G01 X210.487 Y185.071
G01 X208.201 Y185.895
G01 X206.159 Y186.526
G01 X203.915 Y187.463
G01 X201.618 Y188.291
G01 X199.581 Y188.920
G01 X197.250 Y189.890
G01 X194.847 Y190.748
G01 X193.003 Y191.315
G01 X190.491 Y192.353
G01 X187.883 Y193.266
G01 X186.425 Y193.709
G01 X183.629 Y194.895
G01 X180.708 Y195.932
G01 X178.532 Y196.582
G01 X175.264 Y197.937
G01 X171.837 Y199.104
G01 X170.638 Y199.455
G01 X166.758 Y201.022
G01 X162.745 Y202.328
G01 X158.080 Y204.213
G01 X153.536 Y205.679
G01 X147.896 Y207.773
G01 X146.958 Y208.074
G01 X149.964 Y210.786
G01 X153.134 Y213.366
G01 X154.465 Y214.373
G01 X157.651 Y217.237
G01 X161.033 Y219.965
G01 X161.973 Y220.672
G01 X165.432 Y223.766
G01 X169.129 Y226.710
G01 X169.480 Y226.971
G01 X173.311 Y230.370
G01 X176.987 Y233.271
G01 X181.287 Y237.050
G01 X184.494 Y239.570
G01 X189.361 Y243.863
G01 X193.074 Y246.769
G01 X195.219 Y248.569
G01 X198.136 Y232.024
G01 X200.567 Y218.237
G01 X202.530 Y207.577
G01 X202.755 Y205.828
G01 X204.222 Y197.994
G01 X204.457 Y196.177
G01 X205.606 Y190.277
G01 X205.916 Y187.905
G01 X206.159 Y186.526
G01 X203.796 Y187.058
G01 X201.421 Y187.471
G01 X199.265 Y187.742
G01 X196.930 Y188.269
G01 X194.565 Y188.681
G01 X192.371 Y188.957
G01 X189.966 Y189.498
G01 X187.513 Y189.919
G01 X185.478 Y190.173
G01 X182.902 Y190.746
G01 X180.259 Y191.185
G01 X178.584 Y191.388
G01 X175.723 Y192.054
G01 X172.770 Y192.559
G01 X170.312 Y192.847
G01 X166.979 Y193.595
G01 X163.526 Y194.140
G01 X162.039 Y194.306
G01 X158.085 Y195.155
G01 X153.984 Y195.741
G01 X153.767 Y195.764
G01 X149.045 Y196.730
G01 X145.495 Y197.223
G01 X144.116 Y197.466
G01 X146.414 Y200.449
G01 X148.895 Y203.342
G01 X150.415 Y204.973
G01 X152.912 Y208.196
G01 X155.632 Y211.327
G01 X156.715 Y212.481
G01 X159.501 Y216.046
G01 X162.559 Y219.508
G01 X163.014 Y219.988
G01 X166.183 Y223.997
G01 X169.313 Y227.495
G01 X172.957 Y232.047
G01 X175.613 Y235.002
G01 X179.817 Y240.263
G01 X182.812 Y243.582
G01 X184.612 Y245.727
G01 X189.400 Y232.571
G01 X193.474 Y221.485
G01 X193.709 Y220.731
G01 X196.888 Y212.286
G01 X197.540 Y210.207
G01 X200.029 Y203.737
G01 X200.892 Y200.998
G01 X202.857 Y195.972
G01 X203.765 Y193.104
G01 X205.337 Y189.108
G01 X206.159 Y186.526
G01 X203.675 Y186.646
G01 X201.220 Y186.635
G01 X199.159 Y186.526
G01 X196.824 Y186.643
G01 X194.501 Y186.643
G01 X192.193 Y186.529
G01 X192.159 Y186.526
G01 X189.873 Y186.642
G01 X187.581 Y186.645
G01 X185.289 Y186.536
G01 X185.159 Y186.526
G01 X182.818 Y186.643
G01 X180.455 Y186.642
G01 X178.159 Y186.526
G01 X175.657 Y186.646
G01 X173.116 Y186.631
G01 X171.159 Y186.526
G01 X168.388 Y186.648
G01 X165.561 Y186.607
G01 X164.159 Y186.526
G01 X160.983 Y186.690
G01 X157.730 Y186.650
G01 X155.759 Y186.526
G01 X151.975 Y186.683
G01 X148.097 Y186.577
G01 X147.359 Y186.526
G01 X143.159 Y186.526
G01 X144.765 Y189.572
G01 X146.558 Y192.571
G01 X147.359 Y193.801
G01 X149.124 Y197.123
G01 X151.114 Y200.398
G01 X151.559 Y201.075
G01 X153.519 Y204.813
G01 X155.755 Y208.500
G01 X156.459 Y209.563
G01 X158.754 Y213.864
G01 X161.359 Y218.050
G01 X164.074 Y223.042
G01 X166.259 Y226.537
G01 X169.478 Y232.347
G01 X171.159 Y235.024
G01 X177.459 Y224.112
G01 X182.510 Y215.472
G01 X183.059 Y214.412
G01 X187.023 Y207.726
G01 X187.959 Y205.925
G01 X191.103 Y200.807
G01 X192.859 Y197.438
G01 X195.305 Y193.513
G01 X197.059 Y190.164
G01 X198.965 Y186.895
G01 X199.159 Y186.526
G01 X196.764 Y186.230
G01 X194.420 Y185.812
G01 X192.265 Y185.311
G01 X190.039 Y185.040
G01 X187.845 Y184.661
G01 X185.688 Y184.176
G01 X185.371 Y184.095
G01 X183.210 Y183.834
G01 X181.064 Y183.468
G01 X178.937 Y182.996
G01 X178.478 Y182.880
G01 X176.275 Y182.613
G01 X174.071 Y182.232
G01 X171.871 Y181.737
G01 X171.584 Y181.664
G01 X169.229 Y181.374
G01 X166.859 Y180.951
G01 X164.691 Y180.449
G01 X162.071 Y180.114
G01 X159.424 Y179.618
G01 X157.797 Y179.233
G01 X154.800 Y178.831
G01 X151.767 Y178.226
G01 X150.903 Y178.018
G01 X147.418 Y177.522
G01 X144.010 Y176.802
G01 X144.955 Y179.824
G01 X146.088 Y182.840
G01 X146.883 Y184.695
G01 X147.963 Y188.089
G01 X149.275 Y191.482
G01 X149.756 Y192.589
G01 X151.021 Y196.475
G01 X152.575 Y200.359
G01 X152.628 Y200.482
G01 X154.100 Y205.035
G01 X155.932 Y209.583
G01 X155.980 Y209.691
G01 X157.794 Y215.117
G01 X159.332 Y218.900
G01 X161.559 Y225.357
G01 X162.684 Y228.109
G01 X163.163 Y229.425
G01 X169.795 Y221.689
G01 X171.262 Y219.773
G01 X176.442 Y213.825
G01 X178.461 Y211.193
G01 X182.540 Y206.571
G01 X184.760 Y203.686
G01 X188.018 Y200.022
G01 X190.160 Y197.251
G01 X192.822 Y194.343
G01 X195.199 Y191.319
G01 X195.559 Y190.816
G01 X197.711 Y188.382
G01 X199.159 Y186.526
G01 X196.697 Y185.772
G01 X194.332 Y184.891
G01 X192.581 Y184.132
G01 X190.406 Y183.479
G01 X188.301 Y182.720
G01 X186.271 Y181.861
G01 X186.003 Y181.738
G01 X184.010 Y181.146
G01 X182.066 Y180.460
G01 X180.174 Y179.683
G01 X179.425 Y179.344
G01 X177.508 Y178.777
G01 X175.620 Y178.116
G01 X173.768 Y177.364
G01 X172.847 Y176.950
G01 X170.894 Y176.371
G01 X168.956 Y175.689
G01 X167.039 Y174.903
G01 X166.270 Y174.556
G01 X164.164 Y173.926
G01 X162.063 Y173.172
G01 X159.976 Y172.292
G01 X159.692 Y172.161
G01 X157.316 Y171.438
G01 X154.941 Y170.556
G01 X153.114 Y169.767
G01 X150.353 Y168.902
G01 X147.591 Y167.835
G01 X146.536 Y167.373
G01 X146.911 Y170.188
G01 X147.459 Y173.030
G01 X147.752 Y174.267
G01 X148.156 Y177.488
G01 X148.778 Y180.750
G01 X149.210 Y182.539
G01 X149.726 Y186.355
G01 X150.522 Y190.217
G01 X150.669 Y190.812
G01 X151.332 Y195.368
G01 X152.127 Y199.084
G01 X152.934 Y204.597
G01 X153.829 Y208.735
G01 X154.975 Y215.309
G01 X155.045 Y215.629
G01 X161.618 Y210.271
G01 X163.624 Y208.429
G01 X168.784 Y204.279
G01 X171.132 Y202.130
G01 X175.238 Y198.854
G01 X177.566 Y196.731
G01 X180.889 Y194.158
G01 X183.928 Y191.403
G01 X184.001 Y191.331
G01 X186.683 Y189.255
G01 X189.146 Y187.044
G01 X189.364 Y186.832
G01 X191.599 Y185.016
G01 X192.581 Y184.132
G01 X190.401 Y183.037
G01 X188.336 Y181.836
G01 X186.519 Y180.632
G01 X184.626 Y179.697
G01 X182.816 Y178.676
G01 X181.094 Y177.575
G01 X180.457 Y177.132
G01 X178.746 Y176.295
G01 X177.095 Y175.381
G01 X175.506 Y174.393
G01 X174.394 Y173.632
G01 X172.758 Y172.835
G01 X171.163 Y171.957
G01 X169.612 Y171.003
G01 X168.332 Y170.132
G01 X166.656 Y169.314
G01 X165.008 Y168.403
G01 X163.394 Y167.400
G01 X162.270 Y166.632
G01 X160.435 Y165.729
G01 X158.622 Y164.708
G01 X156.840 Y163.570
G01 X156.208 Y163.132
G01 X154.094 Y162.073
G01 X152.005 Y160.861
G01 X150.146 Y159.632
G01 X150.012 Y162.200
G01 X150.036 Y164.827
G01 X150.146 Y166.632
G01 X150.015 Y169.658
G01 X150.088 Y172.758
G01 X150.146 Y173.632
G01 X149.977 Y177.287
G01 X150.075 Y181.035
G01 X150.146 Y182.032
G01 X149.998 Y186.566
G01 X150.146 Y190.432
G01 X149.979 Y196.096
G01 X150.146 Y200.232
G01 X150.089 Y207.274
G01 X150.146 Y208.632
G01 X156.293 Y205.219
G01 X158.633 Y203.732
G01 X163.580 Y201.074
G01 X167.120 Y198.832
G01 X171.091 Y196.714
G01 X174.394 Y194.632
G01 X177.665 Y192.883
G01 X180.457 Y191.132
G01 X183.230 Y189.683
G01 X185.837 Y188.090
G01 X186.519 Y187.632
G01 X188.892 Y186.419
G01 X191.137 Y185.091
G01 X192.581 Y184.132
G01 X190.396 Y182.495
G01 X188.379 Y180.754
G01 X187.219 Y179.633
G01 X185.413 Y178.316
G01 X183.729 Y176.920
G01 X182.171 Y175.453
G01 X181.856 Y175.133
G01 X180.339 Y173.998
G01 X178.913 Y172.801
G01 X177.581 Y171.548
G01 X177.566 Y171.533
G01 X176.199 Y170.520
G01 X174.902 Y169.449
G01 X173.675 Y168.325
G01 X173.277 Y167.934
G01 X171.990 Y166.984
G01 X170.756 Y165.975
G01 X169.578 Y164.910
G01 X168.987 Y164.334
G01 X167.707 Y163.390
G01 X166.470 Y162.379
G01 X165.279 Y161.302
G01 X164.697 Y160.735
G01 X163.348 Y159.736
G01 X162.037 Y158.654
G01 X160.770 Y157.491
G01 X160.407 Y157.135
G01 X158.912 Y156.018
G01 X157.456 Y154.795
G01 X156.117 Y153.535
G01 X155.045 Y152.636
G01 X154.504 Y154.838
G01 X154.098 Y157.124
G01 X153.833 Y159.483
G01 X153.829 Y159.529
G01 X153.197 Y162.269
G01 X152.751 Y165.116
G01 X152.614 Y166.423
G01 X151.875 Y169.854
G01 X151.398 Y173.316
G01 X150.472 Y177.654
G01 X149.940 Y181.589
G01 X148.772 Y187.236
G01 X148.238 Y191.240
G01 X147.752 Y193.997
G01 X153.119 Y192.228
G01 X156.961 Y190.646
G01 X161.203 Y189.268
G01 X164.854 Y187.773
G01 X168.296 Y186.654
G01 X171.432 Y185.379
G01 X174.299 Y184.483
G01 X177.033 Y183.419
G01 X178.010 Y182.984
G01 X180.419 Y182.259
G01 X182.728 Y181.404
G01 X184.587 Y180.590
G01 X186.666 Y179.853
G01 X187.219 Y179.633
G01 X185.474 Y177.805
G01 X183.901 Y175.907
G01 X182.719 Y174.270
G01 X181.330 Y172.798
G01 X180.068 Y171.274
G01 X179.120 Y169.980
G01 X177.938 Y168.752
G01 X176.850 Y167.481
G01 X175.857 Y166.174
G01 X175.520 Y165.691
G01 X174.482 Y164.624
G01 X173.513 Y163.518
G01 X172.615 Y162.377
G01 X171.920 Y161.401
G01 X170.958 Y160.417
G01 X170.049 Y159.391
G01 X169.194 Y158.324
G01 X168.396 Y157.221
G01 X168.321 Y157.111
G01 X167.361 Y156.131
G01 X166.446 Y155.097
G01 X165.578 Y154.012
G01 X164.760 Y152.879
G01 X164.721 Y152.821
G01 X163.687 Y151.760
G01 X162.698 Y150.627
G01 X161.757 Y149.426
G01 X161.121 Y148.531
G01 X160.222 Y147.459
G01 X159.433 Y149.272
G01 X158.754 Y151.180
G01 X158.306 Y152.721
G01 X157.291 Y155.032
G01 X156.430 Y157.471
G01 X155.912 Y159.299
G01 X154.636 Y162.381
G01 X153.586 Y165.632
G01 X153.518 Y165.877
G01 X151.848 Y169.980
G01 X150.645 Y173.770
G01 X148.430 Y179.372
G01 X147.293 Y182.979
G01 X145.857 Y186.926
G01 X150.599 Y186.235
G01 X154.129 Y185.467
G01 X157.979 Y184.960
G01 X161.689 Y184.190
G01 X162.401 Y184.009
G01 X165.561 Y183.586
G01 X168.609 Y182.964
G01 X169.295 Y182.793
G01 X171.970 Y182.461
G01 X174.562 Y181.973
G01 X176.189 Y181.577
G01 X178.495 Y181.309
G01 X180.741 Y180.916
G01 X182.921 Y180.405
G01 X183.082 Y180.362
G01 X185.144 Y180.056
G01 X187.158 Y179.647
G01 X187.219 Y179.633
G01 X185.561 Y177.083
G01 X184.145 Y174.471
G01 X183.719 Y173.570
G01 X182.457 Y171.635
G01 X181.370 Y169.660
G01 X180.919 Y168.721
G01 X179.900 Y167.218
G01 X179.006 Y165.686
G01 X178.237 Y164.135
G01 X178.119 Y163.871
G01 X177.285 Y162.682
G01 X176.539 Y161.470
G01 X175.881 Y160.241
G01 X175.319 Y159.021
G01 X174.612 Y158.033
G01 X173.967 Y157.022
G01 X173.383 Y155.991
G01 X172.861 Y154.945
G01 X172.519 Y154.171
G01 X171.901 Y153.255
G01 X171.331 Y152.312
G01 X170.810 Y151.346
G01 X170.419 Y150.534
G01 X169.802 Y149.619
G01 X169.228 Y148.669
G01 X168.699 Y147.686
G01 X168.319 Y146.897
G01 X167.661 Y145.916
G01 X167.047 Y144.888
G01 X166.482 Y143.813
G01 X166.219 Y143.260
G01 X165.264 Y144.637
G01 X164.391 Y146.115
G01 X163.606 Y147.689
G01 X163.419 Y148.109
G01 X162.175 Y150.006
G01 X161.058 Y152.042
G01 X160.619 Y152.959
G01 X158.926 Y155.570
G01 X157.424 Y158.375
G01 X157.119 Y159.021
G01 X154.757 Y162.766
G01 X152.919 Y166.296
G01 X149.715 Y171.649
G01 X148.719 Y173.570
G01 X152.487 Y173.695
G01 X155.719 Y173.570
G01 X158.795 Y173.712
G01 X161.800 Y173.637
G01 X162.719 Y173.570
G01 X165.243 Y173.719
G01 X167.714 Y173.704
G01 X169.719 Y173.570
G01 X171.826 Y173.717
G01 X173.898 Y173.739
G01 X175.927 Y173.641
G01 X176.719 Y173.570
G01 X178.542 Y173.709
G01 X180.347 Y173.751
G01 X182.129 Y173.698
G01 X183.719 Y173.570
G01 X182.629 Y170.914
G01 X181.803 Y168.308
G01 X180.946 Y166.354
G01 X180.259 Y164.387
G01 X179.888 Y163.046
G01 X179.248 Y161.562
G01 X178.728 Y160.074
G01 X178.452 Y159.099
G01 X177.922 Y157.925
G01 X177.479 Y156.747
G01 X177.122 Y155.569
G01 X177.015 Y155.152
G01 X176.570 Y154.198
G01 X176.187 Y153.237
G01 X175.865 Y152.273
G01 X175.603 Y151.311
G01 X175.579 Y151.206
G01 X175.189 Y150.384
G01 X174.845 Y149.552
G01 X174.547 Y148.711
G01 X174.294 Y147.864
G01 X174.142 Y147.259
G01 X173.773 Y146.485
G01 X173.442 Y145.692
G01 X173.149 Y144.882
G01 X172.897 Y144.058
G01 X172.706 Y143.312
G01 X172.354 Y142.489
G01 X172.042 Y141.640
G01 X171.771 Y140.766
G01 X171.748 Y140.681
G01 X170.787 Y141.664
G01 X169.882 Y142.742
G01 X169.048 Y143.899
G01 X167.683 Y145.297
G01 X166.408 Y146.839
G01 X165.449 Y148.188
G01 X163.413 Y150.343
G01 X161.536 Y152.714
G01 X160.949 Y153.551
G01 X157.868 Y156.955
G01 X155.550 Y159.986
G01 X150.907 Y165.321
G01 X149.250 Y167.493
G01 X152.355 Y168.182
G01 X155.425 Y168.635
G01 X156.144 Y168.708
G01 X158.692 Y169.307
G01 X161.214 Y169.727
G01 X163.038 Y169.924
G01 X165.162 Y170.446
G01 X167.271 Y170.835
G01 X169.357 Y171.091
G01 X169.931 Y171.139
G01 X171.762 Y171.603
G01 X173.590 Y171.964
G01 X175.408 Y172.222
G01 X176.825 Y172.355
G01 X178.491 Y172.783
G01 X180.168 Y173.126
G01 X181.850 Y173.384
G01 X183.534 Y173.557
G01 X183.719 Y173.570
G01 X182.903 Y169.765
G01 X182.503 Y166.677
G01 X181.921 Y164.133
G01 X181.569 Y161.601
G01 X181.531 Y161.162
G01 X181.117 Y159.381
G01 X180.855 Y157.614
G01 X180.801 Y157.026
G01 X180.464 Y155.750
G01 X180.228 Y154.484
G01 X180.092 Y153.235
G01 X180.072 Y152.889
G01 X179.799 Y151.978
G01 X179.591 Y151.073
G01 X179.446 Y150.176
G01 X179.364 Y149.293
G01 X179.343 Y148.753
G01 X179.122 Y148.074
G01 X178.942 Y147.395
G01 X178.802 Y146.718
G01 X178.701 Y146.045
G01 X178.639 Y145.379
G01 X178.614 Y144.722
G01 X178.613 Y144.617
G01 X178.422 Y144.045
G01 X178.260 Y143.466
G01 X178.126 Y142.880
G01 X178.022 Y142.290
G01 X177.946 Y141.696
G01 X177.901 Y141.100
G01 X177.884 Y140.504
G01 X177.884 Y140.481
G01 X177.759 Y139.885
G01 X177.663 Y139.277
G01 X177.641 Y139.102
G01 X179.037 Y139.743
G01 X180.462 Y140.245
G01 X181.588 Y140.539
G01 X182.257 Y140.879
G01 X182.939 Y141.155
G01 X183.627 Y141.366
G01 X184.219 Y141.496
G01 X184.612 Y141.681
G01 X185.008 Y141.830
G01 X185.406 Y141.945
G01 X185.534 Y141.975
G01 X185.796 Y142.112
G01 X186.059 Y142.228
G01 X186.324 Y142.324
G01 X186.588 Y142.399
G01 X186.850 Y142.454
G01 X187.031 Y142.557
G01 X187.214 Y142.648
G01 X187.399 Y142.727
G01 X187.585 Y142.795
G01 X187.771 Y142.851
G01 X187.957 Y142.896
G01 X188.142 Y142.929
G01 X188.165 Y142.933
G01 X188.312 Y143.018
G01 X188.463 Y143.097
G01 X188.617 Y143.167
G01 X188.774 Y143.231
G01 X188.935 Y143.286
G01 X189.097 Y143.333
G01 X189.262 Y143.372
G01 X189.429 Y143.404
G01 X189.481 Y143.412
G01 X189.642 Y143.505
G01 X189.810 Y143.591
G01 X189.986 Y143.668
G01 X190.170 Y143.736
G01 X190.360 Y143.796
G01 X190.556 Y143.845
G01 X190.758 Y143.884
G01 X190.797 Y143.890
G01 X191.030 Y144.016
G01 X191.277 Y144.127
G01 X191.538 Y144.223
G01 X191.811 Y144.303
G01 X192.095 Y144.366
G01 X192.112 Y144.369
G01 X192.517 Y144.615
G01 X192.951 Y144.830
G01 X193.412 Y145.013
G01 X193.897 Y145.162
G01 X194.404 Y145.274
G01 X194.743 Y145.327
G01 X195.733 Y145.834
G01 X196.781 Y146.256
G01 X197.883 Y146.587
G01 X198.690 Y146.763
G01 X201.087 Y147.786
G01 X203.600 Y148.587
G01 X203.952 Y148.679
G01 X209.145 Y150.643
G01 X210.530 Y151.073
G01 X209.677 Y151.895
G01 X208.794 Y152.660
G01 X207.883 Y153.367
G01 X207.313 Y153.773
G01 X206.531 Y154.530
G01 X205.716 Y155.245
G01 X204.871 Y155.914
G01 X204.095 Y156.472
G01 X203.327 Y157.218
G01 X202.519 Y157.927
G01 X201.674 Y158.599
G01 X200.878 Y159.172
G01 X200.064 Y159.959
G01 X199.198 Y160.712
G01 X198.282 Y161.428
G01 X197.661 Y161.872
G01 X196.749 Y162.799
G01 X195.765 Y163.687
G01 X194.709 Y164.533
G01 X193.584 Y165.331
G01 X193.371 Y165.471
G01 X192.201 Y166.623
G01 X190.926 Y167.719
G01 X189.549 Y168.751
G01 X189.081 Y169.071
G01 X187.531 Y170.537
G01 X185.834 Y171.917
G01 X184.791 Y172.671
G01 X183.719 Y173.570
G01 X182.629 Y170.914
G01 X181.803 Y168.308
G01 X180.946 Y166.354
G01 X180.259 Y164.387
G01 X179.888 Y163.046
G01 X179.248 Y161.562
G01 X178.728 Y160.074
G01 X178.452 Y159.099
G01 X177.922 Y157.925
G01 X177.479 Y156.747
G01 X177.122 Y155.569
G01 X177.015 Y155.152
G01 X176.570 Y154.198
G01 X176.187 Y153.237
G01 X175.865 Y152.273
G01 X175.603 Y151.311
G01 X175.579 Y151.206
G01 X175.189 Y150.384
G01 X174.845 Y149.552
G01 X174.547 Y148.711
G01 X174.294 Y147.864
G01 X174.142 Y147.259
G01 X173.773 Y146.485
G01 X173.442 Y145.692
G01 X173.149 Y144.882
G01 X172.897 Y144.058
G01 X172.706 Y143.312
G01 X172.354 Y142.489
G01 X172.042 Y141.640
G01 X171.771 Y140.766
G01 X171.748 Y140.681
G01 X174.691 Y141.326
G01 X177.263 Y141.654
G01 X178.700 Y142.035
G01 X180.142 Y142.280
G01 X181.399 Y142.383
G01 X182.131 Y142.602
G01 X182.862 Y142.756
G01 X183.588 Y142.844
G01 X184.157 Y142.869
G01 X184.605 Y142.986
G01 X185.051 Y143.066
G01 X185.490 Y143.110
G01 X185.535 Y143.112
G01 X185.850 Y143.206
G01 X186.164 Y143.277
G01 X186.474 Y143.325
G01 X186.779 Y143.351
G01 X186.914 Y143.355
G01 X187.142 Y143.431
G01 X187.371 Y143.491
G01 X187.598 Y143.539
G01 X187.824 Y143.572
G01 X188.046 Y143.592
G01 X188.266 Y143.599
G01 X188.293 Y143.598
G01 X188.478 Y143.662
G01 X188.665 Y143.716
G01 X188.854 Y143.760
G01 X189.045 Y143.795
G01 X189.235 Y143.820
G01 X189.426 Y143.835
G01 X189.617 Y143.842
G01 X189.671 Y143.842
G01 X189.858 Y143.906
G01 X190.051 Y143.961
G01 X190.248 Y144.006
G01 X190.451 Y144.041
G01 X190.657 Y144.067
G01 X190.866 Y144.081
G01 X191.050 Y144.085
G01 X191.291 Y144.163
G01 X191.542 Y144.227
G01 X191.802 Y144.276
G01 X192.071 Y144.309
G01 X192.347 Y144.326
G01 X192.429 Y144.328
G01 X192.816 Y144.486
G01 X193.223 Y144.616
G01 X193.650 Y144.715
G01 X194.093 Y144.784
G01 X194.552 Y144.820
G01 X195.024 Y144.821
G01 X195.186 Y144.814
G01 X195.998 Y145.043
G01 X196.843 Y145.202
G01 X197.717 Y145.290
G01 X197.944 Y145.300
G01 X199.521 Y145.698
G01 X201.154 Y145.952
G01 X202.080 Y146.030
G01 X205.047 Y146.609
G01 X206.216 Y146.759
G01 X205.724 Y147.479
G01 X205.200 Y148.167
G01 X204.646 Y148.823
G01 X204.066 Y149.443
G01 X203.516 Y149.976
G01 X203.051 Y150.660
G01 X202.550 Y151.322
G01 X202.016 Y151.961
G01 X201.450 Y152.574
G01 X200.852 Y153.161
G01 X200.817 Y153.194
G01 X200.317 Y153.925
G01 X199.771 Y154.638
G01 X199.179 Y155.331
G01 X198.542 Y156.001
G01 X198.117 Y156.411
G01 X197.514 Y157.276
G01 X196.844 Y158.120
G01 X196.110 Y158.939
G01 X195.417 Y159.628
G01 X194.636 Y160.710
G01 X193.760 Y161.760
G01 X192.793 Y162.773
G01 X192.718 Y162.846
G01 X191.687 Y164.296
G01 X190.520 Y165.697
G01 X189.219 Y167.039
G01 X189.118 Y167.136
G01 X187.619 Y169.118
G01 X185.924 Y171.014
G01 X185.518 Y171.426
G01 X183.719 Y173.570
G01 X182.457 Y171.635
G01 X181.370 Y169.660
G01 X180.919 Y168.721
G01 X179.900 Y167.218
G01 X179.006 Y165.686
G01 X178.237 Y164.135
G01 X178.119 Y163.871
G01 X177.285 Y162.682
G01 X176.539 Y161.470
G01 X175.881 Y160.241
G01 X175.319 Y159.021
G01 X174.612 Y158.033
G01 X173.967 Y157.022
G01 X173.383 Y155.991
G01 X172.861 Y154.945
G01 X172.519 Y154.171
G01 X171.901 Y153.255
G01 X171.331 Y152.312
G01 X170.810 Y151.346
G01 X170.419 Y150.534
G01 X169.802 Y149.619
G01 X169.228 Y148.669
G01 X168.699 Y147.686
G01 X168.319 Y146.897
G01 X167.661 Y145.916
G01 X167.047 Y144.888
G01 X166.482 Y143.813
G01 X166.219 Y143.260
G01 X171.909 Y143.391
G01 X174.619 Y143.260
G01 X177.074 Y143.410
G01 X179.501 Y143.328
G01 X180.219 Y143.260
G01 X181.426 Y143.333
G01 X182.614 Y143.297
G01 X183.019 Y143.260
G01 X183.650 Y143.354
G01 X184.272 Y143.394
G01 X184.883 Y143.383
G01 X185.477 Y143.320
G01 X185.819 Y143.260
G01 X186.171 Y143.300
G01 X186.516 Y143.314
G01 X186.853 Y143.302
G01 X187.180 Y143.266
G01 X187.219 Y143.260
G01 X187.455 Y143.297
G01 X187.688 Y143.320
G01 X187.917 Y143.328
G01 X188.142 Y143.322
G01 X188.360 Y143.302
G01 X188.572 Y143.269
G01 X188.619 Y143.260
G01 X188.792 Y143.292
G01 X188.965 Y143.315
G01 X189.137 Y143.329
G01 X189.309 Y143.334
G01 X189.478 Y143.330
G01 X189.646 Y143.318
G01 X189.811 Y143.298
G01 X189.973 Y143.269
G01 X190.019 Y143.260
G01 X190.181 Y143.290
G01 X190.345 Y143.313
G01 X190.513 Y143.328
G01 X190.683 Y143.334
G01 X190.855 Y143.331
G01 X191.028 Y143.319
G01 X191.201 Y143.298
G01 X191.376 Y143.268
G01 X191.419 Y143.260
G01 X191.631 Y143.296
G01 X191.851 Y143.319
G01 X192.076 Y143.328
G01 X192.307 Y143.322
G01 X192.541 Y143.302
G01 X192.780 Y143.267
G01 X192.819 Y143.260
G01 X193.148 Y143.299
G01 X193.488 Y143.313
G01 X193.837 Y143.302
G01 X194.192 Y143.263
G01 X194.219 Y143.260
G01 X194.808 Y143.352
G01 X195.416 Y143.393
G01 X196.038 Y143.382
G01 X196.671 Y143.317
G01 X197.019 Y143.260
G01 X198.350 Y143.390
G01 X199.709 Y143.397
G01 X201.085 Y143.278
G01 X201.219 Y143.260
G01 X204.448 Y143.439
G01 X207.714 Y143.308
G01 X208.219 Y143.260
G01 X207.831 Y144.102
G01 X207.406 Y144.915
G01 X206.944 Y145.696
G01 X206.448 Y146.444
G01 X206.119 Y146.897
G01 X205.761 Y147.680
G01 X205.366 Y148.444
G01 X204.934 Y149.188
G01 X204.466 Y149.910
G01 X204.019 Y150.534
G01 X203.648 Y151.345
G01 X203.231 Y152.144
G01 X202.768 Y152.930
G01 X202.260 Y153.699
G01 X201.919 Y154.171
G01 X201.486 Y155.103
G01 X200.989 Y156.025
G01 X200.429 Y156.934
G01 X199.819 Y157.809
G01 X199.267 Y158.953
G01 X198.627 Y160.084
G01 X197.897 Y161.197
G01 X197.719 Y161.446
G01 X197.011 Y162.957
G01 X196.172 Y164.446
G01 X195.203 Y165.907
G01 X194.919 Y166.296
G01 X193.876 Y168.362
G01 X192.642 Y170.385
G01 X192.119 Y171.146
G01 X190.641 Y174.023
G01 X188.886 Y176.824
G01 X188.619 Y177.208
G01 X187.219 Y179.633
G01 X185.474 Y177.805
G01 X183.901 Y175.907
G01 X182.719 Y174.270
G01 X181.330 Y172.798
G01 X180.068 Y171.274
G01 X179.120 Y169.980
G01 X177.938 Y168.752
G01 X176.850 Y167.481
G01 X175.857 Y166.174
G01 X175.520 Y165.691
G01 X174.482 Y164.624
G01 X173.513 Y163.518
G01 X172.615 Y162.377
G01 X171.920 Y161.401
G01 X170.958 Y160.417
G01 X170.049 Y159.391
G01 X169.194 Y158.324
G01 X168.396 Y157.221
G01 X168.321 Y157.111
G01 X167.361 Y156.131
G01 X166.446 Y155.097
G01 X165.578 Y154.012
G01 X164.760 Y152.879
G01 X164.721 Y152.821
G01 X163.687 Y151.760
G01 X162.698 Y150.627
G01 X161.757 Y149.426
G01 X161.121 Y148.531
G01 X160.222 Y147.459
G01 X172.605 Y145.276
G01 X172.630 Y145.271
G01 X177.189 Y144.585
G01 X179.524 Y144.055
G01 X181.341 Y143.850
G01 X183.109 Y143.479
G01 X183.660 Y143.326
G01 X184.416 Y143.289
G01 X185.151 Y143.186
G01 X185.862 Y143.020
G01 X186.417 Y142.840
G01 X186.780 Y142.820
G01 X187.131 Y142.773
G01 X187.470 Y142.698
G01 X187.793 Y142.598
G01 X187.796 Y142.597
G01 X188.001 Y142.605
G01 X188.200 Y142.599
G01 X188.395 Y142.581
G01 X188.582 Y142.550
G01 X188.763 Y142.507
G01 X188.936 Y142.452
G01 X189.101 Y142.387
G01 X189.175 Y142.354
G01 X189.299 Y142.366
G01 X189.422 Y142.373
G01 X189.544 Y142.373
G01 X189.664 Y142.367
G01 X189.783 Y142.355
G01 X189.900 Y142.337
G01 X190.015 Y142.313
G01 X190.127 Y142.284
G01 X190.236 Y142.249
G01 X190.342 Y142.210
G01 X190.445 Y142.165
G01 X190.544 Y142.115
G01 X190.554 Y142.110
G01 X190.670 Y142.124
G01 X190.789 Y142.131
G01 X190.911 Y142.132
G01 X191.034 Y142.125
G01 X191.159 Y142.112
G01 X191.285 Y142.091
G01 X191.412 Y142.063
G01 X191.539 Y142.027
G01 X191.666 Y141.984
G01 X191.792 Y141.933
G01 X191.917 Y141.875
G01 X191.932 Y141.867
G01 X192.140 Y141.874
G01 X192.353 Y141.864
G01 X192.569 Y141.838
G01 X192.789 Y141.795
G01 X193.010 Y141.735
G01 X193.231 Y141.657
G01 X193.311 Y141.624
G01 X193.801 Y141.638
G01 X194.299 Y141.608
G01 X194.802 Y141.532
G01 X195.307 Y141.410
G01 X195.811 Y141.242
G01 X196.069 Y141.138
G01 X197.468 Y141.024
G01 X198.868 Y140.775
G01 X200.205 Y140.409
G01 X201.583 Y140.166
G01 X201.441 Y140.726
G01 X201.272 Y141.273
G01 X201.077 Y141.805
G01 X200.857 Y142.321
G01 X200.626 Y142.797
G01 X200.494 Y143.321
G01 X200.337 Y143.838
G01 X200.154 Y144.348
G01 X199.945 Y144.850
G01 X199.712 Y145.341
G01 X199.668 Y145.428
G01 X199.528 Y145.982
G01 X199.356 Y146.536
G01 X199.153 Y147.087
G01 X198.918 Y147.633
G01 X198.711 Y148.059
G01 X198.571 Y148.749
G01 X198.385 Y149.444
G01 X198.150 Y150.141
G01 X197.867 Y150.837
G01 X197.534 Y151.530
G01 X197.274 Y152.006
G01 X197.031 Y153.005
G01 X196.707 Y154.008
G01 X196.301 Y155.008
G01 X195.838 Y155.952
G01 X195.420 Y157.414
G01 X194.871 Y158.870
G01 X194.401 Y159.899
G01 X193.758 Y162.082
G01 X192.911 Y164.245
G01 X192.486 Y165.161
G01 X191.412 Y168.564
G01 X190.092 Y171.739
G01 X188.286 Y177.077
G01 X187.219 Y179.633
G01 X185.413 Y178.316
G01 X183.729 Y176.920
G01 X182.171 Y175.453
G01 X181.856 Y175.133
G01 X180.339 Y173.998
G01 X178.913 Y172.801
G01 X177.581 Y171.548
G01 X177.566 Y171.533
G01 X176.199 Y170.520
G01 X174.902 Y169.449
G01 X173.675 Y168.325
G01 X173.277 Y167.934
G01 X171.990 Y166.984
G01 X170.756 Y165.975
G01 X169.578 Y164.910
G01 X168.987 Y164.334
G01 X167.707 Y163.390
G01 X166.470 Y162.379
G01 X165.279 Y161.302
G01 X164.697 Y160.735
G01 X163.348 Y159.736
G01 X162.037 Y158.654
G01 X160.770 Y157.491
G01 X160.407 Y157.135
G01 X158.912 Y156.018
G01 X157.456 Y154.795
G01 X156.117 Y153.535
G01 X155.045 Y152.636
G01 X186.618 Y141.144
G01 X188.154 Y140.525
G01 X189.250 Y140.186
G01 X189.262 Y140.222
G01 X189.275 Y140.257
G01 X189.291 Y140.292
G01 X189.307 Y140.325
G01 X189.326 Y140.358
G01 X189.346 Y140.390
G01 X189.368 Y140.420
G01 X189.391 Y140.450
G01 X189.415 Y140.478
G01 X189.441 Y140.504
G01 X189.467 Y140.530
G01 X189.495 Y140.554
G01 X189.524 Y140.577
G01 X189.555 Y140.598
G01 X189.586 Y140.617
G01 X189.617 Y140.635
G01 X189.650 Y140.651
G01 X189.683 Y140.666
G01 X189.717 Y140.679
G01 X189.751 Y140.690
G01 X189.786 Y140.699
G01 X189.821 Y140.707
G01 X189.856 Y140.713
G01 X189.892 Y140.717
G01 X189.927 Y140.720
G01 X189.963 Y140.721
G01 X189.998 Y140.720
G01 X190.033 Y140.717
G01 X190.068 Y140.712
G01 X190.103 Y140.706
G01 X190.137 Y140.698
G01 X190.171 Y140.689
G01 X190.204 Y140.678
G01 X190.236 Y140.665
G01 X190.268 Y140.651
G01 X190.298 Y140.635
G01 X190.328 Y140.618
G01 X190.357 Y140.599
G01 X190.385 Y140.579
G01 X190.412 Y140.558
G01 X190.437 Y140.536
G01 X190.462 Y140.512
G01 X190.485 Y140.487
G01 X190.507 Y140.462
G01 X190.527 Y140.435
G01 X190.547 Y140.407
G01 X190.564 Y140.379
G01 X190.581 Y140.350
G01 X190.595 Y140.320
G01 X190.608 Y140.290
G01 X190.620 Y140.259
G01 X190.630 Y140.227
G01 X190.639 Y140.195
G01 X190.646 Y140.163
G01 X190.651 Y140.131
G01 X190.654 Y140.099
G01 X190.657 Y140.066
G01 X190.657 Y140.034
G01 X190.656 Y140.002
G01 X190.653 Y139.970
G01 X190.649 Y139.938
G01 X190.643 Y139.906
G01 X190.636 Y139.875
G01 X190.627 Y139.845
G01 X190.617 Y139.815
G01 X190.605 Y139.785
G01 X190.592 Y139.757
G01 X190.577 Y139.729
G01 X190.565 Y139.707
G01 X192.735 Y138.749
G01 X194.995 Y138.006
G01 X195.827 Y137.792
G01 X201.090 Y135.877
G01 X201.044 Y136.500
G01 X200.965 Y137.109
G01 X200.854 Y137.701
G01 X200.711 Y138.275
G01 X200.603 Y138.634
G01 X200.569 Y139.163
G01 X200.509 Y139.685
G01 X200.423 Y140.200
G01 X200.312 Y140.705
G01 X200.177 Y141.199
G01 X200.117 Y141.391
G01 X200.086 Y141.895
G01 X200.029 Y142.400
G01 X199.947 Y142.903
G01 X199.840 Y143.404
G01 X199.707 Y143.901
G01 X199.631 Y144.149
G01 X199.595 Y144.704
G01 X199.526 Y145.265
G01 X199.426 Y145.831
G01 X199.292 Y146.400
G01 X199.145 Y146.906
G01 X199.130 Y147.626
G01 X199.065 Y148.361
G01 X198.950 Y149.107
G01 X198.782 Y149.861
G01 X198.562 Y150.619
G01 X198.416 Y151.043
G01 X198.340 Y152.136
G01 X198.177 Y153.247
G01 X197.924 Y154.370
G01 X197.686 Y155.179
G01 X197.504 Y156.819
G01 X197.177 Y158.474
G01 X196.957 Y159.315
G01 X196.659 Y161.787
G01 X196.134 Y164.271
G01 X195.984 Y164.830
G01 X195.444 Y168.706
G01 X194.769 Y171.724
G01 X193.820 Y178.029
G01 X193.067 Y181.375
G01 X192.581 Y184.132
G01 X190.401 Y183.037
G01 X188.336 Y181.836
G01 X186.519 Y180.632
G01 X184.626 Y179.697
G01 X182.816 Y178.676
G01 X181.094 Y177.575
G01 X180.457 Y177.132
G01 X178.746 Y176.295
G01 X177.095 Y175.381
G01 X175.506 Y174.393
G01 X174.394 Y173.632
G01 X172.758 Y172.835
G01 X171.163 Y171.957
G01 X169.612 Y171.003
G01 X168.332 Y170.132
G01 X166.656 Y169.314
G01 X165.008 Y168.403
G01 X163.394 Y167.400
G01 X162.270 Y166.632
G01 X160.435 Y165.729
G01 X158.622 Y164.708
G01 X156.840 Y163.570
G01 X156.208 Y163.132
G01 X154.094 Y162.073
G01 X152.005 Y160.861
G01 X150.146 Y159.632
G01 X164.695 Y151.232
G01 X171.891 Y146.996
G01 X173.182 Y146.332
G01 X176.010 Y144.497
G01 X178.970 Y142.957
G01 X179.244 Y142.832
G01 X180.347 Y142.041
G01 X181.499 Y141.366
G01 X182.691 Y140.809
G01 X182.881 Y140.732
G01 X183.340 Y140.356
G01 X183.816 Y140.027
G01 X184.308 Y139.745
G01 X184.812 Y139.512
G01 X185.306 Y139.332
G01 X185.552 Y139.143
G01 X185.804 Y138.975
G01 X186.061 Y138.831
G01 X186.322 Y138.709
G01 X186.519 Y138.632
G01 X186.672 Y138.500
G01 X186.830 Y138.380
G01 X186.992 Y138.271
G01 X187.156 Y138.174
G01 X187.323 Y138.089
G01 X187.491 Y138.016
G01 X187.659 Y137.955
G01 X187.731 Y137.932
G01 X187.843 Y137.831
G01 X187.960 Y137.736
G01 X188.081 Y137.648
G01 X188.205 Y137.566
G01 X188.333 Y137.490
G01 X188.464 Y137.421
G01 X188.597 Y137.358
G01 X188.734 Y137.303
G01 X188.872 Y137.254
G01 X188.944 Y137.232
G01 X189.062 Y137.126
G01 X189.188 Y137.024
G01 X189.322 Y136.928
G01 X189.463 Y136.839
G01 X189.612 Y136.756
G01 X189.767 Y136.680
G01 X189.929 Y136.611
G01 X190.097 Y136.551
G01 X190.156 Y136.532
G01 X190.342 Y136.380
G01 X190.542 Y136.237
G01 X190.758 Y136.107
G01 X190.987 Y135.988
G01 X191.230 Y135.883
G01 X191.369 Y135.832
G01 X191.687 Y135.602
G01 X192.032 Y135.394
G01 X192.400 Y135.210
G01 X192.581 Y135.132
G01 X192.621 Y135.593
G01 X192.623 Y136.046
G01 X192.587 Y136.488
G01 X192.581 Y136.532
G01 X192.624 Y136.814
G01 X192.646 Y137.091
G01 X192.647 Y137.362
G01 X192.629 Y137.625
G01 X192.591 Y137.881
G01 X192.581 Y137.932
G01 X192.619 Y138.105
G01 X192.646 Y138.276
G01 X192.663 Y138.446
G01 X192.670 Y138.613
G01 X192.667 Y138.777
G01 X192.655 Y138.937
G01 X192.633 Y139.093
G01 X192.603 Y139.244
G01 X192.581 Y139.332
G01 X192.612 Y139.459
G01 X192.637 Y139.588
G01 X192.656 Y139.718
G01 X192.668 Y139.848
G01 X192.674 Y139.979
G01 X192.673 Y140.110
G01 X192.666 Y140.242
G01 X192.652 Y140.372
G01 X192.632 Y140.502
G01 X192.606 Y140.631
G01 X192.581 Y140.732
G01 X192.617 Y140.883
G01 X192.643 Y141.039
G01 X192.661 Y141.200
G01 X192.669 Y141.365
G01 X192.667 Y141.534
G01 X192.655 Y141.705
G01 X192.633 Y141.879
G01 X192.599 Y142.055
G01 X192.581 Y142.132
G01 X192.623 Y142.392
G01 X192.645 Y142.662
G01 X192.646 Y142.939
G01 X192.626 Y143.222
G01 X192.585 Y143.509
G01 X192.581 Y143.532
G01 X192.677 Y144.069
G01 X192.726 Y144.622
G01 X192.726 Y145.189
G01 X192.677 Y145.766
G01 X192.581 Y146.332
G01 X192.711 Y147.716
G01 X192.711 Y149.124
G01 X192.581 Y150.532
G01 X192.743 Y154.166
G01 X192.581 Y157.532
G01 X192.653 Y167.246
G01 X192.581 Y168.732
G01 X192.581 Y184.132
G01 X190.406 Y183.479
G01 X188.301 Y182.720
G01 X186.271 Y181.861
G01 X186.003 Y181.738
G01 X184.010 Y181.146
G01 X182.066 Y180.460
G01 X180.174 Y179.683
G01 X179.425 Y179.344
G01 X177.508 Y178.777
G01 X175.620 Y178.116
G01 X173.768 Y177.364
G01 X172.847 Y176.950
G01 X170.894 Y176.371
G01 X168.956 Y175.689
G01 X167.039 Y174.903
G01 X166.270 Y174.556
G01 X164.164 Y173.926
G01 X162.063 Y173.172
G01 X159.976 Y172.292
G01 X159.692 Y172.161
G01 X157.316 Y171.438
G01 X154.941 Y170.556
G01 X153.114 Y169.767
G01 X150.353 Y168.902
G01 X147.591 Y167.835
G01 X146.536 Y167.373
G01 X156.188 Y159.274
G01 X162.297 Y154.038
G01 X163.695 Y152.975
G01 X167.209 Y149.883
G01 X169.058 Y148.475
G01 X171.103 Y146.588
G01 X173.277 Y144.924
G01 X173.348 Y144.876
G01 X174.565 Y143.707
G01 X175.854 Y142.671
G01 X176.565 Y142.176
G01 X177.253 Y141.427
G01 X177.980 Y140.751
G01 X178.740 Y140.150
G01 X179.529 Y139.625
G01 X179.782 Y139.476
G01 X180.211 Y139.015
G01 X180.659 Y138.594
G01 X181.124 Y138.215
G01 X181.602 Y137.877
G01 X181.927 Y137.676
G01 X182.218 Y137.340
G01 X182.522 Y137.027
G01 X182.838 Y136.737
G01 X183.164 Y136.471
G01 X183.498 Y136.228
G01 X183.840 Y136.010
G01 X184.072 Y135.877
G01 X184.301 Y135.605
G01 X184.541 Y135.346
G01 X184.794 Y135.101
G01 X185.057 Y134.868
G01 X185.331 Y134.650
G01 X185.614 Y134.446
G01 X185.905 Y134.257
G01 X186.205 Y134.083
G01 X186.217 Y134.077
G01 X186.454 Y133.795
G01 X186.709 Y133.523
G01 X186.982 Y133.262
G01 X187.273 Y133.011
G01 X187.582 Y132.774
G01 X187.907 Y132.550
G01 X188.249 Y132.341
G01 X188.362 Y132.277
G01 X188.702 Y131.954
G01 X189.070 Y131.646
G01 X189.434 Y131.377
G01 X189.891 Y133.358
G01 X190.152 Y135.358
G01 X190.164 Y135.513
G01 X190.323 Y136.234
G01 X190.407 Y136.892
G01 X190.510 Y137.187
G01 X190.585 Y137.483
G01 X190.632 Y137.780
G01 X190.652 Y138.075
G01 X190.650 Y138.271
G01 X190.713 Y138.352
G01 X190.770 Y138.436
G01 X190.821 Y138.521
G01 X190.865 Y138.608
G01 X190.903 Y138.695
G01 X190.934 Y138.782
G01 X190.959 Y138.869
G01 X190.978 Y138.955
G01 X190.990 Y139.041
G01 X190.997 Y139.125
G01 X190.998 Y139.207
G01 X190.994 Y139.287
G01 X190.984 Y139.365
G01 X190.968 Y139.440
G01 X190.948 Y139.512
G01 X190.924 Y139.581
G01 X190.895 Y139.646
G01 X190.893 Y139.649
G01 X190.933 Y139.686
G01 X190.972 Y139.725
G01 X191.009 Y139.767
G01 X191.044 Y139.812
G01 X191.077 Y139.861
G01 X191.108 Y139.912
G01 X191.136 Y139.965
G01 X191.162 Y140.022
G01 X191.185 Y140.080
G01 X191.205 Y140.141
G01 X191.221 Y140.205
G01 X191.235 Y140.270
G01 X191.244 Y140.336
G01 X191.250 Y140.405
G01 X191.253 Y140.475
G01 X191.251 Y140.546
G01 X191.246 Y140.618
G01 X191.236 Y140.691
G01 X191.222 Y140.764
G01 X191.204 Y140.837
G01 X191.181 Y140.911
G01 X191.155 Y140.984
G01 X191.136 Y141.028
G01 X191.221 Y141.219
G01 X191.290 Y141.421
G01 X191.342 Y141.632
G01 X191.376 Y141.852
G01 X191.391 Y142.078
G01 X191.387 Y142.309
G01 X191.379 Y142.407
G01 X191.608 Y143.156
G01 X191.766 Y143.931
G01 X191.851 Y144.728
G01 X191.866 Y145.164
G01 X192.647 Y148.632
G01 X193.081 Y152.058
G01 X195.755 Y167.224
G01 X199.159 Y186.526
G01 X196.764 Y186.230
G01 X194.420 Y185.812
G01 X192.265 Y185.311
G01 X190.039 Y185.040
G01 X187.845 Y184.661
G01 X185.688 Y184.176
G01 X185.371 Y184.095
G01 X183.210 Y183.834
G01 X181.064 Y183.468
G01 X178.937 Y182.996
G01 X178.478 Y182.880
G01 X176.275 Y182.613
G01 X174.071 Y182.232
G01 X171.871 Y181.737
G01 X171.584 Y181.664
G01 X169.229 Y181.374
G01 X166.859 Y180.951
G01 X164.691 Y180.449
G01 X162.071 Y180.114
G01 X159.424 Y179.618
G01 X157.797 Y179.233
G01 X154.800 Y178.831
G01 X151.767 Y178.226
G01 X150.903 Y178.018
G01 X147.418 Y177.522
G01 X144.010 Y176.802
G01 X151.459 Y167.852
G01 X152.109 Y167.150
G01 X156.755 Y161.433
G01 X158.408 Y159.643
G01 X161.446 Y155.866
G01 X162.908 Y154.280
G01 X164.823 Y151.730
G01 X166.917 Y149.405
G01 X167.407 Y148.918
G01 X168.606 Y147.253
G01 X169.910 Y145.729
G01 X171.007 Y144.628
G01 X171.811 Y143.497
G01 X172.679 Y142.456
G01 X173.602 Y141.509
G01 X173.706 Y141.411
G01 X174.250 Y140.587
G01 X174.833 Y139.821
G01 X175.453 Y139.113
G01 X176.103 Y138.465
G01 X176.406 Y138.193
G01 X176.787 Y137.579
G01 X177.196 Y136.998
G01 X177.628 Y136.451
G01 X178.083 Y135.938
G01 X178.558 Y135.462
G01 X179.050 Y135.022
G01 X179.106 Y134.976
G01 X179.474 Y134.504
G01 X179.863 Y134.057
G01 X180.006 Y133.903
G01 X180.200 Y134.664
G01 X180.444 Y135.389
G01 X180.735 Y136.077
G01 X180.963 Y136.535
G01 X181.080 Y137.073
G01 X181.227 Y137.591
G01 X181.402 Y138.087
G01 X181.605 Y138.560
G01 X181.832 Y139.009
G01 X181.921 Y139.166
G01 X181.999 Y139.569
G01 X182.096 Y139.963
G01 X182.213 Y140.346
G01 X182.348 Y140.717
G01 X182.500 Y141.076
G01 X182.669 Y141.422
G01 X182.853 Y141.754
G01 X182.879 Y141.797
G01 X182.945 Y142.154
G01 X183.029 Y142.508
G01 X183.131 Y142.859
G01 X183.250 Y143.207
G01 X183.388 Y143.549
G01 X183.542 Y143.886
G01 X183.714 Y144.216
G01 X183.836 Y144.428
G01 X183.916 Y144.841
G01 X184.021 Y145.256
G01 X184.153 Y145.672
G01 X184.311 Y146.088
G01 X184.497 Y146.502
G01 X184.710 Y146.911
G01 X184.794 Y147.059
G01 X184.925 Y147.639
G01 X185.102 Y148.222
G01 X185.324 Y148.805
G01 X185.592 Y149.386
G01 X185.752 Y149.690
G01 X185.954 Y150.618
G01 X186.237 Y151.547
G01 X186.603 Y152.473
G01 X187.051 Y153.388
G01 X187.188 Y153.637
G01 X187.637 Y155.196
G01 X188.233 Y156.741
G01 X188.625 Y157.584
G01 X189.416 Y160.146
G01 X190.456 Y162.668
G01 X190.540 Y162.846
G01 X191.976 Y167.133
G01 X192.934 Y169.424
G01 X195.497 Y176.750
G01 X196.286 Y178.633
G01 X199.159 Y186.526
G01 X196.824 Y186.643
G01 X194.501 Y186.643
G01 X192.193 Y186.529
G01 X192.159 Y186.526
G01 X189.873 Y186.642
G01 X187.581 Y186.645
G01 X185.289 Y186.536
G01 X185.159 Y186.526
G01 X182.818 Y186.643
G01 X180.455 Y186.642
G01 X178.159 Y186.526
G01 X175.657 Y186.646
G01 X173.116 Y186.631
G01 X171.159 Y186.526
G01 X168.388 Y186.648
G01 X165.561 Y186.607
G01 X164.159 Y186.526
G01 X160.983 Y186.690
G01 X157.730 Y186.650
G01 X155.759 Y186.526
G01 X151.975 Y186.683
G01 X148.097 Y186.577
G01 X147.359 Y186.526
G01 X143.159 Y186.526
G01 X148.303 Y177.537
G01 X148.759 Y176.827
G01 X152.278 Y170.493
G01 X153.659 Y168.340
G01 X156.053 Y163.890
G01 X157.859 Y161.065
G01 X159.507 Y157.910
G01 X161.359 Y155.003
G01 X162.539 Y152.709
G01 X163.871 Y150.568
G01 X164.159 Y150.153
G01 X164.985 Y148.437
G01 X165.915 Y146.827
G01 X166.940 Y145.329
G01 X166.959 Y145.303
G01 X167.594 Y144.011
G01 X168.298 Y142.794
G01 X169.059 Y141.666
G01 X169.554 Y140.620
G01 X170.099 Y139.626
G01 X170.692 Y138.688
G01 X171.159 Y138.029
G01 X171.564 Y137.151
G01 X172.008 Y136.308
G01 X172.491 Y135.501
G01 X173.009 Y134.733
G01 X173.259 Y134.392
G01 X173.651 Y133.615
G01 X174.080 Y132.863
G01 X174.542 Y132.138
G01 X174.659 Y131.967
G01 X175.210 Y133.158
G01 X175.838 Y134.274
G01 X176.538 Y135.312
G01 X176.759 Y135.604
G01 X177.081 Y136.404
G01 X177.448 Y137.162
G01 X177.857 Y137.874
G01 X178.304 Y138.540
G01 X178.786 Y139.156
G01 X178.859 Y139.241
G01 X179.101 Y139.794
G01 X179.369 Y140.321
G01 X179.662 Y140.821
G01 X179.978 Y141.293
G01 X180.259 Y141.666
G01 X180.451 Y142.120
G01 X180.665 Y142.559
G01 X180.898 Y142.983
G01 X181.150 Y143.389
G01 X181.420 Y143.779
G01 X181.659 Y144.091
G01 X181.836 Y144.514
G01 X182.036 Y144.929
G01 X182.256 Y145.335
G01 X182.497 Y145.732
G01 X182.758 Y146.117
G01 X183.039 Y146.491
G01 X183.059 Y146.516
G01 X183.257 Y146.983
G01 X183.485 Y147.446
G01 X183.742 Y147.903
G01 X184.029 Y148.353
G01 X184.344 Y148.793
G01 X184.459 Y148.941
G01 X184.722 Y149.532
G01 X185.029 Y150.118
G01 X185.382 Y150.696
G01 X185.780 Y151.262
G01 X185.859 Y151.366
G01 X186.215 Y152.222
G01 X186.646 Y153.069
G01 X187.151 Y153.901
G01 X187.730 Y154.714
G01 X187.959 Y155.003
G01 X188.591 Y156.322
G01 X189.347 Y157.612
G01 X190.059 Y158.640
G01 X191.083 Y160.702
G01 X192.308 Y162.704
G01 X192.859 Y163.490
G01 X194.609 Y166.818
G01 X196.359 Y169.552
G01 X199.323 Y174.901
G01 X200.559 Y176.827
G01 X205.499 Y185.500
G01 X206.159 Y186.526
G01 X203.796 Y187.058
G01 X201.421 Y187.471
G01 X199.265 Y187.742
G01 X196.930 Y188.269
G01 X194.565 Y188.681
G01 X192.371 Y188.957
G01 X189.966 Y189.498
G01 X187.513 Y189.919
G01 X185.478 Y190.173
G01 X182.902 Y190.746
G01 X180.259 Y191.185
G01 X178.584 Y191.388
G01 X175.723 Y192.054
G01 X172.770 Y192.559
G01 X170.312 Y192.847
G01 X166.979 Y193.595
G01 X163.526 Y194.140
G01 X162.039 Y194.306
G01 X158.085 Y195.155
G01 X153.984 Y195.741
G01 X153.767 Y195.764
G01 X149.045 Y196.730
G01 X145.495 Y197.223
G01 X144.116 Y197.466
G01 X147.370 Y188.324
G01 X147.947 Y186.942
G01 X150.278 Y180.184
G01 X151.298 Y177.733
G01 X152.983 Y172.705
G01 X154.171 Y169.839
G01 X155.421 Y166.035
G01 X156.565 Y163.261
G01 X157.457 Y160.347
G01 X158.549 Y157.579
G01 X158.960 Y156.683
G01 X159.646 Y154.442
G01 X160.474 Y152.310
G01 X160.875 Y151.421
G01 X161.392 Y149.627
G01 X162.013 Y147.913
G01 X162.730 Y146.283
G01 X162.790 Y146.159
G01 X163.189 Y144.699
G01 X163.664 Y143.294
G01 X164.211 Y141.946
G01 X164.706 Y140.897
G01 X165.112 Y139.660
G01 X165.578 Y138.466
G01 X165.663 Y138.265
G01 X166.560 Y139.483
G01 X167.516 Y140.608
G01 X168.363 Y141.483
G01 X169.068 Y142.471
G01 X169.817 Y143.394
G01 X170.605 Y144.249
G01 X171.063 Y144.700
G01 X171.639 Y145.527
G01 X172.251 Y146.308
G01 X172.894 Y147.043
G01 X173.565 Y147.730
G01 X173.762 Y147.918
G01 X174.269 Y148.651
G01 X174.808 Y149.353
G01 X175.377 Y150.024
G01 X175.976 Y150.662
G01 X176.462 Y151.135
G01 X176.954 Y151.850
G01 X177.484 Y152.543
G01 X178.051 Y153.212
G01 X178.654 Y153.856
G01 X179.162 Y154.352
G01 X179.700 Y155.129
G01 X180.289 Y155.888
G01 X180.929 Y156.624
G01 X181.617 Y157.335
G01 X181.861 Y157.570
G01 X182.513 Y158.491
G01 X183.237 Y159.390
G01 X184.031 Y160.260
G01 X184.561 Y160.787
G01 X185.398 Y161.932
G01 X186.335 Y163.042
G01 X187.261 Y164.005
G01 X188.351 Y165.521
G01 X189.583 Y166.984
G01 X190.860 Y168.294
G01 X192.417 Y170.340
G01 X194.176 Y172.296
G01 X194.460 Y172.584
G01 X196.629 Y175.398
G01 X198.960 Y177.947
G01 X202.097 Y181.917
G01 X204.359 Y184.381
G01 X206.159 Y186.526
G01 X203.915 Y187.463
G01 X201.618 Y188.291
G01 X199.581 Y188.920
G01 X197.250 Y189.890
G01 X194.847 Y190.748
G01 X193.003 Y191.315
G01 X190.491 Y192.353
G01 X187.883 Y193.266
G01 X186.425 Y193.709
G01 X183.629 Y194.895
G01 X180.708 Y195.932
G01 X178.532 Y196.582
G01 X175.264 Y197.937
G01 X171.837 Y199.104
G01 X170.638 Y199.455
G01 X166.758 Y201.022
G01 X162.745 Y202.328
G01 X158.080 Y204.213
G01 X153.536 Y205.679
G01 X147.896 Y207.773
G01 X146.958 Y208.074
G01 X148.446 Y199.088
G01 X148.903 Y197.044
G01 X149.993 Y190.146
G01 X150.605 Y187.393
G01 X151.421 Y182.031
G01 X152.063 Y179.120
G01 X152.629 Y174.931
G01 X153.509 Y170.897
G01 X153.522 Y170.848
G01 X153.958 Y167.564
G01 X154.623 Y164.400
G01 X154.738 Y163.954
G01 X155.046 Y161.316
G01 X155.525 Y158.768
G01 X155.953 Y157.060
G01 X156.222 Y154.900
G01 X156.618 Y152.807
G01 X156.926 Y151.546
G01 X157.141 Y149.690
G01 X157.458 Y147.884
G01 X157.871 Y146.132
G01 X157.898 Y146.031
G01 X158.081 Y144.388
G01 X158.346 Y142.777
G01 X158.692 Y141.204
G01 X158.870 Y140.516
G01 X159.114 Y139.137
G01 X160.674 Y140.620
G01 X162.301 Y141.949
G01 X163.403 Y142.737
G01 X164.558 Y143.887
G01 X165.759 Y144.932
G01 X166.998 Y145.868
G01 X167.693 Y146.336
G01 X168.613 Y147.226
G01 X169.565 Y148.042
G01 X170.544 Y148.782
G01 X170.911 Y149.036
G01 X171.684 Y149.797
G01 X172.486 Y150.505
G01 X173.312 Y151.158
G01 X174.128 Y151.736
G01 X174.819 Y152.422
G01 X175.539 Y153.068
G01 X176.286 Y153.674
G01 X177.057 Y154.239
G01 X177.345 Y154.435
G01 X178.017 Y155.104
G01 X178.725 Y155.741
G01 X179.466 Y156.345
G01 X180.239 Y156.914
G01 X180.563 Y157.135
G01 X181.283 Y157.848
G01 X182.050 Y158.531
G01 X182.864 Y159.182
G01 X183.723 Y159.796
G01 X183.780 Y159.835
G01 X184.620 Y160.655
G01 X185.527 Y161.440
G01 X186.497 Y162.184
G01 X186.998 Y162.534
G01 X188.030 Y163.579
G01 X189.157 Y164.574
G01 X190.378 Y165.513
G01 X191.287 Y166.134
G01 X192.713 Y167.505
G01 X194.275 Y168.796
G01 X195.577 Y169.734
G01 X197.553 Y171.616
G01 X199.726 Y173.370
G01 X200.940 Y174.233
G01 X203.782 Y176.795
G01 X206.302 Y178.733
G01 X210.275 Y182.246
G01 X212.737 Y184.132
G01 X210.664 Y185.459
G01 X208.515 Y186.688
G01 X206.674 Y187.632
G01 X204.502 Y189.018
G01 X202.234 Y190.305
G01 X200.612 Y191.132
G01 X198.260 Y192.670
G01 X195.781 Y194.097
G01 X193.338 Y195.332
G01 X190.637 Y197.073
G01 X187.773 Y198.679
G01 X186.063 Y199.532
G01 X182.883 Y201.545
G01 X179.497 Y203.383
G01 X178.788 Y203.732
G01 X174.999 Y206.081
G01 X171.514 Y207.932
G01 X166.962 Y210.753
G01 X163.027 Y212.832
G01 X157.441 Y216.207
G01 X154.540 Y217.732
G01 X152.115 Y219.132
G01 X152.011 Y210.271
G01 X152.115 Y207.932
G01 X151.996 Y200.913
G01 X152.115 Y198.132
G01 X151.940 Y192.568
G01 X152.115 Y188.332
G01 X151.959 Y183.910
G01 X152.115 Y179.932
G01 X151.991 Y176.315
G01 X152.115 Y172.932
G01 X151.979 Y169.905
G01 X152.045 Y166.947
G01 X152.115 Y165.932
G01 X151.976 Y163.373
G01 X151.994 Y160.865
G01 X152.115 Y158.932
G01 X151.979 Y156.722
G01 X151.966 Y154.544
G01 X152.074 Y152.407
G01 X152.115 Y151.932
G01 X152.094 Y149.923
G01 X152.115 Y149.132
G01 X154.185 Y150.517
G01 X156.297 Y151.722
G01 X158.177 Y152.632
G01 X159.832 Y153.725
G01 X161.515 Y154.687
G01 X163.027 Y155.432
G01 X164.404 Y156.362
G01 X165.805 Y157.194
G01 X167.226 Y157.930
G01 X167.877 Y158.232
G01 X169.070 Y159.048
G01 X170.289 Y159.792
G01 X171.530 Y160.463
G01 X172.726 Y161.032
G01 X173.827 Y161.790
G01 X174.961 Y162.490
G01 X176.124 Y163.132
G01 X177.314 Y163.713
G01 X177.576 Y163.832
G01 X178.678 Y164.591
G01 X179.826 Y165.299
G01 X181.015 Y165.953
G01 X182.244 Y166.550
G01 X182.426 Y166.632
G01 X183.629 Y167.456
G01 X184.896 Y168.224
G01 X186.223 Y168.933
G01 X187.276 Y169.432
G01 X188.686 Y170.381
G01 X190.183 Y171.261
G01 X191.764 Y172.065
G01 X192.125 Y172.232
G01 X193.851 Y173.364
G01 X195.693 Y174.401
G01 X196.975 Y175.032
G01 X199.142 Y176.468
G01 X201.465 Y177.770
G01 X203.037 Y178.532
G01 X205.898 Y180.347
G01 X208.965 Y181.968
G01 X209.099 Y182.032
G01 X212.726 Y184.127
G01 X212.737 Y184.132
G01 X210.850 Y185.868
G01 X208.847 Y187.523
G01 X207.374 Y188.632
G01 X205.300 Y190.526
G01 X203.082 Y192.332
G01 X202.012 Y193.131
G01 X199.678 Y195.298
G01 X197.159 Y197.360
G01 X195.577 Y198.531
G01 X192.805 Y201.059
G01 X189.799 Y203.450
G01 X189.142 Y203.930
G01 X185.813 Y206.907
G01 X182.708 Y209.329
G01 X178.689 Y212.920
G01 X175.200 Y215.629
G01 X170.234 Y219.963
G01 X167.693 Y221.928
G01 X161.587 Y227.221
G01 X159.114 Y229.127
G01 X157.514 Y220.706
G01 X157.169 Y218.097
G01 X155.842 Y211.249
G01 X155.467 Y208.446
G01 X154.316 Y202.855
G01 X153.765 Y198.795
G01 X152.812 Y194.194
G01 X152.307 Y190.523
G01 X151.469 Y186.679
G01 X150.914 Y182.880
G01 X150.848 Y182.250
G01 X150.110 Y179.019
G01 X149.592 Y175.819
G01 X149.389 Y173.978
G01 X148.772 Y171.187
G01 X148.328 Y168.420
G01 X148.174 Y167.084
G01 X147.609 Y164.585
G01 X147.187 Y162.097
G01 X146.958 Y160.191
G01 X146.431 Y157.885
G01 X146.025 Y155.577
G01 X145.743 Y153.297
G01 X148.878 Y154.591
G01 X152.028 Y155.610
G01 X152.320 Y155.691
G01 X154.760 Y156.749
G01 X157.208 Y157.608
G01 X158.898 Y158.085
G01 X160.853 Y158.921
G01 X162.812 Y159.610
G01 X164.161 Y160.001
G01 X165.789 Y160.717
G01 X167.425 Y161.323
G01 X169.060 Y161.820
G01 X169.423 Y161.916
G01 X170.825 Y162.544
G01 X172.238 Y163.089
G01 X173.658 Y163.550
G01 X174.685 Y163.831
G01 X175.958 Y164.407
G01 X177.250 Y164.915
G01 X178.557 Y165.356
G01 X179.877 Y165.729
G01 X179.947 Y165.747
G01 X181.189 Y166.309
G01 X182.462 Y166.812
G01 X183.763 Y167.253
G01 X185.089 Y167.631
G01 X185.210 Y167.662
G01 X186.525 Y168.255
G01 X187.886 Y168.786
G01 X189.292 Y169.249
G01 X190.472 Y169.577
G01 X191.970 Y170.243
G01 X193.534 Y170.832
G01 X195.161 Y171.338
G01 X195.734 Y171.493
G01 X197.528 Y172.269
G01 X199.412 Y172.943
G01 X200.997 Y173.408
G01 X203.223 Y174.389
G01 X205.570 Y175.228
G01 X207.574 Y175.802
G01 X210.483 Y177.017
G01 X213.551 Y178.028
G01 X214.152 Y178.196
G01 X217.808 Y179.540
G01 X218.099 Y179.633
G01 X216.560 Y181.653
G01 X214.889 Y183.615
G01 X213.599 Y184.995
G01 X211.885 Y187.226
G01 X210.008 Y189.394
G01 X209.100 Y190.357
G01 X207.155 Y192.928
G01 X205.003 Y195.424
G01 X203.701 Y196.792
G01 X201.359 Y199.825
G01 X198.751 Y202.759
G01 X198.301 Y203.227
G01 X195.456 Y206.833
G01 X192.902 Y209.662
G01 X189.448 Y214.032
G01 X186.602 Y217.169
G01 X182.300 Y222.483
G01 X180.303 Y224.676
G01 X174.993 Y231.187
G01 X173.104 Y233.256
G01 X168.604 Y238.618
G01 X165.604 Y230.709
G01 X164.774 Y228.093
G01 X162.262 Y221.517
G01 X161.422 Y218.884
G01 X159.262 Y213.386
G01 X158.070 Y209.675
G01 X156.214 Y205.089
G01 X154.727 Y200.496
G01 X154.718 Y200.467
G01 X153.152 Y196.578
G01 X151.878 Y192.686
G01 X151.845 Y192.573
G01 X150.461 Y189.207
G01 X149.313 Y185.835
G01 X148.972 Y184.680
G01 X147.735 Y181.719
G01 X146.687 Y178.746
G01 X146.099 Y176.786
G01 X144.971 Y174.115
G01 X143.998 Y171.423
G01 X143.226 Y168.893
G01 X142.291 Y166.328
G01 X142.269 Y166.262
G01 X146.077 Y167.056
G01 X149.162 Y167.477
G01 X152.275 Y168.167
G01 X155.353 Y168.621
G01 X156.056 Y168.693
G01 X158.610 Y169.292
G01 X161.138 Y169.713
G01 X162.950 Y169.908
G01 X165.079 Y170.432
G01 X167.192 Y170.820
G01 X169.282 Y171.077
G01 X169.843 Y171.124
G01 X171.677 Y171.588
G01 X173.508 Y171.949
G01 X175.328 Y172.208
G01 X176.737 Y172.339
G01 X178.405 Y172.768
G01 X180.082 Y173.111
G01 X181.766 Y173.369
G01 X183.450 Y173.541
G01 X183.631 Y173.555
G01 X185.264 Y173.976
G01 X186.923 Y174.317
G01 X188.605 Y174.577
G01 X190.305 Y174.754
G01 X190.524 Y174.770
G01 X192.263 Y175.215
G01 X194.046 Y175.572
G01 X195.869 Y175.837
G01 X197.418 Y175.986
G01 X199.408 Y176.482
G01 X201.464 Y176.868
G01 X203.579 Y177.137
G01 X204.312 Y177.202
G01 X206.702 Y177.771
G01 X209.181 Y178.193
G01 X211.205 Y178.417
G01 X214.144 Y179.078
G01 X217.197 Y179.538
G01 X218.099 Y179.633
G01 X216.832 Y182.079
G01 X215.391 Y184.494
G01 X214.599 Y185.695
G01 X213.118 Y188.506
G01 X211.418 Y191.278
G01 X211.099 Y191.757
G01 X209.362 Y195.087
G01 X207.348 Y198.365
G01 X206.899 Y199.032
G01 X204.744 Y203.049
G01 X202.699 Y206.306
G01 X200.048 Y211.228
G01 X197.799 Y214.793
G01 X194.436 Y220.854
G01 X192.899 Y223.280
G01 X188.703 Y230.771
G01 X187.299 Y232.980
G01 X181.988 Y242.340
G01 X180.999 Y243.892
G01 X179.599 Y246.317
G01 X175.352 Y239.196
G01 X173.999 Y236.617
G01 X170.372 Y230.661
G01 X168.399 Y226.918
G01 X165.327 Y221.882
G01 X163.499 Y218.431
G01 X160.827 Y214.129
G01 X158.599 Y209.943
G01 X156.262 Y206.244
G01 X154.209 Y202.488
G01 X153.699 Y201.456
G01 X151.657 Y198.190
G01 X149.846 Y194.875
G01 X149.499 Y194.182
G01 X147.636 Y191.226
G01 X145.964 Y188.221
G01 X145.299 Y186.907
G01 X143.564 Y184.170
G01 X141.989 Y181.376
G01 X141.099 Y179.633
G01 X139.467 Y177.000
G01 X137.975 Y174.303
G01 X137.599 Y173.570
G01 X142.669 Y173.708
G01 X145.999 Y173.570
G01 X150.005 Y173.743
G01 X153.917 Y173.608
G01 X154.399 Y173.570
G01 X157.595 Y173.710
G01 X160.716 Y173.621
G01 X161.399 Y173.570
G01 X164.017 Y173.719
G01 X166.578 Y173.694
G01 X168.399 Y173.570
G01 X170.575 Y173.718
G01 X172.712 Y173.735
G01 X174.802 Y173.625
G01 X175.399 Y173.570
G01 X177.266 Y173.711
G01 X179.111 Y173.750
G01 X180.929 Y173.691
G01 X182.399 Y173.570
G01 X184.090 Y173.704
G01 X185.776 Y173.752
G01 X187.453 Y173.717
G01 X189.116 Y173.599
G01 X189.399 Y173.570
G01 X191.051 Y173.702
G01 X192.715 Y173.752
G01 X194.386 Y173.719
G01 X196.061 Y173.604
G01 X196.399 Y173.570
G01 X198.157 Y173.707
G01 X199.944 Y173.751
G01 X201.755 Y173.700
G01 X203.399 Y173.570
G01 X205.415 Y173.715
G01 X207.477 Y173.740
G01 X209.577 Y173.642
G01 X210.399 Y173.570
G01 X212.826 Y173.718
G01 X215.315 Y173.705
G01 X217.399 Y173.570
G01 X220.302 Y173.616
G01 X221.599 Y173.570
G01 X220.808 Y176.129
G01 X219.839 Y178.688
G01 X219.205 Y180.148
G01 X218.252 Y183.140
G01 X217.073 Y186.130
G01 X216.811 Y186.726
G01 X215.678 Y190.321
G01 X214.254 Y193.913
G01 X213.938 Y194.620
G01 X212.486 Y199.028
G01 X211.065 Y202.513
G01 X209.248 Y207.978
G01 X207.713 Y211.722
G01 X205.350 Y218.531
G01 X204.361 Y220.931
G01 X201.375 Y229.415
G01 X200.531 Y231.455
G01 X196.704 Y242.131
G01 X196.221 Y243.296
G01 X192.869 Y252.505
G01 X187.493 Y246.278
G01 X185.670 Y243.925
G01 X181.027 Y238.633
G01 X178.471 Y235.345
G01 X174.470 Y230.783
G01 X172.172 Y227.838
G01 X168.644 Y223.868
G01 X165.872 Y220.331
G01 X162.741 Y216.847
G01 X159.892 Y213.255
G01 X159.573 Y212.823
G01 X156.760 Y209.724
G01 X154.177 Y206.528
G01 X153.274 Y205.316
G01 X150.701 Y202.501
G01 X148.314 Y199.592
G01 X146.974 Y197.809
G01 X144.560 Y195.178
G01 X142.300 Y192.451
G01 X140.675 Y190.302
G01 X138.875 Y188.157
G01 X144.432 Y187.352
G01 X148.526 Y186.455
G01 X152.961 Y185.829
G01 X156.799 Y184.996
G01 X160.437 Y184.479
G01 X163.692 Y183.781
G01 X166.752 Y183.378
G01 X169.707 Y182.783
G01 X170.586 Y182.565
G01 X173.183 Y182.247
G01 X175.701 Y181.780
G01 X177.480 Y181.350
G01 X179.730 Y181.090
G01 X181.923 Y180.712
G01 X184.055 Y180.219
G01 X184.373 Y180.134
G01 X186.390 Y179.910
G01 X188.371 Y179.586
G01 X190.312 Y179.165
G01 X191.267 Y178.919
G01 X193.167 Y178.711
G01 X195.050 Y178.412
G01 X196.911 Y178.020
G01 X198.161 Y177.703
G01 X200.065 Y177.496
G01 X201.968 Y177.191
G01 X203.865 Y176.790
G01 X205.054 Y176.488
G01 X207.089 Y176.262
G01 X209.137 Y175.922
G01 X211.192 Y175.468
G01 X211.948 Y175.272
G01 X214.242 Y175.005
G01 X216.562 Y174.596
G01 X218.841 Y174.057
G01 X221.420 Y173.608
G01 X221.599 Y173.570
G01 X221.203 Y176.593
G01 X220.584 Y179.654
G01 X220.383 Y180.464
G01 X219.902 Y184.183
G01 X219.125 Y187.946
G01 X218.925 Y188.736
G01 X218.249 Y193.405
G01 X217.466 Y197.009
G01 X216.587 Y202.905
G01 X215.764 Y206.660
G01 X214.544 Y214.131
G01 X214.063 Y216.311
G01 X212.474 Y225.736
G01 X212.118 Y227.341
G01 X210.024 Y239.327
G01 X209.930 Y239.749
G01 X207.256 Y254.916
G01 X207.013 Y256.294
G01 X200.724 Y251.170
G01 X198.433 Y249.095
G01 X192.938 Y244.679
G01 X189.853 Y241.896
G01 X185.040 Y238.081
G01 X181.273 Y234.697
G01 X177.039 Y231.326
G01 X173.766 Y228.397
G01 X169.944 Y225.382
G01 X166.378 Y222.211
G01 X166.259 Y222.098
G01 X162.765 Y219.361
G01 X159.481 Y216.483
G01 X158.752 Y215.799
G01 X155.499 Y213.264
G01 X152.418 Y210.594
G01 X151.244 Y209.499
G01 X148.145 Y207.091
G01 X145.188 Y204.547
G01 X143.737 Y203.200
G01 X140.722 Y200.816
G01 X137.830 Y198.289
G01 X137.302 Y197.801
G01 X144.286 Y195.370
G01 X146.511 Y194.449
G01 X152.055 Y192.608
G01 X155.720 Y191.097
G01 X160.109 Y189.661
G01 X163.614 Y188.224
G01 X167.177 Y187.058
G01 X170.192 Y185.830
G01 X173.159 Y184.896
G01 X175.984 Y183.786
G01 X176.770 Y183.436
G01 X179.257 Y182.682
G01 X181.637 Y181.793
G01 X183.347 Y181.042
G01 X185.470 Y180.418
G01 X187.515 Y179.688
G01 X189.478 Y178.856
G01 X189.925 Y178.647
G01 X191.798 Y178.108
G01 X193.618 Y177.480
G01 X195.381 Y176.766
G01 X196.503 Y176.253
G01 X198.243 Y175.757
G01 X199.951 Y175.178
G01 X201.621 Y174.517
G01 X203.081 Y173.859
G01 X204.811 Y173.366
G01 X206.524 Y172.785
G01 X208.215 Y172.116
G01 X209.659 Y171.465
G01 X211.507 Y170.935
G01 X213.350 Y170.297
G01 X215.181 Y169.553
G01 X216.237 Y169.071
G01 X218.335 Y168.456
G01 X220.435 Y167.702
G01 X222.528 Y166.810
G01 X222.814 Y166.677
G01 X222.958 Y169.595
G01 X222.891 Y172.588
G01 X222.814 Y173.677
G01 X222.942 Y177.307
G01 X222.814 Y180.677
G01 X222.968 Y185.242
G01 X222.814 Y189.077
G01 X222.978 Y194.981
G01 X222.814 Y198.877
G01 X222.908 Y206.526
G01 X222.814 Y208.677
G01 X222.877 Y218.492
G01 X222.814 Y219.877
G01 X222.814 Y232.477
G01 X222.814 Y247.877
G01 X222.814 Y257.677
G01 X215.777 Y253.746
G01 X213.115 Y252.077
G01 X206.900 Y248.653
G01 X203.416 Y246.477
G01 X197.906 Y243.483
G01 X193.716 Y240.877
G01 X188.795 Y238.235
G01 X184.142 Y235.360
G01 X184.017 Y235.277
G01 X179.573 Y232.869
G01 X175.530 Y230.377
G01 X171.408 Y228.157
G01 X167.468 Y225.754
G01 X167.042 Y225.477
G01 X163.152 Y223.391
G01 X159.410 Y221.130
G01 X158.555 Y220.577
G01 X154.804 Y218.570
G01 X151.173 Y216.390
G01 X150.068 Y215.677
G01 X146.397 Y213.637
G01 X144.006 Y212.177
G01 X151.081 Y208.249
G01 X153.706 Y206.577
G01 X159.326 Y203.497
G01 X162.193 Y201.677
G01 X166.730 Y199.207
G01 X169.467 Y197.477
G01 X173.192 Y195.511
G01 X176.672 Y193.325
G01 X176.742 Y193.277
G01 X179.808 Y191.652
G01 X182.682 Y189.859
G01 X182.804 Y189.777
G01 X185.411 Y188.427
G01 X187.868 Y186.945
G01 X188.866 Y186.277
G01 X191.110 Y185.138
G01 X193.240 Y183.893
G01 X194.928 Y182.777
G01 X196.906 Y181.787
G01 X198.799 Y180.708
G01 X200.603 Y179.545
G01 X200.991 Y179.277
G01 X202.801 Y178.378
G01 X204.549 Y177.397
G01 X206.232 Y176.338
G01 X207.053 Y175.777
G01 X208.797 Y174.913
G01 X210.497 Y173.965
G01 X212.149 Y172.934
G01 X213.115 Y172.277
G01 X214.900 Y171.392
G01 X216.652 Y170.409
G01 X218.368 Y169.329
G01 X219.177 Y168.777
G01 X221.054 Y167.757
G01 X222.814 Y166.677
G01 X223.563 Y170.138
G01 X224.030 Y173.570
G01 X224.984 Y178.076
G01 X225.489 Y181.843
G01 X226.711 Y187.859
G01 X227.190 Y191.494
G01 X228.756 Y199.622
G01 X229.135 Y202.524
G01 X231.140 Y213.518
G01 X231.323 Y214.932
G01 X233.754 Y228.720
G01 X236.672 Y245.264
G01 X238.616 Y256.294
G01 X231.117 Y253.740
G01 X226.776 Y251.985
G01 X220.157 Y249.725
G01 X216.252 Y248.154
G01 X210.310 Y246.156
G01 X205.727 Y244.324
G01 X200.344 Y242.538
G01 X195.203 Y240.493
G01 X190.261 Y238.871
G01 X185.491 Y237.010
G01 X184.678 Y236.662
G01 X180.059 Y235.157
G01 X175.575 Y233.435
G01 X174.154 Y232.832
G01 X169.738 Y231.399
G01 X165.425 Y229.758
G01 X163.629 Y229.001
G01 X159.295 Y227.597
G01 X155.035 Y225.982
G01 X153.104 Y225.170
G01 X148.773 Y223.657
G01 X146.527 Y222.776
G01 X154.721 Y216.018
G01 X156.179 Y214.677
G01 X162.545 Y209.508
G01 X164.758 Y207.478
G01 X169.743 Y203.486
G01 X172.266 Y201.179
G01 X176.224 Y198.036
G01 X178.700 Y195.779
G01 X181.899 Y193.316
G01 X184.828 Y190.681
G01 X185.135 Y190.380
G01 X187.715 Y188.392
G01 X190.088 Y186.277
G01 X190.498 Y185.880
G01 X192.656 Y184.257
G01 X194.656 Y182.537
G01 X195.860 Y181.381
G01 X197.689 Y180.033
G01 X199.401 Y178.608
G01 X200.992 Y177.113
G01 X201.222 Y176.881
G01 X202.816 Y175.723
G01 X204.324 Y174.498
G01 X205.743 Y173.213
G01 X206.584 Y172.382
G01 X208.040 Y171.332
G01 X209.432 Y170.217
G01 X210.759 Y169.042
G01 X211.947 Y167.882
G01 X213.366 Y166.860
G01 X214.737 Y165.766
G01 X216.056 Y164.602
G01 X217.309 Y163.383
G01 X218.770 Y162.283
G01 X220.189 Y161.096
G01 X221.559 Y159.822
G01 X221.599 Y159.783
G01 X222.895 Y162.915
G01 X223.954 Y166.218
G01 X223.993 Y166.361
G01 X225.716 Y170.618
G01 X226.866 Y174.254
G01 X229.180 Y180.162
G01 X230.218 Y183.463
G01 X233.334 Y191.704
G01 X234.048 Y193.988
G01 X238.232 Y205.424
G01 X238.358 Y205.828
G01 X243.625 Y220.299
G01 X249.850 Y237.402
G01 X255.117 Y251.873
G01 X247.338 Y250.665
G01 X242.708 Y249.685
G01 X235.771 Y248.599
G01 X231.679 Y247.740
G01 X225.389 Y246.781
G01 X220.649 Y245.795
G01 X214.890 Y244.937
G01 X209.619 Y243.850
G01 X204.275 Y243.067
G01 X199.056 Y242.014
G01 X198.589 Y241.906
G01 X193.542 Y241.175
G01 X188.588 Y240.197
G01 X187.559 Y239.961
G01 X182.691 Y239.261
G01 X177.886 Y238.325
G01 X176.529 Y238.016
G01 X171.719 Y237.326
G01 X166.945 Y236.400
G01 X165.499 Y236.071
G01 X160.656 Y235.270
G01 X158.606 Y234.855
G01 X166.180 Y225.890
G01 X166.705 Y225.203
G01 X172.693 Y218.205
G01 X173.904 Y216.624
G01 X178.673 Y211.110
G01 X180.203 Y209.116
G01 X184.040 Y204.806
G01 X186.503 Y201.609
G01 X189.557 Y198.206
G01 X191.902 Y195.174
G01 X194.388 Y192.402
G01 X196.402 Y189.812
G01 X198.497 Y187.528
G01 X200.384 Y185.162
G01 X200.901 Y184.450
G01 X202.679 Y182.551
G01 X204.297 Y180.588
G01 X205.401 Y179.087
G01 X206.934 Y177.476
G01 X208.348 Y175.809
G01 X209.640 Y174.097
G01 X209.900 Y173.725
G01 X211.266 Y172.305
G01 X212.540 Y170.832
G01 X213.722 Y169.314
G01 X214.400 Y168.363
G01 X215.676 Y167.041
G01 X216.882 Y165.662
G01 X218.014 Y164.230
G01 X218.899 Y163.000
G01 X220.115 Y161.643
G01 X221.267 Y160.221
G01 X221.599 Y159.783
G01 X224.072 Y163.735
G01 X225.799 Y167.058
G01 X229.310 Y172.863
G01 X230.699 Y175.545
G01 X235.661 Y184.010
G01 X236.299 Y185.244
G01 X243.299 Y197.369
G01 X251.699 Y211.918
G01 X262.199 Y230.104
G01 X270.599 Y244.654
G01 X262.817 Y244.813
G01 X257.999 Y244.654
G01 X251.015 Y244.829
G01 X245.399 Y244.654
G01 X239.050 Y244.796
G01 X234.199 Y244.654
G01 X228.318 Y244.801
G01 X222.999 Y244.654
G01 X217.472 Y244.803
G01 X212.010 Y244.665
G01 X211.799 Y244.654
G01 X206.512 Y244.803
G01 X201.264 Y244.687
G01 X200.599 Y244.654
G01 X195.438 Y244.802
G01 X190.289 Y244.697
G01 X189.399 Y244.654
G01 X184.248 Y244.802
G01 X179.081 Y244.697
G01 X178.199 Y244.654
G01 X172.939 Y244.803
G01 X167.636 Y244.686
G01 X166.999 Y244.654
G01 X165.599 Y244.654
G01 X172.599 Y232.529
G01 X178.716 Y221.972
G01 X178.899 Y221.617
G01 X183.652 Y213.552
G01 X184.499 Y211.918
G01 X188.208 Y205.721
G01 X189.399 Y203.431
G01 X192.323 Y198.603
G01 X193.599 Y196.156
G01 X195.952 Y192.406
G01 X197.799 Y188.882
G01 X199.660 Y185.929
G01 X201.251 Y182.919
G01 X201.299 Y182.819
G01 X202.832 Y180.466
G01 X204.163 Y178.069
G01 X204.799 Y176.757
G01 X206.069 Y174.867
G01 X207.190 Y172.944
G01 X208.162 Y170.997
G01 X208.299 Y170.695
G01 X209.345 Y169.101
G01 X210.279 Y167.479
G01 X211.099 Y165.845
G01 X212.033 Y164.437
G01 X212.881 Y162.999
G01 X213.641 Y161.539
G01 X213.899 Y160.996
G01 X214.768 Y159.692
G01 X215.567 Y158.354
G01 X216.294 Y156.986
G01 X216.699 Y156.146
G01 X217.492 Y154.834
G01 X218.099 Y153.721
G01 X221.241 Y157.203
G01 X223.498 Y160.156
G01 X228.280 Y165.672
G01 X229.798 Y167.663
G01 X237.143 Y176.325
G01 X237.897 Y177.315
G01 X247.796 Y189.112
G01 X260.394 Y204.127
G01 X275.693 Y222.359
G01 X285.592 Y234.156
G01 X278.020 Y235.650
G01 X273.183 Y236.344
G01 X266.336 Y237.724
G01 X260.774 Y238.532
G01 X254.493 Y239.778
G01 X249.745 Y240.476
G01 X243.877 Y241.655
G01 X238.715 Y242.421
G01 X233.155 Y243.547
G01 X227.685 Y244.366
G01 X222.325 Y245.457
G01 X216.948 Y246.274
G01 X216.655 Y246.311
G01 X211.386 Y247.385
G01 X206.075 Y248.199
G01 X205.625 Y248.256
G01 X200.336 Y249.334
G01 X194.979 Y250.152
G01 X194.595 Y250.201
G01 X189.175 Y251.302
G01 X183.658 Y252.134
G01 X183.566 Y252.146
G01 X182.187 Y252.389
G01 X187.454 Y237.917
G01 X191.977 Y225.611
G01 X192.242 Y224.762
G01 X195.707 Y215.407
G01 X196.073 Y214.237
G01 X198.807 Y206.994
G01 X199.425 Y205.028
G01 X201.623 Y199.470
G01 X202.776 Y195.819
G01 X204.496 Y191.554
G01 X205.649 Y187.926
G01 X207.014 Y184.563
G01 X208.044 Y181.348
G01 X209.181 Y178.659
G01 X210.100 Y175.963
G01 X210.438 Y174.770
G01 X211.388 Y172.611
G01 X212.178 Y170.445
G01 X212.809 Y168.283
G01 X212.832 Y168.192
G01 X213.605 Y166.387
G01 X214.258 Y164.575
G01 X214.747 Y162.930
G01 X215.436 Y161.347
G01 X216.030 Y159.752
G01 X216.530 Y158.152
G01 X216.662 Y157.668
G01 X217.267 Y156.201
G01 X217.792 Y154.718
G01 X218.099 Y153.721
G01 X224.498 Y158.996
G01 X225.606 Y160.020
G01 X236.331 Y169.019
G01 X250.273 Y180.718
G01 X269.577 Y196.916
G01 X295.316 Y218.514
G01 X298.534 Y221.214
G01 X291.428 Y223.966
G01 X286.693 Y225.523
G01 X280.221 Y228.056
G01 X274.853 Y229.833
G01 X268.888 Y232.187
G01 X263.013 Y234.142
G01 X257.430 Y236.359
G01 X251.807 Y238.258
G01 X251.173 Y238.451
G01 X245.847 Y240.574
G01 X240.460 Y242.414
G01 X239.333 Y242.761
G01 X234.138 Y244.835
G01 X228.858 Y246.648
G01 X227.493 Y247.070
G01 X222.301 Y249.144
G01 X216.996 Y250.964
G01 X215.653 Y251.380
G01 X210.335 Y253.500
G01 X204.871 Y255.364
G01 X203.813 Y255.689
G01 X198.234 Y257.865
G01 X193.288 Y259.520
G01 X196.448 Y241.596
G01 X199.123 Y226.430
G01 X201.311 Y214.022
G01 X203.085 Y204.314
G01 X203.255 Y202.992
G01 X204.637 Y195.808
G01 X204.957 Y193.341
G01 X206.033 Y187.984
G01 X206.416 Y185.068
G01 X207.256 Y180.998
G01 X207.631 Y178.175
G01 X208.336 Y175.069
G01 X208.780 Y171.991
G01 X208.847 Y171.281
G01 X209.391 Y168.877
G01 X209.747 Y166.498
G01 X209.819 Y165.766
G01 X210.285 Y163.851
G01 X210.612 Y161.955
G01 X210.792 Y160.251
G01 X211.191 Y158.704
G01 X211.489 Y157.167
G01 X211.690 Y155.648
G01 X211.764 Y154.736
G01 X212.112 Y153.438
G01 X212.385 Y152.142
G01 X212.585 Y150.852
G01 X212.714 Y149.572
G01 X212.737 Y149.221
G01 X223.649 Y155.521
G01 X241.835 Y166.021
G01 X269.721 Y182.121
G01 X309.731 Y205.221
G01 X303.283 Y209.124
G01 X298.820 Y211.521
G01 X292.913 Y215.121
G01 X287.908 Y217.821
G01 X282.430 Y221.178
G01 X276.996 Y224.121
G01 X271.834 Y227.297
G01 X266.573 Y230.172
G01 X266.084 Y230.421
G01 X261.125 Y233.480
G01 X256.050 Y236.271
G01 X255.172 Y236.721
G01 X250.302 Y239.728
G01 X245.295 Y242.490
G01 X244.260 Y243.021
G01 X239.365 Y246.043
G01 X234.303 Y248.831
G01 X233.348 Y249.321
G01 X228.310 Y252.426
G01 X223.070 Y255.297
G01 X222.436 Y255.621
G01 X217.127 Y258.839
G01 X212.737 Y261.221
G01 X212.737 Y241.621
G01 X212.737 Y224.821
G01 X212.737 Y210.821
G01 X212.781 Y200.572
G01 X212.737 Y199.621
G01 X212.839 Y192.061
G01 X212.737 Y189.821
G01 X212.861 Y184.211
G01 X212.737 Y181.421
G01 X212.855 Y177.187
G01 X212.737 Y174.421
G01 X212.892 Y171.210
G01 X212.790 Y168.072
G01 X212.737 Y167.421
G01 X212.857 Y164.964
G01 X212.794 Y162.565
G01 X212.737 Y161.821
G01 X212.866 Y159.884
G01 X212.861 Y157.989
G01 X212.737 Y156.221
G01 X212.864 Y154.675
G01 X212.896 Y153.156
G01 X212.836 Y151.670
G01 X212.737 Y150.621
G01 X212.739 Y149.292
G01 X212.737 Y149.221
G01 X242.995 Y160.234
G01 X315.351 Y186.570
G01 X317.982 Y187.528
G01 X312.392 Y192.421
G01 X308.330 Y195.627
G01 X303.184 Y200.157
G01 X298.678 Y203.726
G01 X293.876 Y207.972
G01 X289.026 Y211.825
G01 X284.470 Y215.865
G01 X279.759 Y219.633
G01 X279.374 Y219.924
G01 X274.966 Y223.840
G01 X270.390 Y227.516
G01 X269.721 Y228.023
G01 X265.363 Y231.898
G01 X260.816 Y235.556
G01 X260.069 Y236.122
G01 X255.659 Y240.040
G01 X251.032 Y243.755
G01 X250.417 Y244.222
G01 X245.853 Y248.268
G01 X241.037 Y252.115
G01 X240.765 Y252.321
G01 X235.944 Y256.582
G01 X231.113 Y260.420
G01 X226.823 Y264.019
G01 X222.447 Y239.202
G01 X219.043 Y219.900
G01 X216.369 Y204.734
G01 X214.181 Y192.325
G01 X212.717 Y183.424
G01 X212.236 Y181.296
G01 X211.279 Y175.256
G01 X210.778 Y173.023
G01 X210.159 Y168.800
G01 X209.562 Y166.130
G01 X209.144 Y163.113
G01 X208.590 Y160.615
G01 X208.351 Y158.443
G01 X207.946 Y156.348
G01 X207.617 Y155.100
G01 X207.441 Y153.522
G01 X207.154 Y152.000
G01 X206.888 Y150.963
G01 X206.781 Y149.758
G01 X206.597 Y148.591
G01 X206.341 Y147.466
G01 X206.159 Y146.827
G01 X211.704 Y147.939
G01 X214.431 Y148.286
G01 X226.616 Y150.446
G01 X226.840 Y150.474
G01 X246.142 Y153.877
G01 X275.095 Y158.983
G01 X319.215 Y166.762
G01 X323.351 Y167.491
G01 X318.758 Y173.206
G01 X315.252 Y177.144
G01 X311.011 Y182.449
G01 X307.153 Y186.796
G01 X303.181 Y191.786
G01 X299.054 Y196.448
G01 X295.268 Y201.216
G01 X291.279 Y205.751
G01 X290.954 Y206.100
G01 X287.273 Y210.744
G01 X283.380 Y215.186
G01 X282.855 Y215.752
G01 X279.196 Y220.370
G01 X275.307 Y224.810
G01 X274.756 Y225.404
G01 X271.035 Y230.096
G01 X267.056 Y234.626
G01 X266.657 Y235.057
G01 X262.789 Y239.923
G01 X258.626 Y244.636
G01 X258.558 Y244.709
G01 X254.455 Y249.852
G01 X250.459 Y254.361
G01 X246.859 Y258.651
G01 X237.761 Y233.655
G01 X230.579 Y213.921
G01 X224.833 Y198.134
G01 X220.045 Y184.980
G01 X220.045 Y184.979
G01 X217.082 Y176.527
